public/LUTS/Darken/Darken_01.cube
TITLE "Generated by Resolve"
LUT_3D_SIZE 9
0 0 0
0.105318 0 0
0.232868 0 0
0.360678 0 0
0.488457 0 0
0.616281 0 0
0.743816 0 0
0.871641 0 0
0.99913 0 0
0 0.105516 0
0.105745 0.105699 0
0.23328 0.105516 0
0.361105 0.105592 0
0.488899 0.105684 0
0.616464 0.105501 0
0.744244 0.105577 0
0.872068 0.105653 0
0.999557 0.105821 0
0 0.233249 0
0.105837 0.233433 0
0.233387 0.233265 0
0.361196 0.233326 0
0.488991 0.233417 0
0.616556 0.233234 0
0.744335 0.23331 0
0.87216 0.233387 0
0.999573 0.233478 0
0 0.360998 0
0.105776 0.361105 0
0.233417 0.361013 0
0.361227 0.361089 0
0.489021 0.361181 0
0.616587 0.360998 0
0.744381 0.361074 0
0.872206 0.361151 0
0.99942 0.361059 0
0 0.488731 0
0.10573 0.488655 0
0.233539 0.488746 0
0.361349 0.488823 0
0.489006 0.488762 0
0.616709 0.488716 0
0.744488 0.488807 0
0.872282 0.488838 0
0.999542 0.488777 0
0 0.616434 0
0.105745 0.616434 0
0.233539 0.61651 0
0.361349 0.616587 0
0.488899 0.616419 0
0.616709 0.61648 0
0.744503 0.616571 0
0.872145 0.616464 0
0.999542 0.616556 0
0 0.744015 0
0.105882 0.744137 0
0.233692 0.744228 0
0.361501 0.744305 0
0.489036 0.744121 0
0.616861 0.744198 0
0.74464 0.744289 0
0.872221 0.744106 0
0.999695 0.744274 0
0 0.871733 0
0.105867 0.871916 0
0.233677 0.872007 0
0.361242 0.871839 0
0.489021 0.8719 0
0.616846 0.871977 0
0.744625 0.872068 0
0.872206 0.871885 0
0.99968 0.872038 0
0 0.999435 0
0.106035 0.999619 0
0.233845 0.99971 0
0.361395 0.999527 0
0.489189 0.999603 0
0.617014 0.99968 0
0.744762 0.999725 0
0.872374 0.999588 0
0.999847 0.999756 0
0 0 0.105623
0.105348 0 0.105806
0.232898 0 0.105638
0.360708 0 0.105715
0.488502 0 0.105791
0.616114 0 0.105669
0.743847 0 0.105699
0.871687 0 0.105776
0.999039 0 0.105821
0 0.105547 0.10605
0.105653 0.105608 0.106111
0.233326 0.105562 0.106065
0.361135 0.105638 0.106142
0.48893 0.105715 0.106218
0.616495 0.105531 0.106035
0.744274 0.105608 0.106126
0.872114 0.105684 0.106203
0.999344 0.105608 0.106111
0 0.23328 0.106142
0.105608 0.233219 0.106081
0.233417 0.233295 0.106157
0.361227 0.233371 0.106233
0.489021 0.233448 0.10631
0.616587 0.233265 0.106126
0.744366 0.233356 0.106218
0.872206 0.233433 0.106294
0.99942 0.233341 0.106203
0 0.361044 0.106188
0.105653 0.360967 0.106111
0.233448 0.361044 0.106188
0.361257 0.361135 0.106264
0.488792 0.360952 0.106096
0.616617 0.361028 0.106172
0.744411 0.361105 0.106249
0.872236 0.361181 0.106325
0.999466 0.361089 0.106233
0 0.488762 0.106294
0.10576 0.488701 0.106233
0.23357 0.488777 0.10631
0.361379 0.488853 0.106386
0.488914 0.48867 0.106203
0.616739 0.488746 0.106279
0.744533 0.488838 0.106371
0.872251 0.488807 0.10634
0.999573 0.488823 0.106355
0 0.616419 0.106188
0.105776 0.616464 0.106233
0.23357 0.616541 0.10631
0.361364 0.616602 0.106371
0.48893 0.616449 0.106218
0.616754 0.616526 0.106294
0.744533 0.616602 0.106386
0.872099 0.616419 0.106188
0.999588 0.616587 0.106355
0 0.743984 0.106188
0.105913 0.744183 0.106386
0.233722 0.744259 0.106462
0.361364 0.744167 0.106371
0.489067 0.744152 0.106355
0.616892 0.744228 0.106432
0.74461 0.744244 0.106447
0.872251 0.744137 0.10634
0.999725 0.744305 0.106508
0 0.871763 0.106188
0.105913 0.871962 0.106371
0.233707 0.872038 0.106447
0.361257 0.871855 0.106264
0.489052 0.871931 0.10634
0.616876 0.872007 0.106432
0.744457 0.871885 0.106294
0.872236 0.871916 0.106325
0.99971 0.872084 0.106493
0 0.999466 0.106355
0.106081 0.999664 0.106538
0.233875 0.999741 0.106615
0.36144 0.999557 0.106432
0.489219 0.999634 0.106523
0.617044 0.999725 0.1066
0.744579 0.999542 0.106416
0.872404 0.999619 0.106493
0.999893 0.999786 0.106661
0 0 0.234058
0.105272 0 0.234195
0.232868 0 0.234073
0.360678 0 0.23415
0.488487 0 0.234226
0.616053 0 0.234043
0.743832 0 0.234134
0.871656 0 0.234211
0.998962 0 0.234195
0 0.105531 0.234485
0.105562 0.105516 0.234485
0.233295 0.105531 0.234501
0.36112 0.105608 0.234577
0.488807 0.105592 0.234562
0.61648 0.105516 0.23447
0.744259 0.105592 0.234562
0.872084 0.105669 0.234638
0.999313 0.105577 0.234546
0 0.233265 0.234577
0.105592 0.233188 0.234501
0.233387 0.233265 0.234592
0.361212 0.233356 0.234668
0.488762 0.233188 0.234516
0.616571 0.233249 0.234562
0.74435 0.233326 0.234653
0.872038 0.233265 0.234577
0.999405 0.23331 0.234638
0 0.360861 0.234455
0.105623 0.360952 0.234546
0.233433 0.361028 0.234623
0.361242 0.361105 0.234699
0.488777 0.360937 0.234531
0.616602 0.361013 0.234607
0.744381 0.361089 0.234684
0.871962 0.360906 0.234501
0.999435 0.361074 0.234668
0 0.488487 0.23447
0.105745 0.48867 0.234653
0.233539 0.488762 0.234745
0.361364 0.488838 0.234821
0.488899 0.488655 0.234638
0.616724 0.488731 0.234714
0.744503 0.488807 0.234806
0.872068 0.488624 0.234623
0.999557 0.488807 0.234791
0 0.616251 0.234485
0.10576 0.616449 0.234668
0.233555 0.616526 0.234745
0.361105 0.616342 0.234577
0.488899 0.616419 0.234653
0.616724 0.616495 0.23473
0.744518 0.616587 0.234806
0.872084 0.616403 0.234623
0.999573 0.616571 0.234791
0 0.743969 0.234623
0.105898 0.744152 0.234821
0.233692 0.744244 0.234897
0.361257 0.74406 0.234714
0.489052 0.744137 0.234791
0.616876 0.744213 0.234867
0.744518 0.744167 0.234821
0.872236 0.744121 0.234775
0.99971 0.744289 0.234943
0 0.871748 0.234607
0.105882 0.871931 0.234806
0.233631 0.871962 0.234821
0.361242 0.871839 0.234699
0.489036 0.871916 0.234775
0.616861 0.871992 0.234852
0.744396 0.871824 0.234684
0.872221 0.871885 0.23476
0.999695 0.872068 0.234928
0 0.999451 0.234791
0.10605 0.999634 0.234974
0.233661 0.999527 0.234852
0.36141 0.999542 0.234867
0.489204 0.999619 0.234958
0.616922 0.999588 0.234928
0.744564 0.999527 0.234852
0.872389 0.999603 0.234928
0.999863 0.999771 0.235096
0 0 0.362249
0.105074 0 0.362173
0.232868 0 0.362264
0.360678 0 0.362341
0.488457 0 0.362402
0.616037 0 0.362234
0.743832 0 0.362325
0.871656 0 0.362402
0.998871 0 0.36231
0 0.105531 0.362676
0.105501 0.105455 0.362615
0.233295 0.105531 0.362692
0.361105 0.105608 0.362768
0.488655 0.10544 0.362585
0.61648 0.105516 0.362661
0.744259 0.105592 0.362753
0.872023 0.105608 0.362753
0.999313 0.105577 0.362737
0 0.233173 0.362692
0.105592 0.233188 0.362707
0.233387 0.233265 0.362783
0.361196 0.233341 0.36286
0.488746 0.233173 0.362676
0.616571 0.233249 0.362753
0.74435 0.233326 0.362844
0.871977 0.233204 0.362707
0.999405 0.23331 0.362829
0 0.3608 0.362585
0.105623 0.360952 0.362737
0.233417 0.361028 0.362814
0.36112 0.360983 0.362768
0.488777 0.360922 0.362722
0.616602 0.360998 0.362799
0.744381 0.361089 0.362875
0.871962 0.360906 0.362692
0.999435 0.361074 0.36286
0 0.488487 0.362661
0.105745 0.48867 0.36286
0.233539 0.488746 0.362936
0.361105 0.488579 0.362753
0.488899 0.488655 0.362829
0.616724 0.488731 0.362905
0.744335 0.48864 0.362814
0.872068 0.488624 0.362814
0.999557 0.488792 0.362982
0 0.616251 0.362676
0.105745 0.616434 0.36286
0.233555 0.616526 0.362936
0.361105 0.616342 0.362768
0.488899 0.616419 0.362844
0.616724 0.616495 0.362921
0.744259 0.616327 0.362737
0.872084 0.616403 0.362814
0.999557 0.616571 0.362982
0 0.743969 0.362814
0.105898 0.744152 0.363012
0.233692 0.744244 0.363088
0.361257 0.74406 0.362905
0.489052 0.744137 0.362982
0.616876 0.744213 0.363058
0.744396 0.744045 0.36289
0.872221 0.744106 0.362966
0.99971 0.744289 0.363134
0 0.871748 0.362814
0.105882 0.871931 0.362997
0.233417 0.871763 0.362814
0.361242 0.871839 0.36289
0.489036 0.871916 0.362982
0.616831 0.871962 0.363027
0.744381 0.871809 0.362875
0.872221 0.871885 0.362951
0.999695 0.872053 0.363119
0 0.999451 0.362982
0.10605 0.999634 0.363165
0.2336 0.999466 0.362982
0.36141 0.999542 0.363058
0.489204 0.999619 0.363149
0.616861 0.999527 0.363058
0.744549 0.999527 0.363043
0.872389 0.999588 0.363119
0.999786 0.999695 0.36321
0 0 0.490684
0.105043 0 0.490608
0.232853 0 0.4907
0.360662 0 0.490761
0.488197 0 0.490593
0.616022 0 0.490669
0.743816 0 0.490745
0.871382 0 0.490578
0.998856 0 0.49073
0 0.105241 0.490852
0.10547 0.105425 0.491035
0.23328 0.105516 0.491127
0.361089 0.105592 0.491188
0.488624 0.105409 0.49102
0.616449 0.105486 0.491096
0.744244 0.105577 0.491173
0.871809 0.105394 0.491005
0.999283 0.105562 0.491157
0 0.232975 0.490944
0.105562 0.233173 0.491127
0.233371 0.233249 0.491218
0.361135 0.23328 0.491234
0.488716 0.233143 0.491112
0.616541 0.233234 0.491188
0.744335 0.23331 0.491264
0.8719 0.233127 0.491096
0.999374 0.233295 0.491249
0 0.360739 0.490974
0.105608 0.360922 0.491173
0.233402 0.361013 0.491249
0.360967 0.36083 0.491066
0.488762 0.360906 0.491142
0.616571 0.360983 0.491218
0.744274 0.360967 0.491218
0.871931 0.360891 0.491127
0.99942 0.361044 0.491295
0 0.488472 0.491096
0.105715 0.488655 0.491279
0.233509 0.488716 0.491356
0.361074 0.488548 0.491188
0.488869 0.48864 0.491264
0.616693 0.488716 0.491341
0.744244 0.488548 0.491188
0.872053 0.488609 0.491249
0.999527 0.488777 0.491402
0 0.616236 0.491112
0.10573 0.616419 0.491295
0.233371 0.616342 0.491218
0.361089 0.616312 0.491188
0.488884 0.616403 0.491279
0.616709 0.61648 0.491356
0.744228 0.616297 0.491173
0.872068 0.616373 0.491249
0.999542 0.616541 0.491417
0 0.743954 0.491249
0.105867 0.744137 0.491432
0.233417 0.743954 0.491264
0.361227 0.74403 0.491341
0.489021 0.744121 0.491417
0.616648 0.743984 0.491295
0.744381 0.744015 0.491325
0.872206 0.744091 0.491402
0.99968 0.744259 0.491554
0 0.871733 0.491234
0.105867 0.871916 0.491417
0.233402 0.871733 0.491249
0.361227 0.871809 0.491325
0.489021 0.8719 0.491402
0.616571 0.871717 0.491218
0.744366 0.871794 0.49131
0.87219 0.87187 0.491386
0.999664 0.872038 0.491539
0 0.999435 0.491402
0.10602 0.999603 0.491585
0.23357 0.999435 0.491417
0.361395 0.999512 0.491493
0.489189 0.999603 0.491569
0.616754 0.99942 0.491402
0.744533 0.999496 0.491478
0.872358 0.999573 0.491554
0.999588 0.999481 0.491463
0 0 0.618692
0.105043 0 0.618799
0.232837 0 0.618875
0.360571 0 0.618875
0.488197 0 0.618784
0.616022 0 0.61886
0.743801 0 0.618936
0.871382 0 0.618753
0.998856 0 0.618921
0 0.105241 0.619043
0.10547 0.105425 0.619226
0.23328 0.105516 0.619318
0.360861 0.105364 0.619165
0.488624 0.105409 0.619211
0.616449 0.105486 0.619287
0.744244 0.105577 0.619379
0.871809 0.105394 0.619196
0.999283 0.105547 0.619348
0 0.232975 0.619135
0.105562 0.233158 0.619318
0.233371 0.233249 0.61941
0.360922 0.233066 0.619226
0.488716 0.233143 0.619303
0.616541 0.233219 0.619379
0.744076 0.233051 0.619211
0.8719 0.233127 0.619287
0.999374 0.233295 0.61944
0 0.360739 0.619165
0.105608 0.360922 0.619364
0.233402 0.361013 0.61944
0.360952 0.36083 0.619257
0.488762 0.360906 0.619333
0.616571 0.360983 0.61941
0.744106 0.360815 0.619242
0.871931 0.360876 0.619318
0.999405 0.361044 0.619486
0 0.488457 0.619287
0.105715 0.488655 0.619471
0.233448 0.488655 0.619486
0.361074 0.488548 0.619379
0.488869 0.488624 0.619455
0.616693 0.488701 0.619532
0.744228 0.488533 0.619364
0.872053 0.488609 0.61944
0.999527 0.488777 0.619593
0 0.616236 0.619303
0.10573 0.616419 0.619486
0.23328 0.616236 0.619303
0.361089 0.616312 0.619379
0.488884 0.616403 0.619471
0.616571 0.616342 0.61941
0.744228 0.616297 0.619364
0.872068 0.616373 0.61944
0.999496 0.61651 0.619577
0 0.743938 0.61944
0.105821 0.744091 0.619577
0.233417 0.743954 0.619455
0.361227 0.74403 0.619532
0.489021 0.744121 0.619608
0.616587 0.743938 0.619425
0.744381 0.744015 0.619516
0.872206 0.744091 0.619593
0.999512 0.744076 0.619577
0 0.871733 0.619425
0.105669 0.871717 0.619425
0.233402 0.871733 0.61944
0.361212 0.871809 0.619516
0.489006 0.871885 0.619593
0.616571 0.871717 0.619425
0.744366 0.871794 0.619501
0.87219 0.87187 0.619577
0.999405 0.871778 0.619486
0 0.999435 0.619593
0.105776 0.999359 0.619532
0.23357 0.999435 0.619608
0.361379 0.999512 0.619684
0.488945 0.999359 0.619532
0.616754 0.99942 0.619593
0.744533 0.999496 0.619669
0.872358 0.999573 0.619745
0.999588 0.999481 0.619654
0 0 0.747051
0.105028 0 0.747234
0.232822 0 0.747311
0.360494 0 0.74725
0.488182 0 0.747219
0.615991 0 0.747295
0.743725 0 0.747326
0.871351 0 0.747189
0.99884 0 0.747356
0 0.105226 0.747478
0.105455 0.105409 0.747662
0.233249 0.105486 0.747753
0.360815 0.105303 0.74757
0.488609 0.105394 0.747646
0.616419 0.10547 0.747723
0.744015 0.105348 0.747616
0.871778 0.105364 0.747616
0.999268 0.105531 0.747784
0 0.232959 0.74757
0.105547 0.233143 0.747753
0.233234 0.233112 0.747723
0.360906 0.233051 0.747662
0.488701 0.233127 0.747738
0.616526 0.233204 0.747814
0.744045 0.233036 0.747646
0.87187 0.233097 0.747707
0.999359 0.233265 0.747875
0 0.360708 0.7476
0.105577 0.360906 0.747799
0.233127 0.360723 0.747616
0.360937 0.3608 0.747692
0.488731 0.360891 0.747768
0.616556 0.360952 0.747845
0.744091 0.360784 0.747677
0.871916 0.360861 0.747753
0.99939 0.361028 0.747921
0 0.488441 0.747723
0.105699 0.488624 0.747906
0.233249 0.488457 0.747738
0.361059 0.488533 0.747814
0.488853 0.488609 0.74789
0.616419 0.488426 0.747707
0.744198 0.488518 0.747799
0.872038 0.488594 0.747875
0.999512 0.488746 0.748028
0 0.616205 0.747723
0.105715 0.616403 0.747921
0.233249 0.61622 0.747738
0.361059 0.616297 0.747814
0.488869 0.616373 0.747906
0.616419 0.61619 0.747723
0.744213 0.616281 0.747799
0.872038 0.616358 0.747875
0.99942 0.616419 0.747951
0 0.743923 0.747875
0.105745 0.743999 0.747951
0.233402 0.743938 0.74789
0.361212 0.744015 0.747967
0.488991 0.744076 0.748028
0.616571 0.743908 0.74786
0.74435 0.743999 0.747951
0.87219 0.744076 0.748028
0.999405 0.743984 0.747936
0 0.871702 0.74786
0.105577 0.871626 0.747799
0.233387 0.871717 0.747875
0.361196 0.871794 0.747951
0.488838 0.871717 0.747875
0.616556 0.871687 0.747845
0.74435 0.871778 0.747936
0.872099 0.871778 0.747936
0.99939 0.871763 0.747921
0 0.999329 0.747951
0.105745 0.999344 0.747967
0.233555 0.99942 0.748043
0.361364 0.999496 0.748119
0.488899 0.999313 0.747951
0.616724 0.99939 0.748012
0.744518 0.999481 0.748104
0.872129 0.999344 0.747967
0.999557 0.999466 0.748089
0 0 0.875242
0.105028 0 0.875425
0.232822 0 0.875502
0.360388 0 0.875334
0.488167 0 0.87541
0.615991 0 0.875486
0.743526 0 0.875319
0.871351 0 0.87538
0.99884 0 0.875547
0 0.105226 0.875669
0.105455 0.105409 0.875853
0.233219 0.105455 0.875898
0.360815 0.105303 0.875761
0.488609 0.105394 0.875837
0.616419 0.10547 0.875914
0.743954 0.105287 0.875746
0.871778 0.105364 0.875807
0.999268 0.105531 0.875975
0 0.232959 0.875761
0.105547 0.233143 0.875944
0.233158 0.233036 0.875853
0.360906 0.233036 0.875853
0.488701 0.233127 0.875929
0.616434 0.233112 0.875914
0.744045 0.233021 0.875837
0.87187 0.233097 0.875898
0.999359 0.233265 0.876066
0 0.360708 0.875792
0.105577 0.360906 0.87599
0.233127 0.360723 0.875807
0.360937 0.3608 0.875883
0.488731 0.360891 0.875975
0.616327 0.360723 0.875807
0.744091 0.360784 0.875868
0.871916 0.360861 0.875944
0.999252 0.360891 0.875975
0 0.488441 0.875914
0.105547 0.488472 0.875959
0.233234 0.488441 0.875929
0.361059 0.488533 0.876005
0.488853 0.488609 0.876081
0.616419 0.488426 0.875898
0.744198 0.488518 0.87599
0.872023 0.488579 0.876051
0.999252 0.488487 0.875975
0 0.616205 0.875929
0.105455 0.616144 0.875853
0.233249 0.61622 0.875929
0.361059 0.616297 0.876005
0.488853 0.616373 0.876097
0.616419 0.61619 0.875914
0.744213 0.616281 0.87599
0.872038 0.616358 0.876066
0.999252 0.616266 0.875975
0 0.743923 0.876066
0.105592 0.743847 0.876005
0.233402 0.743938 0.876081
0.361212 0.744015 0.876158
0.488746 0.743832 0.875975
0.616571 0.743908 0.876051
0.74435 0.743999 0.876143
0.872175 0.74406 0.876204
0.999405 0.743984 0.876127
0 0.871702 0.876051
0.105577 0.871626 0.87599
0.233387 0.871717 0.876066
0.361196 0.871794 0.876143
0.488731 0.871611 0.875975
0.616556 0.871687 0.876036
0.744335 0.871778 0.876127
0.872038 0.871717 0.876066
0.99939 0.871748 0.876112
0 0.999268 0.876081
0.105745 0.999329 0.876158
0.233555 0.99942 0.876234
0.361318 0.999435 0.876265
0.488899 0.999313 0.876143
0.616724 0.99939 0.876204
0.744518 0.999481 0.876295
0.872084 0.999298 0.876112
0.999557 0.999466 0.87628
0 0 1
0.105043 0 1
0.232624 0 1
0.360403 0 1
0.488197 0 1
0.616022 0 1
0.743557 0 1
0.871382 0 1
0.998856 0 1
0 0.105241 1
0.105486 0.10544 1
0.233021 0.105257 1
0.36083 0.105333 1
0.488624 0.105409 1
0.616449 0.105486 1
0.743984 0.105318 1
0.871809 0.105394 1
0.999283 0.105562 1
0 0.232975 1
0.105577 0.233173 1
0.233112 0.23299 1
0.360922 0.233066 1
0.488716 0.233143 1
0.616281 0.232975 1
0.744076 0.233051 1
0.8719 0.233127 1
0.999329 0.233234 1
0 0.360739 1
0.105531 0.360861 1
0.233143 0.360754 1
0.360967 0.36083 1
0.488762 0.360906 1
0.616327 0.360723 1
0.744106 0.360815 1
0.871931 0.360876 1
0.999222 0.360861 1
0 0.488472 1
0.105516 0.488441 1
0.233265 0.488472 1
0.361074 0.488548 1
0.488762 0.488518 1
0.616434 0.488457 1
0.744228 0.488533 1
0.872053 0.488609 1
0.999283 0.488518 1
0 0.616236 1
0.10547 0.616159 1
0.23328 0.616236 1
0.361089 0.616327 1
0.488624 0.616144 1
0.616449 0.61622 1
0.744244 0.616312 1
0.8719 0.616205 1
0.999283 0.616281 1
0 0.74377 1
0.105623 0.743877 1
0.233417 0.743954 1
0.361227 0.74403 1
0.488777 0.743862 1
0.616587 0.743938 1
0.744381 0.744015 1
0.871946 0.743832 1
0.999435 0.743999 1
0 0.871473 1
0.105608 0.871656 1
0.233402 0.871733 1
0.361227 0.871809 1
0.488762 0.871641 1
0.616571 0.871717 1
0.744366 0.871794 1
0.871931 0.871611 1
0.99942 0.871778 1
0 0.999176 1
0.105776 0.999359 1
0.23357 0.999451 1
0.361135 0.999268 1
0.48893 0.999344 1
0.616754 0.99942 1
0.744518 0.999481 1
0.872099 0.999313 1
0.999069 0.998978 1
