public/LUTS/Darken/Darken_03.cube
TITLE "Generated by Resolve"
LUT_3D_SIZE 33
0 0 0
0 0 0
0.0117494 0 0
0.0448157 0 0
0.0777447 0 0
0.110643 0 0
0.14345 0 0
0.176272 0 0
0.209094 0 0
0.242145 0 0
0.274952 0 0
0.307759 0 0
0.340688 0 0
0.373602 0 0
0.40647 0 0
0.439475 0 0
0.472282 0 0
0.505104 0 0
0.537911 0 0
0.570718 0 0
0.603906 0 0
0.636805 0 0
0.669612 0 0
0.702434 0 0
0.735241 0 0
0.768154 0 0
0.801114 0 0
0.833936 0 0
0.866865 0 0
0.899763 0 0
0.93257 0 0
0.96553 0 0
0.998138 0 0
0 0 0
0 0 0
0.0123751 0 0
0.045182 0 0
0.0780957 0 0
0.111009 0 0
0.143816 0 0
0.176883 0 0
0.209689 0 0
0.242512 0 0
0.275319 0 0
0.308125 0 0
0.341054 0 0
0.374212 0 0
0.407019 0 0
0.439841 0 0
0.472648 0 0
0.505455 0 0
0.538308 0 0
0.571344 0 0
0.604273 0 0
0.637171 0 0
0.669978 0 0
0.702785 0 0
0.735683 0 0
0.768673 0 0
0.80148 0 0
0.834287 0 0
0.867216 0 0
0.900114 0 0
0.933059 0 0
0.965988 0 0
0.998489 0 0
0 0.0122072 0
0 0.0123445 0
0.0123445 0.012314 0
0.0451514 0.0122683 0
0.0780652 0.0122072 0
0.110979 0.0121462 0
0.14403 0.0123445 0
0.176867 0.0123293 0
0.209674 0.0122835 0
0.242481 0.012253 0
0.275288 0.0122072 0
0.308095 0.0121767 0
0.341283 0.0123598 0
0.374197 0.0122988 0
0.407004 0.0122683 0
0.439811 0.0122225 0
0.472618 0.012192 0
0.505455 0.0121767 0
0.538506 0.0123751 0
0.571313 0.0123445 0
0.604242 0.0122683 0
0.63714 0.0122072 0
0.669947 0.0121614 0
0.703029 0.0123903 0
0.735836 0.0123445 0
0.768643 0.012314 0
0.80145 0.0122683 0
0.834257 0.0122377 0
0.867262 0.0122225 0
0.900359 0.0123598 0
0.933165 0.0123293 0
0.965972 0.0122835 0
0.998474 0.0123293 0
0 0.0450904 0
0 0.0451667 0
0.0123293 0.0451209 0
0.0451209 0.0450752 0
0.0780499 0.0450141 0
0.111223 0.0452125 0
0.14403 0.045182 0
0.176837 0.0451362 0
0.209644 0.0450904 0
0.242466 0.0450599 0
0.275486 0.045243 0
0.308339 0.045243 0
0.341268 0.045182 0
0.374166 0.0451209 0
0.406973 0.0450752 0
0.439796 0.0450294 0
0.472862 0.0452583 0
0.505669 0.0452277 0
0.538476 0.045182 0
0.571298 0.0451514 0
0.604227 0.0450752 0
0.637125 0.0450141 0
0.670192 0.045243 0
0.702998 0.0451972 0
0.735821 0.0451667 0
0.768627 0.0451209 0
0.801434 0.0450752 0
0.834287 0.0450904 0
0.867445 0.0452277 0
0.900328 0.045182 0
0.933135 0.0451362 0
0.965942 0.0450904 0
0.998444 0.0451362 0
0 0.0779431 0
0 0.0780194 0
0.012192 0.0779736 0
0.0451362 0.0780804 0
0.0781872 0.0781415 0
0.111086 0.0780652 0
0.143893 0.0780346 0
0.176715 0.0779889 0
0.209522 0.0779431 0
0.242527 0.0781109 0
0.275395 0.0781415 0
0.308202 0.0780957 0
0.341131 0.0780346 0
0.374044 0.0779736 0
0.406851 0.0779278 0
0.439902 0.0781262 0
0.47274 0.0781109 0
0.505531 0.0780804 0
0.538354 0.0780346 0
0.57116 0.0780041 0
0.604089 0.0779278 0
0.637247 0.0781262 0
0.670054 0.0780957 0
0.702876 0.0780499 0
0.735683 0.0780194 0
0.76849 0.0779736 0
0.801556 0.0782025 0
0.834379 0.0781567 0
0.867308 0.0780957 0
0.900191 0.0780346 0
0.933013 0.0779889 0
0.965835 0.0779736 0
0.998581 0.0782635 0
0 0.11078 0
0 0.110857 0
0.0122072 0.110948 0
0.0451514 0.11104 0
0.0780804 0.110979 0
0.110994 0.110918 0
0.143801 0.110872 0
0.176608 0.110826 0
0.209689 0.111055 0
0.242481 0.111025 0
0.275303 0.110979 0
0.30811 0.110933 0
0.341039 0.110872 0
0.374105 0.110979 0
0.407004 0.11104 0
0.439826 0.110994 0
0.472633 0.110964 0
0.50544 0.110918 0
0.538247 0.110887 0
0.571267 0.111055 0
0.604257 0.11104 0
0.63714 0.110979 0
0.669963 0.110933 0
0.70277 0.110887 0
0.735576 0.110857 0
0.768643 0.111086 0
0.801465 0.11104 0
0.834272 0.111009 0
0.867201 0.110933 0
0.900099 0.110872 0
0.932906 0.110826 0
0.965972 0.111055 0
0.998474 0.111101 0
0 0.143648 0
0 0.143923 0
0.0123293 0.143893 0
0.0451362 0.143847 0
0.0780499 0.143786 0
0.110964 0.143725 0
0.143877 0.143786 0
0.176852 0.143908 0
0.209659 0.143877 0
0.242466 0.143832 0
0.275273 0.143786 0
0.30808 0.143755 0
0.341161 0.143832 0
0.374182 0.143877 0
0.406989 0.143847 0
0.439796 0.143801 0
0.472602 0.143771 0
0.505409 0.143725 0
0.538415 0.143877 0
0.571298 0.143923 0
0.604227 0.143847 0
0.637125 0.143786 0
0.669932 0.14374 0
0.702739 0.143709 0
0.735821 0.143923 0
0.768627 0.143893 0
0.801434 0.143847 0
0.834241 0.143816 0
0.867185 0.14374 0
0.900313 0.143923 0
0.93315 0.143908 0
0.965957 0.143862 0
0.998459 0.143908 0
0 0.176669 0
0 0.176745 0
0.012314 0.176699 0
0.0451209 0.176669 0
0.0780346 0.176593 0
0.111025 0.176608 0
0.144015 0.176761 0
0.176822 0.176715 0
0.209644 0.176684 0
0.242451 0.176638 0
0.275257 0.176608 0
0.308324 0.176822 0
0.341253 0.176761 0
0.374151 0.176699 0
0.406958 0.176654 0
0.43978 0.176608 0
0.472709 0.176699 0
0.505653 0.176806 0
0.538476 0.176761 0
0.571283 0.17673 0
0.604212 0.176654 0
0.63711 0.176593 0
0.670085 0.176715 0
0.702983 0.176776 0
0.735805 0.176745 0
0.768612 0.176699 0
0.801419 0.176669 0
0.834226 0.176623 0
0.867384 0.176761 0
0.900313 0.176761 0
0.933135 0.176715 0
0.965927 0.176669 0
0.998428 0.176715 0
0 0.209476 0
0 0.209552 0
0.0122835 0.209506 0
0.0450904 0.209476 0
0.0782788 0.209674 0
0.111192 0.209598 0
0.143999 0.209567 0
0.176806 0.209522 0
0.209613 0.209491 0
0.242466 0.209506 0
0.275502 0.209674 0
0.308309 0.209628 0
0.341222 0.209567 0
0.374136 0.209506 0
0.406943 0.209461 0
0.439857 0.209522 0
0.472831 0.209659 0
0.505638 0.209613 0
0.538445 0.209567 0
0.571252 0.209537 0
0.604181 0.209461 0
0.637232 0.209552 0
0.670161 0.209628 0
0.702968 0.209583 0
0.735775 0.209552 0
0.768582 0.209506 0
0.801389 0.209476 0
0.83447 0.209705 0
0.867399 0.209628 0
0.900298 0.209567 0
0.933104 0.209522 0
0.965911 0.209491 0
0.998596 0.20972 0
0 0.242283 0
0 0.242359 0
0.0122683 0.242329 0
0.0453346 0.242542 0
0.0782483 0.242481 0
0.111162 0.24242 0
0.143969 0.242374 0
0.176776 0.242344 0
0.209613 0.242329 0
0.242664 0.242527 0
0.275471 0.242481 0
0.308278 0.242451 0
0.341207 0.242374 0
0.374105 0.242313 0
0.407187 0.242542 0
0.439994 0.242496 0
0.472801 0.242466 0
0.505608 0.24242 0
0.538415 0.24239 0
0.571298 0.24242 0
0.604425 0.242542 0
0.637324 0.242481 0
0.67013 0.242435 0
0.702937 0.24239 0
0.735759 0.242359 0
0.768688 0.242435 0
0.801633 0.242542 0
0.83444 0.242512 0
0.867384 0.242435 0
0.900267 0.242374 0
0.933074 0.242344 0
0.966049 0.242466 0
0.998657 0.242603 0
0 0.27509 0
0 0.275395 0
0.0124971 0.275395 0
0.045304 0.275364 0
0.078233 0.275288 0
0.111147 0.275227 0
0.143954 0.275181 0
0.17702 0.27541 0
0.209827 0.27538 0
0.242634 0.275334 0
0.275456 0.275303 0
0.308263 0.275257 0
0.341192 0.275181 0
0.37435 0.275395 0
0.407156 0.275349 0
0.439963 0.275303 0
0.472786 0.275273 0
0.505592 0.275227 0
0.538445 0.275242 0
0.571466 0.275425 0
0.604395 0.275349 0
0.637293 0.275288 0
0.670115 0.275242 0
0.702922 0.275212 0
0.735821 0.275273 0
0.768811 0.275395 0
0.801617 0.275349 0
0.834424 0.275319 0
0.867353 0.275242 0
0.900252 0.275181 0
0.933318 0.27541 0
0.966125 0.275364 0
0.998627 0.27541 0
0 0.30811 0
0 0.308248 0
0.0124819 0.308202 0
0.0452888 0.308171 0
0.0782025 0.308095 0
0.111116 0.308034 0
0.144167 0.308248 0
0.177005 0.308217 0
0.209812 0.308186 0
0.242618 0.308141 0
0.275425 0.30811 0
0.308232 0.308064 0
0.341421 0.308263 0
0.374334 0.308202 0
0.407141 0.308156 0
0.439948 0.308125 0
0.472755 0.30808 0
0.505837 0.308309 0
0.538643 0.308263 0
0.57145 0.308232 0
0.604379 0.308156 0
0.637278 0.308095 0
0.670115 0.30808 0
0.703166 0.308278 0
0.735973 0.308248 0
0.76878 0.308202 0
0.801587 0.308171 0
0.834394 0.308125 0
0.867399 0.308125 0
0.900496 0.308263 0
0.933303 0.308217 0
0.96611 0.308186 0
0.998611 0.308232 0
0 0.341039 0
0 0.341115 0
0.012314 0.34107 0
0.0451209 0.341024 0
0.0782177 0.341146 0
0.111223 0.341161 0
0.14403 0.341115 0
0.176837 0.341085 0
0.209644 0.341054 0
0.242451 0.341009 0
0.275486 0.341192 0
0.308339 0.341192 0
0.341268 0.341131 0
0.374166 0.34107 0
0.406973 0.341024 0
0.43978 0.340978 0
0.472862 0.341207 0
0.505669 0.341176 0
0.538476 0.341131 0
0.571283 0.3411 0
0.604212 0.341024 0
0.63711 0.340963 0
0.670192 0.341192 0
0.702998 0.341146 0
0.735805 0.341115 0
0.768627 0.34107 0
0.801434 0.341024 0
0.834287 0.341039 0
0.86743 0.341176 0
0.900328 0.341131 0
0.933135 0.341085 0
0.965942 0.341039 0
0.998444 0.341085 0
0 0.373861 0
0 0.373938 0
0.0122377 0.373907 0
0.0451972 0.374014 0
0.078233 0.37406 0
0.111147 0.373999 0
0.143954 0.373953 0
0.176761 0.373922 0
0.209567 0.373877 0
0.242588 0.374044 0
0.275456 0.37406 0
0.308263 0.374029 0
0.341192 0.373953 0
0.37409 0.373892 0
0.406897 0.373846 0
0.439979 0.374075 0
0.472786 0.374044 0
0.505592 0.373999 0
0.538399 0.373968 0
0.571221 0.373922 0
0.604395 0.37409 0
0.637308 0.37406 0
0.670115 0.374014 0
0.702922 0.373983 0
0.735729 0.373938 0
0.768551 0.373907 0
0.801617 0.374121 0
0.834424 0.37409 0
0.867369 0.374014 0
0.900252 0.373953 0
0.933059 0.373922 0
0.965896 0.373892 0
0.998642 0.374182 0
0 0.406668 0
0 0.406744 0
0.0124819 0.406973 0
0.0452888 0.406943 0
0.0782177 0.406867 0
0.111131 0.406806 0
0.143938 0.40676 0
0.176867 0.406851 0
0.209812 0.406958 0
0.242618 0.406912 0
0.275441 0.406882 0
0.308248 0.406836 0
0.341161 0.40676 0
0.374243 0.406882 0
0.407141 0.406928 0
0.439948 0.406882 0
0.47277 0.406851 0
0.505577 0.406806 0
0.538384 0.406775 0
0.57142 0.406958 0
0.604379 0.406928 0
0.637278 0.406867 0
0.6701 0.406836 0
0.702907 0.40679 0
0.735714 0.406744 0
0.768795 0.406973 0
0.801602 0.406943 0
0.834409 0.406897 0
0.867338 0.406821 0
0.900236 0.40676 0
0.933043 0.406729 0
0.96611 0.406943 0
0.998611 0.407004 0
0 0.439536 0
0 0.439826 0
0.0124666 0.43978 0
0.0452735 0.43975 0
0.0781872 0.439673 0
0.111101 0.439612 0
0.144015 0.439673 0
0.176989 0.439796 0
0.209796 0.439765 0
0.242603 0.439719 0
0.27541 0.439689 0
0.308217 0.439643 0
0.341299 0.439719 0
0.374319 0.43978 0
0.407126 0.439734 0
0.439933 0.439704 0
0.47274 0.439658 0
0.505547 0.439612 0
0.538628 0.439841 0
0.571435 0.439811 0
0.604364 0.439734 0
0.637263 0.439673 0
0.670069 0.439643 0
0.703075 0.439796 0
0.735958 0.439826 0
0.768765 0.43978 0
0.801572 0.43975 0
0.834379 0.439704 0
0.867323 0.439643 0
0.90045 0.439811 0
0.933288 0.439796 0
0.966094 0.439765 0
0.998596 0.439811 0
0 0.472557 0
0 0.472633 0
0.0124361 0.472602 0
0.045243 0.472557 0
0.078172 0.472496 0
0.111345 0.472694 0
0.144152 0.472648 0
0.176959 0.472618 0
0.209766 0.472572 0
0.242573 0.472526 0
0.275471 0.472572 0
0.308461 0.472724 0
0.34139 0.472648 0
0.374289 0.472587 0
0.407095 0.472541 0
0.439902 0.472511 0
0.472847 0.472602 0
0.505791 0.472694 0
0.538598 0.472663 0
0.571405 0.472618 0
0.604334 0.472541 0
0.637232 0.47248 0
0.670222 0.472618 0
0.70312 0.472679 0
0.735927 0.472633 0
0.76875 0.472602 0
0.801556 0.472557 0
0.834363 0.472511 0
0.867521 0.472663 0
0.90045 0.472648 0
0.933257 0.472618 0
0.966064 0.472572 0
0.998566 0.472618 0
0 0.505364 0
0 0.50544 0
0.0124208 0.505409 0
0.0452277 0.505379 0
0.0784161 0.505562 0
0.11133 0.505501 0
0.144121 0.505455 0
0.176944 0.505425 0
0.209751 0.505379 0
0.242618 0.505394 0
0.275639 0.505562 0
0.308446 0.505531 0
0.34136 0.505455 0
0.374273 0.505394 0
0.40708 0.505348 0
0.439994 0.505425 0
0.472969 0.505547 0
0.505776 0.505501 0
0.538582 0.50547 0
0.571389 0.505425 0
0.604318 0.505348 0
0.637476 0.505562 0
0.670283 0.505516 0
0.703105 0.505486 0
0.735912 0.50544 0
0.768719 0.505409 0
0.801678 0.505516 0
0.834607 0.505592 0
0.867536 0.505516 0
0.900435 0.505455 0
0.933242 0.505425 0
0.966049 0.505379 0
0.998734 0.505623 0
0 0.53817 0
0 0.538247 0
0.0123903 0.538216 0
0.0454719 0.538445 0
0.0783856 0.538369 0
0.111299 0.538308 0
0.144106 0.538262 0
0.176913 0.538231 0
0.209995 0.53846 0
0.242802 0.538415 0
0.275608 0.538384 0
0.308415 0.538338 0
0.341344 0.538262 0
0.374273 0.538231 0
0.407324 0.53843 0
0.440131 0.538399 0
0.472938 0.538354 0
0.505745 0.538308 0
0.538552 0.538277 0
0.57145 0.538323 0
0.604562 0.53843 0
0.637461 0.538369 0
0.670268 0.538338 0
0.703075 0.538293 0
0.735882 0.538247 0
0.768826 0.538338 0
0.80177 0.538445 0
0.834577 0.538399 0
0.867521 0.538323 0
0.900404 0.538262 0
0.933211 0.538231 0
0.966201 0.538369 0
0.998795 0.538506 0
0 0.570993 0
0 0.571298 0
0.0126345 0.571298 0
0.0454414 0.571252 0
0.0783703 0.571176 0
0.111269 0.571115 0
0.144076 0.571084 0
0.177157 0.571298 0
0.209964 0.571267 0
0.242771 0.571221 0
0.275578 0.571191 0
0.3084 0.571145 0
0.341329 0.571084 0
0.374487 0.571283 0
0.407294 0.571237 0
0.440101 0.571206 0
0.472923 0.57116 0
0.50573 0.57113 0
0.538582 0.571145 0
0.571603 0.571313 0
0.604532 0.571237 0
0.63743 0.571176 0
0.670237 0.571145 0
0.703059 0.571099 0
0.736126 0.571328 0
0.768933 0.571298 0
0.80174 0.571252 0
0.834562 0.571206 0
0.867491 0.571145 0
0.900481 0.571176 0
0.933455 0.571298 0
0.966262 0.571267 0
0.998764 0.571313 0
0 0.604074 0
0 0.604196 0
0.0124514 0.604166 0
0.0452583 0.60412 0
0.078172 0.604059 0
0.111086 0.603998 0
0.144152 0.604212 0
0.176974 0.604181 0
0.209781 0.60415 0
0.242588 0.604105 0
0.275395 0.604059 0
0.308461 0.604273 0
0.34139 0.604227 0
0.374304 0.60415 0
0.407111 0.60412 0
0.439918 0.604074 0
0.472724 0.604044 0
0.505806 0.604257 0
0.538613 0.604227 0
0.57142 0.604196 0
0.604349 0.60412 0
0.637247 0.604059 0
0.670085 0.604044 0
0.703136 0.604242 0
0.735943 0.604196 0
0.76875 0.604166 0
0.801556 0.60412 0
0.834363 0.604089 0
0.867384 0.604089 0
0.900465 0.604212 0
0.933272 0.604181 0
0.966079 0.604135 0
0.998581 0.604181 0
0 0.636942 0
0 0.637018 0
0.0124056 0.636988 0
0.0452125 0.636942 0
0.0783093 0.637064 0
0.111299 0.637079 0
0.144106 0.637034 0
0.176928 0.637003 0
0.209735 0.636957 0
0.242542 0.636927 0
0.275578 0.63711 0
0.308431 0.63711 0
0.341344 0.637034 0
0.374243 0.636973 0
0.407065 0.636942 0
0.439872 0.636896 0
0.472938 0.637125 0
0.505745 0.637079 0
0.538567 0.637049 0
0.571374 0.637003 0
0.604303 0.636942 0
0.637201 0.636881 0
0.670268 0.63711 0
0.70309 0.637064 0
0.735897 0.637018 0
0.768704 0.636988 0
0.801511 0.636942 0
0.834592 0.637171 0
0.867521 0.637095 0
0.900404 0.637034 0
0.933227 0.637003 0
0.966033 0.636957 0
0.998581 0.637049 0
0 0.669764 0
0 0.669825 0
0.0123751 0.669795 0
0.0453498 0.669917 0
0.0783703 0.669947 0
0.111284 0.669886 0
0.144091 0.669841 0
0.176898 0.66981 0
0.209705 0.669779 0
0.242786 0.669993 0
0.275593 0.669963 0
0.3084 0.669917 0
0.341329 0.669856 0
0.374228 0.669779 0
0.407248 0.669947 0
0.440116 0.669978 0
0.472923 0.669932 0
0.50573 0.669886 0
0.538537 0.669856 0
0.571344 0.669825 0
0.604532 0.669993 0
0.637446 0.669947 0
0.670253 0.669917 0
0.703059 0.669871 0
0.735866 0.669825 0
0.768688 0.669795 0
0.801755 0.670024 0
0.834562 0.669978 0
0.867506 0.669917 0
0.900389 0.669841 0
0.933196 0.66981 0
0.966033 0.669795 0
0.998764 0.670085 0
0 0.702571 0
0 0.702724 0
0.0126192 0.702876 0
0.0454261 0.702831 0
0.0783551 0.702754 0
0.111269 0.702693 0
0.14406 0.702663 0
0.177005 0.702754 0
0.209949 0.702846 0
0.242756 0.7028 0
0.275578 0.70277 0
0.308385 0.702724 0
0.341299 0.702663 0
0.37438 0.70277 0
0.407279 0.702815 0
0.440085 0.702785 0
0.472908 0.702739 0
0.505714 0.702708 0
0.538521 0.702663 0
0.571557 0.702861 0
0.604517 0.702815 0
0.637415 0.702754 0
0.670237 0.702724 0
0.703044 0.702678 0
0.735851 0.702647 0
0.768933 0.702876 0
0.801724 0.702831 0
0.834546 0.702785 0
0.867475 0.702724 0
0.900374 0.702663 0
0.93344 0.702892 0
0.966247 0.702846 0
0.998749 0.702892 0
0 0.735439 0
0 0.735714 0
0.012604 0.735683 0
0.0454108 0.735637 0
0.0783246 0.735576 0
0.111238 0.7355 0
0.144152 0.735576 0
0.177111 0.735698 0
0.209934 0.735653 0
0.242741 0.735622 0
0.275547 0.735576 0
0.308354 0.735546 0
0.341543 0.735729 0
0.374441 0.735668 0
0.407263 0.735637 0
0.44007 0.735592 0
0.472877 0.735561 0
0.505837 0.735668 0
0.538766 0.735744 0
0.571572 0.735698 0
0.604501 0.735622 0
0.6374 0.735576 0
0.670207 0.735531 0
0.703212 0.735683 0
0.736095 0.735714 0
0.768902 0.735683 0
0.801709 0.735637 0
0.834516 0.735607 0
0.86746 0.735531 0
0.900587 0.735714 0
0.933425 0.735698 0
0.966232 0.735653 0
0.998718 0.735698 0
0 0.76846 0
0 0.768521 0
0.0125734 0.76849 0
0.0453803 0.768444 0
0.0783398 0.768414 0
0.111482 0.768582 0
0.144289 0.768536 0
0.177096 0.768505 0
0.209903 0.76846 0
0.24271 0.768429 0
0.275608 0.768475 0
0.308598 0.768612 0
0.341527 0.768536 0
0.374426 0.768475 0
0.407233 0.768444 0
0.44004 0.768399 0
0.472984 0.76849 0
0.505928 0.768582 0
0.538735 0.768551 0
0.571542 0.768521 0
0.604471 0.768444 0
0.637369 0.768383 0
0.670359 0.768521 0
0.703258 0.768566 0
0.736065 0.768521 0
0.768872 0.76849 0
0.801678 0.768444 0
0.834501 0.768414 0
0.867704 0.768597 0
0.900587 0.768536 0
0.933394 0.768505 0
0.966201 0.76846 0
0.998703 0.768505 0
0 0.801266 0
0 0.801343 0
0.0125582 0.801297 0
0.0453803 0.801266 0
0.0785534 0.80145 0
0.111452 0.801389 0
0.144259 0.801343 0
0.177081 0.801312 0
0.209888 0.801282 0
0.242756 0.801297 0
0.275761 0.801465 0
0.308583 0.801419 0
0.341497 0.801358 0
0.374411 0.801297 0
0.407218 0.801251 0
0.440284 0.80148 0
0.473106 0.801434 0
0.505898 0.801404 0
0.53872 0.801358 0
0.571527 0.801328 0
0.604562 0.801358 0
0.637613 0.80145 0
0.67042 0.801419 0
0.703243 0.801373 0
0.736049 0.801343 0
0.768856 0.801297 0
0.801816 0.801404 0
0.834745 0.80148 0
0.867674 0.801419 0
0.900557 0.801358 0
0.933379 0.801312 0
0.966186 0.801282 0
0.998886 0.801511 0
0 0.834073 0
0 0.83415 0
0.0127871 0.834363 0
0.045594 0.834333 0
0.0785229 0.834272 0
0.111437 0.834195 0
0.144244 0.834165 0
0.17705 0.834119 0
0.210132 0.834348 0
