public/LUTS/Darken/Darken_12.cube
TITLE "Generated by Resolve"
LUT_3D_SIZE 9
0 0 0
0.0914168 0 0
0.183322 0 0
0.275395 0 0
0.367468 0 0
0.459556 0 0
0.551446 0 0
0.643534 0 0
0.735393 0 0
0 0.0915541 0
0.091722 0.0916915 7.62951e-05
0.183612 0.0915541 0
0.2757 0.0916152 0
0.367773 0.0916762 6.10361e-05
0.459678 0.0915389 0
0.551751 0.0915999 0
0.643854 0.0916609 4.57771e-05
0.735698 0.091783 0.000167849
0 0.183581 0
0.091783 0.183719 0.000137331
0.183673 0.183597 1.5259e-05
0.275761 0.183642 6.10361e-05
0.367849 0.183703 0.000122072
0.459754 0.183581 0
0.551827 0.183642 6.10361e-05
0.643915 0.183688 0.000106813
0.735714 0.183749 0.000183108
3.0518e-05 0.275639 3.0518e-05
0.0917525 0.2757 0.000106813
0.183703 0.275639 4.57771e-05
0.275792 0.2757 9.15541e-05
0.367864 0.275761 0.00015259
0.45977 0.275624 1.5259e-05
0.551843 0.275685 7.62951e-05
0.643946 0.275731 0.000137331
0.735607 0.275669 7.62951e-05
0.000122072 0.367651 0.000122072
0.0917067 0.367605 6.10361e-05
0.183795 0.367666 0.000122072
0.275883 0.367712 0.000183108
0.367849 0.367681 0.000137331
0.459861 0.367651 0.000106813
0.551934 0.367712 0.000167849
0.643992 0.367727 0.000183108
0.735683 0.367697 0.00015259
7.62951e-05 0.459663 7.62951e-05
0.091722 0.459663 7.62951e-05
0.183795 0.459724 0.000137331
0.275883 0.45977 0.000183108
0.367773 0.459648 6.10361e-05
0.459861 0.459709 0.000106813
0.551934 0.45977 0.000167849
0.6439 0.459678 9.15541e-05
0.735698 0.459754 0.000167849
7.62951e-05 0.551583 7.62951e-05
0.0918288 0.551675 0.000167849
0.183902 0.551736 0.000228885
0.27599 0.551797 0.000289921
0.36788 0.551659 0.000167849
0.459968 0.55172 0.000213626
0.552041 0.551781 0.000274662
0.643946 0.551644 0.00015259
0.735805 0.551766 0.000259403
3.0518e-05 0.64361 3.0518e-05
0.0918135 0.643748 0.000167849
0.183886 0.643793 0.000228885
0.275807 0.643671 0.000106813
0.367864 0.643732 0.00015259
0.459953 0.643778 0.000198367
0.552026 0.643839 0.000259403
0.643946 0.643717 0.000137331
0.73579 0.643824 0.000259403
0.00015259 0.735607 0.00015259
0.0919356 0.735744 0.000289921
0.184009 0.735805 0.000350958
0.275914 0.735683 0.000213626
0.367987 0.735744 0.000274662
0.460075 0.73579 0.000320439
0.552132 0.735821 0.000366217
0.644068 0.735714 0.000259403
0.735912 0.735836 0.000381476
0 0 0.0916304
0.0914321 0 0.0917678
0.183322 0 0.0916457
0.27541 0 0.0916915
0.367498 0 0.0917525
0.459434 0 0.0916609
0.551476 0 0.0916915
0.643565 0 0.0917372
0.735332 0 0.091783
0 0.0915847 0.0919509
0.0916609 0.0916304 0.0919966
0.183642 0.0915847 0.0919509
0.275731 0.0916457 0.0920119
0.367803 0.0917067 0.0920577
0.459709 0.0915694 0.0919356
0.551781 0.0916304 0.0919966
0.64387 0.0916762 0.0920424
0.735546 0.0916152 0.0919814
3.0518e-05 0.183612 0.0920119
0.0916304 0.183566 0.0919661
0.183703 0.183612 0.0920119
0.275792 0.183673 0.0920729
0.367864 0.183734 0.092134
0.45977 0.183597 0.0919966
0.551843 0.183658 0.0920577
0.643946 0.183719 0.0921187
0.735607 0.183658 0.0920577
6.10361e-05 0.275654 0.0920424
0.0916457 0.275608 0.0919814
0.183734 0.275669 0.0920424
0.275822 0.275715 0.0921035
0.367712 0.275593 0.0919661
0.4598 0.275654 0.0920272
0.551873 0.2757 0.0920882
0.643961 0.275761 0.092134
0.735637 0.2757 0.0920729
0.000137331 0.367681 0.0921187
0.0917372 0.367636 0.0920729
0.18381 0.367697 0.092134
0.275898 0.367742 0.0921798
0.367788 0.36762 0.0920577
0.459892 0.367666 0.0921187
0.551949 0.367727 0.0921798
0.643977 0.367712 0.0921492
0.735714 0.367727 0.0921645
6.10361e-05 0.459648 0.0920424
0.0917372 0.459693 0.0920729
0.183825 0.459739 0.092134
0.275898 0.459785 0.0921645
0.367803 0.459678 0.0920577
0.459892 0.459724 0.0921187
0.551965 0.459785 0.0921798
0.64387 0.459663 0.0920424
0.735714 0.459785 0.0921645
6.10361e-05 0.551568 0.0920424
0.0918441 0.551705 0.0921798
0.183917 0.551766 0.0922408
0.275898 0.55169 0.0921798
0.367895 0.55169 0.0921645
0.459998 0.551751 0.0922255
0.55201 0.551751 0.0922255
0.643977 0.551675 0.0921492
0.735821 0.551797 0.0922713
6.10361e-05 0.643626 0.0920424
0.0918441 0.643763 0.0921645
0.183917 0.643824 0.0922255
0.275822 0.643687 0.0921035
0.367895 0.643748 0.0921492
0.459983 0.643809 0.0922103
0.551904 0.643717 0.0921187
0.643961 0.643732 0.092134
0.735821 0.643854 0.092256
0.000183108 0.735637 0.0921645
0.0919661 0.735775 0.0922866
0.184039 0.735836 0.0923476
0.275944 0.735698 0.0922255
0.368017 0.735759 0.0922713
0.460105 0.735821 0.0923323
0.551995 0.735698 0.0922103
0.644083 0.735744 0.092256
0.735943 0.735866 0.0923781
0 0 0.184161
0.0913863 0 0.184268
0.183322 0 0.184176
0.275395 0 0.184237
0.367483 0 0.184298
0.459388 0 0.184161
0.551461 0 0.184222
0.643549 0 0.184268
0.735271 0 0.184268
0 0.0915694 0.184482
0.0915999 0.0915694 0.184482
0.183627 0.0915694 0.184482
0.275715 0.0916304 0.184543
0.367712 0.0916152 0.184527
0.459693 0.0915541 0.184466
0.551766 0.0916152 0.184527
0.643854 0.0916609 0.184588
0.735515 0.0915999 0.184512
1.5259e-05 0.183597 0.184543
0.0916152 0.183536 0.184497
0.183688 0.183597 0.184558
0.275776 0.183658 0.184604
0.367681 0.183551 0.184497
0.459754 0.183581 0.184543
0.551827 0.183642 0.184588
0.643824 0.183597 0.184543
0.735592 0.183642 0.184588
0 0.275532 0.184451
0.0916304 0.275593 0.184512
0.183719 0.275654 0.184573
0.275807 0.2757 0.184634
0.367697 0.275578 0.184512
0.459785 0.275639 0.184558
0.551858 0.2757 0.184619
0.643763 0.275563 0.184482
0.735622 0.275685 0.184604
0 0.367483 0.184466
0.091722 0.36762 0.184604
0.183795 0.367681 0.184665
0.275883 0.367727 0.184726
0.367773 0.367605 0.184588
0.459876 0.367651 0.184649
0.551934 0.367712 0.18471
0.643854 0.36759 0.184573
0.735698 0.367712 0.184695
0 0.459541 0.184482
0.091722 0.459678 0.184619
0.18381 0.459724 0.184665
0.275715 0.459602 0.184543
0.367788 0.459663 0.184604
0.459876 0.459709 0.184649
0.551949 0.45977 0.18471
0.643854 0.459648 0.184573
0.735714 0.45977 0.184695
4.57771e-05 0.551553 0.184573
0.0918288 0.55169 0.18471
0.183917 0.551751 0.184771
0.275822 0.551614 0.184649
0.36788 0.551675 0.184695
0.459983 0.551736 0.184756
0.551949 0.55169 0.18471
0.643961 0.551659 0.18468
0.735805 0.551781 0.184802
4.57771e-05 0.64361 0.184573
0.0918288 0.643748 0.18471
0.183856 0.643763 0.184726
0.275807 0.643687 0.184634
0.36788 0.643732 0.184695
0.459968 0.643793 0.184741
0.551858 0.643671 0.184619
0.643946 0.643717 0.18468
0.735805 0.643839 0.184802
0.000167849 0.735622 0.184695
0.0919509 0.735759 0.184833
0.183886 0.735668 0.184741
0.275929 0.735683 0.184756
0.368002 0.735744 0.184817
0.460014 0.735729 0.184787
0.55198 0.735683 0.184741
0.644068 0.735729 0.184802
0.735927 0.735851 0.184924
0 0 0.276524
0.0912337 0 0.276478
0.183307 0 0.276539
0.275395 0 0.276585
0.367468 0 0.276631
0.459388 0 0.276524
0.551446 0 0.276585
0.643549 0 0.276631
0.73521 0 0.27657
0 0.0915694 0.276844
0.0915389 0.0915084 0.276783
0.183627 0.0915694 0.276844
0.275715 0.0916304 0.276905
0.367605 0.0914931 0.276768
0.459693 0.0915541 0.276829
0.551766 0.0916152 0.27689
0.643809 0.0916152 0.27689
0.735515 0.0915999 0.276875
0 0.183536 0.276844
0.0916152 0.183536 0.27686
0.183688 0.183597 0.276905
0.275776 0.183658 0.276967
0.367666 0.183536 0.276844
0.459754 0.183581 0.27689
0.551827 0.183642 0.276951
0.643778 0.183551 0.27686
0.735592 0.183627 0.276936
0 0.275486 0.276768
0.0916304 0.275593 0.276875
0.183719 0.275654 0.276936
0.275715 0.275608 0.276905
0.367697 0.275578 0.27686
0.459785 0.275639 0.276921
0.551858 0.275685 0.276982
0.643763 0.275563 0.276844
0.735607 0.275685 0.276967
0 0.367483 0.276829
0.091722 0.36762 0.276967
0.183795 0.367666 0.277028
0.2757 0.367544 0.27689
0.367773 0.367605 0.276951
0.459876 0.367651 0.277012
0.551812 0.36759 0.276936
0.643854 0.36759 0.276936
0.735698 0.367697 0.277058
0 0.459541 0.276844
0.091722 0.459663 0.276967
0.18381 0.459724 0.277028
0.275715 0.459602 0.276905
0.367788 0.459663 0.276951
0.459876 0.459709 0.277012
0.551766 0.459586 0.27689
0.643854 0.459648 0.276936
0.735698 0.459754 0.277058
4.57771e-05 0.551553 0.276936
0.0918288 0.55169 0.277073
0.183902 0.551751 0.277134
0.275807 0.551614 0.276997
0.36788 0.551675 0.277058
0.459983 0.551736 0.277119
0.551858 0.551598 0.276997
0.643961 0.551659 0.277043
0.735805 0.551781 0.277165
4.57771e-05 0.64361 0.276936
0.0918135 0.643748 0.277058
0.183719 0.643626 0.276936
0.275807 0.643671 0.276997
0.36788 0.643732 0.277058
0.459953 0.643778 0.277089
0.551858 0.643671 0.276982
0.643946 0.643717 0.277028
0.735805 0.643839 0.27715
0.000167849 0.735622 0.277058
0.0919509 0.735759 0.277195
0.183841 0.735637 0.277058
0.275929 0.735683 0.277119
0.368002 0.735744 0.27718
0.459968 0.735683 0.277104
0.55198 0.735668 0.277104
0.644068 0.735729 0.277165
0.735866 0.73579 0.277226
0 0 0.369055
0.0912184 0 0.369009
0.183291 0 0.36907
0.27538 0 0.369131
0.367269 0 0.368994
0.459373 0 0.369055
0.551446 0 0.369116
0.643351 0 0.368994
0.735195 0 0.3691
0 0.0913558 0.369177
0.0915236 0.0914931 0.369314
0.183612 0.0915541 0.369375
0.2757 0.0916152 0.369436
0.36759 0.0914778 0.369314
0.459678 0.0915389 0.36936
0.551751 0.0915999 0.369421
0.643656 0.0914626 0.369284
0.7355 0.0915847 0.369406
0 0.183398 0.369253
0.0915999 0.18352 0.36939
0.183673 0.183581 0.369451
0.275731 0.183612 0.369467
0.367651 0.18352 0.369375
0.459739 0.183566 0.369436
0.551812 0.183627 0.369482
0.643732 0.183505 0.36936
0.735576 0.183612 0.369482
0 0.275441 0.369284
0.0916152 0.275578 0.369406
0.183703 0.275639 0.369467
0.275593 0.275502 0.369345
0.367681 0.275563 0.369406
0.45977 0.275624 0.369451
0.551766 0.275608 0.369451
0.643748 0.275547 0.369375
0.735592 0.275669 0.369497
0 0.367468 0.36936
0.0917067 0.367605 0.369497
0.183764 0.367651 0.369543
0.275685 0.367529 0.369421
0.367758 0.36759 0.369482
0.459861 0.367636 0.369543
0.551751 0.367529 0.369421
0.643839 0.367575 0.369467
0.735683 0.367681 0.369589
0 0.459525 0.369375
0.0917067 0.459648 0.369497
0.183673 0.459602 0.369451
0.275685 0.459586 0.369436
0.367773 0.459648 0.369497
0.459861 0.459693 0.369543
0.551751 0.459571 0.369421
0.643839 0.459632 0.369467
0.735683 0.459739 0.369589
3.0518e-05 0.551537 0.369467
0.0918135 0.551675 0.369604
0.183703 0.551553 0.369482
0.275792 0.551598 0.369528
0.367864 0.551659 0.369589
0.459815 0.551568 0.369497
0.551843 0.551583 0.369528
0.643946 0.551644 0.369574
0.73579 0.551766 0.369696
3.0518e-05 0.643595 0.369467
0.0917983 0.643732 0.369604
0.183703 0.64361 0.369467
0.275792 0.643671 0.369528
0.367864 0.643717 0.369589
0.45977 0.643595 0.369451
0.551843 0.643656 0.369512
0.643931 0.643702 0.369574
0.735775 0.643824 0.36968
0.00015259 0.735607 0.369589
0.0919203 0.735729 0.369711
0.183825 0.735622 0.369589
0.275914 0.735668 0.36965
0.367987 0.735729 0.369711
0.459892 0.735607 0.369574
0.551965 0.735653 0.369635
0.644053 0.735714 0.369696
0.735714 0.735653 0.369619
0 0 0.461295
0.0912184 0 0.461372
0.183291 0 0.461433
0.275319 0 0.461418
0.367269 0 0.461357
0.459373 0 0.461418
0.551431 0 0.461479
0.643351 0 0.461341
0.735195 0 0.461463
0 0.0913558 0.46154
0.0915236 0.0914931 0.461677
0.183612 0.0915541 0.461738
0.275532 0.0914473 0.461631
0.36759 0.0914778 0.461662
0.459678 0.0915389 0.461723
0.551751 0.0915999 0.461784
0.643656 0.0914626 0.461646
0.7355 0.0915847 0.461769
0 0.183383 0.461616
0.0915999 0.18352 0.461753
0.183673 0.183581 0.461799
0.275578 0.183459 0.461677
0.367651 0.18352 0.461738
0.459739 0.183566 0.461784
0.551629 0.183444 0.461662
0.643732 0.18349 0.461723
0.735576 0.183612 0.46183
0 0.275441 0.461631
0.0916152 0.275578 0.461769
0.183703 0.275639 0.46183
0.275593 0.275502 0.461692
0.367681 0.275563 0.461753
0.45977 0.275608 0.461814
0.551659 0.275486 0.461692
0.643748 0.275547 0.461738
0.735592 0.275669 0.46186
0 0.367468 0.461723
0.0917067 0.367605 0.46186
0.183719 0.367605 0.46186
0.275685 0.367529 0.461784
0.367758 0.36759 0.461845
0.459846 0.367636 0.461891
0.551736 0.367514 0.461769
0.643839 0.367575 0.46183
0.735683 0.367681 0.461952
0 0.459525 0.461723
0.0917067 0.459648 0.46186
0.183597 0.459525 0.461738
0.275685 0.459586 0.461784
0.367773 0.459648 0.461845
0.45977 0.459602 0.461814
0.551736 0.459571 0.461784
0.643839 0.459632 0.46183
0.735668 0.459724 0.461921
3.0518e-05 0.551537 0.46183
0.091783 0.551629 0.461936
0.183703 0.551537 0.461845
0.275792 0.551598 0.461891
0.367864 0.551659 0.461952
0.459785 0.551522 0.46183
0.551843 0.551583 0.461891
0.643946 0.551644 0.461936
0.735668 0.551629 0.461936
3.0518e-05 0.643595 0.46183
0.0916609 0.643595 0.461814
0.183703 0.64361 0.46183
0.275792 0.643656 0.461891
0.367864 0.643717 0.461952
0.45977 0.643595 0.461814
0.551843 0.643656 0.461875
0.643931 0.643702 0.461921
0.735592 0.643641 0.46186
0.00015259 0.735607 0.461952
0.0917372 0.735561 0.461891
0.183825 0.735622 0.461952
0.275914 0.735668 0.462013
0.367819 0.735561 0.461891
0.459892 0.735607 0.461936
0.551965 0.735653 0.461997
0.644053 0.735714 0.462043
0.735714 0.735653 0.461982
0 0 0.553765
0.0912032 0 0.553903
0.183276 0 0.553964
0.275257 0 0.553918
0.367254 0 0.553903
0.459358 0 0.553948
0.551385 0 0.553964
0.643336 0 0.553872
0.73518 0 0.553994
0 0.0913405 0.554086
0.0915084 0.0914778 0.554223
0.183597 0.0915389 0.554269
0.275486 0.0914015 0.554147
0.367575 0.0914626 0.554208
0.459663 0.0915236 0.554253
0.551583 0.0914473 0.554177
0.643641 0.0914473 0.554177
0.735485 0.0915694 0.554299
0 0.183383 0.554147
0.0915847 0.183505 0.554284
0.183566 0.18349 0.554253
0.275563 0.183444 0.554208
0.367636 0.183505 0.554269
0.459724 0.183551 0.55433
0.551614 0.183429 0.554192
0.643702 0.183474 0.554253
0.735561 0.183597 0.554376
0 0.275425 0.554177
0.0915999 0.275563 0.554314
0.183505 0.275441 0.554177
0.275578 0.275486 0.554238
0.367666 0.275547 0.554299
0.459754 0.275593 0.554345
0.551644 0.275471 0.554223
0.643732 0.275532 0.554269
0.735576 0.275654 0.554391
0 0.367453 0.554253
0.0916915 0.36759 0.554391
0.183581 0.367453 0.554269
0.275669 0.367514 0.554314
0.367742 0.367575 0.554376
0.459648 0.367437 0.554253
0.55172 0.367498 0.554314
0.643824 0.367559 0.55436
0.735668 0.367666 0.554482
0 0.45951 0.554269
0.0916915 0.459632 0.554391
0.183581 0.45951 0.554269
0.275669 0.459571 0.55433
0.367758 0.459632 0.554391
0.459663 0.459495 0.554253
0.551736 0.459556 0.554314
0.643824 0.459617 0.554376
0.735607 0.459663 0.554421
1.5259e-05 0.551522 0.55436
0.091722 0.551583 0.554421
0.183688 0.551522 0.554376
0.275776 0.551583 0.554437
0.367849 0.551629 0.554482
0.459754 0.551507 0.55436
0.551827 0.551568 0.554421
0.643931 0.551629 0.554467
0.735592 0.551553 0.554406
0 0.64358 0.55436
0.0915999 0.643534 0.554314
0.183688 0.643595 0.55436
0.275776 0.643641 0.554421
0.367727 0.643595 0.55436
0.459754 0.64358 0.554345
0.551827 0.643641 0.554406
0.64387 0.643641 0.554421
0.735576 0.643626 0.554391
7.62951e-05 0.735531 0.554421
0.091722 0.735546 0.554437
0.18381 0.735607 0.554482
0.275898 0.735653 0.554543
0.367788 0.735531 0.554421
0.459876 0.735576 0.554467
0.551949 0.735637 0.554528
0.6439 0.735546 0.554437
0.735698 0.735637 0.554513
0 0 0.646128
0.0912032 0 0.646265
0.183276 0 0.646326
0.275181 0 0.646189
0.367254 0 0.64625
0.459358 0 0.646311
0.551232 0 0.646189
0.643336 0 0.646235
0.73518 0 0.646357
0 0.0913405 0.646448
0.0915084 0.0914778 0.646571
0.183566 0.0915084 0.646601
0.275486 0.0914015 0.64651
0.367575 0.0914626 0.646571
0.459663 0.0915236 0.646616
0.551553 0.0914015 0.646494
0.643641 0.0914473 0.64654
0.735485 0.0915694 0.646662
0 0.183368 0.64651
0.0915847 0.183505 0.646647
0.18352 0.183444 0.646571
0.275563 0.183444 0.646571
0.367636 0.183505 0.646632
0.459663 0.18349 0.646616
0.551614 0.183429 0.646555
0.643702 0.183474 0.646616
0.735561 0.183597 0.646738
0 0.275425 0.646525
0.0915999 0.275563 0.646662
0.18349 0.275425 0.64654
0.275578 0.275486 0.646601
0.367666 0.275547 0.646662
0.459586 0.275441 0.64654
0.551629 0.275471 0.646586
0.643732 0.275532 0.646632
0.735485 0.275547 0.646662
0 0.367453 0.646616
0.0915847 0.367483 0.646647
0.183581 0.367453 0.646632
0.275669 0.367514 0.646677
0.367742 0.367575 0.646738
0.459648 0.367437 0.646601
0.55172 0.367498 0.646662
0.643824 0.367544 0.646723
0.735485 0.367483 0.646662
0 0.459495 0.646616
0.0915084 0.459449 0.646571
0.183581 0.45951 0.646632
0.275669 0.459571 0.646693
0.367758 0.459632 0.646754
0.459663 0.459495 0.646616
0.55172 0.459556 0.646677
0.643824 0.459602 0.646723
0.735485 0.459541 0.646662
1.5259e-05 0.551522 0.646723
0.0916152 0.551476 0.646677
0.183688 0.551522 0.646738
0.275776 0.551583 0.646784
0.367666 0.551461 0.646662
0.459754 0.551507 0.646723
0.551827 0.551568 0.646784
0.643931 0.551629 0.64683
0.735592 0.551553 0.646769
0 0.64358 0.646723
0.0915999 0.643534 0.646662
0.183688 0.643595 0.646723
0.275776 0.643641 0.646784
0.367666 0.643519 0.646662
0.459754 0.643565 0.646708
0.551827 0.643626 0.646769
0.643824 0.643595 0.646738
0.735576 0.643626 0.646754
3.0518e-05 0.735485 0.646738
0.091722 0.735546 0.646784
0.18381 0.735607 0.646845
0.275853 0.735622 0.64686
0.367788 0.735531 0.646784
0.459876 0.735576 0.64683
0.551949 0.735637 0.646891
0.643854 0.735515 0.646754
0.735698 0.735622 0.646876
0 0 0.738231
0.0912184 0 0.738369
0.183139 0 0.738277
0.275196 0 0.738293
0.367269 0 0.738354
0.459373 0 0.738415
0.551247 0 0.738293
0.643351 0 0.738338
0.735195 0 0.73846
0 0.0913558 0.738552
0.0915236 0.0914931 0.738674
0.183429 0.091371 0.738552
0.275517 0.0914321 0.738613
0.36759 0.0914778 0.738659
0.459678 0.0915389 0.73872
0.551568 0.0914168 0.738598
0.643656 0.0914626 0.738643
0.7355 0.0915847 0.738766
0 0.183398 0.738613
0.0915999 0.183536 0.73875
0.18349 0.183398 0.738613
0.275578 0.183459 0.738674
0.367651 0.18352 0.738735
0.459556 0.183383 0.738598
0.551629 0.183444 0.738659
0.643732 0.18349 0.73872
0.735531 0.183581 0.738796
0 0.275441 0.738643
0.0915694 0.275532 0.73872
0.183505 0.275456 0.738643
0.275608 0.275502 0.738705
0.367681 0.275563 0.738766
0.459586 0.275425 0.738628
0.551659 0.275486 0.738689
0.643748 0.275547 0.738735
0.735454 0.275532 0.73872
0 0.367468 0.73872
0.0915541 0.367453 0.738705
0.183597 0.367468 0.738735
0.275685 0.367529 0.738781
0.367681 0.367498 0.738766
0.459663 0.367453 0.738705
0.551736 0.367514 0.738781
0.643839 0.367575 0.738827
0.7355 0.367498 0.738766
0 0.459525 0.73872
0.0915236 0.459464 0.738674
0.183597 0.459525 0.738735
0.2757 0.459586 0.738796
0.36759 0.459464 0.738659
0.459678 0.45951 0.73872
0.551751 0.459571 0.738781
0.643717 0.45951 0.738705
0.7355 0.459556 0.738766
0 0.5514 0.738705
0.0916304 0.551492 0.738781
0.183703 0.551537 0.738842
0.275792 0.551598 0.738888
0.367681 0.551476 0.738766
0.459785 0.551522 0.738827
0.551858 0.551583 0.738888
0.643763 0.551461 0.73875
0.735607 0.551583 0.738872
0 0.643412 0.738643
0.0916152 0.643549 0.738766
0.183703 0.64361 0.738827
0.275792 0.643656 0.738888
0.367681 0.643534 0.738766
0.45977 0.643595 0.738811
0.551843 0.643656 0.738872
0.643748 0.643519 0.738735
0.735592 0.643641 0.738857
0 0.735424 0.738766
0.0917372 0.735561 0.738888
0.183825 0.735622 0.738949
0.275731 0.735485 0.738827
0.367803 0.735546 0.738888
0.459892 0.735607 0.738933
0.551949 0.735653 0.738979
0.64387 0.735531 0.738857
0.735348 0.735271 0.738613
