public/LUTS/Darken/Darken_02.cube
TITLE "Generated by Resolve"
LUT_3D_SIZE 5
0 0 0
0.221576 0 0
0.480781 0 0
0.739742 0 0
0.998657 0 0
0 0.221942 0
0.22208 0.221958 0
0.481315 0.222126 0
0.740276 0.222019 0
0.999115 0.222187 0
0 0.481041 0
0.222248 0.481056 0
0.481331 0.481086 0
0.740429 0.481117 0
0.999084 0.481102 0
0 0.73994 0
0.2224 0.740154 0
0.481361 0.740047 0
0.740581 0.740215 0
0.999237 0.7402 0
0 0.998978 0
0.222553 0.999252 0
0.481514 0.999146 0
0.740703 0.999268 0
0.99939 0.999283 0
0 0 0.222766
0.221576 0 0.222782
0.480797 0 0.22295
0.739757 0 0.222843
0.998489 0 0.222904
0 0.221973 0.223301
0.222095 0.221973 0.223316
0.481086 0.221897 0.223239
0.740276 0.222034 0.223377
0.998947 0.222019 0.223362
0 0.480797 0.223194
0.222248 0.481071 0.223468
0.481209 0.480964 0.223362
0.740444 0.481132 0.223529
0.9991 0.481117 0.223514
0 0.739895 0.223346
0.222416 0.740169 0.223621
0.481376 0.740063 0.223529
0.740459 0.740093 0.223545
0.999252 0.740215 0.223667
0 0.998993 0.223514
0.22237 0.999054 0.223575
0.481529 0.999161 0.223682
0.74049 0.999069 0.22359
0.999405 0.999313 0.223835
0 0 0.483024
0.221546 0 0.48304
0.480507 0 0.482933
0.739727 0 0.483101
0.998383 0 0.483085
0 0.221683 0.483284
0.22208 0.221958 0.483558
0.481041 0.221851 0.483467
0.740261 0.222019 0.483619
0.998917 0.222004 0.483604
0 0.480781 0.483452
0.222217 0.481025 0.483696
0.481193 0.480949 0.483619
0.740169 0.480873 0.483543
0.999069 0.481086 0.483757
0 0.739879 0.483604
0.222126 0.739879 0.483619
0.481346 0.740047 0.483772
0.740307 0.73994 0.48368
0.999222 0.740185 0.483909
0 0.998962 0.483757
0.222278 0.998978 0.483772
0.481514 0.99913 0.483925
0.740475 0.999039 0.483833
0.999115 0.999023 0.483818
0 0 0.743023
0.221515 0 0.743282
0.480491 0 0.743191
0.739651 0 0.743297
0.998367 0 0.743328
0 0.221653 0.743542
0.221927 0.221805 0.743694
0.48101 0.221836 0.743725
0.739971 0.221729 0.743618
0.998886 0.221973 0.743862
0 0.480751 0.743694
0.221942 0.480766 0.743709
0.481178 0.480919 0.743877
0.740139 0.480827 0.74377
0.999054 0.481071 0.744015
0 0.739849 0.743847
0.22211 0.739864 0.743862
0.4813 0.740001 0.744015
0.740291 0.739925 0.743923
0.998947 0.73991 0.743908
0 0.998856 0.743938
0.222263 0.998947 0.74403
0.481224 0.998856 0.743923
0.740444 0.999008 0.744091
0.9991 0.998993 0.744076
0 0 1
0.221317 0 1
0.480507 0 1
0.739467 0 1
0.998383 0 1
0 0.221683 1
0.22182 0.221698 1
0.481041 0.221851 1
0.740001 0.221759 1
0.998856 0.221942 1
0 0.480781 1
0.221973 0.480781 1
0.481071 0.480827 1
0.740154 0.480858 1
0.99881 0.480827 1
0 0.739681 1
0.222126 0.739879 1
0.481086 0.739788 1
0.740307 0.73994 1
0.998962 0.739925 1
0 0.998703 1
0.222293 0.998978 1
0.481254 0.998886 1
0.740444 0.999023 1
0.998596 0.998505 1
