public/LUTS/Darken/Darken_10.cube
TITLE "Generated by Resolve"
LUT_3D_SIZE 9
0 0 0
0.10248 0 0
0.205524 0 0
0.308751 0 0
0.411978 0 0
0.515236 0 0
0.61825 0 0
0.721508 0 0
0.824491 0 0
0 0.102647 0
0.102831 0.1028 7.62951e-05
0.205859 0.102647 0
0.309102 0.102708 0
0.412329 0.102785 7.62951e-05
0.515373 0.102632 0
0.618601 0.102708 0
0.721859 0.102754 4.57771e-05
0.824826 0.102892 0.000183108
0 0.205829 0
0.102907 0.205982 0.00015259
0.205936 0.205844 1.5259e-05
0.309178 0.20589 7.62951e-05
0.412406 0.205966 0.000137331
0.51545 0.205814 0
0.618677 0.20589 6.10361e-05
0.721935 0.205936 0.000122072
0.824842 0.206012 0.000198367
3.0518e-05 0.309026 3.0518e-05
0.102861 0.309102 0.000122072
0.205966 0.309041 4.57771e-05
0.309209 0.309102 0.000106813
0.412436 0.309163 0.000167849
0.51548 0.30901 1.5259e-05
0.618708 0.309087 9.15541e-05
0.72195 0.309148 0.00015259
0.82472 0.309071 7.62951e-05
0.000122072 0.412192 0.000122072
0.102815 0.412146 7.62951e-05
0.206058 0.412207 0.000137331
0.3093 0.412268 0.000198367
0.412421 0.412222 0.00015259
0.515572 0.412192 0.000122072
0.618799 0.412253 0.000183108
0.722026 0.412284 0.000213626
0.824826 0.412238 0.000167849
9.15541e-05 0.515358 9.15541e-05
0.102831 0.515358 7.62951e-05
0.206058 0.515419 0.00015259
0.309316 0.51548 0.000213626
0.412329 0.515343 6.10361e-05
0.515587 0.515404 0.000122072
0.618799 0.515465 0.000198367
0.72192 0.515373 0.000106813
0.824826 0.51545 0.000183108
9.15541e-05 0.618418 9.15541e-05
0.102953 0.618509 0.000198367
0.20618 0.618585 0.000259403
0.309422 0.618647 0.000320439
0.412451 0.618509 0.000183108
0.515694 0.618555 0.000244144
0.618921 0.618631 0.00030518
0.721965 0.618479 0.000167849
0.824948 0.618616 0.000289921
3.0518e-05 0.721584 3.0518e-05
0.102937 0.721736 0.000183108
0.206165 0.721798 0.000244144
0.309209 0.72166 0.000106813
0.412436 0.721721 0.000167849
0.515679 0.721782 0.000228885
0.618906 0.721843 0.00030518
0.721965 0.721706 0.00015259
0.824933 0.721828 0.000289921
0.000167849 0.824735 0.000167849
0.103075 0.824887 0.000320439
0.206302 0.824948 0.000381476
0.309346 0.824811 0.000244144
0.412573 0.824872 0.00030518
0.515816 0.824933 0.000366217
0.619013 0.824979 0.000411994
0.722103 0.824857 0.000289921
0.825071 0.824994 0.000427253
0 0 0.102739
0.10251 0 0.102892
0.205539 0 0.102739
0.308782 0 0.1028
0.412009 0 0.102876
0.515099 0 0.10277
0.61828 0 0.1028
0.721538 0 0.102861
0.824414 0 0.102892
0 0.102678 0.10309
0.102754 0.102724 0.103136
0.20589 0.102678 0.10309
0.309133 0.102739 0.103151
0.41236 0.102815 0.103212
0.515404 0.102663 0.103075
0.618631 0.102724 0.103136
0.721889 0.102785 0.103197
0.824659 0.102724 0.103136
3.0518e-05 0.205859 0.103151
0.102724 0.205798 0.103105
0.205966 0.205859 0.103166
0.309209 0.205921 0.103227
0.412436 0.205997 0.103288
0.51548 0.205844 0.103151
0.618708 0.205905 0.103212
0.721965 0.205966 0.103273
0.82472 0.205905 0.103197
6.10361e-05 0.309056 0.103182
0.102754 0.308995 0.103136
0.205982 0.309056 0.103197
0.309239 0.309133 0.103258
0.412253 0.30898 0.10312
0.515511 0.309041 0.103182
0.618738 0.309117 0.103243
0.721981 0.309178 0.103304
0.82475 0.309102 0.103227
0.00015259 0.412222 0.103288
0.102846 0.412177 0.103227
0.206088 0.412238 0.103288
0.309331 0.412299 0.103349
0.412345 0.412161 0.103212
0.515602 0.412222 0.103273
0.61883 0.412284 0.103334
0.721996 0.412253 0.103319
0.824857 0.412268 0.103319
6.10361e-05 0.515343 0.103197
0.102861 0.515389 0.103227
0.206088 0.51545 0.103288
0.309316 0.51548 0.103334
0.41236 0.515358 0.103212
0.515602 0.515435 0.103273
0.61883 0.515496 0.103349
0.721874 0.515343 0.103197
0.824857 0.51548 0.103334
7.62951e-05 0.618387 0.103197
0.102983 0.61854 0.103349
0.20621 0.618616 0.10341
0.309316 0.61854 0.103334
0.412482 0.618524 0.103334
0.515724 0.618585 0.103395
0.618891 0.618601 0.10341
0.721996 0.618509 0.103319
0.824979 0.618647 0.103456
6.10361e-05 0.721614 0.103182
0.102968 0.721767 0.103334
0.206195 0.721828 0.103395
0.309239 0.721675 0.103258
0.412467 0.721752 0.103319
0.515709 0.721813 0.10338
0.618769 0.721706 0.103273
0.721981 0.721721 0.103304
0.824964 0.721859 0.103441
0.000198367 0.824765 0.103319
0.103105 0.824918 0.103471
0.206332 0.824979 0.103532
0.309377 0.824842 0.103395
0.412604 0.824903 0.103456
0.515846 0.824964 0.103517
0.618875 0.824826 0.10338
0.722118 0.824887 0.103441
0.825101 0.825025 0.103578
0 0 0.206485
0.102449 0 0.206592
0.205524 0 0.206485
0.308766 0 0.206546
0.411994 0 0.206622
0.515038 0 0.20647
0.618265 0 0.206546
0.721523 0 0.206607
0.824353 0 0.206592
0 0.102663 0.206836
0.102693 0.102663 0.206821
0.205875 0.102663 0.206836
0.309117 0.102724 0.206897
0.412268 0.102724 0.206882
0.515389 0.102647 0.206821
0.618616 0.102708 0.206882
0.721874 0.10277 0.206943
0.824628 0.102693 0.206867
1.5259e-05 0.205844 0.206897
0.102708 0.205783 0.206851
0.205951 0.205844 0.206912
0.309194 0.205905 0.206973
0.412222 0.205783 0.206851
0.515465 0.205829 0.206897
0.618692 0.20589 0.206958
0.721828 0.205844 0.206912
0.824704 0.20589 0.206943
0 0.308919 0.206806
0.102739 0.30898 0.206867
0.205966 0.309041 0.206943
0.309224 0.309117 0.207004
0.412238 0.308965 0.206867
0.515496 0.309026 0.206928
0.618708 0.309102 0.206989
0.721767 0.308949 0.206836
0.824735 0.309087 0.206973
0 0.412009 0.206821
0.102831 0.412146 0.206973
0.206073 0.412222 0.207034
0.309316 0.412284 0.207095
0.412329 0.412146 0.206958
0.515587 0.412207 0.207019
0.618814 0.412268 0.20708
0.721859 0.412116 0.206943
0.824842 0.412253 0.207065
0 0.515206 0.206821
0.102846 0.515358 0.206973
0.206073 0.515435 0.20705
0.309117 0.515282 0.206897
0.412345 0.515343 0.206958
0.515587 0.515404 0.207019
0.618814 0.51548 0.207095
0.721859 0.515328 0.206943
0.824842 0.515465 0.20708
6.10361e-05 0.618372 0.206943
0.102953 0.618524 0.207095
0.206195 0.618601 0.207156
0.309224 0.618448 0.207019
0.412451 0.618509 0.20708
0.515709 0.61857 0.207141
0.61883 0.618524 0.207095
0.721981 0.618494 0.207065
0.824964 0.618631 0.207202
4.57771e-05 0.721599 0.206928
0.102953 0.721752 0.20708
0.206134 0.721767 0.207095
0.309224 0.72166 0.207004
0.412451 0.721721 0.207065
0.515694 0.721798 0.207126
0.618723 0.721645 0.206989
0.721965 0.721706 0.20705
0.824948 0.721843 0.207187
0.000183108 0.82475 0.207065
0.10309 0.824903 0.207218
0.206165 0.824811 0.207126
0.309361 0.824826 0.207141
0.412589 0.824887 0.207202
0.515755 0.824857 0.207187
0.61886 0.824811 0.207126
0.722103 0.824872 0.207187
0.825086 0.82501 0.207324
0 0 0.310033
0.102281 0 0.309972
0.205524 0 0.310048
0.308766 0 0.310109
0.411978 0 0.310155
0.515038 0 0.310018
0.618265 0 0.310094
0.721523 0 0.310155
0.824292 0 0.310079
0 0.102663 0.310384
0.102632 0.102602 0.310323
0.205875 0.102663 0.310384
0.309117 0.102724 0.310445
0.412131 0.102586 0.310307
0.515389 0.102647 0.310369
0.618616 0.102708 0.31043
0.721813 0.102724 0.310445
0.824628 0.102693 0.31043
0 0.205768 0.310384
0.102708 0.205783 0.310399
0.205936 0.205844 0.31046
0.309194 0.205905 0.310521
0.412207 0.205768 0.310384
0.515465 0.205829 0.310445
0.618677 0.20589 0.310506
0.721782 0.205783 0.310399
0.824704 0.205875 0.310491
0 0.308858 0.310307
0.102739 0.30898 0.31043
0.205966 0.309041 0.310491
0.309117 0.30901 0.310445
0.412238 0.308965 0.310414
0.515496 0.309026 0.310475
0.618708 0.309087 0.310536
0.721767 0.308949 0.310384
0.824735 0.309087 0.310521
0 0.412009 0.310369
0.102831 0.412146 0.310521
0.206073 0.412222 0.310582
0.309102 0.41207 0.310445
0.412329 0.412146 0.310506
0.515587 0.412207 0.310567
0.618662 0.412131 0.310491
0.721859 0.412116 0.310491
0.824826 0.412253 0.310613
0 0.515206 0.310384
0.102831 0.515358 0.310521
0.206073 0.515435 0.310597
0.309117 0.515282 0.310445
0.412345 0.515343 0.310506
0.515587 0.515404 0.310582
0.618601 0.515267 0.31043
0.721859 0.515328 0.310491
0.824842 0.515465 0.310628
6.10361e-05 0.618372 0.310491
0.102953 0.618524 0.310643
0.206195 0.618585 0.310704
0.309224 0.618448 0.310567
0.412451 0.618509 0.310628
0.515709 0.61857 0.310689
0.618723 0.618433 0.310552
0.721981 0.618494 0.310613
0.824964 0.618631 0.31075
4.57771e-05 0.721599 0.310475
0.102937 0.721736 0.310628
0.205966 0.721599 0.310491
0.309224 0.72166 0.310552
0.412451 0.721721 0.310613
0.515679 0.721767 0.310658
0.618708 0.721645 0.310536
0.721965 0.721706 0.310597
0.824948 0.721843 0.310735
0.000183108 0.82475 0.310613
0.10309 0.824903 0.310765
0.206104 0.82475 0.310628
0.309361 0.824826 0.310689
0.412589 0.824887 0.31075
0.515694 0.824811 0.310689
0.618845 0.824811 0.310674
0.722103 0.824872 0.310735
0.825025 0.824933 0.310811
0 0 0.413779
0.102266 0 0.413718
0.205509 0 0.413779
0.308751 0 0.41384
0.41178 0 0.413703
0.515023 0 0.413764
0.61825 0 0.41384
0.721309 0 0.413687
0.824262 0 0.413825
0 0.102434 0.413916
0.102617 0.102586 0.414069
0.205859 0.102647 0.41413
0.309102 0.102708 0.414191
0.412116 0.102571 0.414054
0.515373 0.102632 0.414115
0.618601 0.102693 0.414176
0.721645 0.102541 0.414038
0.824613 0.102678 0.41416
0 0.205615 0.413993
0.102693 0.205768 0.414145
0.205921 0.205829 0.414206
0.309133 0.205844 0.414221
0.412192 0.205753 0.41413
0.51545 0.205814 0.414191
0.618662 0.205875 0.414252
0.721721 0.205737 0.414099
0.824689 0.205859 0.414237
0 0.308812 0.414023
0.102724 0.308965 0.41416
0.205951 0.309026 0.414237
0.308995 0.308888 0.414084
0.412222 0.308949 0.41416
0.51548 0.30901 0.414221
0.618616 0.308995 0.414206
0.721752 0.308934 0.41413
0.82472 0.309056 0.414267
0 0.411994 0.414115
0.102815 0.412131 0.414267
0.206043 0.412192 0.414313
0.309087 0.412055 0.414176
0.412314 0.412116 0.414252
0.515572 0.412192 0.414313
0.618601 0.412055 0.414191
0.721843 0.4121 0.414237
0.824811 0.412238 0.414359
0 0.51519 0.414115
0.102815 0.515343 0.414267
0.205936 0.515282 0.414206
0.309087 0.515267 0.414191
0.412329 0.515328 0.414252
0.515572 0.515389 0.414313
0.618585 0.515251 0.414176
0.721843 0.515312 0.414237
0.824826 0.51545 0.414374
4.57771e-05 0.618357 0.414237
0.102937 0.618509 0.414389
0.205966 0.618372 0.414252
0.309209 0.618433 0.414298
0.412436 0.618494 0.414374
0.515526 0.618387 0.414267
0.618708 0.618418 0.414298
0.721965 0.618479 0.414359
0.824933 0.618616 0.414481
3.0518e-05 0.721569 0.414221
0.102922 0.721721 0.414374
0.205951 0.721584 0.414237
0.309209 0.721645 0.414298
0.412436 0.721706 0.414359
0.51548 0.721569 0.414221
0.618692 0.72163 0.414282
0.72195 0.721691 0.414343
0.824918 0.721828 0.414481
0.000167849 0.824735 0.414359
0.103059 0.824872 0.414511
0.206088 0.824735 0.414374
0.309346 0.824796 0.414435
0.412573 0.824872 0.414496
0.515618 0.82472 0.414359
0.61883 0.824781 0.41442
0.722087 0.824842 0.414481
0.824857 0.824781 0.414405
0 0 0.517174
0.102266 0 0.517266
0.205509 0 0.517327
0.308675 0 0.517327
0.411765 0 0.51725
0.515023 0 0.517311
0.61825 0 0.517388
0.721294 0 0.517235
0.824262 0 0.517372
0 0.102434 0.517464
0.102617 0.102586 0.517617
0.205844 0.102647 0.517678
0.308919 0.102525 0.517555
0.412116 0.102571 0.517601
0.515373 0.102632 0.517662
0.618585 0.102693 0.517723
0.721645 0.102541 0.517586
0.824613 0.102678 0.517723
0 0.205615 0.51754
0.102693 0.205768 0.517693
0.205921 0.205829 0.517754
0.308965 0.205676 0.517601
0.412192 0.205753 0.517678
0.515435 0.205814 0.517739
0.618463 0.205661 0.517601
0.721721 0.205722 0.517662
0.824689 0.205859 0.517784
0 0.308812 0.517571
0.102724 0.308965 0.517723
0.205951 0.309026 0.517784
0.308995 0.308873 0.517632
0.412222 0.308949 0.517708
0.515465 0.30901 0.517769
0.618494 0.308873 0.517632
0.721736 0.308934 0.517678
0.82472 0.309056 0.517815
0 0.411978 0.517662
0.102815 0.412131 0.517815
0.205982 0.412131 0.517815
0.309087 0.412055 0.517739
0.412314 0.412116 0.5178
0.515572 0.412177 0.517861
0.618585 0.412039 0.517723
0.721843 0.4121 0.517784
0.824811 0.412238 0.517906
0 0.51519 0.517662
0.102815 0.515343 0.517815
0.205844 0.515206 0.517678
0.309087 0.515267 0.517739
0.412329 0.515328 0.5178
0.515465 0.515282 0.517769
0.618585 0.515251 0.517723
0.721843 0.515312 0.517784
0.824796 0.515419 0.517891
3.0518e-05 0.618357 0.517784
0.102892 0.618463 0.517891
0.205966 0.618372 0.5178
0.309209 0.618433 0.517861
0.412436 0.618494 0.517922
0.51548 0.618341 0.517784
0.618708 0.618418 0.517845
0.721965 0.618479 0.517906
0.824796 0.618463 0.517891
3.0518e-05 0.721569 0.517769
0.10277 0.721569 0.517769
0.205951 0.721584 0.517784
0.309194 0.721645 0.517845
0.412421 0.721706 0.517906
0.515465 0.721569 0.517769
0.618692 0.72163 0.51783
0.72195 0.721691 0.517891
0.82472 0.721614 0.517815
0.000167849 0.824735 0.517906
0.102861 0.824674 0.517861
0.206088 0.824735 0.517922
0.309331 0.824796 0.517983
0.412375 0.824674 0.517861
0.515602 0.82472 0.517906
0.61883 0.824781 0.517968
0.722087 0.824842 0.518029
0.824857 0.824765 0.517952
0 0 0.620859
0.102251 0 0.621012
0.205478 0 0.621073
0.308614 0 0.621027
0.411749 0 0.620996
0.515007 0 0.621057
0.618189 0 0.621088
0.721279 0 0.620981
0.824247 0 0.621118
0 0.102403 0.62121
0.102602 0.102556 0.621363
0.205829 0.102632 0.621424
0.308873 0.10248 0.621286
0.4121 0.102556 0.621347
0.515343 0.102602 0.621408
0.618418 0.102525 0.621317
0.721614 0.102525 0.621332
0.824598 0.102663 0.621469
0 0.2056 0.621286
0.102678 0.205737 0.621439
0.205814 0.205722 0.621408
0.308949 0.205661 0.621347
0.412177 0.205737 0.621424
0.515419 0.205783 0.621485
0.618448 0.205646 0.621347
0.721691 0.205707 0.621393
0.824674 0.205844 0.62153
0 0.308797 0.621317
0.102708 0.308949 0.621469
0.205722 0.308797 0.621317
0.30898 0.308858 0.621378
0.412207 0.308934 0.621454
0.51545 0.308995 0.621515
0.618463 0.308858 0.621378
0.721721 0.308904 0.621424
0.824704 0.309041 0.621561
0 0.411963 0.621408
0.1028 0.412116 0.621561
0.205829 0.411978 0.621424
0.309071 0.412039 0.621485
0.412299 0.4121 0.621546
0.515343 0.411963 0.621393
0.61857 0.412024 0.621469
0.721828 0.412085 0.62153
0.824796 0.412222 0.621668
0 0.515175 0.621408
0.1028 0.515328 0.621561
0.205829 0.51519 0.621424
0.309071 0.515251 0.621485
0.412299 0.515312 0.621546
0.515343 0.51516 0.621408
0.61857 0.515236 0.621469
0.721828 0.515297 0.62153
0.82472 0.515343 0.621592
1.5259e-05 0.618341 0.62153
0.102831 0.618402 0.621592
0.205951 0.618357 0.621546
0.309194 0.618418 0.621607
0.412406 0.618463 0.621653
0.515465 0.618326 0.621515
0.618692 0.618402 0.621592
0.72195 0.618463 0.621653
0.824704 0.618387 0.621576
0 0.721553 0.621515
0.102708 0.721492 0.621469
0.205936 0.721569 0.62153
0.309178 0.72163 0.621592
0.412284 0.721569 0.62153
0.51545 0.721538 0.621515
0.618677 0.721614 0.621576
0.721874 0.721614 0.621592
0.824704 0.721599 0.621561
7.62951e-05 0.824643 0.621592
0.102846 0.824659 0.621607
0.206073 0.82472 0.621668
0.309316 0.824781 0.621729
0.412345 0.824643 0.621592
0.515587 0.824704 0.621653
0.618814 0.824765 0.621714
0.721904 0.824659 0.621607
0.824842 0.82475 0.621698
0 0 0.724407
0.102251 0 0.724559
0.205478 0 0.724636
0.308522 0 0.724483
0.411749 0 0.724544
0.515007 0 0.724605
0.618021 0 0.724468
0.721279 0 0.724529
0.824247 0 0.724666
0 0.102403 0.724758
0.102602 0.102556 0.72491
0.205798 0.102602 0.724941
0.308873 0.10248 0.724834
0.4121 0.102556 0.724895
0.515343 0.102602 0.724956
0.618372 0.102464 0.724819
0.721614 0.102525 0.72488
0.824598 0.102663 0.725017
0 0.205585 0.724834
0.102678 0.205737 0.724987
0.205753 0.205661 0.72491
0.308949 0.205661 0.72491
0.412177 0.205737 0.724971
0.515358 0.205722 0.724956
0.618448 0.205646 0.724895
0.721691 0.205707 0.724956
0.824674 0.205844 0.725093
0 0.308797 0.724865
0.102693 0.308949 0.725017
0.205722 0.308797 0.724865
0.308965 0.308858 0.724941
0.412207 0.308934 0.725002
0.515267 0.308812 0.72488
0.618463 0.308843 0.724926
0.721721 0.308904 0.724971
0.824598 0.308934 0.725002
0 0.411963 0.724956
0.102678 0.411994 0.724987
0.205814 0.411978 0.724971
0.309071 0.412039 0.725032
0.412299 0.4121 0.725093
0.515343 0.411948 0.724941
0.61857 0.412024 0.725017
0.721813 0.412085 0.725078
0.824582 0.412009 0.725002
0 0.515175 0.724971
0.102602 0.515114 0.72491
0.205829 0.51519 0.724971
0.309071 0.515251 0.725032
0.412299 0.515312 0.725109
0.515343 0.51516 0.724956
0.61857 0.515236 0.725017
0.721828 0.515282 0.725078
0.824598 0.515221 0.725002
1.5259e-05 0.618341 0.725078
0.102708 0.61828 0.725032
0.205951 0.618341 0.725093
0.309194 0.618402 0.725155
0.412207 0.618265 0.725017
0.515465 0.618326 0.725078
0.618692 0.618402 0.725139
0.721935 0.618448 0.7252
0.824704 0.618387 0.725124
0 0.721553 0.725063
0.102693 0.721492 0.725017
0.205936 0.721569 0.725078
0.309178 0.72163 0.725139
0.412207 0.721477 0.725002
0.51545 0.721538 0.725063
0.618677 0.721614 0.725124
0.721828 0.721569 0.725093
0.824704 0.721599 0.725109
3.0518e-05 0.824598 0.725093
0.102831 0.824659 0.725155
0.206073 0.82472 0.725216
0.30927 0.824735 0.725246
0.412345 0.824643 0.725139
0.515587 0.824704 0.7252
0.618814 0.824765 0.725261
0.721859 0.824628 0.725124
0.824842 0.82475 0.725246
0 0 0.82768
0.102266 0 0.827832
0.205325 0 0.82771
0.308537 0 0.827741
0.411765 0 0.827817
0.515023 0 0.827878
0.618036 0 0.827726
0.721294 0 0.827787
0.824277 0 0.827924
0 0.102434 0.828016
0.102617 0.102586 0.828168
0.205646 0.102434 0.828031
0.308888 0.102495 0.828092
0.412116 0.102571 0.828153
0.515358 0.102617 0.828214
0.618387 0.102495 0.828077
0.721645 0.102541 0.828138
0.824613 0.102678 0.828275
0 0.205615 0.828092
0.102693 0.205768 0.828244
0.205722 0.205615 0.828107
0.308965 0.205676 0.828168
0.412192 0.205753 0.828229
0.515236 0.2056 0.828092
0.618463 0.205676 0.828153
0.721721 0.205722 0.828214
0.824643 0.205814 0.828305
0 0.308812 0.828122
0.102663 0.308904 0.828214
0.205753 0.308827 0.828138
0.308995 0.308888 0.828199
0.412222 0.308949 0.82826
0.515267 0.308797 0.828122
0.618494 0.308873 0.828183
0.721736 0.308934 0.828244
0.824567 0.308904 0.828214
0 0.411978 0.828214
0.102647 0.411963 0.828199
0.205844 0.411994 0.828229
0.309087 0.412055 0.82829
0.412222 0.412024 0.82826
0.515358 0.411978 0.828214
0.618585 0.412039 0.828275
0.721843 0.4121 0.828336
0.824613 0.412024 0.82826
0 0.51519 0.828229
0.102617 0.515145 0.828168
0.205844 0.515206 0.828229
0.309102 0.515267 0.828305
0.412116 0.515129 0.828153
0.515373 0.51519 0.828214
0.618585 0.515251 0.82829
0.721706 0.515175 0.828214
0.824613 0.515236 0.828275
0 0.618219 0.828199
0.102739 0.618311 0.82829
0.205966 0.618372 0.828351
0.309209 0.618433 0.828412
0.412238 0.618296 0.828275
0.51548 0.618341 0.828336
0.618708 0.618418 0.828397
0.721752 0.618265 0.82826
0.824735 0.618402 0.828382
0 0.72137 0.828122
0.102724 0.721523 0.828275
0.205951 0.721584 0.828336
0.309194 0.721645 0.828397
0.412222 0.721508 0.82826
0.515465 0.721569 0.828321
0.618692 0.72163 0.828397
0.721736 0.721477 0.828244
0.82472 0.721614 0.828382
0 0.824521 0.82826
0.102861 0.824674 0.828412
0.206088 0.824735 0.828489
0.309133 0.824598 0.828336
0.41236 0.824659 0.828397
0.515602 0.82472 0.828458
0.618814 0.824781 0.828519
0.721874 0.824643 0.828382
0.824445 0.824353 0.828092
