public/LUTS/Darken/Darken_06.cube
TITLE "Generated by Resolve"
LUT_3D_SIZE 9
0 0 0
0.0227054 0 0
0.161639 0 0
0.300816 0 0
0.440009 0 0
0.579217 0 0
0.71812 0 0
0.857328 0 0
0.99617 0 0
0 0.0229191 0
0.0231785 0.0231327 0
0.162081 0.0229343 0
0.301289 0.0230259 0
0.440482 0.0231174 0
0.5794 0.0229038 0
0.718578 0.0229953 0
0.857801 0.0230869 0
0.996643 0.02327 0
0 0.162036 0
0.02327 0.162249 0
0.162188 0.162051 0
0.301396 0.162142 0
0.440574 0.162234 0
0.579507 0.16202 0
0.718685 0.162127 0
0.857893 0.162203 0
0.996658 0.162295 0
0 0.301183 0
0.0232242 0.301289 0
0.162219 0.301198 0
0.301427 0.301274 0
0.44062 0.301366 0
0.579538 0.301167 0
0.718715 0.301259 0
0.857939 0.301335 0
0.99649 0.301244 0
0 0.440299 0
0.0231632 0.440223 0
0.162356 0.440314 0
0.301564 0.440391 0
0.440589 0.44033 0
0.579675 0.440284 0
0.718853 0.440375 0
0.858015 0.440406 0
0.996628 0.440345 0
0 0.579385 0
0.0231785 0.57937 0
0.162356 0.579461 0
0.301564 0.579538 0
0.440467 0.579355 0
0.579675 0.579431 0
0.718853 0.579522 0
0.857877 0.5794 0
0.996628 0.579507 0
0 0.718334 0
0.023331 0.718471 0
0.162524 0.718563 0
0.301717 0.718639 0
0.440635 0.718456 0
0.579843 0.718532 0
0.71902 0.718624 0
0.857954 0.718425 0
0.996796 0.718608 0
0 0.85742 0
0.0233158 0.857633 0
0.162509 0.857725 0
0.301442 0.857542 0
0.44062 0.857618 0
0.579828 0.857694 0
0.719005 0.857786 0
0.857939 0.857588 0
0.99678 0.857771 0
0 0.996506 0
0.0234989 0.996719 0
0.162692 0.996811 0
0.30161 0.996612 0
0.440803 0.996704 0
0.580011 0.99678 0
0.719142 0.996826 0
0.858122 0.996674 0
0.996963 0.996857 0
0 0 0.0230411
0.0227512 0 0.0232548
0.161654 0 0.0230564
0.300862 0 0.0231327
0.44004 0 0.0232242
0.579034 0 0.0230869
0.718151 0 0.0231174
0.857374 0 0.023209
0.996078 0 0.0232548
0 0.0229648 0.0235142
0.0230869 0.0230259 0.0235904
0.162127 0.0229801 0.0235294
0.301335 0.0230564 0.0236057
0.440513 0.0231479 0.0236973
0.579446 0.0229496 0.0234989
0.718624 0.0230411 0.0235904
0.857832 0.0231174 0.0236667
0.996399 0.0230259 0.0235752
0 0.162081 0.023621
0.0230411 0.162005 0.0235447
0.162219 0.162097 0.023621
0.301427 0.162173 0.0237125
0.440604 0.162264 0.0238041
0.579538 0.162066 0.0236057
0.718715 0.162158 0.0236973
0.857939 0.162234 0.0237736
0.996506 0.162142 0.023682
0 0.301228 0.0236515
0.0230716 0.301152 0.0235752
0.162264 0.301228 0.0236667
0.301472 0.30132 0.023743
0.440375 0.301122 0.0235599
0.579583 0.301213 0.0236362
0.718761 0.301305 0.0237278
0.857969 0.301381 0.0238041
0.996536 0.301289 0.0237125
0 0.44033 0.0237888
0.023209 0.440253 0.0237125
0.162387 0.440345 0.0237888
0.301595 0.440421 0.0238804
0.440497 0.440238 0.023682
0.579705 0.440314 0.0237736
0.718883 0.440406 0.0238651
0.857984 0.440375 0.0238193
0.996658 0.440391 0.0238499
0 0.579355 0.0236667
0.023209 0.579416 0.0237125
0.162402 0.579492 0.0238041
0.301579 0.579553 0.0238651
0.440513 0.579385 0.0236973
0.579721 0.579477 0.0237736
0.718898 0.579568 0.0238651
0.857832 0.57937 0.0236667
0.996674 0.579553 0.0238499
0 0.718303 0.0236667
0.0233768 0.718502 0.0238804
0.162554 0.718593 0.0239567
0.301579 0.718502 0.0238651
0.440665 0.718486 0.0238499
0.579873 0.718563 0.0239414
0.718975 0.718578 0.0239414
0.857984 0.718456 0.0238193
0.996826 0.718639 0.0240024
0 0.857466 0.0236515
0.0233616 0.857679 0.0238651
0.162539 0.857755 0.0239414
0.301472 0.857557 0.023743
0.44065 0.857649 0.0238346
0.579858 0.85774 0.0239261
0.718807 0.857588 0.0237736
0.857969 0.857618 0.0238041
0.996811 0.857801 0.0239872
0 0.996551 0.0238346
0.0235447 0.99675 0.0240482
0.162722 0.996841 0.0241245
0.301656 0.996643 0.0239414
0.440833 0.996735 0.0240177
0.580041 0.996811 0.0241093
0.718944 0.996628 0.0239109
0.858167 0.996704 0.0240024
0.997009 0.996887 0.0241855
0 0 0.162921
0.0226749 0 0.163073
0.161639 0 0.162936
0.300832 0 0.163027
0.440024 0 0.163104
0.578958 0 0.162921
0.718135 0 0.162997
0.857343 0 0.163088
0.995987 0 0.163073
0 0.0229343 0.163394
0.0229801 0.0229343 0.163394
0.162097 0.0229496 0.163409
0.301305 0.0230411 0.163485
0.440391 0.0230259 0.16347
0.579416 0.0229343 0.163378
0.718593 0.0230106 0.16347
0.857816 0.0231022 0.163546
0.996368 0.0229953 0.163455
0 0.162066 0.1635
0.0230106 0.161975 0.163409
0.162203 0.162066 0.1635
0.301411 0.162158 0.163592
0.44033 0.16199 0.163424
0.579522 0.162051 0.163485
0.7187 0.162127 0.163577
0.857755 0.162066 0.1635
0.996475 0.162127 0.163561
0 0.30103 0.163363
0.0230411 0.301122 0.163455
0.162234 0.301213 0.163546
0.301442 0.301305 0.163622
0.440345 0.301106 0.163439
0.579553 0.301183 0.163516
0.71873 0.301274 0.163607
0.857679 0.301076 0.163409
0.996521 0.301259 0.163592
0 0.440024 0.163378
0.0231785 0.440238 0.163577
0.162371 0.440314 0.163668
0.301579 0.440406 0.16376
0.440482 0.440208 0.163561
0.57969 0.440299 0.163653
0.718868 0.440391 0.163729
0.857801 0.440192 0.163531
0.996643 0.440375 0.163729
0 0.579187 0.163394
0.0231937 0.579385 0.163592
0.162371 0.579477 0.163684
0.301305 0.579278 0.163485
0.440482 0.57937 0.163577
0.57969 0.579446 0.163653
0.718868 0.579538 0.163745
0.857816 0.579339 0.163546
0.996658 0.579522 0.163729
0 0.718273 0.163546
0.0233463 0.718486 0.16376
0.162539 0.718578 0.163836
0.301457 0.718379 0.163638
0.440635 0.718456 0.163729
0.579858 0.718547 0.163821
0.718883 0.718486 0.16376
0.857969 0.718441 0.163699
0.996811 0.718624 0.163882
0 0.85745 0.163531
0.023331 0.857649 0.163745
0.162463 0.857679 0.16376
0.301442 0.857542 0.163622
0.44062 0.857633 0.163714
0.579843 0.85771 0.163806
0.71873 0.857527 0.163607
0.857954 0.857603 0.163684
0.996796 0.857786 0.163867
0 0.996536 0.163714
0.0235142 0.996735 0.163928
0.162493 0.996597 0.16379
0.301625 0.996628 0.163821
0.440818 0.996719 0.163897
0.579904 0.996674 0.163867
0.718929 0.996612 0.16379
0.858137 0.996689 0.163882
0.996979 0.996872 0.164065
0 0 0.302541
0.022446 0 0.302464
0.161639 0 0.302556
0.300832 0 0.302632
0.439994 0 0.302708
0.578943 0 0.302525
0.71812 0 0.302617
0.857343 0 0.302708
0.995911 0 0.302602
0 0.0229343 0.303014
0.0229038 0.022858 0.302937
0.162097 0.0229496 0.303029
0.301305 0.0230259 0.303105
0.440208 0.0228428 0.302907
0.579416 0.0229191 0.302998
0.718593 0.0230106 0.30309
0.85774 0.0230259 0.303105
0.996368 0.0229953 0.303075
0 0.161975 0.303029
0.0230106 0.161975 0.303029
0.162203 0.162066 0.30312
0.301396 0.162142 0.303197
0.440299 0.161959 0.303014
0.579522 0.162051 0.30309
0.7187 0.162127 0.303181
0.857694 0.16199 0.303044
0.996475 0.162112 0.303166
0 0.300954 0.302907
0.0230411 0.301122 0.303075
0.162234 0.301213 0.303166
0.301305 0.301152 0.303105
0.440345 0.301106 0.303044
0.579553 0.301183 0.303136
0.71873 0.301274 0.303227
0.857664 0.301076 0.303029
0.996506 0.301259 0.303212
0 0.440024 0.302998
0.0231785 0.440223 0.303197
0.162371 0.440314 0.303288
0.301289 0.440131 0.30309
0.440467 0.440208 0.303181
0.57969 0.440299 0.303258
0.718669 0.440192 0.303166
0.857801 0.440177 0.303151
0.996643 0.44036 0.303334
0 0.579187 0.303014
0.0231785 0.579385 0.303212
0.162371 0.579477 0.303304
0.301305 0.579278 0.303105
0.440482 0.57937 0.303197
0.57969 0.579446 0.303273
0.718593 0.579263 0.303075
0.857801 0.579339 0.303166
0.996643 0.579522 0.303349
0 0.718273 0.303166
0.0233463 0.718486 0.303365
0.162539 0.718563 0.303456
0.301457 0.718379 0.303258
0.440635 0.718456 0.303349
0.579858 0.718547 0.303426
0.718746 0.718349 0.303243
0.857969 0.718441 0.303319
0.996811 0.718624 0.303502
0 0.85745 0.303151
0.023331 0.857649 0.303349
0.162234 0.85745 0.303166
0.301442 0.857542 0.303243
0.44062 0.857618 0.303334
0.579812 0.857679 0.30338
0.71873 0.857511 0.303227
0.857954 0.857603 0.303304
0.996796 0.857786 0.303487
0 0.996521 0.303334
0.0235142 0.996735 0.303532
0.162417 0.996536 0.303349
0.301625 0.996628 0.303426
0.440803 0.996704 0.303517
0.579843 0.996612 0.30341
0.718914 0.996597 0.30341
0.858137 0.996689 0.303487
0.996902 0.99678 0.303593
0 0 0.44242
0.0224155 0 0.442344
0.161608 0 0.442435
0.300816 0 0.442512
0.439719 0 0.442329
0.578927 0 0.442405
0.718105 0 0.442496
0.857053 0 0.442298
0.99588 0 0.442481
0 0.0226291 0.442603
0.0228885 0.0228428 0.442802
0.162081 0.0229343 0.442893
0.301274 0.0230106 0.442985
0.440192 0.0228122 0.442786
0.5794 0.0229038 0.442863
0.718578 0.0229953 0.442969
0.857511 0.022797 0.442771
0.996353 0.0229801 0.442939
0 0.161746 0.44271
0.0229801 0.161959 0.442908
0.162173 0.162051 0.443
0.301335 0.162081 0.44303
0.440284 0.161944 0.442893
0.579492 0.16202 0.442969
0.718669 0.162112 0.443061
0.857618 0.161913 0.442863
0.996445 0.162097 0.443046
0 0.300893 0.442741
0.0230259 0.301106 0.442939
0.162219 0.301183 0.44303
0.301137 0.300984 0.442832
0.44033 0.301076 0.442924
0.579538 0.301167 0.443015
0.718608 0.301152 0.443
0.857649 0.30106 0.442908
0.99649 0.301228 0.443076
0 0.440009 0.442878
0.0231479 0.440208 0.443076
0.162325 0.440284 0.443153
0.301274 0.440101 0.442969
0.440452 0.440192 0.443061
0.57966 0.440269 0.443137
0.718578 0.440101 0.442969
0.857771 0.440162 0.44303
0.996612 0.440345 0.443214
0 0.579156 0.442878
0.0231632 0.579355 0.443076
0.162188 0.579278 0.443
0.301274 0.579248 0.442969
0.440467 0.579339 0.443061
0.579675 0.579431 0.443153
0.718563 0.579232 0.442954
0.857786 0.579324 0.443046
0.996628 0.579492 0.443214
0 0.718257 0.443046
0.0233158 0.718456 0.443244
0.162234 0.718273 0.443046
0.301427 0.718349 0.443137
0.44062 0.718441 0.443229
0.579614 0.718303 0.443076
0.71873 0.718334 0.443122
0.857939 0.71841 0.443198
0.99678 0.718593 0.443381
0 0.85742 0.44303
0.0233005 0.857618 0.443229
0.162219 0.857435 0.44303
0.301427 0.857511 0.443122
0.440604 0.857603 0.443214
0.579538 0.857404 0.443015
0.718715 0.857496 0.443107
0.857923 0.857572 0.443183
0.996765 0.857755 0.443366
0 0.996506 0.443214
0.0234836 0.996689 0.443397
0.162402 0.996521 0.443214
0.30161 0.996597 0.443305
0.440787 0.996689 0.443397
0.579721 0.99649 0.443198
0.718898 0.996582 0.44329
0.858122 0.996658 0.443366
0.996674 0.996567 0.443259
0 0 0.581827
0.0224155 0 0.581964
0.161608 0 0.58204
0.30071 0 0.582025
0.439719 0 0.581933
0.578927 0 0.582025
0.718105 0 0.582116
0.857038 0 0.581903
0.99588 0 0.582086
0 0.0226291 0.582223
0.0228885 0.0228428 0.582422
0.162081 0.0229191 0.582513
0.30103 0.0227665 0.582345
0.440177 0.0228122 0.582406
0.579385 0.0229038 0.582483
0.718578 0.0229953 0.582574
0.857511 0.022797 0.582376
0.996353 0.0229648 0.582559
0 0.161746 0.582315
0.0229801 0.161959 0.582528
0.162173 0.162051 0.58262
0.301091 0.161852 0.582422
0.440284 0.161944 0.582513
0.579492 0.16202 0.582589
0.718395 0.161822 0.582391
0.857603 0.161913 0.582483
0.996445 0.162097 0.582666
0 0.300893 0.582361
0.0230259 0.301091 0.582559
0.162219 0.301183 0.58265
0.301137 0.300984 0.582452
0.440314 0.301076 0.582544
0.579522 0.301152 0.58262
0.718425 0.300969 0.582437
0.857649 0.30106 0.582513
0.99649 0.301228 0.582696
0 0.439994 0.582483
0.0231479 0.440208 0.582696
0.162249 0.440208 0.582696
0.301259 0.440101 0.582574
0.440452 0.440192 0.582666
0.57966 0.440269 0.582757
0.718563 0.440085 0.582559
0.857771 0.440162 0.58265
0.996612 0.440345 0.582834
0 0.579156 0.582498
0.0231632 0.579355 0.582696
0.162066 0.579171 0.582513
0.301274 0.579248 0.582589
0.440452 0.579339 0.582681
0.579538 0.579293 0.58262
0.718563 0.579232 0.582574
0.857786 0.579309 0.58265
0.996582 0.579461 0.582803
0 0.718257 0.58265
0.02327 0.71841 0.582803
0.162234 0.718273 0.582666
0.301427 0.718349 0.582742
0.44062 0.718441 0.582834
0.579553 0.718242 0.582635
0.71873 0.718334 0.582727
0.857939 0.71841 0.582818
0.996582 0.718395 0.582803
0 0.85742 0.582635
0.0231022 0.85742 0.582635
0.162219 0.857435 0.58265
0.301411 0.857511 0.582727
0.440604 0.857603 0.582818
0.579538 0.857404 0.58262
0.718715 0.857496 0.582712
0.857923 0.857572 0.582803
0.99649 0.857481 0.582696
0 0.996506 0.582834
0.023209 0.996429 0.582742
0.162402 0.996521 0.582834
0.301595 0.996597 0.582925
0.440528 0.996429 0.582757
0.579721 0.99649 0.582818
0.718898 0.996582 0.582895
0.858106 0.996658 0.582986
0.996674 0.996567 0.582879
0 0 0.72163
0.0224002 0 0.721843
0.161578 0 0.72192
0.300618 0 0.721843
0.439689 0 0.721813
0.578897 0 0.721904
0.718013 0 0.721935
0.857023 0 0.721782
0.995865 0 0.721965
0 0.0226139 0.722103
0.022858 0.0228122 0.722301
0.162051 0.0229038 0.722393
0.300969 0.0227054 0.722194
0.440162 0.022797 0.722286
0.57937 0.0228733 0.722362
0.718334 0.0227512 0.72224
0.857481 0.0227665 0.722255
0.996323 0.0229496 0.722438
0 0.16173 0.722194
0.0229648 0.161929 0.722408
0.16202 0.161898 0.722362
0.301076 0.161822 0.722301
0.440253 0.161913 0.722393
0.579477 0.16199 0.722469
0.718364 0.161807 0.722271
0.857588 0.161883 0.722362
0.996429 0.162066 0.722545
0 0.300877 0.72224
0.0229953 0.301076 0.722438
0.161913 0.300893 0.722255
0.301122 0.300969 0.722332
0.440299 0.30106 0.722423
0.579507 0.301137 0.722499
0.71841 0.300954 0.722316
0.857618 0.30103 0.722393
0.99646 0.301213 0.722576
0 0.439979 0.722362
0.0231327 0.440177 0.722576
0.162036 0.439994 0.722377
0.301244 0.44007 0.722454
0.440421 0.440162 0.722545
0.579355 0.439963 0.722347
0.718532 0.440055 0.722438
0.857755 0.440131 0.72253
0.996597 0.440314 0.722713
0 0.579126 0.722377
0.0231327 0.579339 0.722576
0.162051 0.579141 0.722393
0.301259 0.579232 0.722469
0.440436 0.579324 0.72256
0.57937 0.579126 0.722362
0.718547 0.579217 0.722454
0.857755 0.579293 0.72253
0.99649 0.57937 0.722606
0 0.718227 0.72253
0.0231785 0.718318 0.722622
0.162203 0.718242 0.722545
0.301411 0.718318 0.722622
0.440574 0.718395 0.722698
0.579522 0.718212 0.722515
0.7187 0.718303 0.722606
0.857923 0.718395 0.722698
0.996475 0.718288 0.722591
0 0.857389 0.722515
0.0229953 0.857313 0.722438
0.162188 0.857404 0.72253
0.301396 0.857496 0.722606
0.440406 0.857404 0.72253
0.579507 0.857374 0.722499
0.718685 0.857466 0.722591
0.857832 0.857481 0.722606
0.99646 0.85745 0.722576
0 0.996384 0.722622
0.0231785 0.996399 0.722622
0.162371 0.99649 0.722713
0.301579 0.996567 0.722805
0.440482 0.996384 0.722606
0.57969 0.99646 0.722683
0.718868 0.996551 0.722774
0.857862 0.996414 0.722637
0.996643 0.996536 0.722759
0 0 0.86125
0.0224002 0 0.861448
0.161578 0 0.86154
0.300511 0 0.861341
0.439689 0 0.861433
0.578897 0 0.861509
0.7178 0 0.861326
0.857008 0 0.861402
0.99585 0 0.861585
0 0.0226139 0.861708
0.022858 0.0228122 0.861921
0.162005 0.022858 0.861967
0.300969 0.0227054 0.861814
0.440162 0.022797 0.861906
0.57937 0.0228733 0.861982
0.718273 0.0226902 0.861799
0.857481 0.0227665 0.861875
0.996323 0.0229496 0.862058
0 0.16173 0.861814
0.0229648 0.161929 0.862013
0.161959 0.161822 0.861906
0.301076 0.161822 0.861906
0.440253 0.161913 0.861997
0.57937 0.161898 0.861982
0.718364 0.161807 0.861891
0.857588 0.161883 0.861967
0.996429 0.162066 0.86215
0 0.300862 0.86186
0.0229953 0.301076 0.862058
0.161898 0.300877 0.86186
0.301106 0.300969 0.861952
0.440299 0.30106 0.862043
0.579263 0.300893 0.861875
0.71841 0.300954 0.861936
0.857618 0.30103 0.862013
0.996307 0.30106 0.862043
0 0.439979 0.861982
0.0229648 0.440024 0.862028
0.162036 0.439994 0.861997
0.301244 0.44007 0.862074
0.440421 0.440162 0.862165
0.579355 0.439963 0.861967
0.718532 0.440055 0.862058
0.85774 0.440131 0.862135
0.996307 0.44004 0.862043
0 0.579126 0.861997
0.022858 0.579049 0.861921
0.162051 0.579141 0.862013
0.301244 0.579232 0.862089
0.440436 0.579324 0.862181
0.57937 0.57911 0.861982
0.718547 0.579217 0.862074
0.857755 0.579293 0.86215
0.996323 0.579187 0.862043
0 0.718227 0.86215
0.0230106 0.718151 0.862074
0.162203 0.718242 0.862165
0.301411 0.718318 0.862242
0.440314 0.718135 0.862058
0.579522 0.718212 0.862135
0.7187 0.718303 0.862226
0.857908 0.718379 0.862303
0.996475 0.718288 0.862211
0 0.857389 0.862135
0.0229953 0.857313 0.862058
0.162188 0.857404 0.86215
0.301396 0.857481 0.862226
0.440299 0.857298 0.862043
0.579507 0.857374 0.862119
0.718685 0.857466 0.862211
0.857771 0.85742 0.86215
0.99646 0.85745 0.862196
0 0.996323 0.862165
0.0231785 0.996399 0.862242
0.162371 0.99649 0.862333
0.301518 0.996521 0.862364
0.440482 0.996384 0.862226
0.57969 0.99646 0.862303
0.718868 0.996551 0.862394
0.857801 0.996353 0.862196
0.996643 0.996536 0.862379
0 0 1
0.0224155 0 1
0.161364 0 1
0.300542 0 1
0.439719 0 1
0.578927 0 1
0.71783 0 1
0.857038 0 1
0.99588 0 1
0 0.0226291 1
0.0228885 0.0228428 1
0.161791 0.0226444 1
0.300999 0.0227359 1
0.440177 0.0228122 1
0.579385 0.0228885 1
0.718288 0.0227207 1
0.857511 0.022797 1
0.996353 0.0229801 1
0 0.161761 1
0.0229953 0.161959 1
0.161898 0.161761 1
0.301106 0.161852 1
0.440284 0.161944 1
0.579217 0.161746 1
0.718395 0.161837 1
0.857603 0.161913 1
0.996384 0.162036 1
0 0.300893 1
0.0229496 0.30103 1
0.161929 0.300908 1
0.301137 0.300999 1
0.44033 0.301091 1
0.579248 0.300877 1
0.718425 0.300969 1
0.857649 0.30106 1
0.996277 0.30103 1
0 0.440009 1
0.0229191 0.439979 1
0.162066 0.440009 1
0.301274 0.440101 1
0.44033 0.440055 1
0.579385 0.439994 1
0.718563 0.440085 1
0.857771 0.440162 1
0.996338 0.44007 1
0 0.579156 1
0.0228885 0.57908 1
0.162066 0.579171 1
0.301274 0.579248 1
0.440177 0.579065 1
0.579385 0.579141 1
0.718578 0.579232 1
0.857603 0.579141 1
0.996353 0.579217 1
0 0.718059 1
0.0230411 0.718181 1
0.162234 0.718273 1
0.301442 0.718349 1
0.440345 0.718166 1
0.579553 0.718242 1
0.71873 0.718334 1
0.857664 0.718135 1
0.996506 0.718318 1
0 0.857145 1
0.0230259 0.857343 1
0.162219 0.857435 1
0.301427 0.857511 1
0.44033 0.857328 1
0.579538 0.857404 1
0.718715 0.857496 1
0.857649 0.857298 1
0.99649 0.857481 1
0 0.996231 1
0.023209 0.996429 1
0.162402 0.996521 1
0.30132 0.996323 1
0.440513 0.996414 1
0.579721 0.99649 1
0.718883 0.996567 1
0.857832 0.996384 1
0.996109 0.996002 1
