public/LUTS/Darken/Darken_07.cube
TITLE "Generated by Resolve"
LUT_3D_SIZE 9
0 0 0
0 0 0
0.134218 0 0
0.27779 0 0
0.421347 0 0
0.56495 0 0
0.708217 0 0
0.85182 0 0
0.995041 0 0
0 0 0
0 0 0
0.134676 0 0
0.278264 0 0
0.421836 0 0
0.565133 0 0
0.708705 0 0
0.852308 0 0
0.995514 0 0
0 0.13463 0
0 0.134844 0
0.134783 0.134646 0
0.27837 0.134737 0
0.421942 0.134829 0
0.56524 0.134615 0
0.708812 0.134707 0
0.852399 0.134798 0
0.995544 0.134905 0
0 0.278157 0
0 0.278279 0
0.134829 0.278172 0
0.278416 0.278264 0
0.421973 0.278355 0
0.565286 0.278141 0
0.708843 0.278233 0
0.852445 0.278325 0
0.995377 0.278218 0
0 0.421653 0
0 0.421576 0
0.134951 0.421668 0
0.278538 0.421744 0
0.421958 0.421683 0
0.565408 0.421637 0
0.70898 0.421729 0
0.852537 0.421759 0
0.995499 0.421714 0
0 0.565118 0
0 0.565103 0
0.134966 0.565194 0
0.278553 0.565286 0
0.421836 0.565087 0
0.565423 0.565164 0
0.70898 0.56527 0
0.852384 0.565148 0
0.995514 0.56524 0
0 0.708446 0
0 0.708583 0
0.135134 0.708675 0
0.278721 0.708766 0
0.421988 0.708568 0
0.565591 0.708644 0
0.709148 0.708736 0
0.852461 0.708537 0
0.995682 0.708721 0
0 0.851926 0
0 0.852125 0
0.135119 0.852232 0
0.278416 0.852033 0
0.421973 0.85211 0
0.565576 0.852201 0
0.709133 0.852293 0
0.852445 0.852079 0
0.995666 0.852277 0
0 0.995392 0
0 0.99559 0
0.135302 0.995697 0
0.278599 0.995483 0
0.422171 0.995575 0
0.565759 0.995666 0
0.709285 0.995712 0
0.852644 0.995544 0
0.99585 0.995743 0
0 0 0
0 0 0
0.134234 0 0
0.277821 0 0
0.421393 0 0
0.564752 0 0
0.708263 0 0
0.851865 0 0
0.994949 0 0
0 0 0
0 0 0
0.134722 0 0
0.278309 0 0
0.421866 0 0
0.565179 0 0
0.708736 0 0
0.852338 0 0
0.99527 0 0
0 0.134676 0
0 0.1346 0
0.134813 0.134691 0
0.278416 0.134768 0
0.421973 0.134859 0
0.565286 0.134661 0
0.708843 0.134752 0
0.852445 0.134829 0
0.995377 0.134737 0
0 0.278202 0
0 0.278126 0
0.134859 0.278218 0
0.278447 0.278294 0
0.421729 0.278096 0
0.565316 0.278187 0
0.708888 0.278279 0
0.852491 0.278355 0
0.995407 0.278264 0
0 0.421683 0
0 0.421607 0
0.134997 0.421698 0
0.278584 0.42179 0
0.421866 0.421592 0
0.565454 0.421668 0
0.709026 0.421775 0
0.852506 0.421729 0
0.995544 0.421744 0
0 0.565087 0
0 0.565148 0
0.134997 0.56524 0
0.278569 0.565301 0
0.421866 0.565133 0
0.565469 0.565209 0
0.709026 0.565301 0
0.852338 0.565103 0
0.99556 0.565286 0
0 0.708415 0
0 0.708629 0
0.135164 0.708721 0
0.278569 0.708614 0
0.422034 0.708598 0
0.565621 0.70869 0
0.709102 0.708705 0
0.852506 0.708583 0
0.995712 0.708766 0
0 0.851957 0
0 0.852171 0
0.135149 0.852262 0
0.278447 0.852064 0
0.422019 0.852155 0
0.565606 0.852232 0
0.708934 0.852094 0
0.852491 0.852125 0
0.995697 0.852308 0
0 0.995422 0
0 0.995636 0
0.135332 0.995727 0
0.278645 0.995529 0
0.422202 0.995621 0
0.565805 0.995697 0
0.709072 0.995514 0
0.852674 0.99559 0
0.995895 0.995773 0
0 0 0.135546
0 0 0.135698
0.134218 0 0.135561
0.277806 0 0.135637
0.421363 0 0.135729
0.564675 0 0.135531
0.708232 0 0.135622
0.851835 0 0.135714
0.994858 0 0.135698
0 0 0.136034
0 0 0.136034
0.134691 0 0.136034
0.278279 0 0.136126
0.421744 0 0.13611
0.565164 0 0.136019
0.708721 0 0.13611
0.852323 0 0.136187
0.995239 0 0.13608
0 0.134646 0.136126
0 0.134569 0.136049
0.134798 0.134661 0.136141
0.278386 0.134752 0.136233
0.421683 0.134569 0.136049
0.565255 0.13463 0.13611
0.708812 0.134722 0.136202
0.852262 0.134646 0.136141
0.995346 0.134707 0.136202
0 0.278004 0.135988
0 0.278096 0.136095
0.134844 0.278187 0.136187
0.278431 0.278279 0.136263
0.421698 0.27808 0.136065
0.565301 0.278157 0.136156
0.708858 0.278248 0.136248
0.852171 0.27805 0.136049
0.995392 0.278233 0.136233
0 0.421378 0.136019
0 0.421576 0.136217
0.134966 0.421683 0.136309
0.278553 0.421759 0.1364
0.421836 0.421561 0.136202
0.565438 0.421653 0.136294
0.708995 0.421744 0.136385
0.852308 0.42153 0.136172
0.995514 0.421729 0.13637
0 0.56492 0.136019
0 0.565133 0.136233
0.134981 0.565209 0.136324
0.278279 0.565011 0.136126
0.421851 0.565103 0.136217
0.565438 0.565194 0.136294
0.708995 0.565286 0.136385
0.852323 0.565072 0.136187
0.995529 0.56527 0.13637
0 0.708385 0.136187
0 0.708598 0.1364
0.135134 0.70869 0.136492
0.278447 0.708492 0.136278
0.422004 0.708583 0.13637
0.565606 0.708659 0.136461
0.70901 0.708598 0.1364
0.852476 0.708553 0.136355
0.995697 0.708736 0.136538
0 0.851942 0.136172
0 0.852155 0.136385
0.135058 0.852171 0.1364
0.278431 0.852033 0.136263
0.421988 0.852125 0.136355
0.565591 0.852216 0.136446
0.708858 0.852018 0.136248
0.852461 0.852094 0.136339
0.995682 0.852293 0.136522
0 0.995407 0.13637
0 0.995621 0.136568
0.135088 0.995483 0.136446
0.278614 0.995499 0.136461
0.422187 0.99559 0.136553
0.565667 0.99556 0.136522
0.709056 0.995483 0.136446
0.852659 0.99556 0.136522
0.995865 0.995758 0.136721
0 0 0.279561
0 0 0.279484
0.134218 0 0.279576
0.27779 0 0.279652
0.421347 0 0.279728
0.564675 0 0.279545
0.708232 0 0.279637
0.851835 0 0.279728
0.994751 0 0.279622
0 0 0.280049
0 0 0.279957
0.134691 0 0.280049
0.278279 0 0.28014
0.421561 0 0.279942
0.565164 0 0.280034
0.708721 0 0.280125
0.852247 0 0.280125
0.995239 0 0.280095
0 0.134554 0.280064
0 0.134569 0.280064
0.134798 0.134661 0.280156
0.278386 0.134737 0.280247
0.421668 0.134554 0.280049
0.565255 0.13463 0.280125
0.708812 0.134722 0.280217
0.852186 0.134585 0.280079
0.995346 0.134707 0.280201
0 0.277928 0.279942
0 0.278096 0.28011
0.134829 0.278187 0.280201
0.278279 0.278126 0.28014
0.421698 0.27808 0.280079
0.565301 0.278157 0.280171
0.708858 0.278248 0.280262
0.852171 0.27805 0.280064
0.995377 0.278233 0.280247
0 0.421378 0.280034
0 0.421576 0.280232
0.134966 0.421668 0.280324
0.278264 0.421469 0.280125
0.421836 0.421561 0.280217
0.565438 0.421653 0.280308
0.708797 0.421546 0.280201
0.852308 0.42153 0.280186
0.995514 0.421729 0.280369
0 0.56492 0.280034
0 0.565118 0.280247
0.134981 0.565209 0.280339
0.278279 0.565011 0.28014
0.421851 0.565103 0.280232
0.565438 0.565194 0.280308
0.708705 0.564996 0.28011
0.852308 0.565072 0.280201
0.995529 0.56527 0.280385
0 0.708385 0.280201
0 0.708598 0.280415
0.135134 0.70869 0.280507
0.278447 0.708492 0.280293
0.422004 0.708583 0.280385
0.565606 0.708659 0.280476
0.708873 0.708461 0.280278
0.852476 0.708553 0.280369
0.995697 0.708736 0.280552
0 0.851942 0.280186
0 0.85214 0.2804
0.134829 0.851942 0.280201
0.278431 0.852033 0.280278
0.421988 0.852125 0.280369
0.56556 0.852186 0.28043
0.708858 0.852018 0.280262
0.852461 0.852094 0.280354
0.995682 0.852293 0.280537
0 0.995407 0.280369
0 0.995621 0.280583
0.135027 0.995407 0.280385
0.278614 0.995499 0.280476
0.422187 0.99559 0.280568
0.565591 0.995483 0.280461
0.709041 0.995483 0.280446
0.852659 0.99556 0.280537
0.995789 0.995666 0.280644
0 0 0.423835
0 0 0.423758
0.134188 0 0.42385
0.277775 0 0.423941
0.421057 0 0.423743
0.564645 0 0.423819
0.708217 0 0.423926
0.85153 0 0.423728
0.994736 0 0.423896
0 0 0.424033
0 0 0.424247
0.134676 0 0.424338
0.278264 0 0.424414
0.42153 0 0.424231
0.565133 0 0.424308
0.70869 0 0.424399
0.852003 0 0.424201
0.995224 0 0.424384
0 0.13434 0.42414
0 0.134539 0.424338
0.134768 0.13463 0.424445
0.278309 0.134661 0.424475
0.421637 0.134524 0.424323
0.56524 0.134615 0.424414
0.708797 0.134707 0.424506
0.85211 0.134493 0.424292
0.995315 0.134691 0.424491
0 0.277867 0.42417
0 0.278065 0.424384
0.134813 0.278157 0.424475
0.278111 0.277958 0.424277
0.421683 0.27805 0.424369
0.56527 0.278141 0.424445
0.708721 0.278126 0.42443
0.852155 0.278019 0.424338
0.995361 0.278218 0.424521
0 0.421347 0.424308
0 0.421561 0.424521
0.13492 0.421637 0.424598
0.278248 0.421439 0.424399
0.421805 0.421546 0.424506
0.565408 0.421622 0.424582
0.708705 0.421454 0.424414
0.852277 0.421515 0.424475
0.995499 0.421698 0.424659
0 0.564889 0.424323
0 0.565103 0.424521
0.134783 0.565011 0.424445
0.278248 0.564981 0.424414
0.42182 0.565072 0.424506
0.565423 0.565164 0.424598
0.70869 0.564965 0.424399
0.852293 0.565057 0.424475
0.995499 0.56524 0.424674
0 0.70837 0.424475
0 0.708568 0.424689
0.134829 0.708385 0.424491
0.278416 0.708461 0.424582
0.421988 0.708553 0.424674
0.565347 0.708415 0.424521
0.708843 0.708446 0.424552
0.852461 0.708522 0.424643
0.995666 0.708721 0.424826
0 0.851911 0.42446
0 0.852125 0.424674
0.134813 0.851926 0.424475
0.278401 0.852018 0.424567
0.421973 0.85211 0.424659
0.56527 0.851896 0.424445
0.708827 0.851987 0.424536
0.852445 0.852079 0.424628
0.995651 0.852262 0.424811
0 0.995377 0.424659
0 0.995575 0.424857
0.134997 0.995392 0.424674
0.278599 0.995483 0.42475
0.422156 0.995575 0.424842
0.565469 0.995361 0.424643
0.709026 0.995453 0.424735
0.852628 0.995544 0.424826
0.995544 0.995438 0.42472
0 0 0.567651
0 0 0.567773
0.134188 0 0.567864
0.277668 0 0.567849
0.421057 0 0.567758
0.564645 0 0.567834
0.708202 0 0.567926
0.851514 0 0.567727
0.994736 0 0.56791
0 0 0.568048
0 0 0.568261
0.134661 0 0.568353
0.278004 0 0.568185
0.42153 0 0.568231
0.565133 0 0.568322
0.70869 0 0.568414
0.852003 0 0.568215
0.995209 0 0.568399
0 0.134325 0.568154
0 0.134539 0.568353
0.134768 0.13463 0.568444
0.278065 0.134432 0.568246
0.421637 0.134524 0.568338
0.565225 0.1346 0.568429
0.708507 0.134417 0.568231
0.85211 0.134493 0.568307
0.995315 0.134676 0.568505
0 0.277852 0.568185
0 0.278065 0.568399
0.134813 0.278157 0.56849
0.278111 0.277958 0.568292
0.421683 0.27805 0.568383
0.56527 0.278126 0.56846
0.708537 0.277943 0.568261
0.85214 0.278019 0.568353
0.995361 0.278202 0.568536
0 0.421347 0.568322
0 0.421561 0.568536
0.134859 0.421561 0.568536
0.278248 0.421439 0.568414
0.421805 0.421546 0.568505
0.565408 0.421622 0.568597
0.708675 0.421424 0.568399
0.852277 0.421515 0.56849
0.995483 0.421698 0.568673
0 0.564889 0.568322
0 0.565103 0.568536
0.134661 0.564904 0.568338
0.278248 0.564981 0.568429
0.42182 0.565072 0.568521
0.56527 0.565026 0.56846
0.70869 0.564965 0.568414
0.852293 0.565057 0.56849
0.995468 0.565194 0.568643
0 0.708354 0.56849
0 0.708522 0.568643
0.134829 0.70837 0.568505
0.278416 0.708461 0.568597
0.421988 0.708553 0.568689
0.565286 0.708354 0.568475
0.708843 0.708446 0.568566
0.852445 0.708522 0.568658
0.995468 0.708522 0.568643
0 0.851911 0.568475
0 0.851911 0.568475
0.134813 0.851926 0.56849
0.278401 0.852003 0.568566
0.421973 0.852094 0.568673
0.56527 0.851896 0.56846
0.708827 0.851987 0.568551
0.85243 0.852079 0.568643
0.995361 0.851972 0.568536
0 0.995377 0.568673
0 0.9953 0.568582
0.134997 0.995392 0.568689
0.278584 0.995468 0.568765
0.421897 0.9953 0.568597
0.565469 0.995361 0.568658
0.709026 0.995453 0.56875
0.852628 0.995544 0.568826
0.995544 0.995438 0.568734
0 0 0.711849
0 0 0.712062
0.134157 0 0.712154
0.277577 0 0.712062
0.421027 0 0.712047
0.56463 0 0.712123
0.708125 0 0.712154
0.851499 0 0.712016
0.994705 0 0.7122
0 0 0.712337
0 0 0.712535
0.134646 0 0.712627
0.277943 0 0.712428
0.421515 0 0.71252
0.565103 0 0.712612
0.708446 0 0.712474
0.851972 0 0.712489
0.995193 0 0.712688
0 0.13431 0.712428
0 0.134524 0.712642
0.134615 0.134478 0.712612
0.27805 0.134401 0.712535
0.421622 0.134508 0.712627
0.565209 0.134585 0.712703
0.708476 0.134386 0.71252
0.852079 0.134478 0.712596
0.9953 0.134661 0.712779
0 0.277836 0.712474
0 0.27805 0.712688
0.134493 0.277852 0.712489
0.27808 0.277928 0.712566
0.421653 0.278035 0.712673
0.56524 0.278111 0.712749
0.708522 0.277913 0.712551
0.852125 0.277989 0.712627
0.995331 0.278187 0.712825
0 0.421317 0.712612
0 0.42153 0.71281
0.13463 0.421332 0.712627
0.278218 0.421424 0.712703
0.42179 0.421515 0.712795
0.565087 0.421302 0.712596
0.708659 0.421408 0.712688
0.852262 0.421485 0.712764
0.995468 0.421668 0.712963
0 0.564858 0.712612
0 0.565072 0.712825
0.134646 0.564874 0.712627
0.278233 0.564965 0.712718
0.42179 0.565057 0.71281
0.565103 0.564843 0.712596
0.708659 0.564935 0.712703
0.852262 0.565026 0.712779
0.995361 0.565103 0.712856
0 0.708339 0.712779
0 0.708431 0.712871
0.134798 0.708354 0.712795
0.278386 0.708431 0.712871
0.421942 0.708507 0.712947
0.56527 0.708324 0.712764
0.708827 0.708415 0.712856
0.85243 0.708507 0.712947
0.995346 0.7084 0.71284
0 0.851881 0.712764
0 0.851804 0.712688
0.134783 0.851896 0.712779
0.27837 0.851987 0.712856
0.421759 0.851896 0.712779
0.56524 0.851865 0.712749
0.708812 0.851972 0.71284
0.852338 0.851972 0.712856
0.995331 0.851942 0.712825
0 0.995254 0.712856
0 0.99527 0.712871
0.134981 0.995361 0.712963
0.278569 0.995453 0.713054
0.421851 0.995254 0.712856
0.565438 0.995331 0.712932
0.708995 0.995438 0.713039
0.852369 0.995285 0.712886
0.995529 0.995407 0.713008
0 0 0.855863
0 0 0.856077
0.134157 0 0.856168
0.277455 0 0.855955
0.421027 0 0.856046
0.564614 0 0.856138
0.707897 0 0.85594
0.851499 0 0.856016
0.994705 0 0.856214
0 0 0.856336
0 0 0.85655
0.1346 0 0.856596
0.277943 0 0.856443
0.421515 0 0.856535
0.565103 0 0.856611
0.70837 0 0.856428
0.851972 0 0.856504
0.995193 0 0.856687
0 0.13431 0.856443
0 0.134524 0.856657
0.134539 0.134401 0.85655
0.27805 0.134401 0.85655
0.421607 0.134493 0.856641
0.565103 0.134478 0.856626
0.708476 0.134386 0.856535
0.852079 0.134463 0.856611
0.9953 0.134661 0.856794
0 0.277836 0.856489
0 0.27805 0.856703
0.134493 0.277836 0.856489
0.27808 0.277928 0.85658
0.421653 0.278019 0.856672
0.564996 0.277852 0.856504
0.708522 0.277913 0.856565
0.852125 0.277989 0.856641
0.995178 0.278035 0.856687
0 0.421317 0.856611
0 0.421363 0.856657
0.13463 0.421332 0.856626
0.278218 0.421424 0.856718
0.42179 0.421515 0.856809
0.565087 0.421302 0.856611
0.708644 0.421408 0.856703
0.852247 0.421485 0.856779
0.995178 0.421378 0.856687
0 0.564858 0.856626
0 0.564782 0.85655
0.134646 0.564874 0.856641
0.278233 0.564965 0.856733
0.42179 0.565057 0.856825
0.565103 0.564843 0.856611
0.708659 0.564935 0.856703
0.852262 0.565026 0.856794
0.995193 0.56492 0.856687
0 0.708339 0.856794
0 0.708263 0.856718
0.134798 0.708354 0.856809
0.278386 0.708431 0.856886
0.421668 0.708232 0.856687
0.565255 0.708324 0.856779
0.708827 0.708415 0.85687
0.85243 0.708492 0.856947
0.995346 0.7084 0.856855
0 0.851881 0.856779
0 0.851804 0.856703
0.134783 0.851896 0.856794
0.27837 0.851987 0.85687
0.421653 0.851789 0.856672
0.56524 0.851865 0.856764
0.708812 0.851972 0.856855
0.852262 0.851911 0.856794
0.995331 0.851942 0.85684
0 0.995193 0.856809
0 0.99527 0.856886
0.134981 0.995361 0.856977
0.278508 0.995392 0.857008
0.421836 0.995254 0.85687
0.565438 0.995331 0.856947
0.708995 0.995438 0.857053
0.852308 0.995224 0.85684
0.995529 0.995407 0.857023
0 0 0.999481
0 0 0.99968
0.133944 0 0.999527
0.277485 0 0.999573
0.421057 0 0.999664
0.564645 0 0.999756
0.707927 0 0.999557
0.85153 0 0.999634
0.994736 0 0.999832
0 0 0.999954
0 0 1
0.134386 0 0.999969
0.277974 0 1
0.42153 0 1
0.565118 0 1
0.7084 0 1
0.852003 0 1
0.995224 0 1
0 0.13434 1
0 0.134554 1
0.134478 0.13434 1
0.27808 0.134432 1
0.421637 0.134524 1
0.56495 0.134325 1
0.708507 0.134417 1
0.85211 0.134493 1
0.995254 0.13463 1
0 0.277867 1
0 0.277989 1
0.134524 0.277867 1
0.278111 0.277958 1
0.421683 0.27805 1
0.564981 0.277852 1
0.708553 0.277943 1
0.852155 0.278019 1
0.995148 0.277989 1
0 0.421347 1
0 0.421332 1
0.134661 0.421363 1
0.278248 0.421454 1
0.421683 0.421408 1
0.565118 0.421332 1
0.708675 0.421439 1
0.852277 0.421515 1
0.995209 0.421408 1
0 0.564889 1
0 0.564813 1
0.134661 0.564904 1
0.278248 0.564981 1
0.42153 0.564797 1
0.565133 0.564874 1
0.70869 0.564965 1
0.85211 0.564858 1
0.995209 0.56495 1
0 0.708156 1
0 0.708293 1
0.134829 0.70837 1
0.278416 0.708461 1
0.421698 0.708263 1
0.565286 0.708354 1
0.708858 0.708446 1
0.852171 0.708232 1
0.995377 0.708431 1
0 0.851621 1
0 0.851835 1
0.134813 0.851926 1
0.278401 0.852018 1
0.421683 0.85182 1
0.56527 0.851896 1
0.708843 0.851987 1
0.852155 0.851789 1
0.995361 0.851972 1
0 0.995087 1
0 0.9953 1
0.135012 0.995392 1
0.278309 0.995193 1
0.421866 0.995285 1
0.565469 0.995361 1
0.70901 0.995438 1
0.852338 0.995254 1
0.99498 0.994858 1
