public/LUTS/Darken/Darken_08.cube
TITLE "Generated by Resolve"
LUT_3D_SIZE 5
0 0 0
0.229175 0 0
0.459373 0 0
0.689372 0 0
0.919326 0 0
0 0.229496 0
0.229618 0.229511 1.5259e-05
0.459846 0.229664 0.00015259
0.689845 0.229572 7.62951e-05
0.919738 0.229725 0.000213626
0.000137331 0.459617 0.000137331
0.229755 0.459632 0.00015259
0.459861 0.459648 0.000183108
0.689982 0.459678 0.000213626
0.919707 0.459663 0.000198367
0.000106813 0.689555 0.000106813
0.229892 0.689738 0.000289921
0.459892 0.689647 0.000198367
0.69012 0.689799 0.000350958
0.919844 0.689784 0.000335698
0.000183108 0.919615 0.000183108
0.230045 0.91986 0.000427253
0.460029 0.919768 0.000350958
0.690227 0.919875 0.000457771
0.919982 0.91989 0.00047303
0 0 0.230228
0.22916 0 0.230243
0.459388 0 0.230381
0.689387 0 0.230304
0.919188 0 0.23035
1.5259e-05 0.229511 0.230701
0.229633 0.229526 0.230716
0.459648 0.22945 0.23064
0.68986 0.229572 0.230762
0.919585 0.229572 0.230762
0 0.459403 0.23061
0.22977 0.459632 0.230854
0.45977 0.459556 0.230762
0.689998 0.459693 0.2309
0.919722 0.459678 0.2309
6.10361e-05 0.689509 0.230747
0.229908 0.689754 0.230991
0.459907 0.689662 0.2309
0.690013 0.689677 0.230915
0.91986 0.689799 0.231037
0.000198367 0.919631 0.230884
0.229877 0.919692 0.230945
0.460044 0.919768 0.231037
0.690044 0.919692 0.230961
0.919997 0.919905 0.231174
0 0 0.461372
0.229145 0 0.461387
0.459144 0 0.461295
0.689372 0 0.461433
0.919081 0 0.461418
0 0.229267 0.461616
0.229618 0.229511 0.46186
0.459617 0.229419 0.461769
0.68983 0.229557 0.461906
0.919554 0.229541 0.461891
0 0.459373 0.461753
0.22974 0.459602 0.461982
0.459754 0.459525 0.461906
0.689769 0.459464 0.46183
0.919692 0.459663 0.462028
4.57771e-05 0.689494 0.461891
0.229664 0.689494 0.461891
0.459892 0.689647 0.462043
0.689876 0.689555 0.461952
0.919829 0.689769 0.462165
0.000183108 0.9196 0.462028
0.229801 0.919615 0.462043
0.460029 0.919753 0.462181
0.690028 0.919661 0.462089
0.919738 0.919646 0.462074
0 0 0.692287
0.229129 0 0.692531
0.459129 0 0.692439
0.689296 0 0.692531
0.919066 0 0.692561
0 0.229236 0.69276
0.229496 0.229374 0.692897
0.459586 0.229404 0.692912
0.689586 0.229313 0.692821
0.919539 0.229526 0.693034
0 0.459358 0.692897
0.229496 0.459373 0.692897
0.459724 0.45951 0.693049
0.689723 0.459419 0.692958
0.919676 0.459632 0.693172
1.5259e-05 0.689464 0.693034
0.229633 0.689479 0.693034
0.459846 0.689601 0.693172
0.68986 0.68954 0.693095
0.919585 0.689525 0.69308
9.15541e-05 0.919509 0.693095
0.229786 0.9196 0.693187
0.45977 0.919509 0.693095
0.689998 0.919646 0.693233
0.919722 0.919631 0.693217
0 0 0.922881
0.228946 0 0.922927
0.459144 0 0.923033
0.689128 0 0.922957
0.919097 0 0.923171
0 0.229267 0.923354
0.229389 0.229267 0.923369
0.459602 0.229419 0.923506
0.689601 0.229328 0.923415
0.919509 0.229496 0.923583
0 0.459373 0.923491
0.229526 0.459388 0.923506
0.459648 0.459419 0.923537
0.689738 0.459449 0.923568
0.919463 0.459434 0.923537
0 0.689326 0.923476
0.229664 0.689494 0.923644
0.459663 0.689418 0.923552
0.689876 0.689555 0.923705
0.9196 0.68954 0.92369
0 0.919371 0.923537
0.229801 0.919615 0.923781
0.4598 0.919524 0.92369
0.690013 0.919646 0.923827
0.91928 0.919188 0.923354
