public/LUTS/Darken/Darken_04.cube
TITLE "Generated by Resolve"
LUT_3D_SIZE 5
0 0 0
0.196216 0 0
0.463523 0 0
0.730587 0 0
0.997604 0 0
0 0.196597 0
0.196735 0.196612 0
0.464073 0.19678 0
0.731136 0.196674 0
0.998077 0.196857 0
0 0.463798 0
0.196902 0.463813 0
0.464088 0.463844 0
0.731289 0.463874 0
0.998047 0.463859 0
0 0.7308 0
0.197055 0.731014 0
0.464118 0.730907 0
0.731456 0.731075 0
0.998199 0.73106 0
0 0.997925 0
0.197223 0.998215 0
0.464286 0.998108 0
0.731579 0.998245 0
0.998367 0.99826 0
0 0 0.197452
0.196216 0 0.197467
0.463539 0 0.19762
0.730602 0 0.197528
0.997436 0 0.197589
0 0.196612 0.198001
0.19675 0.196628 0.198001
0.463844 0.196551 0.197925
0.731151 0.196689 0.198062
0.997894 0.196674 0.198047
0 0.463554 0.197879
0.196918 0.463828 0.198169
0.463981 0.463722 0.198062
0.731304 0.46389 0.19823
0.998062 0.463874 0.198215
0 0.730755 0.198047
0.19707 0.731029 0.198322
0.464134 0.730922 0.198215
0.731319 0.730953 0.198245
0.998215 0.731075 0.198367
0 0.997955 0.198215
0.197024 0.998016 0.198276
0.464302 0.998123 0.198383
0.731365 0.998032 0.198291
0.998383 0.998276 0.198535
0 0 0.465843
0.196185 0 0.465858
0.463249 0 0.465751
0.730587 0 0.465919
0.99733 0 0.465904
0 0.196323 0.466117
0.196735 0.196597 0.466392
0.463798 0.196506 0.4663
0.731121 0.196658 0.466453
0.997864 0.196643 0.466438
0 0.463523 0.466285
0.196872 0.463783 0.466545
0.463951 0.463706 0.466453
0.731044 0.463615 0.466377
0.998032 0.463844 0.466606
0 0.730724 0.466438
0.19678 0.730739 0.466453
0.464118 0.730907 0.466621
0.731182 0.7308 0.466514
0.998184 0.731044 0.466758
0 0.997925 0.466606
0.196948 0.99794 0.466606
0.464271 0.998108 0.466773
0.731334 0.998001 0.466667
0.998077 0.997986 0.466651
0 0 0.733974
0.196155 0 0.734249
0.463218 0 0.734142
0.730495 0 0.734249
0.997299 0 0.734295
0 0.196292 0.734508
0.196582 0.19646 0.734676
0.463767 0.196475 0.734691
0.730831 0.196368 0.734585
0.997848 0.196628 0.734844
0 0.463493 0.734676
0.196597 0.463508 0.734691
0.463935 0.463676 0.734844
0.730999 0.463569 0.734752
0.998001 0.463828 0.734997
0 0.730694 0.734829
0.196765 0.730709 0.734844
0.464073 0.730861 0.734997
0.731151 0.73077 0.734905
0.997894 0.730755 0.73489
0 0.997818 0.734905
0.196918 0.997909 0.735012
0.463981 0.997803 0.734905
0.731319 0.997971 0.735073
0.998062 0.997955 0.735058
0 0 1
0.195956 0 1
0.463249 0 1
0.730312 0 1
0.99733 0 1
0 0.196323 1
0.19646 0.196338 1
0.463798 0.196506 1
0.730861 0.196399 1
0.997818 0.196597 1
0 0.463523 1
0.196612 0.463539 1
0.463828 0.463584 1
0.731014 0.4636 1
0.997757 0.463584 1
0 0.730541 1
0.19678 0.730739 1
0.463844 0.730632 1
0.731182 0.7308 1
0.997925 0.730785 1
0 0.99765 1
0.196948 0.99794 1
0.464012 0.997833 1
0.731319 0.997986 1
0.997543 0.997436 1
