public/LUTS/Darken/Darken_02.cube
TITLE "Generated by Resolve"
LUT_3D_SIZE 9
0 0 0
0.0922103 0 0
0.221576 0 0
0.351171 0 0
0.480781 0 0
0.610407 0 0
0.739742 0 0
0.869368 0 0
0.998657 0 0
0 0.0924086 0
0.0926375 0.0925917 0
0.221988 0.0924239 0
0.351614 0.0925002 0
0.481209 0.0925765 0
0.610574 0.0923934 0
0.740169 0.0924849 0
0.86981 0.0925612 0
0.999084 0.0927291 0
0 0.221942 0
0.0927443 0.222141 0
0.22208 0.221958 0
0.351705 0.222034 0
0.481315 0.222126 0
0.610666 0.221942 0
0.740276 0.222019 0
0.869902 0.222095 0
0.999115 0.222187 0
0 0.351507 0
0.0926833 0.351614 0
0.222126 0.351522 0
0.351736 0.351598 0
0.481346 0.35169 0
0.610712 0.351507 0
0.740307 0.351583 0
0.869932 0.351659 0
0.998962 0.351568 0
0 0.481041 0
0.0926375 0.48098 0
0.222248 0.481056 0
0.351858 0.481132 0
0.481331 0.481086 0
0.610834 0.481025 0
0.740429 0.481117 0
0.870008 0.481147 0
0.999084 0.481102 0
0 0.610559 0
0.0926375 0.610544 0
0.222248 0.610636 0
0.351873 0.610712 0
0.481209 0.610529 0
0.610834 0.610605 0
0.740429 0.610697 0
0.869886 0.61059 0
0.999084 0.610681 0
0 0.73994 0
0.0927901 0.740063 0
0.2224 0.740154 0
0.35201 0.74023 0
0.481361 0.740047 0
0.610986 0.740124 0
0.740581 0.740215 0
0.869947 0.740032 0
0.999237 0.7402 0
0 0.869459 0
0.0927749 0.869657 0
0.222385 0.869734 0
0.351751 0.869566 0
0.481346 0.869642 0
0.610971 0.869703 0
0.740566 0.869795 0
0.869947 0.869612 0
0.999222 0.86978 0
0 0.998978 0
0.0929427 0.999161 0
0.222553 0.999252 0
0.351919 0.999069 0
0.481514 0.999146 0
0.611139 0.999222 0
0.740703 0.999268 0
0.870115 0.999115 0
0.99939 0.999283 0
0 0 0.0925307
0.0922408 0 0.0927138
0.221592 0 0.0925307
0.351217 0 0.092607
0.480812 0 0.0926986
0.610239 0 0.0925612
0.739773 0 0.0925917
0.869413 0 0.092668
0.998581 0 0.0927291
0 0.0924392 0.092958
0.0925612 0.0925154 0.093019
0.222019 0.0924544 0.0929732
0.351644 0.0925307 0.0930495
0.481254 0.0926223 0.0931258
0.61062 0.0924392 0.0929427
0.740215 0.0925154 0.0930343
0.869841 0.0925917 0.0931106
0.998871 0.0925002 0.093019
0 0.221988 0.0930495
0.0925154 0.221912 0.0929885
0.222126 0.222004 0.0930648
0.351736 0.22208 0.0931411
0.481346 0.222156 0.0932174
0.610712 0.221973 0.0930343
0.740307 0.222049 0.0931258
0.869932 0.222126 0.0932021
0.998962 0.222049 0.0931106
0 0.351553 0.0930953
0.092546 0.351476 0.093019
0.222156 0.351568 0.0930953
0.351781 0.351644 0.0931716
0.481117 0.351461 0.0930037
0.610742 0.351537 0.09308
0.740337 0.351614 0.0931563
0.869978 0.35169 0.0932326
0.998993 0.351614 0.0931411
0 0.481086 0.0932021
0.092668 0.48101 0.0931411
0.222278 0.481086 0.0932174
0.351904 0.481178 0.0932937
0.481239 0.480995 0.0931106
0.610864 0.481071 0.0932021
0.740459 0.481163 0.0932784
0.869993 0.481117 0.0932479
0.999115 0.481132 0.0932631
0 0.610529 0.0930953
0.0926833 0.61059 0.0931411
0.222278 0.610666 0.0932326
0.351873 0.610727 0.0932784
0.481239 0.610559 0.0931258
0.61088 0.610651 0.0932021
0.740475 0.610727 0.0932937
0.869841 0.610544 0.0930953
0.99913 0.610712 0.0932784
0 0.73991 0.0930953
0.0928206 0.740108 0.0932937
0.222431 0.740185 0.09337
0.351888 0.740093 0.0932784
0.481392 0.740093 0.0932784
0.611017 0.740169 0.0933547
0.740536 0.740169 0.0933547
0.869993 0.740063 0.0932479
0.999268 0.74023 0.0934157
0 0.869505 0.0930953
0.0928054 0.869688 0.0932784
0.222416 0.869764 0.0933547
0.351781 0.869596 0.0931716
0.481376 0.869673 0.0932631
0.611002 0.869749 0.0933394
0.740383 0.869612 0.0932021
0.869978 0.869642 0.0932326
0.999252 0.86981 0.0934005
0 0.999008 0.0932631
0.0929885 0.999207 0.0934462
0.222583 0.999283 0.0935378
0.351949 0.9991 0.0933547
0.481544 0.999176 0.093431
0.611185 0.999252 0.0935073
0.74052 0.999084 0.0933394
0.870146 0.999161 0.0934005
0.999435 0.999329 0.0935836
0 0 0.222766
0.0921798 0 0.222919
0.221576 0 0.222782
0.351186 0 0.222858
0.480797 0 0.22295
0.610162 0 0.222766
0.739757 0 0.222843
0.869383 0 0.222919
0.998489 0 0.222904
0 0.0924239 0.223209
0.0924697 0.0924239 0.223209
0.222004 0.0924392 0.223224
0.351629 0.0925154 0.223301
0.481132 0.0925002 0.223285
0.61059 0.0924086 0.223194
0.740185 0.0925002 0.223285
0.869825 0.0925765 0.223362
0.99884 0.0924697 0.223255
0 0.221973 0.223301
0.0924849 0.221897 0.223224
0.222095 0.221973 0.223316
0.35172 0.222049 0.223392
0.481086 0.221897 0.223239
0.610681 0.221958 0.223285
0.740276 0.222034 0.223377
0.86978 0.221973 0.223301
0.998947 0.222019 0.223362
0 0.35137 0.223178
0.0925307 0.351461 0.22327
0.222141 0.351537 0.223346
0.351751 0.351614 0.223423
0.481102 0.351446 0.223255
0.610727 0.351522 0.223331
0.740322 0.351598 0.223407
0.869688 0.351415 0.223224
0.998978 0.351583 0.223392
0 0.480797 0.223194
0.0926375 0.480995 0.223392
0.222248 0.481071 0.223468
0.351873 0.481147 0.223545
0.481209 0.480964 0.223362
0.610849 0.481041 0.223438
0.740444 0.481132 0.223529
0.86981 0.480949 0.223346
0.9991 0.481117 0.223514
0 0.610376 0.223209
0.0926528 0.610559 0.223392
0.222263 0.610651 0.223484
0.351629 0.610468 0.223301
0.481224 0.610544 0.223377
0.610849 0.61062 0.223453
0.740444 0.610712 0.223529
0.869825 0.610529 0.223346
0.9991 0.610697 0.223529
0 0.739895 0.223346
0.0928054 0.740093 0.223545
0.222416 0.740169 0.223621
0.351766 0.739986 0.223438
0.481376 0.740063 0.223529
0.611002 0.740139 0.223606
0.740459 0.740093 0.223545
0.869963 0.740047 0.223499
0.999252 0.740215 0.223667
0 0.869474 0.223331
0.0927901 0.869673 0.223529
0.222339 0.869688 0.223545
0.351751 0.869566 0.223423
0.481361 0.869642 0.223514
0.610986 0.869734 0.22359
0.740322 0.869551 0.223407
0.869947 0.869627 0.223484
0.999237 0.869795 0.223651
0 0.998993 0.223514
0.092958 0.999176 0.223697
0.22237 0.999054 0.223575
0.351934 0.999084 0.223606
0.481529 0.999161 0.223682
0.611048 0.99913 0.223651
0.74049 0.999069 0.22359
0.87013 0.99913 0.223651
0.999405 0.999313 0.223835
0 0 0.352773
0.0919661 0 0.352712
0.221561 0 0.352789
0.351186 0 0.352865
0.480766 0 0.352926
0.610162 0 0.352758
0.739757 0 0.35285
0.869383 0 0.352926
0.998413 0 0.352834
0 0.0924239 0.353216
0.0923934 0.0923476 0.35314
0.222004 0.0924392 0.353231
0.351629 0.0925154 0.353292
0.480964 0.0923323 0.353124
0.61059 0.0924086 0.353201
0.740185 0.0924849 0.353277
0.869764 0.0925002 0.353292
0.99884 0.0924697 0.353262
0 0.221881 0.353231
0.0924849 0.221897 0.353231
0.222095 0.221973 0.353323
0.35172 0.222049 0.353399
0.481056 0.221866 0.353216
0.610681 0.221958 0.353292
0.740276 0.222034 0.353384
0.869703 0.221897 0.353246
0.998932 0.222019 0.353353
0 0.351308 0.353124
0.0925307 0.351461 0.353262
0.222126 0.351537 0.353353
0.351629 0.351492 0.353307
0.481086 0.351431 0.353246
0.610727 0.351522 0.353323
0.740322 0.351598 0.353414
0.869688 0.351415 0.353231
0.998962 0.351583 0.353399
0 0.480797 0.353201
0.0926375 0.48098 0.353384
0.222248 0.481071 0.353475
0.351614 0.480888 0.353292
0.481209 0.480964 0.353368
0.610849 0.481041 0.353445
0.740261 0.480949 0.353353
0.86981 0.480949 0.353353
0.999084 0.481117 0.353521
0 0.610376 0.353216
0.0926528 0.610559 0.353399
0.222263 0.610651 0.353475
0.351629 0.610468 0.353292
0.481224 0.610544 0.353384
0.610849 0.61062 0.35346
0.740185 0.610437 0.353277
0.869825 0.610513 0.353353
0.9991 0.610697 0.353521
0 0.739895 0.353353
0.0928054 0.740078 0.353552
0.2224 0.740169 0.353628
0.351766 0.739986 0.353445
0.481361 0.740063 0.353521
0.611002 0.740139 0.353613
0.740337 0.739956 0.353429
0.869963 0.740032 0.353506
0.999252 0.740215 0.353674
0 0.869474 0.353338
0.0927901 0.869657 0.353536
0.222126 0.86949 0.353353
0.351751 0.869566 0.353429
0.481361 0.869642 0.353506
0.610956 0.869703 0.353567
0.740322 0.869551 0.353414
0.869947 0.869627 0.353491
0.999237 0.869795 0.353658
0 0.998993 0.353521
0.092958 0.999176 0.353704
0.222309 0.998993 0.353521
0.351934 0.999069 0.353597
0.481529 0.999161 0.353689
0.610986 0.999069 0.353597
0.74049 0.999054 0.353582
0.87013 0.99913 0.353658
0.999329 0.999222 0.35375
0 0 0.483024
0.0919356 0 0.482948
0.221546 0 0.48304
0.351171 0 0.483116
0.480507 0 0.482933
0.610132 0 0.483009
0.739727 0 0.483101
0.869108 0 0.482918
0.998383 0 0.483085
0 0.092134 0.483192
0.0923781 0.0923323 0.483391
0.221988 0.0924086 0.483467
0.351598 0.0924849 0.483543
0.480949 0.0923171 0.483375
0.610574 0.0923781 0.483452
0.740169 0.0924697 0.483528
0.869535 0.0922866 0.483345
0.998825 0.0924544 0.483513
0 0.221683 0.483284
0.0924697 0.221866 0.483482
0.22208 0.221958 0.483558
0.351644 0.221988 0.483589
0.481041 0.221851 0.483467
0.610666 0.221927 0.483543
0.740261 0.222019 0.483619
0.869627 0.221836 0.483436
0.998917 0.222004 0.483604
0 0.351247 0.48333
0.0925002 0.351431 0.483513
0.22211 0.351522 0.483604
0.351476 0.351339 0.483421
0.481071 0.351415 0.483497
0.610697 0.351492 0.483574
0.7402 0.351476 0.483558
0.869673 0.3514 0.483467
0.998947 0.351568 0.483635
0 0.480781 0.483452
0.0926223 0.480964 0.483635
0.222217 0.481025 0.483696
0.351583 0.480858 0.483528
0.481193 0.480949 0.483619
0.610819 0.481025 0.483696
0.740169 0.480873 0.483543
0.869795 0.480919 0.483589
0.999069 0.481086 0.483757
0 0.610346 0.483452
0.0926375 0.610544 0.48365
0.22208 0.610468 0.483574
0.351598 0.610437 0.483543
0.481209 0.610529 0.483619
0.610834 0.610605 0.483711
0.740169 0.610422 0.483528
0.869795 0.610498 0.483604
0.999084 0.610666 0.483772
0 0.739879 0.483604
0.0927749 0.740063 0.483787
0.222126 0.739879 0.483619
0.351751 0.739956 0.483696
0.481346 0.740047 0.483772
0.610773 0.73991 0.48365
0.740307 0.73994 0.48368
0.869947 0.740017 0.483757
0.999222 0.740185 0.483909
0 0.869459 0.483589
0.0927596 0.869642 0.483772
0.22211 0.869474 0.483604
0.351736 0.869551 0.48368
0.481331 0.869627 0.483757
0.610697 0.869444 0.483574
0.740291 0.86952 0.483665
0.869932 0.869596 0.483742
0.999207 0.869764 0.483909
0 0.998962 0.483757
0.0929274 0.999146 0.48394
0.222278 0.998978 0.483772
0.351904 0.999054 0.483848
0.481514 0.99913 0.483925
0.61088 0.998947 0.483742
0.740475 0.999039 0.483833
0.8701 0.999115 0.483909
0.999115 0.999023 0.483818
0 0 0.612848
0.0919356 0 0.612955
0.221546 0 0.613031
0.35108 0 0.613031
0.480507 0 0.61294
0.610132 0 0.613016
0.739727 0 0.613108
0.869108 0 0.612909
0.998383 0 0.613077
0 0.092134 0.613199
0.0923781 0.0923323 0.613397
0.221988 0.0924086 0.613474
0.35137 0.092256 0.613321
0.480949 0.0923171 0.613382
0.610574 0.0923781 0.613443
0.740169 0.0924697 0.613535
0.869535 0.0922866 0.613352
0.998825 0.0924544 0.613519
0 0.221683 0.613291
0.0924697 0.221866 0.613489
0.22208 0.221958 0.613565
0.351431 0.221759 0.613382
0.481041 0.221851 0.613474
0.610666 0.221927 0.613535
0.740001 0.221744 0.613367
0.869627 0.22182 0.613443
0.998917 0.221988 0.613611
0 0.351247 0.613336
0.0925002 0.351431 0.613519
0.22211 0.351522 0.613611
0.351461 0.351324 0.613413
0.481071 0.351415 0.613504
0.610697 0.351492 0.613581
0.740032 0.351308 0.613397
0.869673 0.351385 0.613474
0.998947 0.351553 0.613642
0 0.480766 0.613443
0.0926223 0.480964 0.613642
0.222156 0.480964 0.613642
0.351583 0.480858 0.613535
0.481193 0.480949 0.613626
0.610819 0.481025 0.613703
0.740154 0.480842 0.613519
0.869795 0.480919 0.613596
0.999069 0.481086 0.613764
0 0.610346 0.613458
0.0926223 0.610544 0.613642
0.221973 0.610361 0.613474
0.351598 0.610437 0.61355
0.481193 0.610529 0.613626
0.610697 0.610468 0.613581
0.740154 0.610422 0.613535
0.869795 0.610498 0.613611
0.999039 0.610636 0.613733
0 0.739864 0.613611
0.0927291 0.740017 0.613748
0.222126 0.739879 0.613611
0.351751 0.739956 0.613687
0.481346 0.740047 0.613779
0.610712 0.739864 0.613596
0.740307 0.73994 0.613672
0.869947 0.740017 0.613748
0.999039 0.740001 0.613748
0 0.869459 0.613596
0.0925765 0.869444 0.613596
0.22211 0.869459 0.613611
0.351736 0.869535 0.613672
0.481331 0.869627 0.613764
0.610697 0.869444 0.613581
0.740291 0.86952 0.613657
0.869932 0.869596 0.613733
0.998947 0.869505 0.613642
0 0.998962 0.613764
0.092668 0.998886 0.613687
0.222278 0.998978 0.613779
0.351904 0.999054 0.613855
0.48127 0.998901 0.613703
0.61088 0.998947 0.613748
0.740459 0.999039 0.61384
0.8701 0.999115 0.613916
0.999115 0.999023 0.613825
0 0 0.743023
0.0919203 0 0.743206
0.221515 0 0.743282
0.350988 0 0.743206
0.480491 0 0.743191
0.610117 0 0.743267
0.739651 0 0.743297
0.869078 0 0.74316
0.998367 0 0.743328
0 0.0921187 0.74345
0.0923476 0.0923018 0.743648
0.221958 0.0923934 0.743725
0.351324 0.0922103 0.743542
0.480919 0.0922866 0.743618
0.610544 0.0923629 0.743694
0.73994 0.092256 0.743587
0.86952 0.092256 0.743603
0.998795 0.0924392 0.74377
0 0.221653 0.743542
0.0924392 0.221851 0.74374
0.221927 0.221805 0.743694
0.351415 0.221744 0.743633
0.48101 0.221836 0.743725
0.610636 0.221912 0.743786
0.739971 0.221729 0.743618
0.869612 0.221805 0.743694
0.998886 0.221973 0.743862
0 0.351217 0.743572
0.0924849 0.351415 0.74377
0.221836 0.351232 0.743587
0.351446 0.351308 0.743664
0.481056 0.3514 0.743755
0.610681 0.351476 0.743832
0.740017 0.351293 0.743648
0.869642 0.35137 0.743725
0.998932 0.351537 0.743893
0 0.480751 0.743694
0.092607 0.480949 0.743893
0.221942 0.480766 0.743709
0.351568 0.480842 0.743786
0.481178 0.480919 0.743877
0.610529 0.480735 0.743679
0.740139 0.480827 0.74377
0.869764 0.480903 0.743847
0.999054 0.481071 0.744015
0 0.61033 0.743709
0.092607 0.610513 0.743893
0.221958 0.610346 0.743725
0.351583 0.610422 0.743801
0.481178 0.610498 0.743877
0.610544 0.610315 0.743694
0.740139 0.610407 0.743786
0.86978 0.610483 0.743862
0.998962 0.610544 0.743923
0 0.739849 0.743847
0.0926375 0.739925 0.743938
0.22211 0.739864 0.743862
0.35172 0.73994 0.743938
0.4813 0.740001 0.744015
0.610697 0.739834 0.743847
0.740291 0.739925 0.743923
0.869917 0.740001 0.743999
0.998947 0.73991 0.743908
0 0.869429 0.743847
0.0924849 0.869368 0.74377
0.222095 0.869444 0.743847
0.351705 0.86952 0.743923
0.481147 0.869444 0.743847
0.610681 0.869413 0.743832
0.740276 0.869505 0.743908
0.869841 0.86952 0.743923
0.998932 0.86949 0.743893
0 0.998856 0.743938
0.0926528 0.998871 0.743938
0.222263 0.998947 0.74403
0.351888 0.999023 0.744106
0.481224 0.998856 0.743923
0.610849 0.998932 0.743999
0.740444 0.999008 0.744091
0.869871 0.998886 0.743954
0.9991 0.998993 0.744076
0 0 0.873014
0.0919203 0 0.873213
0.221515 0 0.873289
0.350881 0 0.873106
0.480476 0 0.873198
0.610117 0 0.873274
0.739452 0 0.873091
0.869078 0 0.873167
0.998367 0 0.873335
0 0.0921187 0.873457
0.0923476 0.0923018 0.87364
0.221912 0.0923476 0.873686
0.351324 0.0922103 0.873549
0.480919 0.0922866 0.873625
0.610544 0.0923629 0.873701
0.739879 0.0921798 0.873533
0.86952 0.092256 0.873594
0.998795 0.0924239 0.873777
0 0.221653 0.873549
0.0924392 0.221851 0.873747
0.221866 0.221744 0.87364
0.351415 0.221744 0.87364
0.48101 0.221836 0.873716
0.610544 0.22182 0.873716
0.739971 0.221729 0.873625
0.869612 0.221805 0.873701
0.998886 0.221973 0.873869
0 0.351217 0.873579
0.0924849 0.351415 0.873777
0.22182 0.351232 0.873594
0.351446 0.351308 0.873671
0.481056 0.3514 0.873762
0.610437 0.351232 0.873594
0.740017 0.351293 0.873655
0.869642 0.35137 0.873732
0.998795 0.3514 0.873762
0 0.480751 0.873701
0.0924544 0.480797 0.873747
0.221942 0.480766 0.873716
0.351568 0.480842 0.873793
0.481163 0.480919 0.873884
0.610529 0.480735 0.873686
0.740124 0.480827 0.873777
0.869764 0.480903 0.873854
0.998779 0.480812 0.873762
0 0.61033 0.873716
0.0923476 0.610254 0.87364
0.221958 0.610346 0.873732
0.351568 0.610422 0.873808
0.481178 0.610498 0.873884
0.610544 0.610315 0.873701
0.740139 0.610391 0.873793
0.869764 0.610468 0.873854
0.998795 0.610376 0.873762
0 0.739849 0.873854
0.0925002 0.739773 0.873793
0.222095 0.739864 0.873869
0.35172 0.73994 0.873945
0.481056 0.739757 0.873777
0.610681 0.739834 0.873838
0.740291 0.739925 0.87393
0.869917 0.739986 0.874006
0.998932 0.739895 0.873915
0 0.869429 0.873838
0.0924849 0.869352 0.873777
0.222095 0.869444 0.873854
0.351705 0.86952 0.87393
0.481056 0.869337 0.873762
0.610681 0.869413 0.873838
0.740276 0.869505 0.873915
0.86978 0.869444 0.873869
0.998932 0.86949 0.873899
0 0.998795 0.873869
0.0926528 0.998871 0.873945
0.222263 0.998947 0.874037
0.351827 0.998978 0.874052
0.481224 0.998856 0.87393
0.610849 0.998932 0.874006
0.740444 0.999008 0.874098
0.869825 0.998825 0.873899
0.9991 0.998993 0.874067
0 0 1
0.0919356 0 1
0.221317 0 1
0.350912 0 1
0.480507 0 1
0.610132 0 1
0.739467 0 1
0.869108 0 1
0.998383 0 1
0 0.092134 1
0.0923781 0.0923323 1
0.221714 0.0921492 1
0.351339 0.0922255 1
0.480949 0.0923171 1
0.610559 0.0923781 1
0.73991 0.0922103 1
0.869535 0.0922866 1
0.998825 0.0924544 1
0 0.221683 1
0.0924697 0.221866 1
0.22182 0.221698 1
0.351431 0.221775 1
0.481041 0.221851 1
0.610407 0.221668 1
0.740001 0.221759 1
0.869627 0.22182 1
0.998856 0.221942 1
0 0.351247 1
0.0924392 0.35137 1
0.221851 0.351263 1
0.351476 0.351339 1
0.481071 0.351415 1
0.610437 0.351232 1
0.740032 0.351324 1
0.869673 0.351385 1
0.998749 0.35137 1
0 0.480781 1
0.0924086 0.480751 1
0.221973 0.480781 1
0.351598 0.480873 1
0.481071 0.480827 1
0.610559 0.480766 1
0.740154 0.480858 1
0.869795 0.480919 1
0.99881 0.480827 1
0 0.610346 1
0.0923781 0.610285 1
0.221973 0.610361 1
0.351598 0.610437 1
0.480949 0.610269 1
0.610574 0.610346 1
0.740169 0.610422 1
0.869627 0.61033 1
0.998825 0.610407 1
0 0.739681 1
0.0925154 0.739803 1
0.222126 0.739879 1
0.351751 0.739956 1
0.481086 0.739788 1
0.610712 0.739864 1
0.740307 0.73994 1
0.869688 0.739757 1
0.998962 0.739925 1
0 0.8692 1
0.0925002 0.869383 1
0.22211 0.869459 1
0.351736 0.869551 1
0.481071 0.869368 1
0.610697 0.869444 1
0.740291 0.869535 1
0.869673 0.869337 1
0.998947 0.869505 1
0 0.998703 1
0.0926833 0.998901 1
0.222293 0.998978 1
0.351644 0.998795 1
0.481254 0.998886 1
0.61088 0.998947 1
0.740444 0.999023 1
0.869841 0.998856 1
0.998596 0.998505 1
