public/LUTS/Darken/Darken_03.cube
TITLE "Generated by Resolve"
LUT_3D_SIZE 5
0 0 0
0.209094 0 0
0.472282 0 0
0.735241 0 0
0.998138 0 0
0 0.209476 0
0.209613 0.209491 0
0.472831 0.209659 0
0.735775 0.209552 0
0.998596 0.20972 0
0 0.472557 0
0.209766 0.472572 0
0.472847 0.472602 0
0.735927 0.472633 0
0.998566 0.472618 0
0 0.735439 0
0.209934 0.735653 0
0.472877 0.735561 0
0.736095 0.735714 0
0.998718 0.735698 0
0 0.998459 0
0.210086 0.998734 0
0.473045 0.998642 0
0.736217 0.998764 0
0.998886 0.998779 0
0 0 0.210315
0.209094 0 0.21033
0.472297 0 0.210483
0.735256 0 0.210391
0.997971 0 0.210452
0 0.209491 0.210849
0.209628 0.209506 0.210864
0.472602 0.20943 0.210788
0.73579 0.209567 0.210925
0.998428 0.209552 0.21091
0 0.472313 0.210742
0.209781 0.472587 0.211017
0.472724 0.47248 0.21091
0.735943 0.472648 0.211078
0.998581 0.472633 0.211063
0 0.735393 0.210895
0.209949 0.735668 0.21117
0.472892 0.735561 0.211078
0.735958 0.735592 0.211093
0.998749 0.735714 0.211215
0 0.998474 0.211063
0.209903 0.99855 0.211139
0.473045 0.998657 0.211231
0.736004 0.99855 0.211139
0.998901 0.998795 0.211383
0 0 0.474571
0.209064 0 0.474586
0.472023 0 0.474479
0.735225 0 0.474647
0.997864 0 0.474632
0 0.209201 0.474845
0.209598 0.209476 0.47512
0.472557 0.209384 0.475013
0.735759 0.209537 0.475181
0.998398 0.209522 0.475166
0 0.472282 0.474998
0.209751 0.472541 0.475257
0.472709 0.472465 0.475166
0.735683 0.472374 0.47509
0.99855 0.472602 0.475319
0 0.735378 0.475151
0.209659 0.735378 0.475166
0.472862 0.735546 0.475334
0.735821 0.735439 0.475227
0.998718 0.735683 0.475471
0 0.998459 0.475319
0.209812 0.998459 0.475334
0.47303 0.998627 0.475486
0.735973 0.99852 0.475395
0.998611 0.998505 0.475364
0 0 0.738567
0.209049 0 0.738842
0.471992 0 0.738735
0.735149 0 0.738842
0.997848 0 0.738888
0 0.209186 0.739101
0.209461 0.209339 0.739254
0.472526 0.209354 0.739269
0.735485 0.209247 0.739178
0.998383 0.209506 0.739422
0 0.472267 0.739254
0.209476 0.472282 0.739269
0.472694 0.472435 0.739437
0.735637 0.472343 0.73933
0.998535 0.472587 0.739574
0 0.735348 0.739422
0.209628 0.735363 0.739422
0.472831 0.7355 0.739574
0.73579 0.735424 0.739483
0.998428 0.735409 0.739467
0 0.998352 0.739498
0.209796 0.998444 0.73959
0.47274 0.998337 0.739483
0.735958 0.998505 0.739651
0.998581 0.998489 0.739635
0 0 1
0.208835 0 1
0.472007 0 1
0.734966 0 1
0.997864 0 1
0 0.209201 1
0.209339 0.209216 1
0.472557 0.209369 1
0.7355 0.209277 1
0.998352 0.209461 1
0 0.472282 1
0.209491 0.472297 1
0.472587 0.472343 1
0.735668 0.472358 1
0.998291 0.472343 1
0 0.73518 1
0.209659 0.735378 1
0.472602 0.735286 1
0.735821 0.735439 1
0.998459 0.735424 1
0 0.998184 1
0.209812 0.998474 1
0.47277 0.998367 1
0.735958 0.998505 1
0.998077 0.997986 1
