public/LUTS/Darken/Darken_14.cube
TITLE "Generated by Resolve"
LUT_3D_SIZE 5
0 0 0
0.13576 0 0
0.335103 0 0
0.534279 0 0
0.733425 0 0
0 0.136049 0
0.136156 0.136049 0
0.335515 0.136172 0
0.534691 0.136095 0
0.733761 0.136233 0
0 0.335317 0
0.136263 0.335332 0
0.335531 0.335348 0
0.534813 0.335378 0
0.733745 0.335363 0
0 0.534432 0
0.136385 0.5346 0
0.335561 0.534524 0
0.534936 0.534646 0
0.733867 0.53463 0
0 0.733654 0
0.136507 0.733867 0
0.335683 0.733791 0
0.535027 0.733883 0
0.733989 0.733898 0
0 0 0.136675
0.13576 0 0.13669
0.335119 0 0.136812
0.534295 0 0.136736
0.733288 0 0.136782
0 0.136049 0.137087
0.136156 0.136065 0.137087
0.335348 0.136004 0.137026
0.534707 0.13611 0.137133
0.733639 0.136095 0.137133
0 0.335134 0.137011
0.136278 0.335332 0.137209
0.335454 0.335256 0.137133
0.534813 0.335378 0.137255
0.733761 0.335378 0.137255
0 0.534401 0.137118
0.1364 0.534615 0.137331
0.335561 0.534539 0.137255
0.534829 0.534554 0.13727
0.733867 0.534646 0.137362
0 0.733669 0.13724
0.13637 0.73373 0.137301
0.335683 0.733806 0.137377
0.534859 0.73373 0.137301
0.733989 0.733913 0.137484
0 0 0.336843
0.135729 0 0.336843
0.334905 0 0.336767
0.534279 0 0.336889
0.733211 0 0.336889
0 0.135836 0.337041
0.136141 0.136049 0.337255
0.335317 0.135973 0.337179
0.534676 0.136095 0.337301
0.733608 0.13608 0.337285
0 0.335119 0.337163
0.136248 0.335302 0.337362
0.335424 0.335241 0.337301
0.534615 0.33518 0.33724
0.73373 0.335348 0.337407
0 0.534386 0.337285
0.136187 0.534386 0.337285
0.335546 0.534508 0.337423
0.534722 0.534432 0.337331
0.733852 0.53463 0.33753
0 0.733654 0.337407
0.136294 0.733669 0.337407
0.335668 0.733791 0.337545
0.534844 0.733715 0.337453
0.733776 0.7337 0.337453
0 0 0.536797
0.135714 0 0.537011
0.33489 0 0.536934
0.534218 0 0.537011
0.733196 0 0.537041
0 0.135821 0.537209
0.136034 0.135943 0.537331
0.335302 0.135958 0.537346
0.534463 0.135882 0.53727
0.733593 0.136065 0.537453
0 0.335088 0.537331
0.136049 0.335103 0.537331
0.335409 0.335225 0.537469
0.534585 0.335149 0.537377
0.733715 0.335332 0.537575
0 0.534371 0.537453
0.136156 0.534371 0.537453
0.335515 0.534478 0.53756
0.534707 0.534417 0.537499
0.733639 0.534401 0.537484
0 0.733577 0.537499
0.136278 0.733654 0.537575
0.335454 0.733562 0.537499
0.534829 0.7337 0.537621
0.733761 0.733684 0.537606
0 0 0.736492
0.135561 0 0.736538
0.334905 0 0.736629
0.534081 0 0.736553
0.733211 0 0.736736
0 0.135836 0.736904
0.135943 0.135851 0.736919
0.335317 0.135973 0.737041
0.534478 0.135897 0.736965
0.733577 0.136034 0.737102
0 0.335103 0.737026
0.136065 0.335119 0.737026
0.335348 0.335149 0.737072
0.5346 0.335164 0.737087
0.733532 0.335149 0.737072
0 0.534249 0.737011
0.136172 0.534386 0.737148
0.335348 0.53431 0.737072
0.534722 0.534447 0.737194
0.733654 0.534432 0.737194
0 0.733455 0.737072
0.136309 0.733669 0.73727
0.33547 0.733593 0.737194
0.534829 0.7337 0.737301
0.733379 0.733303 0.736904
