public/LUTS/Darken/Darken_07.cube
TITLE "Generated by Resolve"
LUT_3D_SIZE 5
0 0 0
0.134218 0 0
0.421347 0 0
0.708217 0 0
0.995041 0 0
0 0.13463 0
0.134783 0.134646 0
0.421942 0.134829 0
0.708812 0.134707 0
0.995544 0.134905 0
0 0.421653 0
0.134951 0.421668 0
0.421958 0.421683 0
0.70898 0.421729 0
0.995499 0.421714 0
0 0.708446 0
0.135134 0.708675 0
0.421988 0.708568 0
0.709148 0.708736 0
0.995682 0.708721 0
0 0.995392 0
0.135302 0.995697 0
0.422171 0.995575 0
0.709285 0.995712 0
0.99585 0.995743 0
0 0 0.135546
0.134218 0 0.135561
0.421363 0 0.135729
0.708232 0 0.135622
0.994858 0 0.135698
0 0.134646 0.136126
0.134798 0.134661 0.136141
0.421683 0.134569 0.136049
0.708812 0.134722 0.136202
0.995346 0.134707 0.136202
0 0.421378 0.136019
0.134966 0.421683 0.136309
0.421836 0.421561 0.136202
0.708995 0.421744 0.136385
0.995514 0.421729 0.13637
0 0.708385 0.136187
0.135134 0.70869 0.136492
0.422004 0.708583 0.13637
0.70901 0.708598 0.1364
0.995697 0.708736 0.136538
0 0.995407 0.13637
0.135088 0.995483 0.136446
0.422187 0.99559 0.136553
0.709056 0.995483 0.136446
0.995865 0.995758 0.136721
0 0 0.423835
0.134188 0 0.42385
0.421057 0 0.423743
0.708217 0 0.423926
0.994736 0 0.423896
0 0.13434 0.42414
0.134768 0.13463 0.424445
0.421637 0.134524 0.424323
0.708797 0.134707 0.424506
0.995315 0.134691 0.424491
0 0.421347 0.424308
0.13492 0.421637 0.424598
0.421805 0.421546 0.424506
0.708705 0.421454 0.424414
0.995499 0.421698 0.424659
0 0.70837 0.424475
0.134829 0.708385 0.424491
0.421988 0.708553 0.424674
0.708843 0.708446 0.424552
0.995666 0.708721 0.424826
0 0.995377 0.424659
0.134997 0.995392 0.424674
0.422156 0.995575 0.424842
0.709026 0.995453 0.424735
0.995544 0.995438 0.42472
0 0 0.711849
0.134157 0 0.712154
0.421027 0 0.712047
0.708125 0 0.712154
0.994705 0 0.7122
0 0.13431 0.712428
0.134615 0.134478 0.712612
0.421622 0.134508 0.712627
0.708476 0.134386 0.71252
0.9953 0.134661 0.712779
0 0.421317 0.712612
0.13463 0.421332 0.712627
0.42179 0.421515 0.712795
0.708659 0.421408 0.712688
0.995468 0.421668 0.712963
0 0.708339 0.712779
0.134798 0.708354 0.712795
0.421942 0.708507 0.712947
0.708827 0.708415 0.712856
0.995346 0.7084 0.71284
0 0.995254 0.712856
0.134981 0.995361 0.712963
0.421851 0.995254 0.712856
0.708995 0.995438 0.713039
0.995529 0.995407 0.713008
0 0 0.999481
0.133944 0 0.999527
0.421057 0 0.999664
0.707927 0 0.999557
0.994736 0 0.999832
0 0.13434 1
0.134478 0.13434 1
0.421637 0.134524 1
0.708507 0.134417 1
0.995254 0.13463 1
0 0.421347 1
0.134661 0.421363 1
0.421683 0.421408 1
0.708675 0.421439 1
0.995209 0.421408 1
0 0.708156 1
0.134829 0.70837 1
0.421698 0.708263 1
0.708858 0.708446 1
0.995377 0.708431 1
0 0.995087 1
0.135012 0.995392 1
0.421866 0.995285 1
0.70901 0.995438 1
0.99498 0.994858 1
