public/LUTS/Darken/Darken_11.cube
TITLE "Generated by Resolve"
LUT_3D_SIZE 5
0 0 0
0.194064 0 0
0.389013 0 0
0.58378 0 0
0.7785 0 0
0 0.194339 0
0.194446 0.194354 1.5259e-05
0.38941 0.194476 0.000137331
0.584176 0.1944 6.10361e-05
0.778836 0.194522 0.000183108
0.000122072 0.389212 0.000122072
0.194568 0.389212 0.000137331
0.389425 0.389242 0.00015259
0.584283 0.389258 0.000183108
0.77882 0.389258 0.000167849
9.15541e-05 0.583917 9.15541e-05
0.194675 0.584085 0.000244144
0.389441 0.584009 0.000167849
0.584405 0.584131 0.000289921
0.778927 0.584115 0.000274662
0.000167849 0.778744 0.000167849
0.194797 0.778943 0.000366217
0.389563 0.778866 0.000289921
0.584497 0.778958 0.000381476
0.779049 0.778973 0.000396735
0 0 0.194965
0.194064 0 0.19498
0.389013 0 0.195102
0.58378 0 0.195026
0.778378 0 0.195071
1.5259e-05 0.194354 0.195361
0.194461 0.194369 0.195377
0.389242 0.194308 0.195315
0.584176 0.194415 0.195422
0.778714 0.1944 0.195407
0 0.389029 0.195285
0.194568 0.389227 0.195483
0.389334 0.389151 0.195407
0.584298 0.389273 0.195529
0.778836 0.389258 0.195529
6.10361e-05 0.583886 0.195407
0.19469 0.584085 0.195605
0.389456 0.584009 0.195529
0.584314 0.584039 0.195544
0.778943 0.584131 0.195636
0.000167849 0.778744 0.195514
0.194659 0.778805 0.195575
0.389578 0.778881 0.195651
0.584344 0.778805 0.195575
0.779065 0.778988 0.195758
0 0 0.390692
0.194049 0 0.390707
0.3888 0 0.390631
0.583764 0 0.390753
0.778302 0 0.390738
0 0.194141 0.39089
0.194446 0.194354 0.391104
0.389197 0.194278 0.391028
0.584161 0.1944 0.39115
0.778698 0.194385 0.391135
0 0.389013 0.391012
0.194553 0.389197 0.391211
0.389319 0.389136 0.39115
0.5841 0.389075 0.391089
0.778805 0.389242 0.391257
3.0518e-05 0.583871 0.391135
0.194476 0.583886 0.391135
0.389441 0.583993 0.391257
0.584207 0.583917 0.39118
0.778927 0.5841 0.391363
0.00015259 0.778729 0.391257
0.194598 0.778744 0.391257
0.389563 0.778866 0.391379
0.584314 0.77879 0.391302
0.778851 0.778775 0.391287
0 0 0.586236
0.194018 0 0.586435
0.388785 0 0.586374
0.583703 0 0.58645
0.778286 0 0.58648
0 0.194125 0.586633
0.194339 0.194247 0.586755
0.389181 0.194263 0.58677
0.583947 0.194186 0.586694
0.778683 0.194369 0.586877
0 0.388983 0.586755
0.194339 0.388998 0.586755
0.389303 0.38912 0.586877
0.58407 0.389044 0.586801
0.77879 0.389227 0.586984
1.5259e-05 0.583856 0.586862
0.194461 0.583856 0.586877
0.38941 0.583963 0.586984
0.584176 0.583902 0.586923
0.778714 0.583886 0.586908
7.62951e-05 0.778653 0.586923
0.194583 0.778729 0.586999
0.389349 0.778653 0.586923
0.584298 0.778775 0.587045
0.778836 0.778759 0.58703
0 0 0.781506
0.193881 0 0.781552
0.3888 0 0.781643
0.583566 0 0.781567
0.778302 0 0.78175
0 0.194141 0.781918
0.194247 0.194156 0.781918
0.389197 0.194278 0.78204
0.583963 0.194202 0.781964
0.778653 0.194339 0.782101
0 0.389013 0.782025
0.194354 0.389013 0.78204
0.389227 0.389044 0.782071
0.584085 0.389059 0.782086
0.778622 0.389044 0.782071
0 0.583734 0.78201
0.194476 0.583871 0.782147
0.389242 0.58381 0.782086
0.584207 0.583932 0.782193
0.778729 0.583917 0.782193
0 0.778531 0.782071
0.194598 0.778744 0.782269
0.389364 0.778668 0.782193
0.584314 0.778775 0.7823
0.778454 0.778378 0.781918
