public/LUTS/Darken/Darken_08.cube
TITLE "Generated by Resolve"
LUT_3D_SIZE 33
0 0 0
0.0278477 0 0
0.0565499 0 0
0.085481 0 0
0.114275 0 0
0.143053 0 0
0.171756 0 0
0.200458 0 0
0.229175 0 0
0.258076 0 0
0.286778 0 0
0.31548 0 0
0.344274 0 0
0.373053 0 0
0.401816 0 0
0.430686 0 0
0.459373 0 0
0.488075 0 0
0.516777 0 0
0.545464 0 0
0.574502 0 0
0.603281 0 0
0.631983 0 0
0.66067 0 0
0.689372 0 0
0.718166 0 0
0.747005 0 0
0.775692 0 0
0.804501 0 0
0.83328 0 0
0.861967 0 0
0.890806 0 0
0.919326 0 0
0 0.0280919 0
0.0281682 0.0281529 0
0.0570993 0.0283513 0.000106813
0.0857862 0.0283207 7.62951e-05
0.114595 0.0282597 1.5259e-05
0.143374 0.0281987 0
0.172076 0.0281682 0
0.201007 0.0283665 0.000122072
0.229694 0.0283207 9.15541e-05
0.258396 0.0282902 6.10361e-05
0.287098 0.0282597 3.0518e-05
0.315785 0.0282292 0
0.344594 0.0281682 0
0.373602 0.0283513 0.000106813
0.402289 0.0283055 6.10361e-05
0.430991 0.028275 3.0518e-05
0.459693 0.0282444 0
0.488396 0.0281987 0
0.517128 0.0282139 0
0.546014 0.0283665 0.000137331
0.574823 0.0283055 7.62951e-05
0.603586 0.0282597 1.5259e-05
0.632288 0.0282292 0
0.66099 0.0281834 0
0.689769 0.0282292 0
0.718608 0.0283513 0.000106813
0.747311 0.0283207 7.62951e-05
0.776013 0.0282902 4.57771e-05
0.804822 0.0282139 0
0.833585 0.0281682 0
0.862409 0.0282597 1.5259e-05
0.891218 0.0283207 9.15541e-05
0.919646 0.0283665 0.000137331
0 0.0569619 0
0.0283818 0.057084 0.000122072
0.0570687 0.0570535 9.15541e-05
0.085771 0.0570077 6.10361e-05
0.114565 0.0569619 0
0.143359 0.0569009 0
0.172259 0.057084 0.000122072
0.200977 0.0570687 0.000106813
0.229679 0.057023 6.10361e-05
0.258366 0.0569924 3.0518e-05
0.287068 0.0569619 0
0.31577 0.0569314 0
0.344793 0.0570993 0.000137331
0.373571 0.0570382 7.62951e-05
0.402274 0.0570077 4.57771e-05
0.430976 0.0569772 1.5259e-05
0.459678 0.0569467 0
0.48838 0.0569314 0
0.517296 0.0570993 0.000137331
0.545998 0.0570687 0.000106813
0.574792 0.0570077 4.57771e-05
0.603571 0.0569467 0
0.632273 0.0569162 0
0.661204 0.0571145 0.00015259
0.689891 0.057084 0.000122072
0.718593 0.0570535 9.15541e-05
0.747295 0.0570077 6.10361e-05
0.775998 0.0569772 1.5259e-05
0.804852 0.0569772 1.5259e-05
0.833799 0.0570993 0.000137331
0.862501 0.0570687 0.000106813
0.891188 0.057023 6.10361e-05
0.919615 0.0570687 0.000106813
4.57771e-05 0.0857099 4.57771e-05
0.0283513 0.0857862 0.000106813
0.0570535 0.0857404 7.62951e-05
0.0857557 0.0857099 3.0518e-05
0.114549 0.0856489 0
0.143572 0.085832 0.00015259
0.172259 0.0857862 0.000122072
0.200961 0.0857557 9.15541e-05
0.229648 0.0857252 4.57771e-05
0.25835 0.0856947 1.5259e-05
0.287236 0.0858473 0.000167849
0.315984 0.0858473 0.000183108
0.344778 0.0858015 0.000122072
0.373556 0.0857404 6.10361e-05
0.402258 0.0857099 3.0518e-05
0.430961 0.0856641 0
0.459892 0.0858625 0.000198367
0.488579 0.085832 0.00015259
0.517281 0.0858015 0.000122072
0.545983 0.085771 9.15541e-05
0.574777 0.0857099 3.0518e-05
0.603555 0.0856489 0
0.632486 0.0858473 0.000167849
0.661173 0.0858167 0.000137331
0.689876 0.0857862 0.000106813
0.718578 0.0857404 7.62951e-05
0.74728 0.0857099 3.0518e-05
0.776013 0.0857099 4.57771e-05
0.805005 0.0858473 0.000167849
0.833783 0.0857862 0.000122072
0.86247 0.0857557 9.15541e-05
0.891173 0.0857252 4.57771e-05
0.9196 0.085771 9.15541e-05
0 0.114458 0
0.0282444 0.114519 0
0.0569467 0.114488 0
0.085771 0.11458 4.57771e-05
0.114656 0.114626 9.15541e-05
0.14345 0.114565 3.0518e-05
0.172137 0.114534 0
0.200839 0.114504 0
0.229541 0.114458 0
0.258412 0.114595 7.62951e-05
0.28716 0.114626 9.15541e-05
0.315862 0.114595 6.10361e-05
0.344656 0.114534 0
0.373434 0.114473 0
0.402136 0.114443 0
0.431052 0.114626 9.15541e-05
0.45977 0.114611 7.62951e-05
0.488457 0.114565 4.57771e-05
0.517159 0.114534 1.5259e-05
0.545861 0.114504 0
0.574655 0.114443 0
0.603662 0.114626 9.15541e-05
0.632364 0.11458 6.10361e-05
0.661067 0.114549 1.5259e-05
0.689769 0.114519 0
0.718456 0.114488 0
0.747387 0.114687 0.00015259
0.776089 0.114641 0.000122072
0.804898 0.11458 4.57771e-05
0.833661 0.114534 0
0.862364 0.114504 0
0.891066 0.114473 0
0.919722 0.114733 0.000198367
0 0.143175 0
0.0281529 0.143236 0
0.0569619 0.143313 0
0.085771 0.143404 6.10361e-05
0.11458 0.143343 0
0.143359 0.143297 0
0.172061 0.143252 0
0.200748 0.143221 0
0.229679 0.14342 7.62951e-05
0.258381 0.143389 4.57771e-05
0.287083 0.143359 1.5259e-05
0.31577 0.143313 0
0.344579 0.143252 0
0.373495 0.143343 0
0.402274 0.143404 4.57771e-05
0.430976 0.143359 1.5259e-05
0.459678 0.143328 0
0.48838 0.143297 0
0.517067 0.143267 0
0.545953 0.14342 7.62951e-05
0.574807 0.143404 6.10361e-05
0.603571 0.143343 0
0.632273 0.143313 0
0.660975 0.143282 0
0.689677 0.143236 0
0.718593 0.143435 9.15541e-05
0.747295 0.143404 6.10361e-05
0.775998 0.143374 3.0518e-05
0.804807 0.143313 0
0.83357 0.143252 0
0.862272 0.143221 0
0.891203 0.14342 7.62951e-05
0.919631 0.143465 0.000122072
0 0.171923 0
0.0283665 0.172168 0.000106813
0.0570687 0.172137 7.62951e-05
0.0857557 0.172107 4.57771e-05
0.114549 0.172045 0
0.143343 0.171984 0
0.172122 0.172045 0
0.200961 0.172152 9.15541e-05
0.229664 0.172122 6.10361e-05
0.258366 0.172076 1.5259e-05
0.287053 0.172045 0
0.315755 0.172015 0
0.344686 0.172076 1.5259e-05
0.373571 0.172137 7.62951e-05
0.402258 0.172091 3.0518e-05
0.430961 0.172061 0
0.459663 0.17203 0
0.48835 0.172 0
0.51722 0.172137 7.62951e-05
0.545983 0.172168 0.000106813
0.574792 0.172091 3.0518e-05
0.603555 0.172045 0
0.632258 0.172015 0
0.66096 0.171969 0
0.689891 0.172168 0.000106813
0.718578 0.172137 7.62951e-05
0.74728 0.172107 4.57771e-05
0.775982 0.172076 1.5259e-05
0.804791 0.172 0
0.833768 0.172168 0.000106813
0.862486 0.172152 9.15541e-05
0.891173 0.172122 6.10361e-05
0.9196 0.172152 9.15541e-05
3.0518e-05 0.200809 3.0518e-05
0.0283513 0.20087 9.15541e-05
0.0570382 0.200839 6.10361e-05
0.0857404 0.200793 3.0518e-05
0.114534 0.200748 0
0.143389 0.200748 0
0.172244 0.200885 0.000106813
0.200946 0.200855 7.62951e-05
0.229648 0.200824 4.57771e-05
0.258335 0.200778 0
0.287037 0.200748 0
0.315969 0.200946 0.000167849
0.344762 0.200885 0.000106813
0.373541 0.200824 4.57771e-05
0.402243 0.200793 1.5259e-05
0.430945 0.200763 0
0.459739 0.200839 6.10361e-05
0.488563 0.200916 0.00015259
0.517266 0.200885 0.000106813
0.545968 0.200855 7.62951e-05
0.574762 0.200793 1.5259e-05
0.60354 0.200732 0
0.63238 0.200855 7.62951e-05
0.661173 0.2009 0.000122072
0.68986 0.20087 9.15541e-05
0.718563 0.200839 6.10361e-05
0.747265 0.200793 3.0518e-05
0.775952 0.200763 0
0.804959 0.200885 0.000106813
0.833768 0.200885 0.000106813
0.86247 0.200855 7.62951e-05
0.891157 0.200809 3.0518e-05
0.919585 0.200855 7.62951e-05
0 0.229496 0
0.0283207 0.229572 7.62951e-05
0.057023 0.229541 4.57771e-05
0.0857252 0.229496 0
0.114748 0.229679 0.000167849
0.143526 0.229618 0.000122072
0.172229 0.229587 7.62951e-05
0.200931 0.229541 4.57771e-05
0.229618 0.229511 1.5259e-05
0.258366 0.229526 3.0518e-05
0.287251 0.229679 0.000183108
0.315938 0.229648 0.000137331
0.344747 0.229587 9.15541e-05
0.373526 0.229526 3.0518e-05
0.402228 0.229496 0
0.431006 0.229541 4.57771e-05
0.459846 0.229664 0.00015259
0.488548 0.229618 0.000122072
0.51725 0.229587 9.15541e-05
0.545937 0.229557 6.10361e-05
0.574746 0.229496 0
0.603647 0.229572 6.10361e-05
0.632456 0.229633 0.000137331
0.661143 0.229603 0.000106813
0.689845 0.229572 7.62951e-05
0.718532 0.229526 3.0518e-05
0.747234 0.229496 0
0.776165 0.229694 0.000198367
0.804974 0.229633 0.000137331
0.833738 0.229587 7.62951e-05
0.86244 0.229541 4.57771e-05
0.891142 0.229511 1.5259e-05
0.919738 0.229725 0.000213626
0 0.258198 0
0.0283055 0.258259 4.57771e-05
0.0570077 0.258228 1.5259e-05
0.0859236 0.258427 0.000213626
0.114733 0.258366 0.00015259
0.143511 0.25832 0.000106813
0.172213 0.258274 6.10361e-05
0.2009 0.258244 3.0518e-05
0.229633 0.258244 3.0518e-05
0.258534 0.258412 0.000198367
0.287236 0.258381 0.000167849
0.315923 0.258335 0.000122072
0.344732 0.258274 6.10361e-05
0.37351 0.258228 1.5259e-05
0.402441 0.258427 0.000213626
0.431128 0.258381 0.000167849
0.459831 0.25835 0.000137331
0.488533 0.25832 0.000106813
0.51722 0.258289 7.62951e-05
0.545983 0.25832 0.000106813
0.57496 0.258427 0.000213626
0.603738 0.258366 0.00015259
0.632425 0.258335 0.000122072
0.661128 0.258305 9.15541e-05
0.68983 0.258259 4.57771e-05
0.718624 0.258335 0.000122072
0.747448 0.258427 0.000213626
0.77615 0.258396 0.000183108
0.804959 0.258335 0.000122072
0.833722 0.258274 6.10361e-05
0.862425 0.258244 3.0518e-05
0.891264 0.25835 0.000137331
0.919783 0.258488 0.000274662
0 0.2869 0
0.0284733 0.28716 0.000228885
0.0572061 0.28716 0.000228885
0.0859083 0.287129 0.000198367
0.114702 0.287068 0.000137331
0.143496 0.287007 7.62951e-05
0.172183 0.286976 4.57771e-05
0.201114 0.287175 0.000244144
0.229816 0.287144 0.000213626
0.258503 0.287114 0.000167849
0.287205 0.287068 0.000137331
0.315908 0.287037 0.000106813
0.344701 0.286976 4.57771e-05
0.373709 0.28716 0.000228885
0.402411 0.287114 0.000183108
0.431113 0.287083 0.00015259
0.459815 0.287053 0.000122072
0.488502 0.287022 7.62951e-05
0.51725 0.287022 9.15541e-05
0.546136 0.28719 0.000244144
0.574929 0.287114 0.000183108
0.603708 0.287068 0.000137331
0.63241 0.287037 0.000106813
0.661112 0.286992 6.10361e-05
0.689891 0.287053 0.000122072
0.71873 0.28716 0.000228885
0.747433 0.287129 0.000198367
0.776135 0.287098 0.000167849
0.804929 0.287022 9.15541e-05
0.833707 0.286976 4.57771e-05
0.862638 0.287175 0.000244144
0.891325 0.287144 0.000198367
0.919753 0.287175 0.000244144
0.000122072 0.31577 0.000122072
0.0284886 0.315892 0.000244144
0.0571908 0.315862 0.000213626
0.085893 0.315831 0.000167849
0.114687 0.31577 0.000122072
0.143465 0.315709 6.10361e-05
0.172381 0.315892 0.000244144
0.201099 0.315877 0.000228885
0.229801 0.315847 0.000183108
0.258488 0.315801 0.00015259
0.28719 0.31577 0.000122072
0.315877 0.31574 9.15541e-05
0.344915 0.315908 0.000259403
0.373693 0.315847 0.000198367
0.402396 0.315816 0.000167849
0.431098 0.315785 0.000137331
0.459785 0.315755 0.000106813
0.488716 0.315953 0.000289921
0.517418 0.315908 0.000259403
0.54612 0.315877 0.000228885
0.574914 0.315816 0.000167849
0.603693 0.31577 0.000106813
0.63241 0.315755 0.000106813
0.661311 0.315923 0.000274662
0.690013 0.315892 0.000244144
0.718715 0.315862 0.000213626
0.747417 0.315831 0.000167849
0.776104 0.315785 0.000137331
0.804974 0.315785 0.000137331
0.833921 0.315908 0.000259403
0.862608 0.315877 0.000228885
0.89131 0.315831 0.000183108
0.919738 0.315877 0.000228885
3.0518e-05 0.344579 3.0518e-05
0.0283513 0.34464 0.000106813
0.0570535 0.34461 7.62951e-05
0.0857557 0.344564 3.0518e-05
0.114702 0.344671 0.000122072
0.143557 0.344686 0.00015259
0.172259 0.344656 0.000106813
0.200961 0.344625 7.62951e-05
0.229648 0.344579 4.57771e-05
0.25835 0.344549 1.5259e-05
0.287236 0.344717 0.000167849
0.315969 0.344717 0.000183108
0.344778 0.344656 0.000122072
0.373556 0.344594 6.10361e-05
0.402258 0.344564 3.0518e-05
0.430945 0.344533 0
0.459876 0.344732 0.000198367
0.488579 0.344686 0.00015259
0.517281 0.344656 0.000122072
0.545968 0.344625 9.15541e-05
0.574777 0.344564 3.0518e-05
0.603555 0.344518 0
0.632486 0.344717 0.000167849
0.661173 0.344671 0.000137331
0.689876 0.34464 0.000106813
0.718578 0.34461 7.62951e-05
0.747265 0.344564 3.0518e-05
0.776013 0.344579 4.57771e-05
0.805005 0.344701 0.000167849
0.833783 0.344656 0.000122072
0.86247 0.344625 7.62951e-05
0.891173 0.344579 4.57771e-05
0.9196 0.344625 9.15541e-05
0 0.373297 0
0.0282902 0.373358 3.0518e-05
0.0569924 0.373327 0
0.0858167 0.373419 0.000106813
0.114717 0.373465 0.000137331
0.143496 0.373404 9.15541e-05
0.172198 0.373373 4.57771e-05
0.200885 0.373342 1.5259e-05
0.229587 0.373297 0
0.258457 0.373449 0.000122072
0.287221 0.373465 0.00015259
0.315908 0.373434 0.000106813
0.344717 0.373373 4.57771e-05
0.373495 0.373312 0
0.402182 0.373281 0
0.431113 0.37348 0.00015259
0.459815 0.373449 0.000122072
0.488518 0.373404 9.15541e-05
0.517205 0.373373 6.10361e-05
0.545907 0.373342 3.0518e-05
0.574929 0.373495 0.000167849
0.603708 0.373465 0.000137331
0.63241 0.373419 0.000106813
0.661112 0.373388 7.62951e-05
0.689815 0.373358 3.0518e-05
0.718502 0.373327 0
0.747433 0.373526 0.000198367
0.776135 0.37348 0.000167849
0.804944 0.373419 0.000106813
0.833707 0.373373 4.57771e-05
0.862409 0.373342 1.5259e-05
0.891127 0.373327 0
0.919768 0.373571 0.000259403
0 0.401984 0
0.028275 0.40206 1.5259e-05
0.0572061 0.402258 0.000213626
0.085893 0.402213 0.000183108
0.114687 0.402152 0.000122072
0.143481 0.402106 6.10361e-05
0.172168 0.40206 3.0518e-05
0.200977 0.402136 0.000106813
0.229801 0.402228 0.000198367
0.258503 0.402197 0.00015259
0.28719 0.402167 0.000122072
0.315892 0.402136 9.15541e-05
0.344686 0.40206 3.0518e-05
0.373617 0.402167 0.000122072
0.402396 0.402213 0.000167849
0.431098 0.402182 0.000137331
0.4598 0.402136 0.000106813
0.488487 0.402106 7.62951e-05
0.517189 0.402075 3.0518e-05
0.54609 0.402228 0.000198367
0.574929 0.402213 0.000167849
0.603693 0.402152 0.000122072
0.632395 0.402121 9.15541e-05
0.661097 0.40209 4.57771e-05
0.689784 0.40206 1.5259e-05
0.718715 0.402258 0.000213626
0.747417 0.402213 0.000183108
0.77612 0.402182 0.00015259
0.804929 0.402121 7.62951e-05
0.833692 0.40206 3.0518e-05
0.862394 0.402029 0
0.89131 0.402228 0.000198367
0.919738 0.402274 0.000228885
0 0.430732 0
0.0284886 0.430976 0.000228885
0.0571756 0.430945 0.000198367
0.0858778 0.430915 0.000167849
0.114672 0.430854 0.000106813
0.143465 0.430793 4.57771e-05
0.172244 0.430854 0.000106813
0.201083 0.430961 0.000213626
0.229786 0.43093 0.000183108
0.258473 0.4309 0.000137331
0.287175 0.430854 0.000106813
0.315877 0.430823 7.62951e-05
0.344808 0.4309 0.00015259
0.373678 0.430945 0.000183108
0.40238 0.4309 0.00015259
0.431083 0.430869 0.000122072
0.459785 0.430838 9.15541e-05
0.488472 0.430808 4.57771e-05
0.517403 0.431006 0.000244144
0.546105 0.430976 0.000213626
0.574899 0.4309 0.00015259
0.603677 0.430854 0.000106813
0.63238 0.430823 6.10361e-05
0.66125 0.430961 0.000198367
0.689998 0.430976 0.000228885
0.7187 0.430945 0.000198367
0.747402 0.430915 0.000167849
0.776089 0.430884 0.000122072
0.804913 0.430823 6.10361e-05
0.83389 0.430976 0.000228885
0.862608 0.430961 0.000213626
0.891295 0.43093 0.000167849
0.919722 0.430961 0.000213626
0.000137331 0.459617 0.000137331
0.0284581 0.459678 0.000213626
0.0571603 0.459648 0.000183108
0.0858625 0.459617 0.000137331
0.114656 0.459556 7.62951e-05
0.143664 0.459724 0.000259403
0.172366 0.459693 0.000213626
0.201068 0.459663 0.000183108
0.229755 0.459632 0.00015259
0.258457 0.459586 0.000122072
0.287221 0.459632 0.00015259
0.316091 0.459754 0.000289921
0.344884 0.459693 0.000228885
0.373663 0.459648 0.000167849
0.402365 0.459602 0.000137331
0.431052 0.459571 9.15541e-05
0.459861 0.459648 0.000183108
0.488685 0.459739 0.000259403
0.517388 0.459709 0.000228885
0.546075 0.459663 0.000198367
0.574884 0.459602 0.000137331
0.603662 0.459556 7.62951e-05
0.632502 0.459663 0.000198367
0.66128 0.459709 0.000244144
0.689982 0.459678 0.000213626
0.718685 0.459648 0.000183108
0.747372 0.459617 0.000137331
0.776074 0.459586 0.000106813
0.805081 0.459709 0.000244144
0.833875 0.459693 0.000213626
0.862577 0.459663 0.000183108
0.891279 0.459632 0.00015259
0.919707 0.459663 0.000198367
0.000122072 0.488319 0.000122072
0.0284428 0.48838 0.000183108
0.057145 0.48835 0.00015259
0.0858473 0.488319 0.000122072
0.11487 0.488487 0.000289921
0.143648 0.488426 0.000244144
0.172351 0.488396 0.000198367
0.201038 0.488365 0.000167849
0.22974 0.488319 0.000137331
0.258488 0.488334 0.00015259
0.287373 0.488487 0.00030518
0.31606 0.488457 0.000274662
0.344869 0.488396 0.000198367
0.373648 0.488334 0.00015259
0.402335 0.488304 0.000106813
0.431128 0.488365 0.000167849
0.459968 0.488472 0.000274662
0.48867 0.488426 0.000244144
0.517357 0.488396 0.000213626
0.546059 0.488365 0.000183108
0.574868 0.488304 0.000106813
0.603876 0.488487 0.000289921
0.632563 0.488441 0.000259403
0.661265 0.488411 0.000228885
0.689967 0.48838 0.000183108
0.718669 0.48835 0.00015259
0.747478 0.488441 0.000244144
0.776287 0.488502 0.000320439
0.805097 0.488441 0.000259403
0.83386 0.488396 0.000198367
0.862562 0.488365 0.000167849
0.891264 0.488319 0.000137331
0.91986 0.488533 0.000350958
0.000106813 0.517006 0.000106813
0.0284276 0.517082 0.000167849
0.0571298 0.517037 0.000137331
0.0860456 0.517235 0.000335698
0.114839 0.517174 0.000274662
0.143633 0.517128 0.000213626
0.17232 0.517082 0.000183108
0.201022 0.517052 0.00015259
0.229953 0.51725 0.000350958
0.258656 0.51722 0.000320439
0.287343 0.517189 0.000274662
0.316045 0.517159 0.000244144
0.344839 0.517098 0.000183108
0.373648 0.517067 0.00015259
0.402548 0.517235 0.000320439
0.43125 0.517205 0.000289921
0.459953 0.517159 0.000259403
0.48864 0.517128 0.000228885
0.517342 0.517098 0.000198367
0.546105 0.517128 0.000228885
0.575082 0.517235 0.000320439
0.603845 0.517174 0.000274662
0.632547 0.517143 0.000244144
0.66125 0.517113 0.000198367
0.689952 0.517082 0.000167849
0.718746 0.517159 0.000244144
0.74757 0.517235 0.000335698
0.776272 0.517205 0.00030518
0.805081 0.517143 0.000244144
0.833844 0.517082 0.000183108
0.862547 0.517052 0.00015259
0.891386 0.517174 0.000259403
0.91989 0.517296 0.000381476
7.62951e-05 0.545708 7.62951e-05
0.0285954 0.545968 0.000350958
0.0573281 0.545968 0.000350958
0.0860304 0.545937 0.00030518
0.114824 0.545876 0.000259403
0.143603 0.54583 0.000198367
0.172305 0.545785 0.000167849
0.201236 0.545983 0.000366217
0.229938 0.545953 0.000320439
0.258625 0.545922 0.000289921
0.287327 0.545892 0.000259403
0.31603 0.545846 0.000228885
0.344823 0.5458 0.000167849
0.373831 0.545968 0.000335698
0.402533 0.545922 0.00030518
0.431235 0.545892 0.000274662
0.459922 0.545861 0.000244144
0.488624 0.54583 0.000198367
0.517372 0.545846 0.000213626
0.546258 0.545998 0.000366217
0.575051 0.545937 0.00030518
0.60383 0.545876 0.000244144
0.632532 0.545846 0.000213626
0.661219 0.545815 0.000183108
0.69015 0.546014 0.000381476
0.718853 0.545968 0.000350958
0.747555 0.545937 0.00030518
0.776242 0.545907 0.000274662
0.805051 0.545846 0.000213626
0.833906 0.545876 0.000244144
0.86276 0.545983 0.000366217
0.891447 0.545953 0.000320439
0.919875 0.545998 0.000366217
9.15541e-05 0.574639 9.15541e-05
0.0284733 0.574762 0.000213626
0.0571603 0.574731 0.000183108
0.0858625 0.574701 0.00015259
0.114656 0.574639 9.15541e-05
0.14345 0.574578 3.0518e-05
0.172366 0.574777 0.000228885
0.201068 0.574746 0.000198367
0.22977 0.574716 0.000167849
0.258457 0.57467 0.000122072
0.28716 0.574639 9.15541e-05
0.316075 0.574823 0.000274662
0.344884 0.574777 0.000228885
0.373663 0.574716 0.000183108
0.402365 0.574685 0.000137331
0.431067 0.574655 0.000106813
0.45977 0.574624 7.62951e-05
0.488685 0.574823 0.000274662
0.517388 0.574777 0.000244144
0.54609 0.574746 0.000198367
0.574884 0.574685 0.000137331
0.603662 0.574639 9.15541e-05
0.63238 0.574624 7.62951e-05
0.661295 0.574792 0.000244144
0.689998 0.574762 0.000213626
0.718685 0.574731 0.000183108
0.747387 0.574701 0.00015259
0.776089 0.574655 0.000122072
0.804959 0.57467 0.000122072
0.83389 0.574777 0.000228885
0.862593 0.574746 0.000198367
0.891279 0.574701 0.00015259
0.919707 0.574746 0.000198367
0.000106813 0.603403 0.000106813
0.0284276 0.603464 0.000167849
0.0571298 0.603433 0.000137331
0.0858167 0.603403 0.000106813
0.114778 0.603494 0.000198367
0.143633 0.60351 0.000228885
0.172335 0.603479 0.000183108
0.201022 0.603449 0.00015259
0.229725 0.603418 0.000122072
0.258427 0.603387 9.15541e-05
0.287327 0.60354 0.000244144
0.316045 0.60354 0.000259403
0.344854 0.603479 0.000183108
0.373632 0.603433 0.000137331
0.402335 0.603403 0.000106813
0.431022 0.603357 6.10361e-05
0.459953 0.603555 0.000259403
0.488655 0.603525 0.000228885
0.517342 0.603494 0.000198367
0.546044 0.603464 0.000167849
0.574853 0.603387 9.15541e-05
0.603632 0.603342 4.57771e-05
0.632547 0.60354 0.000244144
0.66125 0.603494 0.000213626
0.689952 0.603464 0.000167849
0.718654 0.603433 0.000137331
0.747341 0.603403 0.000106813
0.776272 0.603601 0.00030518
0.805081 0.60354 0.000244144
0.833844 0.603479 0.000183108
0.862547 0.603449 0.00015259
0.891249 0.603418 0.000122072
0.919707 0.603494 0.000198367
9.15541e-05 0.632105 9.15541e-05
0.0284123 0.632166 0.00015259
0.0571145 0.632136 0.000122072
0.0859388 0.632242 0.000228885
0.114824 0.632273 0.000259403
0.143618 0.632212 0.000198367
0.172305 0.632181 0.000167849
0.201007 0.632151 0.000137331
0.229709 0.63212 0.000106813
0.25864 0.632303 0.00030518
0.287327 0.632273 0.000259403
0.31603 0.632242 0.000228885
0.344823 0.632181 0.000167849
0.373602 0.63212 0.000122072
0.402487 0.632273 0.000259403
0.431235 0.632288 0.000274662
0.459937 0.632258 0.000244144
0.488624 0.632227 0.000213626
0.517327 0.632181 0.000183108
0.546029 0.632151 0.000137331
0.575051 0.632303 0.000289921
0.60383 0.632273 0.000259403
0.632532 0.632242 0.000228885
0.661234 0.632197 0.000183108
0.689937 0.632166 0.00015259
0.718624 0.632136 0.000122072
0.747555 0.632334 0.000320439
0.776257 0.632303 0.000289921
0.805066 0.632227 0.000228885
0.833829 0.632181 0.000167849
0.862531 0.632151 0.000137331
0.891249 0.632136 0.000122072
0.919875 0.63238 0.000366217
7.62951e-05 0.660792 7.62951e-05
0.0284581 0.660945 0.000213626
0.0573129 0.661067 0.000335698
0.0860151 0.661021 0.00030518
0.114809 0.660975 0.000244144
0.143603 0.660914 0.000183108
0.17229 0.660883 0.00015259
0.201099 0.66096 0.000228885
0.229923 0.661036 0.000320439
0.25861 0.661006 0.000274662
0.287312 0.660975 0.000244144
0.316014 0.660945 0.000213626
0.344808 0.660883 0.00015259
0.373739 0.660975 0.000259403
0.402518 0.661021 0.000289921
0.43122 0.66099 0.000259403
0.459922 0.66096 0.000228885
0.488609 0.660914 0.000183108
0.517311 0.660883 0.00015259
0.546212 0.661051 0.000320439
0.575036 0.661021 0.000289921
0.603815 0.66096 0.000244144
0.632517 0.660929 0.000198367
0.661219 0.660899 0.000167849
0.689906 0.660868 0.000137331
0.718837 0.661067 0.000335698
0.747539 0.661021 0.00030518
0.776242 0.66099 0.000259403
0.805051 0.660929 0.000198367
0.833814 0.660883 0.00015259
0.862745 0.661082 0.000350958
0.891432 0.661036 0.00030518
0.91986 0.661082 0.000350958
0.000106813 0.689555 0.000106813
0.0285954 0.689799 0.000350958
0.0572976 0.689769 0.000320439
0.0859998 0.689723 0.000274662
0.114794 0.689662 0.000213626
0.143572 0.689616 0.000167849
0.172366 0.689677 0.000228885
0.201205 0.689769 0.000320439
0.229892 0.689738 0.000289921
0.258595 0.689708 0.000259403
0.287297 0.689677 0.000228885
0.315984 0.689647 0.000198367
0.345022 0.689815 0.000366217
0.3738 0.689754 0.00030518
0.402502 0.689723 0.000274662
0.431189 0.689677 0.000228885
0.459892 0.689647 0.000198367
0.488716 0.689754 0.00030518
0.517525 0.689815 0.000366217
0.546212 0.689784 0.000335698
0.575021 0.689723 0.000274662
0.6038 0.689662 0.000213626
0.632486 0.689632 0.000183108
0.661372 0.689769 0.000320439
0.69012 0.689799 0.000350958
0.718822 0.689769 0.000320439
0.747509 0.689723 0.000274662
0.776211 0.689693 0.000244144
0.80502 0.689632 0.000183108
0.834012 0.689799 0.000350958
0.862715 0.689769 0.000320439
0.891417 0.689738 0.000289921
0.919844 0.689784 0.000335698
0.000259403 0.718425 0.000259403
0.0285801 0.718486 0.000320439
0.0572824 0.718456 0.000289921
0.0859693 0.718425 0.000259403
0.114794 0.718395 0.000228885
0.143786 0.718547 0.000381476
0.172488 0.718502 0.000335698
0.201175 0.718471 0.00030518
0.229877 0.718441 0.000274662
0.258579 0.71841 0.000244144
0.287343 0.718441 0.000274662
0.316197 0.718563 0.000411994
0.345006 0.718502 0.000335698
0.373785 0.718456 0.000289921
0.402487 0.718425 0.000259403
0.431174 0.718379 0.000213626
0.459983 0.718471 0.00030518
0.488807 0.718547 0.000381476
0.517494 0.718517 0.000350958
0.546197 0.718486 0.000320439
0.575006 0.71841 0.000244144
0.603769 0.718364 0.000198367
0.632624 0.718486 0.000320439
0.661402 0.718532 0.000366217
0.690105 0.718486 0.000320439
0.718807 0.718456 0.000289921
0.747494 0.718425 0.000259403
0.776196 0.718395 0.000228885
0.805234 0.718563 0.000396735
0.833997 0.718502 0.000335698
0.862699 0.718471 0.00030518
0.891402 0.718441 0.000274662
