public/LUTS/Darken/Darken_13.cube
TITLE "Generated by Resolve"
LUT_3D_SIZE 5
0 0 0
0.161425 0 0
0.352575 0 0
0.543542 0 0
0.734478 0 0
0 0.1617 0
0.161791 0.1617 0
0.352956 0.161822 0
0.543938 0.161746 0
0.734813 0.161868 0
0 0.352773 0
0.161913 0.352773 0
0.352972 0.352789 0
0.544045 0.352819 0
0.734798 0.352804 0
0 0.543694 0
0.16202 0.543847 0
0.353002 0.54377 0
0.544167 0.543893 0
0.734905 0.543877 0
0 0.734722 0
0.162142 0.73492 0
0.353109 0.734844 0
0.544259 0.734936 0
0.735027 0.734951 0
0 0 0.162295
0.16141 0 0.16231
0.352575 0 0.162432
0.543557 0 0.162356
0.734356 0 0.162402
0 0.161715 0.162692
0.161807 0.161715 0.162707
0.352789 0.161654 0.162646
0.543938 0.161761 0.162753
0.734691 0.161746 0.162737
0 0.35259 0.162615
0.161913 0.352789 0.162814
0.352895 0.352712 0.162737
0.54406 0.352834 0.16286
0.734798 0.352819 0.162844
0 0.543664 0.162737
0.162036 0.543862 0.162936
0.353002 0.543786 0.16286
0.544076 0.543801 0.162875
0.73492 0.543893 0.162966
0 0.734722 0.162844
0.162005 0.734783 0.162905
0.353124 0.734859 0.162966
0.544091 0.734783 0.162905
0.735042 0.734966 0.163088
0 0 0.354223
0.161395 0 0.354238
0.352377 0 0.354162
0.543542 0 0.354284
0.734279 0 0.354269
0 0.161501 0.354421
0.161791 0.1617 0.35462
0.352758 0.161624 0.354543
0.543923 0.161746 0.354665
0.734676 0.16173 0.35465
0 0.352575 0.354543
0.161898 0.352758 0.354726
0.35288 0.352697 0.354665
0.543862 0.352636 0.354604
0.734783 0.352804 0.354772
0 0.543648 0.35465
0.161822 0.543648 0.354665
0.352987 0.54377 0.354772
0.543969 0.543694 0.354711
0.734905 0.543877 0.354879
0 0.734707 0.354772
0.161944 0.734722 0.354772
0.353109 0.734829 0.354894
0.544076 0.734768 0.354818
0.734829 0.734752 0.354803
0 0 0.545953
0.161379 0 0.546151
0.352361 0 0.54609
0.543481 0 0.546166
0.734264 0 0.546197
0 0.161486 0.546349
0.161685 0.161593 0.546456
0.352743 0.161608 0.546471
0.543725 0.161532 0.546395
0.734661 0.161715 0.546578
0 0.352544 0.546456
0.1617 0.35256 0.546471
0.352865 0.352682 0.546593
0.543832 0.352605 0.546517
0.734768 0.352789 0.5467
0 0.543618 0.546578
0.161807 0.543633 0.546593
0.352956 0.54374 0.546685
0.543954 0.543679 0.546624
0.734691 0.543664 0.546624
0 0.73463 0.546639
0.161929 0.734707 0.5467
0.352895 0.73463 0.546624
0.54406 0.734752 0.546746
0.734813 0.734737 0.546731
0 0 0.737438
0.161242 0 0.737469
0.352377 0 0.73756
0.543343 0 0.737484
0.734279 0 0.737667
0 0.161501 0.737819
0.161593 0.161501 0.737835
0.352758 0.161624 0.737957
0.54374 0.161547 0.737881
0.73463 0.161685 0.738018
0 0.352575 0.737942
0.161715 0.352575 0.737942
0.352789 0.352605 0.737987
0.543847 0.352621 0.737987
0.7346 0.352605 0.737987
0 0.543511 0.737926
0.161822 0.543648 0.738064
0.352804 0.543572 0.737987
0.543969 0.543694 0.738109
0.734707 0.543679 0.738094
0 0.734524 0.737972
0.161944 0.734722 0.738186
0.352911 0.734646 0.738109
0.54406 0.734752 0.738216
0.734447 0.734371 0.737835
