public/LUTS/Darken/Darken_13.cube
TITLE "Generated by Resolve"
LUT_3D_SIZE 33
0 0 0
0 0 0
0.0180819 0 0
0.0421149 0 0
0.0660258 0 0
0.0899214 0 0
0.113756 0 0
0.137575 0 0
0.161425 0 0
0.185428 0 0
0.209262 0 0
0.233082 0 0
0.256992 0 0
0.280888 0 0
0.304768 0 0
0.32874 0 0
0.352575 0 0
0.376394 0 0
0.400229 0 0
0.424048 0 0
0.448157 0 0
0.472053 0 0
0.495888 0 0
0.519707 0 0
0.543542 0 0
0.567452 0 0
0.591394 0 0
0.615228 0 0
0.639139 0 0
0.663035 0 0
0.686854 0 0
0.710796 0 0
0.734478 0 0
0 0 0
0 0 0
0.0185397 0 0
0.0423743 0 0
0.0662852 0 0
0.0901808 0 0
0.114 0 0
0.138033 0 0
0.161852 0 0
0.185687 0 0
0.209522 0 0
0.233341 0 0
0.257252 0 0
0.281346 0 0
0.305165 0 0
0.329 0 0
0.352834 0 0
0.376654 0 0
0.400519 0 0
0.424506 0 0
0.448417 0 0
0.472313 0 0
0.496147 0 0
0.519966 0 0
0.543877 0 0
0.567819 0 0
0.591653 0 0
0.615488 0 0
0.639399 0 0
0.663294 0 0
0.687221 0 0
0.711131 0 0
0.734737 0 0
0 0.0184329 0
0 0.0185245 0
0.0185245 0.0185092 0
0.0423438 0.0184787 0
0.0662547 0.0184176 0
0.0901656 0.0183719 0
0.114168 0.0185245 0
0.138018 0.0185092 0
0.161837 0.0184787 0
0.185672 0.0184634 0
0.209491 0.0184329 0
0.233326 0.0184024 0
0.257435 0.0185397 0
0.281331 0.0184939 0
0.30515 0.0184634 0
0.328984 0.0184329 0
0.352819 0.0184176 0
0.376654 0.0184024 0
0.400656 0.018555 0
0.424491 0.0185245 0
0.448402 0.0184634 0
0.472297 0.0184176 0
0.496132 0.0184024 0
0.52015 0.018555 0
0.543984 0.0185245 0
0.567803 0.0184939 0
0.591638 0.0184787 0
0.615457 0.0184482 0
0.639429 0.0184329 0
0.663462 0.0185397 0
0.687297 0.0185092 0
0.711116 0.0184787 0
0.734722 0.0185245 0
0 0.042298 0
0 0.042359 0
0.0185092 0.0423285 0
0.0423285 0.042298 0
0.0662394 0.0422522 0
0.0903334 0.0424048 0
0.114168 0.0423743 0
0.138003 0.0423438 0
0.161822 0.0423133 0
0.185657 0.0422827 0
0.209644 0.0424201 0
0.233494 0.0424201 0
0.25742 0.0423743 0
0.281315 0.0423285 0
0.305135 0.042298 0
0.328969 0.0422675 0
0.352987 0.0424353 0
0.376822 0.0424048 0
0.400641 0.0423743 0
0.424475 0.0423438 0
0.448386 0.042298 0
0.472282 0.0422522 0
0.4963 0.0424201 0
0.520134 0.0423896 0
0.543969 0.042359 0
0.567788 0.0423285 0
0.591623 0.042298 0
0.615473 0.0423133 0
0.639551 0.0424048 0
0.663447 0.0423743 0
0.687282 0.0423438 0
0.711101 0.0423133 0
0.734707 0.0423438 0
0 0.0661631 0
0 0.0662242 0
0.0184176 0.0661936 0
0.0423438 0.0662699 0
0.0663462 0.0663005 0
0.0902419 0.0662547 0
0.114076 0.0662242 0
0.137896 0.0662089 0
0.16173 0.0661784 0
0.185702 0.0662852 0
0.209583 0.0663157 0
0.233402 0.0662852 0
0.257313 0.0662242 0
0.281209 0.0661936 0
0.305043 0.0661631 0
0.329046 0.0663005 0
0.352895 0.0663005 0
0.376715 0.0662699 0
0.400549 0.0662394 0
0.424384 0.0662089 0
0.448295 0.0661631 0
0.472374 0.0663005 0
0.496208 0.0662699 0
0.520043 0.0662394 0
0.543862 0.0662242 0
0.567697 0.0661936 0
0.591714 0.0663615 0
0.615549 0.066331 0
0.63946 0.0662699 0
0.663355 0.0662242 0
0.687175 0.0662089 0
0.711025 0.0661784 0
0.734798 0.066392 0
0 0.090013 0
0 0.090074 0
0.0184329 0.090135 0
0.042359 0.0902113 0
0.0662699 0.0901656 0
0.0901656 0.0901045 0
0.114 0.090074 0
0.137819 0.0900587 0
0.161852 0.0902266 0
0.185672 0.0901961 0
0.209506 0.0901656 0
0.233326 0.090135 0
0.257237 0.0900893 0
0.281254 0.0901656 0
0.305165 0.0901961 0
0.328984 0.0901656 0
0.352819 0.0901503 0
0.376638 0.0901198 0
0.400473 0.0900893 0
0.42446 0.0902113 0
0.448417 0.0901961 0
0.472297 0.0901503 0
0.496132 0.090135 0
0.519966 0.0901045 0
0.543786 0.090074 0
0.567803 0.0902266 0
0.591638 0.0902113 0
0.615473 0.0901808 0
0.639384 0.0901198 0
0.663279 0.0900893 0
0.687099 0.0900587 0
0.711116 0.0902113 0
0.734722 0.0902571 0
0 0.113878 0
0 0.114092 0
0.0185092 0.114061 0
0.0423438 0.114031 0
0.0662547 0.113985 0
0.0901503 0.113939 0
0.114046 0.113985 0
0.138003 0.114076 0
0.161837 0.114046 0
0.185657 0.114015 0
0.209491 0.113985 0
0.23331 0.113954 0
0.257328 0.114015 0
0.281315 0.114061 0
0.30515 0.114031 0
0.328969 0.114 0
0.352804 0.11397 0
0.376623 0.113939 0
0.400595 0.114061 0
0.424475 0.114076 0
0.448402 0.114031 0
0.472282 0.113985 0
0.496117 0.113954 0
0.519951 0.113924 0
0.543969 0.114092 0
0.567788 0.114061 0
0.591623 0.114031 0
0.615457 0.114015 0
0.639368 0.113954 0
0.663432 0.114076 0
0.687282 0.114076 0
0.711101 0.114046 0
0.734707 0.114076 0
0 0.137865 0
0 0.137926 0
0.0184939 0.137896 0
0.0423285 0.137865 0
0.0662394 0.137819 0
0.0901961 0.137819 0
0.114153 0.137926 0
0.137987 0.137911 0
0.161822 0.137881 0
0.185641 0.13785 0
0.209476 0.137819 0
0.233494 0.137987 0
0.257404 0.137926 0
0.2813 0.137881 0
0.305135 0.13785 0
0.328954 0.137835 0
0.35288 0.137896 0
0.376806 0.137972 0
0.400641 0.137942 0
0.42446 0.137911 0
0.448386 0.13785 0
0.472267 0.137819 0
0.496223 0.137911 0
0.520119 0.137942 0
0.543954 0.137926 0
0.567773 0.137896 0
0.591608 0.137865 0
0.615442 0.137835 0
0.639506 0.137942 0
0.663432 0.137926 0
0.687266 0.137911 0
0.711086 0.137881 0
0.734691 0.137911 0
0 0.1617 0
0 0.161746 0
0.0184787 0.16173 0
0.0423133 0.1617 0
0.0664073 0.161837 0
0.0903182 0.161791 0
0.114137 0.161761 0
0.137972 0.16173 0
0.161791 0.1617 0
0.185657 0.161715 0
0.209644 0.161837 0
0.233478 0.161807 0
0.257389 0.161761 0
0.281285 0.161715 0
0.305104 0.161685 0
0.329015 0.16173 0
0.352956 0.161822 0
0.376791 0.161791 0
0.40061 0.161761 0
0.424445 0.161746 0
0.448356 0.161685 0
0.472358 0.161746 0
0.496269 0.161807 0
0.520104 0.161776 0
0.543938 0.161746 0
0.567758 0.161715 0
0.591592 0.1617 0
0.61561 0.161852 0
0.639536 0.161807 0
0.663417 0.161761 0
0.687251 0.16173 0
0.71107 0.1617 0
0.734813 0.161868 0
0 0.185519 0
0 0.18558 0
0.0184634 0.18555 0
0.0424811 0.185718 0
0.066392 0.185672 0
0.0903029 0.185626 0
0.114122 0.185595 0
0.137957 0.185565 0
0.161807 0.18555 0
0.185794 0.185702 0
0.209628 0.185672 0
0.233448 0.185641 0
0.257374 0.185595 0
0.28127 0.18555 0
0.305287 0.185702 0
0.329122 0.185687 0
0.352941 0.185657 0
0.376776 0.185626 0
0.400595 0.185595 0
0.424475 0.185626 0
0.448539 0.185702 0
0.472435 0.185657 0
0.496254 0.185641 0
0.520088 0.185611 0
0.543923 0.18558 0
0.567834 0.185641 0
0.59176 0.185718 0
0.615595 0.185687 0
0.639521 0.185626 0
0.663401 0.185595 0
0.687236 0.185565 0
0.711177 0.185657 0
0.734859 0.185763 0
0 0.209354 0
0 0.209567 0
0.0186465 0.209567 0
0.0424659 0.209537 0
0.0663767 0.209491 0
0.0902724 0.209445 0
0.114107 0.209415 0
0.138125 0.209583 0
0.161959 0.209552 0
0.185779 0.209522 0
0.209613 0.209506 0
0.233433 0.209476 0
0.257359 0.209415 0
0.281437 0.209567 0
0.305272 0.209537 0
0.329091 0.209506 0
0.352926 0.209476 0
0.376761 0.209445 0
0.400626 0.209461 0
0.424598 0.209598 0
0.448524 0.209537 0
0.472419 0.209491 0
0.496239 0.209461 0
0.520073 0.20943 0
0.543969 0.209476 0
0.567926 0.209567 0
0.591745 0.209537 0
0.615579 0.209522 0
0.63949 0.209461 0
0.663386 0.209415 0
0.687404 0.209583 0
0.711238 0.209552 0
0.734844 0.209583 0
0 0.233326 0
0 0.233433 0
0.018616 0.233402 0
0.0424506 0.233371 0
0.0663615 0.233326 0
0.0902571 0.23328 0
0.114275 0.233433 0
0.138109 0.233417 0
0.161944 0.233387 0
0.185763 0.233356 0
0.209598 0.233326 0
0.233417 0.233295 0
0.257527 0.233448 0
0.281422 0.233402 0
0.305257 0.233371 0
0.329076 0.233341 0
0.352911 0.23331 0
0.376928 0.233478 0
0.400763 0.233448 0
0.424582 0.233417 0
0.448508 0.233371 0
0.472389 0.233326 0
0.496239 0.23331 0
0.520241 0.233463 0
0.544076 0.233433 0
0.56791 0.233402 0
0.59173 0.233371 0
0.615564 0.233341 0
0.639536 0.233341 0
0.663554 0.233433 0
0.687388 0.233417 0
0.711223 0.233387 0
0.734813 0.233417 0
0 0.257237 0
0 0.257298 0
0.0185092 0.257267 0
0.0423285 0.257237 0
0.0663767 0.257313 0
0.0903334 0.257343 0
0.114168 0.257313 0
0.137987 0.257282 0
0.161822 0.257252 0
0.185657 0.257221 0
0.209644 0.257359 0
0.233494 0.257359 0
0.257404 0.257313 0
0.2813 0.257267 0
0.305135 0.257237 0
0.328969 0.257206 0
0.352987 0.257374 0
0.376806 0.257343 0
0.400641 0.257313 0
0.424475 0.257282 0
0.448386 0.257237 0
0.472282 0.257191 0
0.4963 0.257359 0
0.520134 0.257328 0
0.543954 0.257298 0
0.567788 0.257267 0
0.591608 0.257237 0
0.615473 0.257252 0
0.639551 0.257359 0
0.663447 0.257313 0
0.687266 0.257282 0
0.711101 0.257252 0
0.734707 0.257282 0
0 0.281086 0
0 0.281147 0
0.0184482 0.281117 0
0.0423896 0.281193 0
0.0663767 0.281224 0
0.0902876 0.281178 0
0.114107 0.281147 0
0.137942 0.281132 0
0.161761 0.281102 0
0.185733 0.281209 0
0.209613 0.281239 0
0.233448 0.281209 0
0.257359 0.281147 0
0.281254 0.281102 0
0.305089 0.281071 0
0.329107 0.281239 0
0.352926 0.281224 0
0.376761 0.281193 0
0.400595 0.281163 0
0.424414 0.281132 0
0.448508 0.281254 0
0.472419 0.281224 0
0.496254 0.281193 0
0.520073 0.281163 0
0.543908 0.281147 0
0.567727 0.281117 0
0.59176 0.281285 0
0.615579 0.281254 0
0.639506 0.281193 0
0.663386 0.281147 0
0.687221 0.281132 0
0.711055 0.281117 0
0.734844 0.281315 0
0 0.304921 0
0 0.304967 0
0.0186313 0.305135 0
0.0424506 0.305104 0
0.0663615 0.305058 0
0.0902724 0.305013 0
0.114092 0.304982 0
0.138018 0.305043 0
0.161944 0.305119 0
0.185779 0.305089 0
0.209598 0.305058 0
0.233433 0.305028 0
0.257343 0.304982 0
0.281361 0.305058 0
0.305257 0.305104 0
0.329091 0.305074 0
0.352911 0.305043 0
0.376745 0.305013 0
0.40058 0.304982 0
0.424567 0.305119 0
0.448508 0.305104 0
0.472404 0.305058 0
0.496223 0.305028 0
0.520058 0.304997 0
0.543893 0.304967 0
0.56791 0.305135 0
0.59173 0.305104 0
0.615564 0.305074 0
0.63949 0.305028 0
0.663371 0.304982 0
0.687205 0.304952 0
0.711223 0.305119 0
0.734829 0.30515 0
0 0.328786 0
0 0.328984 0
0.018616 0.328969 0
0.0424353 0.328939 0
0.0663462 0.328893 0
0.0902571 0.328832 0
0.114153 0.328878 0
0.138094 0.328969 0
0.161929 0.328954 0
0.185748 0.328923 0
0.209583 0.328893 0
0.233417 0.328862 0
0.257435 0.328923 0
0.281407 0.328954 0
0.305241 0.328923 0
0.329076 0.328893 0
0.352895 0.328878 0
0.37673 0.328847 0
0.400748 0.329015 0
0.424582 0.328984 0
0.448493 0.328923 0
0.472389 0.328878 0
0.496208 0.328862 0
0.52018 0.328969 0
0.54406 0.328984 0
0.567895 0.328969 0
0.591714 0.328939 0
0.615549 0.328908 0
0.639475 0.328862 0
0.663539 0.328984 0
0.687373 0.328969 0
0.711208 0.328939 0
0.734813 0.328984 0
0 0.352773 0
0 0.352819 0
0.0186007 0.352789 0
0.0424201 0.352758 0
0.066331 0.352712 0
0.090425 0.352865 0
0.11426 0.352834 0
0.138079 0.352804 0
0.161913 0.352773 0
0.185733 0.352743 0
0.209628 0.352773 0
0.233585 0.35288 0
0.257496 0.352834 0
0.281392 0.352789 0
0.305226 0.352758 0
0.329061 0.352728 0
0.352972 0.352789 0
0.376898 0.352865 0
0.400732 0.352834 0
0.424567 0.352804 0
0.448478 0.352758 0
0.472374 0.352712 0
0.49633 0.352819 0
0.520226 0.35285 0
0.544045 0.352819 0
0.56788 0.352789 0
0.591699 0.352758 0
0.615534 0.352743 0
0.639612 0.35285 0
0.663539 0.352834 0
0.687358 0.352804 0
0.711192 0.352773 0
0.734798 0.352804 0
0 0.376593 0
0 0.376654 0
0.0185855 0.376623 0
0.0424048 0.376593 0
0.0665141 0.37673 0
0.0904097 0.376684 0
0.114229 0.376654 0
0.138064 0.376638 0
0.161898 0.376608 0
0.185763 0.376623 0
0.209751 0.376745 0
0.23357 0.376715 0
0.257481 0.376654 0
0.281376 0.376623 0
0.305211 0.376593 0
0.329107 0.376638 0
0.353063 0.37673 0
0.376883 0.376699 0
0.400717 0.376669 0
0.424552 0.376638 0
0.448463 0.376593 0
0.472541 0.37673 0
0.496376 0.376715 0
0.520195 0.376684 0
0.54403 0.376654 0
0.567864 0.376623 0
0.591791 0.376699 0
0.615717 0.376761 0
0.639628 0.376699 0
0.663523 0.376654 0
0.687343 0.376638 0
0.711177 0.376608 0
0.73492 0.376776 0
0 0.400427 0
0 0.400473 0
0.0185702 0.400458 0
0.0425879 0.40061 0
0.0664988 0.400565 0
0.0903944 0.400519 0
0.114214 0.400488 0
0.138048 0.400458 0
0.162066 0.400626 0
0.185901 0.400595 0
0.20972 0.400565 0
0.233555 0.400549 0
0.257465 0.400488 0
0.281392 0.400473 0
0.305379 0.40061 0
0.329213 0.40058 0
0.353048 0.400549 0
0.376867 0.400519 0
0.400702 0.400488 0
0.424582 0.400519 0
0.448631 0.40061 0
0.472526 0.400565 0
0.496361 0.400534 0
0.52018 0.400504 0
0.544015 0.400473 0
0.567941 0.400534 0
0.591867 0.40061 0
0.615686 0.40058 0
0.639612 0.400534 0
0.663508 0.400488 0
0.687327 0.400458 0
0.711284 0.400565 0
0.734951 0.400656 0
0 0.424247 0
0 0.424475 0
0.0187381 0.424475 0
0.0425574 0.424445 0
0.0664683 0.424399 0
0.0903792 0.424353 0
0.114199 0.424323 0
0.138231 0.424475 0
0.162051 0.42446 0
0.185885 0.42443 0
0.209705 0.424399 0
0.233539 0.424369 0
0.25745 0.424323 0
0.281544 0.42446 0
0.305364 0.42443 0
0.329198 0.424414 0
0.353033 0.424384 0
0.376852 0.424353 0
0.400717 0.424369 0
0.424704 0.424491 0
0.448615 0.42443 0
0.472511 0.424399 0
0.496345 0.424369 0
0.520165 0.424338 0
0.544198 0.424506 0
0.568017 0.424475 0
0.591852 0.424445 0
0.615671 0.424414 0
0.639597 0.424369 0
0.663554 0.424384 0
0.68751 0.424491 0
0.71133 0.42446 0
0.734936 0.424491 0
0 0.44828 0
0 0.448371 0
0.0186007 0.448356 0
0.0424201 0.448325 0
0.066331 0.448264 0
0.0902419 0.448218 0
0.11426 0.448386 0
0.138094 0.448356 0
0.161913 0.448325 0
0.185748 0.44831 0
0.209567 0.44828 0
0.233585 0.448432 0
0.257511 0.448386 0
0.281407 0.448341 0
0.305226 0.44831 0
0.329061 0.44828 0
0.352895 0.448264 0
0.376913 0.448417 0
0.400732 0.448386 0
0.424567 0.448371 0
0.448478 0.44831 0
0.472374 0.448264 0
0.496223 0.448264 0
0.520226 0.448402 0
0.54406 0.448371 0
0.56788 0.448356 0
0.591714 0.448325 0
0.615534 0.448295 0
0.639521 0.448295 0
0.663539 0.448386 0
0.687373 0.448356 0
0.711192 0.448325 0
0.734798 0.448371 0
0 0.47216 0
0 0.472206 0
0.0185702 0.47219 0
0.0423896 0.47216 0
0.0664378 0.472236 0
0.0903944 0.472251 0
0.114229 0.472221 0
0.138048 0.47219 0
0.161883 0.472175 0
0.185702 0.472145 0
0.209705 0.472282 0
0.233555 0.472282 0
0.257465 0.472221 0
0.281361 0.472175 0
0.305196 0.472145 0
0.32903 0.472114 0
0.353048 0.472282 0
0.376867 0.472251 0
0.400702 0.472236 0
0.424536 0.472206 0
0.448447 0.472145 0
0.472343 0.472114 0
0.496361 0.472267 0
0.520195 0.472236 0
0.544015 0.472206 0
0.567849 0.47219 0
0.591669 0.47216 0
0.615702 0.472328 0
0.639612 0.472267 0
0.663508 0.472221 0
0.687327 0.47219 0
0.711162 0.47216 0
0.734798 0.472236 0
0 0.495979 0
0 0.49604 0
0.018555 0.49601 0
0.0424964 0.496101 0
0.0664836 0.496132 0
0.0903792 0.496086 0
0.114214 0.496056 0
0.138033 0.496025 0
0.161868 0.495995 0
0.185885 0.496162 0
0.20972 0.496132 0
0.233539 0.496101 0
0.25745 0.496056 0
0.281346 0.49601 0
0.305333 0.496132 0
0.329198 0.496147 0
0.353033 0.496117 0
0.376852 0.496086 0
0.400687 0.496056 0
0.424521 0.496025 0
0.448615 0.496162 0
0.472511 0.496132 0
0.496345 0.496101 0
0.52018 0.496071 0
0.543999 0.49604 0
0.567834 0.49601 0
0.591852 0.496178 0
0.615686 0.496147 0
0.639597 0.496101 0
0.663493 0.496056 0
0.687312 0.496025 0
0.711162 0.49601 0
0.734936 0.496223 0
0 0.519814 0
0 0.519936 0
0.0187228 0.520043 0
0.0425574 0.520012 0
0.0664683 0.519951 0
0.0903639 0.519905 0
0.114199 0.519875 0
0.138125 0.519951 0
0.162051 0.520012 0
0.18587 0.519982 0
0.209705 0.519966 0
0.233524 0.519936 0
0.257435 0.519875 0
0.281468 0.519966 0
0.305364 0.519997 0
0.329183 0.519966 0
0.353017 0.519951 0
0.376837 0.519921 0
0.400671 0.51989 0
0.424659 0.520027 0
0.448615 0.519997 0
0.472496 0.519951 0
0.49633 0.519921 0
0.520165 0.51989 0
0.543984 0.519875 0
0.568002 0.520043 0
0.591836 0.520012 0
0.615671 0.519982 0
0.639582 0.519921 0
0.663478 0.519875 0
0.687495 0.520043 0
0.711315 0.520012 0
0.73492 0.520043 0
0 0.543694 0
0 0.543893 0
0.0187076 0.543862 0
0.0425422 0.543832 0
0.0664378 0.543786 0
0.0903487 0.54374 0
0.11426 0.543786 0
0.138201 0.543877 0
0.16202 0.543847 0
0.185855 0.543816 0
0.209674 0.543786 0
0.233509 0.54377 0
0.257618 0.543908 0
0.281514 0.543862 0
0.305348 0.543832 0
0.329168 0.543801 0
0.353002 0.54377 0
0.376928 0.543862 0
0.400839 0.543908 0
0.424674 0.543877 0
0.448585 0.543832 0
0.47248 0.543786 0
0.496315 0.543755 0
0.520287 0.543877 0
0.544167 0.543893 0
0.567987 0.543862 0
0.591821 0.543832 0
0.615641 0.543801 0
0.639567 0.543755 0
0.66363 0.543893 0
0.68748 0.543877 0
0.711299 0.543847 0
0.734905 0.543877 0
0 0.567666 0
0 0.567727 0
0.0186923 0.567697 0
0.0425269 0.567666 0
0.066453 0.567636 0
0.0905318 0.567758 0
0.114351 0.567727 0
0.138186 0.567697 0
0.162005 0.567681 0
0.18584 0.567651 0
0.20972 0.567681 0
0.233692 0.567788 0
0.257603 0.567727 0
0.281498 0.567681 0
0.305333 0.567666 0
0.329152 0.567636 0
0.353079 0.567697 0
0.377005 0.567758 0
0.400824 0.567742 0
0.424659 0.567712 0
0.448569 0.567651 0
0.472465 0.567605 0
0.496422 0.567712 0
0.520317 0.567742 0
0.544152 0.567727 0
0.567971 0.567697 0
0.591806 0.567666 0
0.615625 0.567636 0
0.63975 0.567773 0
0.66363 0.567727 0
0.687465 0.567697 0
0.711284 0.567681 0
0.73489 0.567712 0
0 0.591501 0
0 0.591546 0
0.018677 0.591516 0
0.0425116 0.591501 0
0.0666056 0.591638 0
0.0905165 0.591592 0
0.114336 0.591562 0
0.13817 0.591531 0
0.16199 0.591501 0
0.18587 0.591516 0
0.209842 0.591638 0
0.233677 0.591608 0
0.257588 0.591562 0
0.281483 0.591516 0
0.305318 0.591485 0
0.329335 0.591653 0
0.353155 0.591623 0
0.376989 0.591592 0
0.400809 0.591562 0
0.424643 0.591531 0
0.448631 0.591562 0
0.472648 0.591638 0
0.496468 0.591608 0
0.520302 0.591577 0
0.544137 0.591546 0
0.567956 0.591516 0
0.591897 0.591608 0
0.615808 0.591653 0
0.639735 0.591608 0
0.663615 0.591562 0
0.687449 0.591531 0
0.711269 0.591501 0
0.735027 0.591684 0
0 0.61532 0
0 0.615381 0
0.0188449 0.615534 0
0.0426795 0.615518 0
0.0665904 0.615457 0
0.090486 0.615412 0
0.114321 0.615381 0
0.13814 0.615366 0
0.162173 0.615534 0
