public/LUTS/Darken/Darken_03.cube
TITLE "Generated by Resolve"
LUT_3D_SIZE 9
0 0 0
0.0777447 0 0
0.209094 0 0
0.340688 0 0
0.472282 0 0
0.603906 0 0
0.735241 0 0
0.866865 0 0
0.998138 0 0
0 0.0779431 0
0.0781872 0.0781415 0
0.209522 0.0779431 0
0.341131 0.0780346 0
0.47274 0.0781109 0
0.604089 0.0779278 0
0.735683 0.0780194 0
0.867308 0.0780957 0
0.998581 0.0782635 0
0 0.209476 0
0.0782788 0.209674 0
0.209613 0.209491 0
0.341222 0.209567 0
0.472831 0.209659 0
0.604181 0.209461 0
0.735775 0.209552 0
0.867399 0.209628 0
0.998596 0.20972 0
0 0.341039 0
0.0782177 0.341146 0
0.209644 0.341054 0
0.341268 0.341131 0
0.472862 0.341207 0
0.604212 0.341024 0
0.735805 0.341115 0
0.86743 0.341176 0
0.998444 0.341085 0
0 0.472557 0
0.078172 0.472496 0
0.209766 0.472572 0
0.34139 0.472648 0
0.472847 0.472602 0
0.604334 0.472541 0
0.735927 0.472633 0
0.867521 0.472663 0
0.998566 0.472618 0
0 0.604074 0
0.078172 0.604059 0
0.209781 0.60415 0
0.34139 0.604227 0
0.472724 0.604044 0
0.604349 0.60412 0
0.735943 0.604196 0
0.867384 0.604089 0
0.998581 0.604181 0
0 0.735439 0
0.0783246 0.735576 0
0.209934 0.735653 0
0.341543 0.735729 0
0.472877 0.735561 0
0.604501 0.735622 0
0.736095 0.735714 0
0.86746 0.735531 0
0.998718 0.735698 0
0 0.866957 0
0.0783093 0.867155 0
0.209918 0.867231 0
0.341283 0.867063 0
0.472862 0.86714 0
0.604486 0.867216 0
0.73608 0.867292 0
0.867445 0.867109 0
0.998703 0.867277 0
0 0.998459 0
0.0784924 0.998657 0
0.210086 0.998734 0
0.341436 0.99855 0
0.473045 0.998642 0
0.604654 0.998718 0
0.736217 0.998764 0
0.867613 0.998611 0
0.998886 0.998779 0
0 0 0.0780652
0.0777752 0 0.0782483
0.20911 0 0.0780652
0.340734 0 0.0781415
0.472328 0 0.078233
0.603738 0 0.0780957
0.735271 0 0.0781262
0.866896 0 0.0782025
0.998062 0 0.0782635
0 0.0779736 0.0785077
0.0780957 0.0780499 0.0785687
0.209552 0.0779889 0.0785077
0.341176 0.0780652 0.078584
0.47277 0.0781567 0.0786755
0.60412 0.0779583 0.0784924
0.735714 0.0780499 0.0785687
0.867338 0.0781262 0.078645
0.998352 0.0780346 0.0785687
0 0.209506 0.0785992
0.0780499 0.209445 0.0785229
0.209644 0.209522 0.0785992
0.341268 0.209598 0.0786908
0.472862 0.209689 0.0787671
0.604227 0.209506 0.078584
0.735805 0.209583 0.0786603
0.867445 0.209659 0.0787366
0.998444 0.209567 0.078645
0 0.34107 0.0786297
0.0780804 0.341009 0.0785534
0.209689 0.341085 0.078645
0.341299 0.341161 0.0787213
0.472633 0.340978 0.0785382
0.604257 0.341054 0.0786145
0.735851 0.341146 0.078706
0.867475 0.341222 0.0787823
0.998489 0.341131 0.0786908
0 0.472602 0.0787518
0.0782025 0.472526 0.0786755
0.209812 0.472602 0.0787671
0.341421 0.472694 0.0788434
0.472755 0.472511 0.0786603
0.604379 0.472587 0.0787366
0.735973 0.472679 0.0788281
0.867491 0.472633 0.0787976
0.998611 0.472648 0.0788128
0 0.604044 0.078645
0.0782177 0.604089 0.0786908
0.209812 0.604181 0.0787671
0.341405 0.604227 0.0788281
0.472755 0.604074 0.0786755
0.604379 0.60415 0.0787518
0.735973 0.604242 0.0788281
0.867338 0.604044 0.078645
0.998611 0.604227 0.0788128
0 0.735409 0.078645
0.0783703 0.735607 0.0788434
0.209964 0.735683 0.0789197
0.341405 0.735592 0.0788281
0.472908 0.735592 0.0788128
0.604532 0.735668 0.0789044
0.736049 0.735683 0.0789044
0.867491 0.735561 0.0787976
0.998764 0.735744 0.0789654
0 0.866987 0.0786297
0.0783551 0.867185 0.0788281
0.209949 0.867262 0.0789044
0.341299 0.867079 0.0787213
0.472892 0.86717 0.0787976
0.604517 0.867247 0.0788891
0.735897 0.867109 0.0787518
0.867475 0.86714 0.0787823
0.998749 0.867323 0.0789502
0 0.998505 0.0788128
0.0785229 0.998688 0.078996
0.210117 0.998779 0.0790875
0.341482 0.998581 0.0788891
0.473075 0.998672 0.0789807
0.6047 0.998749 0.079057
0.736019 0.998566 0.0788739
0.867643 0.998642 0.0789502
0.998917 0.998825 0.0791333
0 0 0.210315
0.0776989 0 0.210452
0.209094 0 0.21033
0.340703 0 0.210407
0.472297 0 0.210483
0.603662 0 0.2103
0.735256 0 0.210391
0.86688 0 0.210468
0.997971 0 0.210452
0 0.0779583 0.210758
0.0780041 0.0779583 0.210758
0.209537 0.0779736 0.210773
0.341146 0.0780499 0.210849
0.472648 0.0780346 0.210834
0.604105 0.0779431 0.210742
0.735698 0.0780346 0.210834
0.867323 0.0781109 0.21091
0.998322 0.0780041 0.210803
0 0.209491 0.210849
0.0780194 0.209415 0.210773
0.209628 0.209506 0.210864
0.341253 0.209583 0.210941
0.472602 0.20943 0.210788
0.604196 0.209476 0.210834
0.73579 0.209567 0.210925
0.867277 0.209491 0.210849
0.998428 0.209552 0.21091
0 0.340887 0.210727
0.0780652 0.340978 0.210819
0.209659 0.341054 0.210895
0.341283 0.341146 0.210971
0.472618 0.340963 0.210788
0.604242 0.341039 0.21088
0.735821 0.341115 0.210956
0.867185 0.340932 0.210773
0.998459 0.341115 0.210941
0 0.472313 0.210742
0.0781872 0.472496 0.210925
0.209781 0.472587 0.211017
0.341405 0.472663 0.211093
0.472724 0.47248 0.21091
0.604364 0.472557 0.211002
0.735943 0.472648 0.211078
0.867308 0.472465 0.210895
0.998581 0.472633 0.211063
0 0.603876 0.210758
0.0781872 0.604074 0.210941
0.209796 0.60415 0.211032
0.341146 0.603967 0.210849
0.47274 0.604059 0.210925
0.604364 0.604135 0.211002
0.735958 0.604212 0.211093
0.867323 0.604028 0.210895
0.998596 0.604196 0.211078
0 0.735393 0.210895
0.0783398 0.735592 0.211093
0.209949 0.735668 0.21117
0.341299 0.735485 0.210986
0.472892 0.735561 0.211078
0.604517 0.735653 0.211154
0.735958 0.735592 0.211093
0.867475 0.735546 0.211048
0.998749 0.735714 0.211215
0 0.866972 0.21088
0.0783246 0.86717 0.211078
0.209873 0.867185 0.211109
0.341283 0.867063 0.210971
0.472877 0.86714 0.211063
0.604501 0.867231 0.211139
0.735821 0.867048 0.210956
0.86746 0.867124 0.211032
0.998734 0.867292 0.211215
0 0.998474 0.211063
0.0785077 0.998672 0.211261
0.209903 0.99855 0.211139
0.341451 0.998566 0.211154
0.473045 0.998657 0.211231
0.604562 0.998627 0.2112
0.736004 0.99855 0.211139
0.867628 0.998627 0.211215
0.998901 0.998795 0.211383
0 0 0.342321
0.0774853 0 0.342245
0.209094 0 0.342336
0.340703 0 0.342412
0.472282 0 0.342473
0.603662 0 0.342306
0.735256 0 0.342397
0.86688 0 0.342473
0.997879 0 0.342367
0 0.0779583 0.342763
0.0779278 0.0778821 0.342687
0.209537 0.0779583 0.342779
0.341146 0.0780346 0.342855
0.47248 0.0778668 0.342672
0.604105 0.0779431 0.342748
0.735698 0.0780194 0.34284
0.867262 0.0780346 0.34284
0.998322 0.0780041 0.342809
0 0.209415 0.342779
0.0780194 0.209415 0.342779
0.209628 0.209506 0.34287
0.341238 0.209583 0.342947
0.472572 0.2094 0.342763
0.604196 0.209476 0.34284
0.73579 0.209567 0.342931
0.867201 0.20943 0.342794
0.998428 0.209537 0.342916
0 0.340826 0.342672
0.0780499 0.340978 0.342824
0.209659 0.341054 0.342901
0.341146 0.341009 0.342855
0.472602 0.340963 0.342794
0.604227 0.341039 0.342885
0.735821 0.341115 0.342962
0.867185 0.340932 0.342779
0.998459 0.3411 0.342947
0 0.472313 0.342748
0.078172 0.472496 0.342931
0.209781 0.472587 0.343023
0.341131 0.472404 0.34284
0.472724 0.47248 0.342916
0.604349 0.472557 0.343008
0.735759 0.472465 0.342901
0.867308 0.472465 0.342901
0.998581 0.472633 0.343069
0 0.603876 0.342763
0.0781872 0.604074 0.342947
0.209796 0.60415 0.343038
0.341146 0.603967 0.342855
0.47274 0.604059 0.342931
0.604364 0.604135 0.343008
0.735683 0.603952 0.342824
0.867323 0.604028 0.342901
0.998596 0.604196 0.343084
0 0.735393 0.342901
0.0783398 0.735576 0.343099
0.209934 0.735668 0.343175
0.341299 0.735485 0.342992
0.472892 0.735561 0.343084
0.604517 0.735637 0.34316
0.735836 0.73547 0.342977
0.86746 0.735546 0.343053
0.998734 0.735714 0.343221
0 0.866972 0.342885
0.0783246 0.867155 0.343084
0.209659 0.866987 0.342901
0.341283 0.867063 0.342977
0.472877 0.86714 0.343069
0.604471 0.867201 0.343114
0.735821 0.867048 0.342962
0.867445 0.867124 0.343038
0.998734 0.867292 0.343221
0 0.998474 0.343069
0.0785077 0.998672 0.343267
0.209842 0.998489 0.343084
0.341451 0.998566 0.34316
0.473045 0.998642 0.343236
0.604501 0.99855 0.343145
0.736004 0.99855 0.343145
0.867628 0.998627 0.343221
0.998825 0.998718 0.343313
0 0 0.474571
0.0774701 0 0.474495
0.209064 0 0.474586
0.340688 0 0.474662
0.472023 0 0.474479
0.603632 0 0.474556
0.735225 0 0.474647
0.866606 0 0.474464
0.997864 0 0.474632
0 0.0776684 0.474739
0.0779126 0.0778668 0.474937
0.209506 0.0779431 0.475029
0.341131 0.0780194 0.475105
0.472465 0.0778363 0.474922
0.604074 0.0779126 0.474998
0.735668 0.0780041 0.47509
0.867033 0.077821 0.474891
0.998306 0.0779889 0.475059
0 0.209201 0.474845
0.0780041 0.2094 0.475029
0.209598 0.209476 0.47512
0.341176 0.209506 0.475151
0.472557 0.209384 0.475013
0.604181 0.209461 0.47509
0.735759 0.209537 0.475181
0.867124 0.209354 0.474998
0.998398 0.209522 0.475166
0 0.340764 0.474876
0.0780346 0.340948 0.475074
0.209644 0.341039 0.475151
0.340993 0.340856 0.474968
0.472587 0.340932 0.475044
0.604212 0.341009 0.475135
0.735698 0.341009 0.47512
0.86717 0.340917 0.475029
0.998444 0.341085 0.475196
0 0.472282 0.474998
0.0781567 0.47248 0.475196
0.209751 0.472541 0.475257
0.341115 0.472374 0.47509
0.472709 0.472465 0.475166
0.604334 0.472541 0.475257
0.735683 0.472374 0.47509
0.867292 0.472435 0.475151
0.99855 0.472602 0.475319
0 0.603861 0.475013
0.078172 0.604044 0.475196
0.209613 0.603967 0.47512
0.341115 0.603952 0.47509
0.472724 0.604028 0.475181
0.604349 0.604105 0.475257
0.735668 0.603922 0.475074
0.867292 0.604013 0.475151
0.998566 0.604181 0.475334
0 0.735378 0.475151
0.0783093 0.735561 0.475349
0.209659 0.735378 0.475166
0.341268 0.735454 0.475242
0.472862 0.735546 0.475334
0.604273 0.735409 0.475196
0.735821 0.735439 0.475227
0.867445 0.735515 0.475303
0.998718 0.735683 0.475471
0 0.866957 0.475151
0.078294 0.86714 0.475334
0.209644 0.866957 0.475151
0.341253 0.867048 0.475227
0.472847 0.867124 0.475319
0.604212 0.866941 0.475135
0.735805 0.867018 0.475212
0.86743 0.867094 0.475288
0.998703 0.867262 0.475456
0 0.998459 0.475319
0.0784619 0.998627 0.475502
0.209812 0.998459 0.475334
0.341436 0.99855 0.47541
0.47303 0.998627 0.475486
0.604395 0.998444 0.475303
0.735973 0.99852 0.475395
0.867613 0.998596 0.475471
0.998611 0.998505 0.475364
0 0 0.606378
0.0774701 0 0.6065
0.209064 0 0.606577
0.340597 0 0.606577
0.472007 0 0.606485
0.603632 0 0.606561
0.735225 0 0.606653
0.86659 0 0.606455
0.997864 0 0.606638
0 0.0776684 0.606744
0.0778973 0.0778515 0.606943
0.209506 0.0779431 0.607034
0.340887 0.0777905 0.606867
0.47245 0.0778363 0.606928
0.604074 0.0779126 0.607004
0.735668 0.0780041 0.607095
0.867033 0.077821 0.606897
0.998306 0.0779889 0.607065
0 0.209201 0.606851
0.0780041 0.2094 0.607034
0.209598 0.209476 0.607126
0.340948 0.209293 0.606928
0.472557 0.209369 0.607019
0.604166 0.209445 0.607095
0.7355 0.209277 0.606912
0.867124 0.209354 0.607004
0.998398 0.209522 0.607172
0 0.340764 0.606882
0.0780346 0.340948 0.60708
0.209644 0.341039 0.607156
0.340993 0.340856 0.606973
0.472587 0.340932 0.60705
0.604212 0.341009 0.607126
0.735531 0.340826 0.606958
0.86717 0.340917 0.607034
0.998428 0.341085 0.607202
0 0.472282 0.607004
0.0781567 0.47248 0.607202
0.209674 0.47248 0.607202
0.341115 0.472374 0.607095
0.472709 0.472465 0.607172
0.604334 0.472541 0.607248
0.735653 0.472358 0.60708
0.867292 0.472435 0.607156
0.99855 0.472602 0.607324
0 0.603845 0.607004
0.078172 0.604044 0.607202
0.209506 0.603861 0.607019
0.341115 0.603937 0.607095
0.472709 0.604028 0.607187
0.604212 0.603983 0.607141
0.735668 0.603922 0.60708
0.867292 0.603998 0.607156
0.998535 0.604135 0.607294
0 0.735363 0.607156
0.0782635 0.735515 0.607309
0.209659 0.735378 0.607172
0.341268 0.735454 0.607248
0.472862 0.735546 0.60734
0.604227 0.735363 0.607156
0.735821 0.735439 0.607233
0.867445 0.735515 0.607309
0.998535 0.735515 0.607309
0 0.866957 0.607156
0.0781109 0.866941 0.607141
0.209644 0.866957 0.607156
0.341253 0.867033 0.607233
0.472847 0.867124 0.607324
0.604212 0.866941 0.607141
0.735805 0.867018 0.607217
0.86743 0.867094 0.607294
0.998428 0.867002 0.607202
0 0.998459 0.607324
0.0782025 0.998383 0.607248
0.209812 0.998459 0.60734
0.341436 0.998535 0.607416
0.472786 0.998383 0.607248
0.604379 0.998444 0.607309
0.735973 0.99852 0.607401
0.867597 0.998596 0.607477
0.998611 0.998505 0.60737
0 0 0.738567
0.0774395 0 0.73875
0.209049 0 0.738842
0.340505 0 0.738766
0.471992 0 0.738735
0.603616 0 0.738811
0.735149 0 0.738842
0.866575 0 0.738705
0.997848 0 0.738888
0 0.0776379 0.73901
0.0778821 0.0778363 0.739193
0.209491 0.0779278 0.739284
0.340841 0.0777295 0.739101
0.472435 0.077821 0.739178
0.604059 0.0778973 0.739254
0.735439 0.0777752 0.739147
0.867002 0.0777905 0.739147
0.998276 0.0779583 0.73933
0 0.209186 0.739101
0.0779736 0.209369 0.7393
0.209461 0.209339 0.739254
0.340932 0.209262 0.739193
0.472526 0.209354 0.739269
0.60415 0.20943 0.739345
0.735485 0.209247 0.739178
0.867109 0.209323 0.739254
0.998383 0.209506 0.739422
0 0.340734 0.739132
0.0780194 0.340932 0.73933
0.209354 0.340749 0.739147
0.340963 0.340826 0.739223
0.472572 0.340917 0.739315
0.604181 0.340993 0.739391
0.735515 0.34081 0.739208
0.86714 0.340887 0.739284
0.998413 0.341054 0.739452
0 0.472267 0.739254
0.0781415 0.47245 0.739452
0.209476 0.472282 0.739269
0.341085 0.472358 0.739345
0.472694 0.472435 0.739437
0.604044 0.472251 0.739239
0.735637 0.472343 0.73933
0.867262 0.472419 0.739406
0.998535 0.472587 0.739574
0 0.60383 0.739269
0.0781415 0.604028 0.739452
0.209476 0.603845 0.739284
0.3411 0.603922 0.739361
0.472694 0.604013 0.739437
0.604059 0.603815 0.739254
0.735637 0.603906 0.739345
0.867277 0.603983 0.739422
0.998444 0.604059 0.739483
0 0.735348 0.739422
0.078172 0.735424 0.739498
0.209628 0.735363 0.739422
0.341253 0.735439 0.739498
0.472831 0.7355 0.739574
0.604196 0.735332 0.739406
0.73579 0.735424 0.739483
0.86743 0.7355 0.739574
0.998428 0.735409 0.739467
0 0.866926 0.739406
0.0780194 0.86685 0.73933
0.209613 0.866941 0.739422
0.341238 0.867018 0.739498
0.472663 0.866941 0.739406
0.604181 0.866911 0.739391
0.735775 0.867002 0.739467
0.867338 0.867002 0.739483
0.998413 0.866987 0.739452
0 0.998352 0.739498
0.0781872 0.998352 0.739498
0.209796 0.998444 0.73959
0.341405 0.99852 0.739666
0.47274 0.998337 0.739483
0.604364 0.998413 0.739559
0.735958 0.998505 0.739651
0.867369 0.998367 0.739513
0.998581 0.998489 0.739635
0 0 0.870573
0.0774395 0 0.870756
0.209033 0 0.870848
0.340398 0 0.870665
0.471992 0 0.870741
0.603616 0 0.870817
0.734936 0 0.870649
0.86656 0 0.87071
0.997833 0 0.870893
0 0.0776379 0.871015
0.0778821 0.0778363 0.871199
0.209445 0.0778821 0.871244
0.340841 0.0777295 0.871107
0.472435 0.077821 0.871183
0.604059 0.0778973 0.87126
0.735378 0.0777142 0.871092
0.867002 0.0777905 0.871153
0.998276 0.0779583 0.871336
0 0.209171 0.871107
0.0779736 0.209369 0.871305
0.209384 0.209262 0.871199
0.340932 0.209262 0.871199
0.472526 0.209354 0.871275
0.604059 0.209339 0.871275
0.73547 0.209247 0.871183
0.867109 0.209323 0.87126
0.998383 0.209506 0.871427
0 0.340734 0.871138
0.0780194 0.340932 0.871336
0.209354 0.340749 0.871153
0.340963 0.340826 0.871229
0.472557 0.340917 0.871321
0.603952 0.340749 0.871153
0.735515 0.34081 0.871214
0.86714 0.340887 0.87129
0.998276 0.340917 0.871321
0 0.472267 0.87126
0.0779736 0.472297 0.871305
0.209476 0.472267 0.871275
0.341085 0.472358 0.871351
0.472679 0.472435 0.871443
0.604044 0.472251 0.871244
0.735637 0.472328 0.871336
0.867262 0.472404 0.871412
0.998276 0.472313 0.871321
0 0.60383 0.871275
0.0778821 0.603754 0.871199
0.209476 0.603845 0.87129
0.3411 0.603922 0.871366
0.472694 0.604013 0.871443
0.604044 0.603815 0.87126
0.735637 0.603906 0.871351
0.867262 0.603983 0.871412
0.998276 0.603891 0.871336
0 0.735348 0.871427
0.0780194 0.735271 0.871351
0.209628 0.735363 0.871427
0.341253 0.735439 0.871504
0.472572 0.735256 0.871336
0.604196 0.735332 0.871412
0.73579 0.735424 0.871489
0.867414 0.735485 0.871565
0.998428 0.735409 0.871473
0 0.866926 0.871397
0.0780194 0.86685 0.871336
0.209613 0.866941 0.871427
0.341238 0.867018 0.871504
0.472557 0.866835 0.871321
0.604181 0.866911 0.871397
0.735775 0.867002 0.871473
0.867277 0.866941 0.871427
0.998413 0.866987 0.871458
0 0.998276 0.871427
0.0781872 0.998352 0.871504
0.209796 0.998444 0.871595
0.34136 0.998459 0.871626
0.47274 0.998337 0.871489
0.604364 0.998413 0.871565
0.735958 0.998505 0.871656
0.867323 0.998306 0.871473
0.998581 0.998489 0.871641
0 0 1
0.0774701 0 1
0.208835 0 1
0.340414 0 1
0.472007 0 1
0.603647 0 1
0.734966 0 1
0.86659 0 1
0.997864 0 1
0 0.0776684 1
0.0779126 0.0778668 1
0.209247 0.0776837 1
0.340856 0.07776 1
0.47245 0.0778363 1
0.604074 0.0779126 1
0.735409 0.0777447 1
0.867033 0.077821 1
0.998306 0.0779889 1
0 0.209201 1
0.0780041 0.2094 1
0.209339 0.209216 1
0.340963 0.209293 1
0.472557 0.209369 1
0.603906 0.209186 1
0.7355 0.209277 1
0.867124 0.209354 1
0.998352 0.209461 1
0 0.340764 1
0.0779736 0.340887 1
0.209369 0.34078 1
0.340993 0.340856 1
0.472587 0.340932 1
0.603952 0.340749 1
0.735546 0.340841 1
0.86717 0.340917 1
0.99823 0.340887 1
0 0.472282 1
0.0779431 0.472267 1
0.209491 0.472297 1
0.341115 0.472374 1
0.472587 0.472343 1
0.604074 0.472267 1
0.735668 0.472358 1
0.867292 0.472435 1
0.998291 0.472343 1
0 0.603861 1
0.0778973 0.603784 1
0.209506 0.603861 1
0.341115 0.603952 1
0.47245 0.603769 1
0.604074 0.603845 1
0.735668 0.603937 1
0.867124 0.60383 1
0.998306 0.603922 1
0 0.73518 1
0.0780499 0.735302 1
0.209659 0.735378 1
0.341268 0.735454 1
0.472602 0.735286 1
0.604227 0.735363 1
0.735821 0.735439 1
0.867185 0.735256 1
0.998459 0.735424 1
0 0.866682 1
0.0780346 0.86688 1
0.209644 0.866957 1
0.341253 0.867033 1
0.472587 0.866865 1
0.604212 0.866941 1
0.735805 0.867018 1
0.86717 0.866835 1
0.998444 0.867002 1
0 0.998184 1
0.0782177 0.998383 1
0.209812 0.998474 1
0.341161 0.998276 1
0.47277 0.998367 1
0.604379 0.998444 1
0.735958 0.998505 1
0.867338 0.998337 1
0.998077 0.997986 1
