public/LUTS/Darken/Darken_10.cube
TITLE "Generated by Resolve"
LUT_3D_SIZE 33
0 0 0
0.024979 0 0
0.050721 0 0
0.0766613 0 0
0.10248 0 0
0.128298 0 0
0.15404 0 0
0.179782 0 0
0.205524 0 0
0.231449 0 0
0.257191 0 0
0.282933 0 0
0.308751 0 0
0.334569 0 0
0.360357 0 0
0.386252 0 0
0.411978 0 0
0.43772 0 0
0.463462 0 0
0.489189 0 0
0.515236 0 0
0.541039 0 0
0.566781 0 0
0.592523 0 0
0.61825 0 0
0.644083 0 0
0.669932 0 0
0.695674 0 0
0.721508 0 0
0.747311 0 0
0.773053 0 0
0.798901 0 0
0.824491 0 0
0 0.0251926 0
0.0252537 0.0252537 0
0.0512093 0.0254215 0.000106813
0.076936 0.025391 7.62951e-05
0.10277 0.0253452 1.5259e-05
0.128588 0.0252842 0
0.154314 0.0252537 0
0.18027 0.0254368 0.000106813
0.205997 0.0254063 7.62951e-05
0.231739 0.0253758 4.57771e-05
0.257481 0.0253452 1.5259e-05
0.283207 0.0253147 0
0.309041 0.0252537 0
0.335058 0.0254215 9.15541e-05
0.3608 0.025391 6.10361e-05
0.386526 0.0253605 3.0518e-05
0.412268 0.02533 0
0.43801 0.0252995 0
0.463783 0.0252995 0
0.489693 0.025452 0.000122072
0.515511 0.025391 6.10361e-05
0.541329 0.0253452 1.5259e-05
0.567056 0.0253147 0
0.592798 0.0252842 0
0.618601 0.0253147 0
0.64448 0.0254215 9.15541e-05
0.670222 0.025391 7.62951e-05
0.695949 0.0253605 4.57771e-05
0.721782 0.0252995 0
0.747585 0.0252537 0
0.773434 0.0253452 1.5259e-05
0.799268 0.0254063 7.62951e-05
0.824765 0.0254368 0.000122072
0 0.0510872 0
0.025452 0.051194 0.000106813
0.051194 0.0511635 7.62951e-05
0.0769207 0.051133 4.57771e-05
0.102754 0.0510872 0
0.128557 0.0510262 0
0.154498 0.051194 0.000106813
0.18024 0.0511788 9.15541e-05
0.205982 0.0511482 6.10361e-05
0.231724 0.0511177 3.0518e-05
0.25745 0.0510872 0
0.283192 0.0510567 0
0.309224 0.0512093 0.000122072
0.335042 0.0511635 7.62951e-05
0.360769 0.0511177 4.57771e-05
0.386511 0.0511025 1.5259e-05
0.412253 0.0510719 0
0.437995 0.0510567 0
0.463935 0.0512093 0.000137331
0.489662 0.0511788 0.000106813
0.515496 0.0511177 4.57771e-05
0.541299 0.0510719 0
0.567041 0.0510414 0
0.592981 0.0512245 0.000137331
0.618723 0.051194 0.000106813
0.644465 0.0511635 7.62951e-05
0.670192 0.051133 4.57771e-05
0.695933 0.0511025 1.5259e-05
0.721828 0.0511025 1.5259e-05
0.747784 0.0512093 0.000122072
0.77351 0.0511788 9.15541e-05
0.799252 0.0511482 6.10361e-05
0.82475 0.0511788 9.15541e-05
3.0518e-05 0.0768749 3.0518e-05
0.0254368 0.076936 9.15541e-05
0.0511635 0.0769055 6.10361e-05
0.0769055 0.0768749 3.0518e-05
0.102724 0.0768139 0
0.128756 0.0769665 0.000137331
0.154482 0.076936 0.000106813
0.180224 0.0769055 7.62951e-05
0.205966 0.0768749 4.57771e-05
0.231693 0.0768444 1.5259e-05
0.257603 0.076997 0.00015259
0.283375 0.076997 0.000167849
0.309209 0.076936 0.000106813
0.335012 0.0768902 6.10361e-05
0.360754 0.0768597 3.0518e-05
0.386496 0.0768292 0
0.412436 0.0770123 0.000167849
0.438178 0.0769818 0.000137331
0.463905 0.0769513 0.000106813
0.489647 0.0769207 7.62951e-05
0.51548 0.0768597 3.0518e-05
0.541283 0.0768139 0
0.567239 0.076997 0.00015259
0.592966 0.0769665 0.000122072
0.618708 0.076936 9.15541e-05
0.644434 0.0769055 6.10361e-05
0.670176 0.0768749 3.0518e-05
0.695949 0.0768749 3.0518e-05
0.721965 0.0769818 0.00015259
0.747753 0.076936 0.000106813
0.773495 0.0769055 7.62951e-05
0.799237 0.0768749 4.57771e-05
0.824735 0.0769207 7.62951e-05
0 0.102647 0
0.02533 0.102708 0
0.0510719 0.102678 0
0.0769207 0.102754 4.57771e-05
0.102831 0.1028 7.62951e-05
0.128649 0.102739 3.0518e-05
0.154391 0.102708 0
0.180117 0.102678 0
0.205859 0.102647 0
0.231754 0.10277 6.10361e-05
0.257542 0.1028 9.15541e-05
0.283268 0.10277 6.10361e-05
0.309102 0.102708 0
0.33492 0.102663 0
0.360647 0.102632 0
0.386587 0.1028 7.62951e-05
0.412329 0.102785 7.62951e-05
0.438071 0.102754 3.0518e-05
0.463813 0.102724 1.5259e-05
0.48954 0.102693 0
0.515373 0.102632 0
0.54139 0.1028 7.62951e-05
0.567132 0.10277 4.57771e-05
0.592859 0.102739 1.5259e-05
0.618601 0.102708 0
0.644343 0.102663 0
0.670283 0.102846 0.000137331
0.696025 0.102815 0.000106813
0.721859 0.102754 4.57771e-05
0.747662 0.102708 0
0.773388 0.102678 0
0.799146 0.102663 0
0.824826 0.102892 0.000183108
0 0.128405 0
0.0252537 0.128466 0
0.0510872 0.128527 0
0.0769207 0.128618 6.10361e-05
0.102754 0.128557 0
0.128573 0.128511 0
0.154299 0.128481 0
0.180041 0.12845 0
0.205982 0.128618 7.62951e-05
0.231724 0.128588 3.0518e-05
0.257465 0.128557 1.5259e-05
0.283192 0.128527 0
0.309026 0.128481 0
0.334966 0.128557 0
0.360784 0.128603 4.57771e-05
0.386511 0.128573 1.5259e-05
0.412253 0.128542 0
0.437995 0.128511 0
0.463722 0.128481 0
0.489632 0.128618 6.10361e-05
0.515496 0.128603 4.57771e-05
0.541314 0.128557 0
0.567041 0.128527 0
0.592782 0.128496 0
0.618524 0.128466 0
0.644465 0.128634 9.15541e-05
0.670207 0.128618 6.10361e-05
0.695933 0.128588 3.0518e-05
0.721767 0.128527 0
0.74757 0.128481 0
0.773312 0.12845 0
0.799252 0.128618 6.10361e-05
0.82475 0.128664 0.000106813
0 0.154177 0
0.0254368 0.154406 0.000106813
0.0511788 0.154376 7.62951e-05
0.0769055 0.154345 4.57771e-05
0.102739 0.154299 0
0.128557 0.154238 0
0.15436 0.154284 0
0.18024 0.154391 7.62951e-05
0.205966 0.15436 4.57771e-05
0.231708 0.15433 1.5259e-05
0.25745 0.154299 0
0.283177 0.154269 0
0.309117 0.15433 1.5259e-05
0.335027 0.154376 6.10361e-05
0.360769 0.154345 3.0518e-05
0.386496 0.154314 0
0.412238 0.154284 0
0.43798 0.154253 0
0.463859 0.154376 6.10361e-05
0.489662 0.154406 9.15541e-05
0.51548 0.154345 3.0518e-05
0.541299 0.154299 0
0.567025 0.154269 0
0.592767 0.154238 0
0.618708 0.154406 0.000106813
0.64445 0.154376 6.10361e-05
0.670192 0.154345 4.57771e-05
0.695918 0.154314 1.5259e-05
0.721752 0.154253 0
0.747738 0.154406 9.15541e-05
0.77351 0.154391 7.62951e-05
0.799237 0.15436 4.57771e-05
0.824735 0.154391 9.15541e-05
3.0518e-05 0.180087 3.0518e-05
0.0254215 0.180148 7.62951e-05
0.0511635 0.180117 6.10361e-05
0.0768902 0.180087 1.5259e-05
0.102724 0.180026 0
0.128603 0.180041 0
0.154482 0.180163 9.15541e-05
0.180209 0.180133 6.10361e-05
0.205951 0.180102 3.0518e-05
0.231693 0.180072 0
0.25742 0.180041 0
0.283375 0.180209 0.00015259
0.309194 0.180163 9.15541e-05
0.335012 0.180117 4.57771e-05
0.360739 0.180072 1.5259e-05
0.386481 0.180041 0
0.412314 0.180117 4.57771e-05
0.438163 0.180194 0.000137331
0.463905 0.180163 0.000106813
0.489632 0.180133 7.62951e-05
0.515465 0.180072 1.5259e-05
0.541268 0.180026 0
0.567147 0.180133 7.62951e-05
0.59295 0.180179 0.000106813
0.618692 0.180148 7.62951e-05
0.644434 0.180117 4.57771e-05
0.670161 0.180087 1.5259e-05
0.695903 0.180056 0
0.721904 0.180163 0.000106813
0.747753 0.180163 9.15541e-05
0.77348 0.180133 6.10361e-05
0.799222 0.180102 3.0518e-05
0.82472 0.180133 7.62951e-05
0 0.205829 0
0.0254063 0.20589 6.10361e-05
0.051133 0.205859 3.0518e-05
0.0768749 0.205829 0
0.102907 0.205982 0.00015259
0.128725 0.205921 0.000106813
0.154452 0.20589 7.62951e-05
0.180194 0.205859 4.57771e-05
0.205936 0.205844 1.5259e-05
0.231708 0.205844 3.0518e-05
0.257618 0.205982 0.000167849
0.283345 0.205951 0.000122072
0.309178 0.20589 7.62951e-05
0.334981 0.205844 3.0518e-05
0.360723 0.205814 0
0.386542 0.205859 4.57771e-05
0.412406 0.205966 0.000137331
0.438148 0.205936 0.000106813
0.463874 0.205905 7.62951e-05
0.489616 0.205875 4.57771e-05
0.51545 0.205814 0
0.541375 0.20589 6.10361e-05
0.567208 0.205951 0.000122072
0.592935 0.205921 9.15541e-05
0.618677 0.20589 6.10361e-05
0.644404 0.205859 3.0518e-05
0.670146 0.205829 0
0.696101 0.205997 0.000183108
0.721935 0.205936 0.000122072
0.747723 0.20589 7.62951e-05
0.773465 0.205859 4.57771e-05
0.799207 0.205829 1.5259e-05
0.824842 0.206012 0.000198367
0 0.231556 0
0.025391 0.231617 4.57771e-05
0.0511177 0.231586 1.5259e-05
0.0770581 0.231769 0.000198367
0.102892 0.231708 0.000137331
0.12871 0.231662 9.15541e-05
0.154437 0.231632 6.10361e-05
0.180179 0.231601 3.0518e-05
0.205936 0.231601 1.5259e-05
0.231861 0.231754 0.000167849
0.257603 0.231724 0.00015259
0.28333 0.231693 0.000106813
0.309163 0.231632 6.10361e-05
0.334966 0.231586 1.5259e-05
0.360922 0.231754 0.000183108
0.386648 0.231724 0.00015259
0.41239 0.231708 0.000122072
0.438132 0.231662 9.15541e-05
0.463859 0.231647 6.10361e-05
0.489662 0.231662 9.15541e-05
0.515633 0.231754 0.000183108
0.541451 0.231708 0.000137331
0.567178 0.231678 0.000106813
0.59292 0.231647 7.62951e-05
0.618662 0.231617 4.57771e-05
0.644495 0.231693 0.000106813
0.670344 0.231769 0.000198367
0.696071 0.231739 0.000167849
0.721904 0.231678 0.000106813
0.747707 0.231632 6.10361e-05
0.773449 0.231601 3.0518e-05
0.799313 0.231708 0.000122072
0.824887 0.231815 0.000244144
0 0.257298 0
0.0255436 0.257542 0.000198367
0.0513161 0.257542 0.000198367
0.0770428 0.257511 0.000167849
0.102876 0.25745 0.000122072
0.128695 0.257404 7.62951e-05
0.154421 0.257374 3.0518e-05
0.180362 0.257542 0.000213626
0.206104 0.257527 0.000183108
0.231846 0.257481 0.00015259
0.257572 0.257465 0.000122072
0.283314 0.25742 9.15541e-05
0.309148 0.257374 4.57771e-05
0.335164 0.257527 0.000198367
0.360891 0.257496 0.000167849
0.386633 0.257465 0.000137331
0.412375 0.257435 0.000106813
0.438102 0.257404 7.62951e-05
0.46389 0.25742 9.15541e-05
0.489784 0.257557 0.000228885
0.515618 0.257496 0.000167849
0.541421 0.25745 0.000122072
0.567163 0.25742 9.15541e-05
0.592905 0.257389 6.10361e-05
0.618723 0.257435 0.000106813
0.644587 0.257542 0.000198367
0.670314 0.257511 0.000167849
0.696056 0.257481 0.000137331
0.721889 0.25742 9.15541e-05
0.747692 0.257374 4.57771e-05
0.773632 0.257542 0.000213626
0.799374 0.257511 0.000183108
0.824872 0.257557 0.000213626
0.000106813 0.283192 0.000106813
0.0255589 0.283299 0.000213626
0.0513008 0.283268 0.000183108
0.0770275 0.283238 0.00015259
0.102846 0.283192 0.000106813
0.128664 0.283146 4.57771e-05
0.154604 0.283299 0.000213626
0.180346 0.283284 0.000198367
0.206088 0.283253 0.000167849
0.23183 0.283223 0.000137331
0.257557 0.283192 0.000106813
0.283299 0.283162 7.62951e-05
0.309331 0.283314 0.000228885
0.335149 0.283268 0.000183108
0.360876 0.283238 0.00015259
0.386618 0.283207 0.000122072
0.41236 0.283177 9.15541e-05
0.4383 0.283345 0.000259403
0.464042 0.28333 0.000228885
0.489769 0.283299 0.000213626
0.515602 0.283238 0.00015259
0.541405 0.283192 0.000106813
0.567163 0.283177 9.15541e-05
0.593088 0.28333 0.000244144
0.61883 0.283299 0.000213626
0.644572 0.283268 0.000183108
0.670298 0.283238 0.00015259
0.69604 0.283207 0.000122072
0.721935 0.283207 0.000122072
0.74789 0.283314 0.000228885
0.773617 0.283284 0.000198367
0.799359 0.283253 0.000167849
0.824857 0.283284 0.000198367
3.0518e-05 0.309026 3.0518e-05
0.0254368 0.309087 9.15541e-05
0.0511635 0.309056 6.10361e-05
0.0769055 0.309026 3.0518e-05
0.102861 0.309102 0.000122072
0.128756 0.309133 0.000137331
0.154482 0.309102 0.000106813
0.180224 0.309071 7.62951e-05
0.205966 0.309041 4.57771e-05
0.231693 0.30901 1.5259e-05
0.257603 0.309148 0.00015259
0.283375 0.309148 0.00015259
0.309209 0.309102 0.000106813
0.335012 0.309041 6.10361e-05
0.360754 0.30901 1.5259e-05
0.386496 0.30898 0
0.412436 0.309163 0.000167849
0.438178 0.309133 0.000137331
0.463905 0.309102 0.000106813
0.489647 0.309071 7.62951e-05
0.51548 0.30901 1.5259e-05
0.541283 0.308965 0
0.567224 0.309148 0.00015259
0.592966 0.309117 0.000122072
0.618708 0.309087 9.15541e-05
0.644434 0.309056 6.10361e-05
0.670176 0.309026 3.0518e-05
0.695949 0.309026 4.57771e-05
0.72195 0.309148 0.00015259
0.747753 0.309102 0.000106813
0.773495 0.309071 7.62951e-05
0.799237 0.309041 4.57771e-05
0.82472 0.309071 7.62951e-05
0 0.334783 0
0.0253758 0.334844 3.0518e-05
0.0511025 0.334813 0
0.0769665 0.33489 9.15541e-05
0.102876 0.334936 0.000122072
0.128695 0.334874 7.62951e-05
0.154421 0.334844 4.57771e-05
0.180163 0.334813 1.5259e-05
0.205905 0.334783 0
0.2318 0.33492 0.000106813
0.257588 0.334936 0.000137331
0.283314 0.334905 9.15541e-05
0.309148 0.334844 4.57771e-05
0.334951 0.334798 0
0.360693 0.334768 0
0.386633 0.334951 0.000137331
0.412375 0.33492 0.000106813
0.438117 0.33489 7.62951e-05
0.463844 0.334859 4.57771e-05
0.489586 0.334829 1.5259e-05
0.515618 0.334966 0.00015259
0.541436 0.334936 0.000122072
0.567163 0.334905 9.15541e-05
0.592905 0.334874 6.10361e-05
0.618647 0.334844 3.0518e-05
0.644388 0.334813 0
0.670329 0.334981 0.000183108
0.696071 0.334951 0.00015259
0.721904 0.33489 9.15541e-05
0.747692 0.334844 4.57771e-05
0.773434 0.334813 1.5259e-05
0.799191 0.334798 0
0.824872 0.335027 0.000228885
0 0.36051 0
0.0253605 0.360571 1.5259e-05
0.0513008 0.360754 0.000198367
0.0770275 0.360723 0.000167849
0.102861 0.360662 0.000106813
0.128679 0.360616 6.10361e-05
0.154406 0.360586 3.0518e-05
0.180255 0.360662 9.15541e-05
0.206088 0.360739 0.000183108
0.23183 0.360708 0.000137331
0.257572 0.360678 0.000106813
0.283299 0.360647 9.15541e-05
0.309133 0.360586 3.0518e-05
0.335073 0.360678 0.000122072
0.360891 0.360708 0.00015259
0.386618 0.360678 0.000122072
0.41236 0.360662 9.15541e-05
0.438102 0.360616 6.10361e-05
0.463828 0.360586 3.0518e-05
0.489738 0.360739 0.000183108
0.515602 0.360708 0.00015259
0.541421 0.360662 0.000106813
0.567147 0.360632 7.62951e-05
0.592889 0.360601 4.57771e-05
0.618631 0.360571 1.5259e-05
0.644572 0.360754 0.000198367
0.670314 0.360723 0.000167849
0.69604 0.360693 0.000137331
0.721874 0.360632 7.62951e-05
0.747677 0.360586 3.0518e-05
0.773419 0.360555 0
0.799359 0.360739 0.000167849
0.824857 0.360769 0.000213626
0 0.386297 0
0.0255436 0.386526 0.000213626
0.0512856 0.386496 0.000183108
0.0770123 0.386465 0.000137331
0.102846 0.386404 9.15541e-05
0.128664 0.386358 4.57771e-05
0.154482 0.386404 9.15541e-05
0.180346 0.386496 0.000183108
0.206073 0.386465 0.00015259
0.231815 0.386435 0.000122072
0.257557 0.386404 9.15541e-05
0.283284 0.386389 6.10361e-05
0.309239 0.38645 0.000137331
0.335134 0.386481 0.000167849
0.360876 0.38645 0.000137331
0.386603 0.386419 0.000106813
0.412345 0.386389 7.62951e-05
0.438071 0.386358 4.57771e-05
0.464027 0.386542 0.000228885
0.489769 0.386511 0.000198367
0.515587 0.38645 0.000137331
0.541405 0.386404 9.15541e-05
0.567132 0.386374 6.10361e-05
0.593027 0.386496 0.000183108
0.618814 0.386526 0.000213626
0.644556 0.386496 0.000183108
0.670298 0.386465 0.000137331
0.696025 0.386435 0.000122072
0.721874 0.386374 6.10361e-05
0.74786 0.386511 0.000198367
0.773617 0.386496 0.000183108
0.799344 0.386465 0.00015259
0.824842 0.386511 0.000198367
0.000122072 0.412192 0.000122072
0.0255283 0.412253 0.000183108
0.0512703 0.412222 0.00015259
0.076997 0.412192 0.000122072
0.102815 0.412146 7.62951e-05
0.128847 0.412299 0.000228885
0.154589 0.412268 0.000198367
0.180316 0.412238 0.000167849
0.206058 0.412207 0.000137331
0.2318 0.412177 0.000106813
0.257588 0.412207 0.000137331
0.283482 0.412329 0.000259403
0.3093 0.412268 0.000198367
0.335119 0.412222 0.00015259
0.360845 0.412192 0.000122072
0.386587 0.412161 9.15541e-05
0.412421 0.412222 0.00015259
0.43827 0.412299 0.000228885
0.464012 0.412284 0.000198367
0.489738 0.412253 0.000183108
0.515572 0.412192 0.000122072
0.541375 0.412146 7.62951e-05
0.567254 0.412253 0.000183108
0.593057 0.412284 0.000213626
0.618799 0.412253 0.000183108
0.644541 0.412222 0.00015259
0.670268 0.412192 0.000122072
0.69601 0.412161 9.15541e-05
0.722026 0.412284 0.000213626
0.74786 0.412268 0.000198367
0.773587 0.412238 0.000167849
0.799329 0.412207 0.000137331
0.824826 0.412238 0.000167849
0.000106813 0.437934 0.000106813
0.0255131 0.437995 0.000167849
0.0512398 0.437964 0.000137331
0.0769818 0.437934 0.000122072
0.103014 0.438087 0.000259403
0.128832 0.438041 0.000213626
0.154559 0.43801 0.000183108
0.180301 0.43798 0.00015259
0.206043 0.437949 0.000122072
0.231815 0.437964 0.000137331
0.257725 0.438087 0.000274662
0.283452 0.438071 0.000244144
0.309285 0.43801 0.000183108
0.335088 0.437964 0.000137331
0.36083 0.437919 0.000106813
0.386648 0.43798 0.00015259
0.412512 0.438071 0.000244144
0.438254 0.438041 0.000213626
0.463981 0.43801 0.000183108
0.489723 0.43798 0.00015259
0.515557 0.437919 0.000106813
0.541573 0.438087 0.000259403
0.5673 0.438056 0.000228885
0.593042 0.438025 0.000198367
0.618784 0.437995 0.000167849
0.644526 0.437964 0.000137331
0.670375 0.438041 0.000228885
0.696193 0.438117 0.000289921
0.722042 0.438056 0.000228885
0.747829 0.43801 0.000183108
0.773571 0.43798 0.00015259
0.799313 0.437949 0.000122072
0.824964 0.438132 0.00030518
9.15541e-05 0.463676 9.15541e-05
0.0254978 0.463737 0.00015259
0.0512245 0.463706 0.000122072
0.0771649 0.463874 0.00030518
0.102998 0.463828 0.000244144
0.128817 0.463767 0.000198367
0.154543 0.463737 0.000167849
0.180285 0.463706 0.000137331
0.206226 0.46389 0.000320439
0.231968 0.463859 0.000274662
0.25771 0.463828 0.000244144
0.283436 0.463798 0.000228885
0.30927 0.463737 0.000167849
0.335103 0.463722 0.000137331
0.361028 0.463874 0.000289921
0.386755 0.463844 0.000259403
0.412497 0.463813 0.000228885
0.438239 0.463783 0.000198367
0.463966 0.463752 0.000167849
0.489769 0.463783 0.000198367
0.51574 0.463874 0.000289921
0.541558 0.463828 0.000244144
0.567285 0.463798 0.000213626
0.593027 0.463767 0.000183108
0.618769 0.463737 0.00015259
0.644602 0.463798 0.000213626
0.670451 0.463874 0.00030518
0.696178 0.463844 0.000274662
0.722026 0.463798 0.000213626
0.747814 0.463737 0.000167849
0.773556 0.463706 0.000137331
0.79942 0.463813 0.000244144
0.824994 0.46392 0.000350958
7.62951e-05 0.489418 7.62951e-05
0.0256504 0.489647 0.000320439
0.0514229 0.489647 0.00030518
0.0771496 0.489616 0.000274662
0.102983 0.48957 0.000228885
0.128801 0.489509 0.000183108
0.154528 0.489479 0.000137331
0.180468 0.489662 0.000320439
0.20621 0.489632 0.000289921
0.231952 0.489601 0.000259403
0.257679 0.48957 0.000228885
0.283421 0.48954 0.000198367
0.309255 0.489494 0.00015259
0.335271 0.489647 0.00030518
0.360998 0.489601 0.000274662
0.38674 0.489586 0.000244144
0.412482 0.489555 0.000213626
0.438209 0.489525 0.000183108
0.463996 0.489525 0.000198367
0.489891 0.489662 0.000335698
0.515724 0.489601 0.000274662
0.541527 0.489555 0.000228885
0.567269 0.489525 0.000198367
0.593011 0.489494 0.000167849
0.618952 0.489677 0.000335698
0.644694 0.489647 0.00030518
0.67042 0.489616 0.000274662
0.696162 0.489586 0.000244144
0.721996 0.489525 0.000198367
0.747875 0.489555 0.000228885
0.773739 0.489662 0.000320439
0.799481 0.489632 0.000289921
0.824979 0.489662 0.000320439
9.15541e-05 0.515358 9.15541e-05
0.0255283 0.515465 0.000198367
0.0512703 0.515435 0.000167849
0.076997 0.515404 0.000137331
0.102831 0.515358 7.62951e-05
0.128649 0.515297 3.0518e-05
0.154589 0.51548 0.000198367
0.180331 0.51545 0.000167849
0.206058 0.515419 0.00015259
0.2318 0.515389 0.000106813
0.257542 0.515358 9.15541e-05
0.283467 0.515526 0.000244144
0.309316 0.51548 0.000213626
0.335119 0.515435 0.00015259
0.360861 0.515404 0.000122072
0.386587 0.515373 9.15541e-05
0.412329 0.515343 6.10361e-05
0.43827 0.515511 0.000244144
0.464012 0.51548 0.000213626
0.489754 0.51545 0.000183108
0.515587 0.515404 0.000122072
0.54139 0.515343 7.62951e-05
0.567147 0.515343 7.62951e-05
0.593072 0.515496 0.000228885
0.618799 0.515465 0.000198367
0.644541 0.515435 0.000167849
0.670283 0.515404 0.000137331
0.69601 0.515373 0.000106813
0.72192 0.515373 0.000106813
0.74786 0.51548 0.000198367
0.773602 0.51545 0.000183108
0.799329 0.515419 0.000137331
0.824826 0.51545 0.000183108
9.15541e-05 0.541146 9.15541e-05
0.0254978 0.541207 0.00015259
0.0512398 0.541176 0.000122072
0.0769665 0.541146 9.15541e-05
0.102937 0.541238 0.000183108
0.128817 0.541253 0.000198367
0.154559 0.541222 0.000167849
0.180285 0.541192 0.000137331
0.206027 0.541161 0.000106813
0.231769 0.541131 7.62951e-05
0.257679 0.541283 0.000228885
0.283452 0.541283 0.000228885
0.30927 0.541222 0.000167849
0.335088 0.541176 0.000122072
0.360815 0.541146 9.15541e-05
0.386557 0.541115 6.10361e-05
0.412497 0.541299 0.000228885
0.438239 0.541253 0.000198367
0.463981 0.541222 0.000167849
0.489708 0.541207 0.00015259
0.515541 0.541146 9.15541e-05
0.54136 0.5411 4.57771e-05
0.5673 0.541268 0.000213626
0.593027 0.541238 0.000183108
0.618769 0.541207 0.00015259
0.644511 0.541176 0.000122072
0.670237 0.541146 9.15541e-05
0.696193 0.541329 0.000274662
0.722026 0.541268 0.000213626
0.747829 0.541222 0.000167849
0.773556 0.541192 0.000137331
0.799298 0.541161 0.000106813
0.824826 0.541238 0.000183108
7.62951e-05 0.566888 7.62951e-05
0.0254826 0.566949 0.000137331
0.0512093 0.566918 0.000106813
0.0770733 0.56701 0.000198367
0.102983 0.567041 0.000228885
0.128801 0.566995 0.000183108
0.154528 0.566964 0.00015259
0.18027 0.566934 0.000122072
0.206012 0.566903 9.15541e-05
0.231952 0.567071 0.000274662
0.257694 0.567041 0.000244144
0.283421 0.567025 0.000213626
0.309255 0.566964 0.00015259
0.335058 0.566918 0.000106813
0.360967 0.567041 0.000228885
0.38674 0.567056 0.000244144
0.412482 0.567025 0.000213626
0.438224 0.566995 0.000183108
0.463951 0.566964 0.00015259
0.489693 0.566934 0.000122072
0.515724 0.567071 0.000259403
0.541543 0.567041 0.000228885
0.567269 0.56701 0.000198367
0.593011 0.566979 0.000167849
0.618753 0.566949 0.000137331
0.644495 0.566918 0.000106813
0.670436 0.567102 0.000289921
0.696162 0.567071 0.000259403
0.722011 0.56701 0.000198367
0.747799 0.566964 0.00015259
0.773541 0.566934 0.000122072
0.799298 0.566918 0.000106813
0.824979 0.567147 0.000335698
6.10361e-05 0.59263 6.10361e-05
0.0255283 0.592752 0.000183108
0.0514076 0.592859 0.00030518
0.0771344 0.592828 0.000274662
0.102968 0.592782 0.000213626
0.128786 0.592721 0.000167849
0.154513 0.592691 0.000137331
0.180362 0.592767 0.000213626
0.206195 0.592844 0.000289921
0.231937 0.592813 0.000244144
0.257679 0.592782 0.000213626
0.283406 0.592752 0.000198367
0.309239 0.592691 0.000137331
0.335195 0.592782 0.000228885
0.360998 0.592828 0.000259403
0.386725 0.592798 0.000228885
0.412467 0.592767 0.000198367
0.438209 0.592737 0.000167849
0.463935 0.592706 0.000137331
0.48986 0.592859 0.000289921
0.515709 0.592828 0.000259403
0.541527 0.592782 0.000213626
0.567254 0.592752 0.000183108
0.592996 0.592721 0.00015259
0.618738 0.592691 0.000122072
0.644678 0.592859 0.00030518
0.67042 0.592828 0.000274662
0.696147 0.592798 0.000244144
0.721996 0.592752 0.000183108
0.747784 0.592691 0.000137331
0.773739 0.592874 0.00030518
0.799466 0.592844 0.000274662
0.824964 0.592874 0.000320439
9.15541e-05 0.618418 9.15541e-05
0.0256504 0.618631 0.00030518
0.0513924 0.618601 0.000274662
0.0771191 0.61857 0.000244144
0.102953 0.618509 0.000198367
0.128771 0.618463 0.00015259
0.154589 0.618524 0.000198367
0.180438 0.618616 0.000289921
0.20618 0.618585 0.000259403
0.231922 0.618555 0.000228885
0.257649 0.618524 0.000198367
0.283391 0.618494 0.000167849
0.309422 0.618647 0.000320439
0.335241 0.618601 0.000274662
0.360983 0.61857 0.000244144
0.386709 0.61854 0.000213626
0.412451 0.618509 0.000183108
0.4383 0.618585 0.000274662
0.464134 0.618647 0.000335698
0.48986 0.618616 0.00030518
0.515694 0.618555 0.000244144
0.541497 0.618509 0.000198367
0.567239 0.618479 0.000167849
0.593133 0.618616 0.000289921
0.618921 0.618631 0.00030518
0.644663 0.618601 0.000274662
0.67039 0.61857 0.000244144
0.696132 0.61854 0.000213626
0.721965 0.618479 0.000167849
0.747967 0.618631 0.00030518
0.773709 0.618616 0.000289921
0.799451 0.618585 0.000259403
0.824948 0.618616 0.000289921
0.000228885 0.644312 0.000228885
0.0256352 0.644373 0.000289921
0.0513771 0.644343 0.000259403
0.0771038 0.644312 0.000228885
0.102953 0.644282 0.000213626
0.128954 0.644404 0.000335698
0.154696 0.644373 0.00030518
0.180423 0.644343 0.000274662
0.206165 0.644327 0.000244144
0.231907 0.644282 0.000213626
0.257694 0.644327 0.000244144
0.283589 0.644434 0.000366217
0.309407 0.644373 0.00030518
0.335225 0.644327 0.000259403
0.360952 0.644297 0.000228885
0.386694 0.644266 0.000198367
0.412528 0.644343 0.000274662
0.438376 0.644419 0.000335698
0.464118 0.644388 0.00030518
0.489845 0.644358 0.000289921
0.515679 0.644297 0.000228885
0.541482 0.644251 0.000183108
0.567361 0.644358 0.000289921
0.593164 0.644404 0.000320439
0.618906 0.644373 0.000289921
0.644648 0.644343 0.000259403
0.670375 0.644312 0.000228885
0.696117 0.644282 0.000198367
0.722164 0.644434 0.000350958
0.747967 0.644373 0.00030518
0.773693 0.644343 0.000274662
0.799435 0.644327 0.000244144
