public/LUTS/Darken/Darken_06.cube
TITLE "Generated by Resolve"
LUT_3D_SIZE 33
0 0 0
0 0 0
0 0 0
0 0 0
0.0227054 0 0
0.0575113 0 0
0.0922103 0 0
0.126925 0 0
0.161639 0 0
0.196597 0 0
0.231296 0 0
0.265995 0 0
0.300816 0 0
0.335622 0 0
0.370398 0 0
0.40531 0 0
0.440009 0 0
0.474708 0 0
0.509407 0 0
0.544106 0 0
0.579217 0 0
0.614008 0 0
0.648707 0 0
0.683406 0 0
0.71812 0 0
0.752926 0 0
0.787793 0 0
0.822492 0 0
0.857328 0 0
0.892119 0 0
0.926818 0 0
0.961685 0 0
0.99617 0 0
0 0 0
0 0 0
0 0 0
0 0 0
0.0230869 0 0
0.0578927 0 0
0.0925917 0 0
0.127581 0 0
0.16228 0 0
0.196979 0 0
0.231678 0 0
0.266377 0 0
0.301198 0 0
0.336278 0 0
0.370977 0 0
0.405676 0 0
0.440391 0 0
0.47509 0 0
0.509834 0 0
0.544762 0 0
0.579599 0 0
0.614389 0 0
0.649088 0 0
0.683787 0 0
0.718593 0 0
0.753475 0 0
0.788174 0 0
0.822873 0 0
0.85771 0 0
0.8925 0 0
0.927352 0 0
0.962173 0 0
0.996551 0 0
0 0 0
0 0 0
0 0 0
0 0 0
0.0230564 0 0
0.0578775 0 0
0.0928206 0 0
0.12755 0 0
0.162249 0 0
0.196948 0 0
0.231647 0 0
0.266346 0 0
0.301457 0 0
0.336248 0 0
0.370962 0 0
0.405661 0 0
0.44036 0 0
0.475074 0 0
0.510033 0 0
0.544747 0 0
0.579568 0 0
0.614359 0 0
0.649058 0 0
0.684047 0 0
0.718746 0 0
0.753445 0 0
0.788144 0 0
0.822843 0 0
0.857755 0 0
0.892744 0 0
0.927443 0 0
0.962142 0 0
0.996521 0 0
0 0 0
0 0 0
0 0 0
0 0 0
0.0230411 0 0
0.0581216 0 0
0.0928206 0 0
0.12752 0 0
0.162219 0 0
0.196933 0 0
0.231861 0 0
0.266606 0 0
0.301427 0 0
0.336233 0 0
0.370932 0 0
0.405631 0 0
0.44062 0 0
0.475319 0 0
0.510018 0 0
0.544717 0 0
0.579538 0 0
0.614343 0 0
0.649317 0 0
0.684016 0 0
0.71873 0 0
0.753414 0 0
0.788128 0 0
0.822873 0 0
0.857939 0 0
0.892729 0 0
0.927428 0 0
0.962127 0 0
0.996506 0 0
0 0.0229191 0
0 0.0229953 0
0 0.0229648 0
0 0.0230716 0
0.0231785 0.0231327 0
0.0579843 0.0230564 0
0.0926833 0.0230106 0
0.127382 0.0229801 0
0.162081 0.0229343 0
0.196994 0.0231022 0
0.231769 0.0231327 0
0.266468 0.0230869 0
0.301289 0.0230259 0
0.336095 0.0229496 0
0.370794 0.0229038 0
0.405753 0.0231327 0
0.440482 0.0231174 0
0.475166 0.0230716 0
0.50988 0.0230259 0
0.544579 0.0229801 0
0.5794 0.0229038 0
0.614481 0.0231327 0
0.64918 0.0230869 0
0.683879 0.0230411 0
0.718578 0.0229953 0
0.753277 0.0229648 0
0.788266 0.0231937 0
0.822965 0.0231632 0
0.857801 0.0230869 0
0.892592 0.0230106 0
0.927291 0.0229801 0
0.962005 0.0229496 0
0.996643 0.02327 0
0 0.0576638 0
0 0.0577401 0
0 0.0578317 0
0 0.0579385 0
0.0230716 0.0578622 0
0.0578775 0.0578012 0
0.0925765 0.0577554 0
0.127275 0.0577096 0
0.162264 0.0579538 0
0.196963 0.057908 0
0.231662 0.0578622 0
0.266361 0.0578317 0
0.301183 0.0577554 0
0.336156 0.0578622 0
0.370962 0.0579232 0
0.405661 0.0578775 0
0.44036 0.057847 0
0.475059 0.0578012 0
0.509773 0.0577554 0
0.544701 0.0579538 0
0.579568 0.0579232 0
0.614374 0.0578622 0
0.649073 0.0578164 0
0.683772 0.0577707 0
0.718471 0.0577401 0
0.753445 0.057969 0
0.788159 0.0579385 0
0.822858 0.0578927 0
0.857694 0.0578164 0
0.89247 0.0577554 0
0.927184 0.0577096 0
0.962158 0.0579538 0
0.996536 0.0579995 0
0 0.0924086 0
0 0.0927138 0
0 0.0926833 0
0 0.0926375 0
0.0230411 0.0925612 0
0.0578622 0.0925002 0
0.0926528 0.0925612 0
0.127535 0.0926986 0
0.162234 0.0926528 0
0.196933 0.092607 0
0.231632 0.0925765 0
0.266331 0.0925307 0
0.30132 0.092607 0
0.336233 0.092668 0
0.370947 0.0926223 0
0.405646 0.0925917 0
0.440345 0.092546 0
0.475044 0.0925002 0
0.509957 0.092668 0
0.544732 0.0926986 0
0.579553 0.0926223 0
0.614343 0.0925612 0
0.649042 0.0925154 0
0.683757 0.0924697 0
0.71873 0.0927138 0
0.753429 0.092668 0
0.788128 0.0926375 0
0.822828 0.0925917 0
0.857664 0.0925154 0
0.892699 0.0926986 0
0.927428 0.0926986 0
0.962127 0.0926528 0
0.996506 0.0926986 0
0 0.127337 0
0 0.127413 0
0 0.127382 0
0 0.127337 0
0.0230259 0.12726 0
0.057908 0.127275 0
0.0928054 0.127428 0
0.127504 0.127398 0
0.162219 0.127352 0
0.196918 0.127306 0
0.231617 0.127275 0
0.26659 0.127504 0
0.301411 0.127428 0
0.336217 0.127367 0
0.370916 0.127321 0
0.405615 0.127291 0
0.440452 0.127367 0
0.475303 0.127489 0
0.510002 0.127443 0
0.544701 0.127398 0
0.579522 0.127321 0
0.614328 0.12726 0
0.649195 0.127398 0
0.684001 0.127459 0
0.718715 0.127413 0
0.753399 0.127382 0
0.788113 0.127337 0
0.822812 0.127291 0
0.857877 0.127443 0
0.892714 0.127428 0
0.927413 0.127398 0
0.962112 0.127352 0
0.99649 0.127398 0
0 0.162036 0
0 0.162127 0
0 0.162081 0
0 0.162036 0
0.02327 0.162249 0
0.0580911 0.162173 0
0.0927901 0.162142 0
0.127489 0.162097 0
0.162188 0.162051 0
0.196933 0.162066 0
0.231861 0.162249 0
0.26656 0.162203 0
0.301396 0.162142 0
0.336187 0.162066 0
0.370886 0.16202 0
0.405692 0.162097 0
0.440574 0.162234 0
0.475273 0.162188 0
0.509972 0.162142 0
0.544671 0.162112 0
0.579507 0.16202 0
0.61445 0.162112 0
0.649287 0.162203 0
0.683986 0.162158 0
0.718685 0.162127 0
0.753384 0.162081 0
0.788083 0.162036 0
0.823072 0.16228 0
0.857893 0.162203 0
0.892683 0.162142 0
0.927382 0.162097 0
0.962081 0.162051 0
0.996658 0.162295 0
0 0.19675 0
0 0.196826 0
0 0.19678 0
0 0.197024 0
0.0232548 0.196948 0
0.0580606 0.196872 0
0.0927596 0.196841 0
0.127459 0.196796 0
0.162188 0.19678 0
0.197147 0.196994 0
0.231846 0.196948 0
0.266545 0.196918 0
0.301366 0.196841 0
0.336172 0.196765 0
0.371145 0.197009 0
0.405844 0.196963 0
0.440558 0.196933 0
0.475242 0.196887 0
0.509957 0.196841 0
0.544732 0.196887 0
0.579767 0.197009 0
0.614557 0.196948 0
0.649256 0.196902 0
0.683955 0.196857 0
0.718654 0.196826 0
0.753491 0.196902 0
0.788342 0.197024 0
0.823041 0.196979 0
0.857877 0.196902 0
0.892668 0.196841 0
0.927367 0.196796 0
0.962234 0.196933 0
0.996719 0.197086 0
0 0.231449 0
0 0.231754 0
0 0.231769 0
0 0.231724 0
0.0232242 0.231647 0
0.0580301 0.231586 0
0.0927291 0.23154 0
0.127718 0.231785 0
0.162417 0.231739 0
0.197116 0.231693 0
0.231815 0.231662 0
0.266514 0.231617 0
0.30135 0.23154 0
0.336416 0.231754 0
0.371115 0.231708 0
0.405829 0.231678 0
0.440528 0.231632 0
0.475227 0.231586 0
0.509972 0.231601 0
0.544915 0.231785 0
0.579736 0.231708 0
0.614527 0.231647 0
0.649226 0.231601 0
0.683925 0.231556 0
0.71873 0.231632 0
0.753613 0.231769 0
0.788312 0.231724 0
0.823011 0.231678 0
0.857847 0.231601 0
0.892638 0.23154 0
0.927611 0.231785 0
0.96231 0.231739 0
0.996689 0.231785 0
0 0.266361 0
0 0.266499 0
0 0.266468 0
0 0.266423 0
0.023209 0.266346 0
0.0580148 0.266285 0
0.0929732 0.266499 0
0.127687 0.266484 0
0.162402 0.266438 0
0.197101 0.266392 0
0.2318 0.266361 0
0.266499 0.266316 0
0.301595 0.266514 0
0.3364 0.266453 0
0.371099 0.266407 0
0.405798 0.266377 0
0.440497 0.266331 0
0.475486 0.266575 0
0.510185 0.266529 0
0.544884 0.266484 0
0.579705 0.266407 0
0.614511 0.266346 0
0.649226 0.266331 0
0.684184 0.266545 0
0.718883 0.266499 0
0.753597 0.266468 0
0.788296 0.266423 0
0.822995 0.266377 0
0.857908 0.266377 0
0.892897 0.266514 0
0.927596 0.266484 0
0.962295 0.266438 0
0.996674 0.266484 0
0 0.301183 0
0 0.301259 0
0 0.301228 0
0 0.301183 0
0.0232242 0.301289 0
0.0581216 0.30132 0
0.0928206 0.301274 0
0.12752 0.301244 0
0.162219 0.301198 0
0.196918 0.301152 0
0.231861 0.30135 0
0.266606 0.30135 0
0.301427 0.301274 0
0.336233 0.301213 0
0.370932 0.301167 0
0.405631 0.301137 0
0.44062 0.301366 0
0.475303 0.301335 0
0.510018 0.301289 0
0.544717 0.301244 0
0.579538 0.301167 0
0.614343 0.301106 0
0.649317 0.30135 0
0.684016 0.301305 0
0.718715 0.301259 0
0.753429 0.301228 0
0.788113 0.301183 0
0.822873 0.301198 0
0.857939 0.301335 0
0.892729 0.301274 0
0.927428 0.301244 0
0.962127 0.301198 0
0.99649 0.301244 0
0 0.335912 0
0 0.335988 0
0 0.335943 0
0 0.336065 0
0.0232395 0.33611 0
0.0580453 0.336049 0
0.0927443 0.336004 0
0.127443 0.335958 0
0.162142 0.335927 0
0.197055 0.336095 0
0.23183 0.336126 0
0.266529 0.33608 0
0.30135 0.336004 0
0.336141 0.335943 0
0.370855 0.335897 0
0.405829 0.336141 0
0.440528 0.336095 0
0.475227 0.336049 0
0.509926 0.336019 0
0.54464 0.335973 0
0.579721 0.336156 0
0.614542 0.33611 0
0.649241 0.336065 0
0.68394 0.336019 0
0.718639 0.335988 0
0.753338 0.335943 0
0.788327 0.336187 0
0.823026 0.336141 0
0.857862 0.336065 0
0.892638 0.336004 0
0.927352 0.335958 0
0.962066 0.335943 0
0.996704 0.336248 0
0 0.370611 0
0 0.370687 0
0 0.370932 0
0 0.370886 0
0.023209 0.370809 0
0.0580148 0.370748 0
0.0927138 0.370703 0
0.12755 0.370794 0
0.162402 0.370901 0
0.197101 0.370855 0
0.2318 0.370825 0
0.266499 0.370779 0
0.30132 0.370703 0
0.336309 0.370825 0
0.371099 0.370871 0
0.405814 0.37084 0
0.440513 0.370794 0
0.475212 0.370748 0
0.509911 0.370718 0
0.544854 0.370901 0
0.579721 0.370871 0
0.614511 0.370809 0
0.64921 0.370779 0
0.683909 0.370733 0
0.718624 0.370687 0
0.753597 0.370932 0
0.788296 0.370886 0
0.822995 0.37084 0
0.857832 0.370764 0
0.892622 0.370703 0
0.927321 0.370657 0
0.962295 0.370901 0
0.996674 0.370947 0
0 0.405371 0
0 0.405676 0
0 0.405631 0
0 0.405585 0
0.0231937 0.405509 0
0.0579995 0.405447 0
0.0928054 0.405509 0
0.127672 0.405646 0
0.162387 0.4056 0
0.197086 0.405554 0
0.231785 0.405524 0
0.266484 0.405478 0
0.301457 0.40557 0
0.336385 0.405615 0
0.371084 0.40557 0
0.405783 0.405539 0
0.440482 0.405493 0
0.475181 0.405447 0
0.51017 0.405692 0
0.544869 0.405661 0
0.57969 0.40557 0
0.614496 0.405509 0
0.649195 0.405478 0
0.684092 0.405631 0
0.718868 0.405676 0
0.753582 0.405631 0
0.788281 0.405585 0
0.82298 0.405554 0
0.857816 0.405478 0
0.892851 0.405661 0
0.927581 0.405646 0
0.96228 0.4056 0
0.996658 0.405646 0
0 0.440299 0
0 0.440375 0
0 0.44033 0
0 0.440284 0
0.0231632 0.440223 0
0.0582589 0.440436 0
0.092958 0.440391 0
0.127657 0.440345 0
0.162356 0.440314 0
0.197055 0.440269 0
0.23183 0.440299 0
0.266743 0.440467 0
0.301564 0.440391 0
0.336355 0.44033 0
0.371054 0.440284 0
0.405753 0.440238 0
0.440589 0.44033 0
0.475441 0.440436 0
0.51014 0.440391 0
0.544839 0.44036 0
0.579675 0.440284 0
0.614466 0.440208 0
0.649348 0.44036 0
0.684153 0.440406 0
0.718853 0.440375 0
0.753552 0.44033 0
0.788251 0.440284 0
0.82295 0.440253 0
0.858015 0.440406 0
0.892851 0.440391 0
0.92755 0.440345 0
0.962249 0.440299 0
0.996628 0.440345 0
0 0.474998 0
0 0.475074 0
0 0.475029 0
0 0.474998 0
0.0234226 0.475196 0
0.0582284 0.475135 0
0.0929274 0.47509 0
0.127626 0.475044 0
0.162325 0.475013 0
0.197086 0.475029 0
0.232013 0.475212 0
0.266712 0.475166 0
0.301534 0.47509 0
0.336339 0.475029 0
0.371038 0.474983 0
0.405844 0.475044 0
0.440726 0.475181 0
0.47541 0.475135 0
0.510124 0.47509 0
0.544823 0.475059 0
0.579644 0.474983 0
0.614725 0.475196 0
0.649424 0.475151 0
0.684123 0.475105 0
0.718822 0.475074 0
0.753521 0.475029 0
0.788388 0.475151 0
0.823209 0.475227 0
0.858045 0.475151 0
0.892821 0.47509 0
0.927535 0.475044 0
0.962234 0.474998 0
0.996811 0.475257 0
0 0.509697 0
0 0.509773 0
0 0.509728 0
0 0.509972 0
0.0233921 0.509896 0
0.0582132 0.509834 0
0.0928969 0.509789 0
0.127611 0.509743 0
0.162585 0.509987 0
0.197284 0.509941 0
0.231983 0.509911 0
0.266697 0.509865 0
0.301518 0.509789 0
0.336339 0.509758 0
0.371298 0.509957 0
0.405997 0.509926 0
0.440696 0.50988 0
0.475395 0.509834 0
0.510094 0.509804 0
0.544884 0.509834 0
0.579904 0.509957 0
0.614694 0.509896 0
0.649393 0.50985 0
0.684108 0.509819 0
0.718807 0.509773 0
0.753643 0.509865 0
0.788479 0.509972 0
0.823178 0.509926 0
0.858015 0.50985 0
0.892805 0.509789 0
0.927504 0.509743 0
0.962386 0.50988 0
0.996857 0.510033 0
0 0.544396 0
0 0.544717 0
0 0.544717 0
0 0.544671 0
0.0233768 0.544594 0
0.0581826 0.544533 0
0.0928817 0.544488 0
0.127855 0.544732 0
0.16257 0.544686 0
0.197253 0.54464 0
0.231968 0.54461 0
0.266667 0.544564 0
0.301488 0.544503 0
0.336568 0.544701 0
0.371267 0.544656 0
0.405966 0.544625 0
0.440665 0.544579 0
0.475364 0.544533 0
0.510124 0.544564 0
0.545052 0.544747 0
0.579873 0.544656 0
0.614679 0.544594 0
0.649378 0.544564 0
0.684077 0.544518 0
0.719051 0.544762 0
0.753765 0.544717 0
0.788464 0.544671 0
0.823163 0.54464 0
0.858 0.544564 0
0.892882 0.544594 0
0.927764 0.544732 0
0.962463 0.544686 0
0.996826 0.544732 0
0 0.579385 0
0 0.579522 0
0 0.579492 0
0 0.579446 0
0.0231785 0.57937 0
0.0579843 0.579309 0
0.092958 0.579538 0
0.127657 0.579507 0
0.162356 0.579461 0
0.197055 0.579416 0
0.231769 0.579385 0
0.266728 0.579599 0
0.301564 0.579538 0
0.33637 0.579477 0
0.371069 0.579431 0
0.405768 0.5794 0
0.440467 0.579355 0
0.475456 0.579583 0
0.510155 0.579553 0
0.544854 0.579507 0
0.579675 0.579431 0
0.614466 0.57937 0
0.64921 0.579355 0
0.684153 0.579568 0
0.718853 0.579522 0
0.753567 0.579492 0
0.788251 0.579446 0
0.822965 0.5794 0
0.857877 0.5794 0
0.892866 0.579538 0
0.927565 0.579507 0
0.962264 0.579461 0
0.996628 0.579507 0
0 0.61416 0
0 0.614237 0
0 0.614191 0
0 0.61416 0
0.0233158 0.614267 0
0.0582132 0.614298 0
0.0929122 0.614252 0
0.127611 0.614206 0
0.16231 0.614176 0
0.197009 0.61413 0
0.231952 0.614328 0
0.266697 0.614328 0
0.301518 0.614252 0
0.336309 0.614191 0
0.371023 0.614145 0
0.405722 0.614099 0
0.440696 0.614343 0
0.475395 0.614298 0
0.510094 0.614267 0
0.544808 0.614221 0
0.579629 0.614145 0
0.614435 0.614084 0
0.649409 0.614328 0
0.684108 0.614282 0
0.718807 0.614237 0
0.753506 0.614191 0
0.788205 0.61416 0
0.823194 0.614389 0
0.85803 0.614313 0
0.892805 0.614252 0
0.927504 0.614206 0
0.962203 0.614176 0
0.996643 0.614267 0
0 0.648859 0
0 0.648936 0
0 0.648905 0
0 0.649027 0
0.0233768 0.649058 0
0.0581826 0.648997 0
0.0928817 0.648951 0
0.127581 0.64892 0
0.162295 0.648875 0
0.197269 0.649104 0
0.231968 0.649073 0
0.266667 0.649027 0
0.301488 0.648951 0
0.336294 0.64889 0
0.371206 0.649058 0
0.405982 0.649088 0
0.440681 0.649042 0
0.47538 0.648997 0
0.510079 0.648966 0
0.544778 0.64892 0
0.579873 0.649104 0
0.614679 0.649058 0
0.649378 0.649027 0
0.684077 0.648981 0
0.718791 0.648936 0
0.753491 0.648905 0
0.788464 0.649134 0
0.823163 0.649104 0
0.858 0.649027 0
0.89279 0.648951 0
0.927489 0.64892 0
0.962219 0.648905 0
0.996841 0.649195 0
0 0.683558 0
0 0.683726 0
0 0.683879 0
0 0.683833 0
0.0233616 0.683772 0
0.0581674 0.683696 0
0.0928664 0.68365 0
0.127703 0.683757 0
0.162554 0.683848 0
0.197238 0.683818 0
0.231952 0.683772 0
0.266651 0.683726 0
0.301472 0.68365 0
0.336461 0.683787 0
0.371252 0.683833 0
0.405951 0.683787 0
0.44065 0.683742 0
0.475349 0.683711 0
0.510048 0.683665 0
0.544991 0.683864 0
0.579858 0.683833 0
0.614664 0.683757 0
0.649363 0.683726 0
0.684062 0.68368 0
0.718761 0.683635 0
0.75375 0.683879 0
0.788449 0.683833 0
0.823148 0.683803 0
0.857984 0.683726 0
0.89276 0.68365 0
0.927749 0.683894 0
0.962448 0.683848 0
0.996811 0.683894 0
0 0.718334 0
0 0.718624 0
0 0.718578 0
0 0.718532 0
0.023331 0.718471 0
0.0581369 0.718395 0
0.092958 0.718471 0
0.127825 0.718593 0
0.162524 0.718563 0
0.197223 0.718517 0
0.231922 0.718471 0
0.266621 0.718441 0
0.301717 0.718639 0
0.336522 0.718578 0
0.371221 0.718532 0
0.405921 0.718486 0
0.440635 0.718456 0
0.475486 0.718563 0
0.510307 0.718654 0
0.545007 0.718608 0
0.579843 0.718532 0
0.614633 0.718471 0
0.649332 0.718425 0
0.684245 0.718593 0
0.71902 0.718624 0
0.753719 0.718578 0
0.788418 0.718532 0
0.823117 0.718502 0
0.857954 0.718425 0
0.893004 0.718624 0
0.927718 0.718593 0
0.962417 0.718563 0
0.996796 0.718608 0
0 0.753246 0
0 0.753323 0
0 0.753277 0
0 0.753246 0
0.0233463 0.753201 0
0.0583963 0.753384 0
0.0930953 0.753338 0
0.127794 0.753292 0
0.162493 0.753262 0
0.197192 0.753216 0
0.231983 0.753262 0
0.26688 0.753414 0
0.301701 0.753338 0
0.336507 0.753277 0
0.371206 0.753231 0
0.405905 0.753185 0
0.440742 0.753292 0
0.475578 0.753384 0
0.510292 0.753353 0
0.544991 0.753307 0
0.579812 0.753231 0
0.614603 0.75317 0
0.6495 0.753307 0
0.684291 0.753368 0
0.71899 0.753323 0
0.753689 0.753277 0
0.788388 0.753246 0
0.823087 0.753201 0
0.858213 0.753399 0
0.892989 0.753338 0
0.927703 0.753292 0
0.962402 0.753262 0
0.996765 0.753307 0
0 0.787945 0
0 0.788022 0
0 0.787991 0
0 0.787961 0
0.0235599 0.788144 0
0.058381 0.788083 0
0.0930648 0.788037 0
0.127779 0.787991 0
0.162478 0.787961 0
0.197238 0.787976 0
0.232151 0.788159 0
0.26685 0.788113 0
0.301671 0.788037 0
0.336477 0.787976 0
0.371176 0.78793 0
0.406165 0.788174 0
0.440864 0.788128 0
0.475563 0.788083 0
0.510262 0.788052 0
0.544961 0.788006 0
0.579904 0.788037 0
0.614862 0.788144 0
0.649561 0.788113 0
0.68426 0.788067 0
0.718975 0.788022 0
0.753674 0.787991 0
0.788525 0.788098 0
0.823346 0.788174 0
0.858183 0.788098 0
0.892973 0.788037 0
0.927672 0.788006 0
0.962371 0.787961 0
0.996963 0.78822 0
0 0.822644 0
0 0.822721 0
0 0.82295 0
0 0.822919 0
0.0235447 0.822858 0
0.0583505 0.822782 0
0.0930495 0.822736 0
0.127749 0.822705 0
0.162722 0.822934 0
