public/LUTS/Darken/Darken_01.cube
TITLE "Generated by Resolve"
LUT_3D_SIZE 5
0 0 0
0.232868 0 0
0.488457 0 0
0.743816 0 0
0.99913 0 0
0 0.233249 0
0.233387 0.233265 0
0.488991 0.233417 0
0.744335 0.23331 0
0.999573 0.233478 0
0 0.488731 0
0.233539 0.488746 0
0.489006 0.488762 0
0.744488 0.488807 0
0.999542 0.488777 0
0 0.744015 0
0.233692 0.744228 0
0.489036 0.744121 0
0.74464 0.744289 0
0.999695 0.744274 0
0 0.999435 0
0.233845 0.99971 0
0.489189 0.999603 0
0.744762 0.999725 0
0.999847 0.999756 0
0 0 0.234058
0.232868 0 0.234073
0.488487 0 0.234226
0.743832 0 0.234134
0.998962 0 0.234195
0 0.233265 0.234577
0.233387 0.233265 0.234592
0.488762 0.233188 0.234516
0.74435 0.233326 0.234653
0.999405 0.23331 0.234638
0 0.488487 0.23447
0.233539 0.488762 0.234745
0.488899 0.488655 0.234638
0.744503 0.488807 0.234806
0.999557 0.488807 0.234791
0 0.743969 0.234623
0.233692 0.744244 0.234897
0.489052 0.744137 0.234791
0.744518 0.744167 0.234821
0.99971 0.744289 0.234943
0 0.999451 0.234791
0.233661 0.999527 0.234852
0.489204 0.999619 0.234958
0.744564 0.999527 0.234852
0.999863 0.999771 0.235096
0 0 0.490684
0.232853 0 0.4907
0.488197 0 0.490593
0.743816 0 0.490745
0.998856 0 0.49073
0 0.232975 0.490944
0.233371 0.233249 0.491218
0.488716 0.233143 0.491112
0.744335 0.23331 0.491264
0.999374 0.233295 0.491249
0 0.488472 0.491096
0.233509 0.488716 0.491356
0.488869 0.48864 0.491264
0.744244 0.488548 0.491188
0.999527 0.488777 0.491402
0 0.743954 0.491249
0.233417 0.743954 0.491264
0.489021 0.744121 0.491417
0.744381 0.744015 0.491325
0.99968 0.744259 0.491554
0 0.999435 0.491402
0.23357 0.999435 0.491417
0.489189 0.999603 0.491569
0.744533 0.999496 0.491478
0.999588 0.999481 0.491463
0 0 0.747051
0.232822 0 0.747311
0.488182 0 0.747219
0.743725 0 0.747326
0.99884 0 0.747356
0 0.232959 0.74757
0.233234 0.233112 0.747723
0.488701 0.233127 0.747738
0.744045 0.233036 0.747646
0.999359 0.233265 0.747875
0 0.488441 0.747723
0.233249 0.488457 0.747738
0.488853 0.488609 0.74789
0.744198 0.488518 0.747799
0.999512 0.488746 0.748028
0 0.743923 0.747875
0.233402 0.743938 0.74789
0.488991 0.744076 0.748028
0.74435 0.743999 0.747951
0.999405 0.743984 0.747936
0 0.999329 0.747951
0.233555 0.99942 0.748043
0.488899 0.999313 0.747951
0.744518 0.999481 0.748104
0.999557 0.999466 0.748089
0 0 1
0.232624 0 1
0.488197 0 1
0.743557 0 1
0.998856 0 1
0 0.232975 1
0.233112 0.23299 1
0.488716 0.233143 1
0.744076 0.233051 1
0.999329 0.233234 1
0 0.488472 1
0.233265 0.488472 1
0.488762 0.488518 1
0.744228 0.488533 1
0.999283 0.488518 1
0 0.74377 1
0.233417 0.743954 1
0.488777 0.743862 1
0.744381 0.744015 1
0.999435 0.743999 1
0 0.999176 1
0.23357 0.999451 1
0.48893 0.999344 1
0.744518 0.999481 1
0.999069 0.998978 1
