public/LUTS/Darken/Darken_06.cube
TITLE "Generated by Resolve"
LUT_3D_SIZE 5
0 0 0
0.161639 0 0
0.440009 0 0
0.71812 0 0
0.99617 0 0
0 0.162036 0
0.162188 0.162051 0
0.440574 0.162234 0
0.718685 0.162127 0
0.996658 0.162295 0
0 0.440299 0
0.162356 0.440314 0
0.440589 0.44033 0
0.718853 0.440375 0
0.996628 0.440345 0
0 0.718334 0
0.162524 0.718563 0
0.440635 0.718456 0
0.71902 0.718624 0
0.996796 0.718608 0
0 0.996506 0
0.162692 0.996811 0
0.440803 0.996704 0
0.719142 0.996826 0
0.996963 0.996857 0
0 0 0.162921
0.161639 0 0.162936
0.440024 0 0.163104
0.718135 0 0.162997
0.995987 0 0.163073
0 0.162066 0.1635
0.162203 0.162066 0.1635
0.44033 0.16199 0.163424
0.7187 0.162127 0.163577
0.996475 0.162127 0.163561
0 0.440024 0.163378
0.162371 0.440314 0.163668
0.440482 0.440208 0.163561
0.718868 0.440391 0.163729
0.996643 0.440375 0.163729
0 0.718273 0.163546
0.162539 0.718578 0.163836
0.440635 0.718456 0.163729
0.718883 0.718486 0.16376
0.996811 0.718624 0.163882
0 0.996536 0.163714
0.162493 0.996597 0.16379
0.440818 0.996719 0.163897
0.718929 0.996612 0.16379
0.996979 0.996872 0.164065
0 0 0.44242
0.161608 0 0.442435
0.439719 0 0.442329
0.718105 0 0.442496
0.99588 0 0.442481
0 0.161746 0.44271
0.162173 0.162051 0.443
0.440284 0.161944 0.442893
0.718669 0.162112 0.443061
0.996445 0.162097 0.443046
0 0.440009 0.442878
0.162325 0.440284 0.443153
0.440452 0.440192 0.443061
0.718578 0.440101 0.442969
0.996612 0.440345 0.443214
0 0.718257 0.443046
0.162234 0.718273 0.443046
0.44062 0.718441 0.443229
0.71873 0.718334 0.443122
0.99678 0.718593 0.443381
0 0.996506 0.443214
0.162402 0.996521 0.443214
0.440787 0.996689 0.443397
0.718898 0.996582 0.44329
0.996674 0.996567 0.443259
0 0 0.72163
0.161578 0 0.72192
0.439689 0 0.721813
0.718013 0 0.721935
0.995865 0 0.721965
0 0.16173 0.722194
0.16202 0.161898 0.722362
0.440253 0.161913 0.722393
0.718364 0.161807 0.722271
0.996429 0.162066 0.722545
0 0.439979 0.722362
0.162036 0.439994 0.722377
0.440421 0.440162 0.722545
0.718532 0.440055 0.722438
0.996597 0.440314 0.722713
0 0.718227 0.72253
0.162203 0.718242 0.722545
0.440574 0.718395 0.722698
0.7187 0.718303 0.722606
0.996475 0.718288 0.722591
0 0.996384 0.722622
0.162371 0.99649 0.722713
0.440482 0.996384 0.722606
0.718868 0.996551 0.722774
0.996643 0.996536 0.722759
0 0 1
0.161364 0 1
0.439719 0 1
0.71783 0 1
0.99588 0 1
0 0.161761 1
0.161898 0.161761 1
0.440284 0.161944 1
0.718395 0.161837 1
0.996384 0.162036 1
0 0.440009 1
0.162066 0.440009 1
0.44033 0.440055 1
0.718563 0.440085 1
0.996338 0.44007 1
0 0.718059 1
0.162234 0.718273 1
0.440345 0.718166 1
0.71873 0.718334 1
0.996506 0.718318 1
0 0.996231 1
0.162402 0.996521 1
0.440513 0.996414 1
0.718883 0.996567 1
0.996109 0.996002 1
