public/LUTS/Darken/Darken_02.cube
TITLE "Generated by Resolve"
LUT_3D_SIZE 33
0 0 0
0 0 0
0.0272068 0 0
0.0597848 0 0
0.0922103 0 0
0.12462 0 0
0.156939 0 0
0.189242 0 0
0.221576 0 0
0.254124 0 0
0.286442 0 0
0.318746 0 0
0.351171 0 0
0.383581 0 0
0.415961 0 0
0.448463 0 0
0.480781 0 0
0.513085 0 0
0.545403 0 0
0.577707 0 0
0.610407 0 0
0.642802 0 0
0.675105 0 0
0.707424 0 0
0.739742 0 0
0.772168 0 0
0.804623 0 0
0.836942 0 0
0.869368 0 0
0.901762 0 0
0.934081 0 0
0.966537 0 0
0.998657 0 0
0 0 0
0 0 0
0.0278325 0 0
0.0601358 0 0
0.0925612 0 0
0.124971 0 0
0.15729 0 0
0.189853 0 0
0.222171 0 0
0.254475 0 0
0.286793 0 0
0.319097 0 0
0.351522 0 0
0.384192 0 0
0.41651 0 0
0.448814 0 0
0.481132 0 0
0.513436 0 0
0.5458 0 0
0.578332 0 0
0.610758 0 0
0.643153 0 0
0.675471 0 0
0.707774 0 0
0.740185 0 0
0.772656 0 0
0.804974 0 0
0.837293 0 0
0.869718 0 0
0.902113 0 0
0.934569 0 0
0.966995 0 0
0.999008 0 0
0 0.0276646 0
0 0.0278172 0
0.0278019 0.0277714 0
0.0601205 0.0277409 0
0.0925307 0.0276646 0
0.124956 0.0276036 0
0.157504 0.0278019 0
0.189837 0.0277867 0
0.222141 0.0277562 0
0.254459 0.0277104 0
0.286763 0.0276799 0
0.319081 0.0276341 0
0.351766 0.0278325 0
0.384176 0.0277714 0
0.41648 0.0277256 0
0.448798 0.0276951 0
0.481102 0.0276493 0
0.513436 0.0276341 0
0.545983 0.0278325 0
0.578302 0.0278019 0
0.610727 0.0277256 0
0.643137 0.0276646 0
0.675441 0.0276341 0
0.708019 0.0278477 0
0.740322 0.0278172 0
0.772641 0.0277714 0
0.804944 0.0277409 0
0.837263 0.0276951 0
0.869764 0.0276951 0
0.902358 0.0278325 0
0.934661 0.0277867 0
0.96698 0.0277562 0
0.998978 0.0278019 0
0 0.0600595 0
0 0.0601205 0
0.0277867 0.06009 0
0.06009 0.0600443 0
0.0925154 0.0599832 0
0.125185 0.0601816 0
0.157504 0.0601358 0
0.189807 0.0601053 0
0.222126 0.0600595 0
0.254429 0.060029 0
0.286961 0.0601968 0
0.31931 0.0602121 0
0.351751 0.0601358 0
0.384146 0.0600748 0
0.416464 0.0600443 0
0.448768 0.0599985 0
0.481346 0.0602274 0
0.513649 0.0601816 0
0.545968 0.0601511 0
0.578286 0.0601053 0
0.610712 0.0600443 0
0.643107 0.0599832 0
0.675685 0.0601968 0
0.707988 0.0601663 0
0.740307 0.0601205 0
0.77261 0.06009 0
0.804929 0.0600443 0
0.837293 0.0600595 0
0.869932 0.0601968 0
0.902327 0.0601358 0
0.934646 0.0601053 0
0.966949 0.0600595 0
0.998962 0.0601053 0
0 0.0924086 0
0 0.0924849 0
0.0276493 0.0924392 0
0.0601053 0.092546 0
0.0926375 0.0925917 0
0.125063 0.0925307 0
0.157366 0.0925002 0
0.189685 0.0924544 0
0.221988 0.0924239 0
0.25449 0.0925765 0
0.28687 0.092607 0
0.319188 0.0925612 0
0.351614 0.0925002 0
0.384009 0.0924392 0
0.416327 0.0923934 0
0.448875 0.0925917 0
0.481209 0.0925765 0
0.513527 0.092546 0
0.54583 0.0925002 0
0.578149 0.0924697 0
0.610574 0.0923934 0
0.643244 0.0925917 0
0.675547 0.0925612 0
0.707866 0.0925154 0
0.740169 0.0924849 0
0.772488 0.0924392 0
0.805066 0.092668 0
0.837369 0.0926223 0
0.86981 0.0925612 0
0.902205 0.0925002 0
0.934508 0.0924544 0
0.966842 0.0924392 0
0.999084 0.0927291 0
0 0.124758 0
0 0.124819 0
0.0276799 0.12491 0
0.0601205 0.125002 0
0.092546 0.124941 0
0.124956 0.12488 0
0.157259 0.124834 0
0.189578 0.124804 0
0.222156 0.125032 0
0.254459 0.124987 0
0.286778 0.124956 0
0.319081 0.12491 0
0.351507 0.124834 0
0.384085 0.124941 0
0.416495 0.125002 0
0.448798 0.124956 0
0.481117 0.124926 0
0.51342 0.12488 0
0.545739 0.124849 0
0.578256 0.125032 0
0.610742 0.125002 0
0.643137 0.124941 0
0.675456 0.12491 0
0.707759 0.124865 0
0.740078 0.124819 0
0.772641 0.125048 0
0.804959 0.125002 0
0.837278 0.124971 0
0.869703 0.124895 0
0.902098 0.124834 0
0.934417 0.124804 0
0.96698 0.125017 0
0.998993 0.125063 0
0 0.157107 0
0 0.157397 0
0.0277867 0.157366 0
0.0601053 0.157321 0
0.0925154 0.157259 0
0.124941 0.157198 0
0.157336 0.157244 0
0.189822 0.157382 0
0.222126 0.157336 0
0.254444 0.15729 0
0.286748 0.157259 0
0.319066 0.157214 0
0.351629 0.15729 0
0.384161 0.157351 0
0.416464 0.157305 0
0.448783 0.157275 0
0.481086 0.157244 0
0.513405 0.157198 0
0.545907 0.157351 0
0.578286 0.157382 0
0.610712 0.157305 0
0.643122 0.157259 0
0.675425 0.157214 0
0.707744 0.157168 0
0.740322 0.157397 0
0.772625 0.157351 0
0.804944 0.157321 0
0.837247 0.15729 0
0.869688 0.157214 0
0.902312 0.157382 0
0.934646 0.157382 0
0.966964 0.157336 0
0.998962 0.157382 0
0 0.189639 0
0 0.189715 0
0.0277714 0.18967 0
0.0600748 0.189639 0
0.0925002 0.189563 0
0.124987 0.189578 0
0.157488 0.189731 0
0.189792 0.189685 0
0.22211 0.189654 0
0.254414 0.189609 0
0.286732 0.189578 0
0.319295 0.189792 0
0.351736 0.189731 0
0.384131 0.18967 0
0.416449 0.189624 0
0.448753 0.189593 0
0.481193 0.18967 0
0.513634 0.189776 0
0.545953 0.189731 0
0.578271 0.1897 0
0.610697 0.189624 0
0.643091 0.189563 0
0.675578 0.189685 0
0.707988 0.189746 0
0.740291 0.189715 0
0.77261 0.18967 0
0.804913 0.189639 0
0.837232 0.189593 0
0.869871 0.189731 0
0.902312 0.189731 0
0.93463 0.189685 0
0.966934 0.189654 0
0.998947 0.1897 0
0 0.221942 0
0 0.222019 0
0.0277409 0.221988 0
0.0600595 0.221942 0
0.0927443 0.222141 0
0.125154 0.22208 0
0.157458 0.222034 0
0.189776 0.222004 0
0.22208 0.221958 0
0.254444 0.221973 0
0.286961 0.222141 0
0.31928 0.22211 0
0.351705 0.222034 0
0.384115 0.221973 0
0.416419 0.221942 0
0.448829 0.222004 0
0.481315 0.222126 0
0.513619 0.22208 0
0.545937 0.222049 0
0.578241 0.222004 0
0.610666 0.221942 0
0.643214 0.222019 0
0.675639 0.222095 0
0.707958 0.222065 0
0.740276 0.222019 0
0.77258 0.221988 0
0.804898 0.221942 0
0.837461 0.222171 0
0.869902 0.222095 0
0.902296 0.222034 0
0.9346 0.222004 0
0.966918 0.221958 0
0.999115 0.222187 0
0 0.254261 0
0 0.254337 0
0.0277256 0.254292 0
0.0602884 0.25452 0
0.0927138 0.254459 0
0.125124 0.254383 0
0.157443 0.254353 0
0.189746 0.254307 0
0.222095 0.254307 0
0.254627 0.25449 0
0.286946 0.254459 0
0.319249 0.254414 0
0.35169 0.254353 0
0.384085 0.254292 0
0.416663 0.254505 0
0.448966 0.254475 0
0.481285 0.254429 0
0.513588 0.254398 0
0.545907 0.254353 0
0.578286 0.254398 0
0.61091 0.254505 0
0.643305 0.254444 0
0.675624 0.254414 0
0.707942 0.254368 0
0.740246 0.254337 0
0.772671 0.254414 0
0.805127 0.25452 0
0.837446 0.254475 0
0.869886 0.254414 0
0.902266 0.254353 0
0.934585 0.254307 0
0.967056 0.254444 0
0.999161 0.254582 0
0 0.28658 0
0 0.28687 0
0.0279545 0.28687 0
0.0602731 0.286839 0
0.0926986 0.286763 0
0.125109 0.286702 0
0.157412 0.286656 0
0.18999 0.286885 0
0.222293 0.286854 0
0.254612 0.286809 0
0.286915 0.286778 0
0.319234 0.286732 0
0.351659 0.286671 0
0.384329 0.28687 0
0.416632 0.286824 0
0.448951 0.286778 0
0.48127 0.286748 0
0.513573 0.286702 0
0.545937 0.286717 0
0.578454 0.2869 0
0.610895 0.286824 0
0.64329 0.286763 0
0.675593 0.286732 0
0.707912 0.286687 0
0.740322 0.286748 0
0.772793 0.28687 0
0.805112 0.286839 0
0.837415 0.286793 0
0.869856 0.286717 0
0.902251 0.286656 0
0.934829 0.286885 0
0.967132 0.286839 0
0.999146 0.286885 0
0 0.319081 0
0 0.319219 0
0.0279393 0.319188 0
0.0602426 0.319142 0
0.092668 0.319081 0
0.125078 0.31902 0
0.157641 0.319219 0
0.18996 0.319203 0
0.222278 0.319158 0
0.254582 0.319127 0
0.2869 0.319081 0
0.319203 0.319036 0
0.351904 0.319234 0
0.384298 0.319173 0
0.416617 0.319127 0
0.44892 0.319097 0
0.481239 0.319066 0
0.513817 0.31928 0
0.54612 0.319249 0
0.578439 0.319203 0
0.610864 0.319127 0
0.643259 0.319081 0
0.675593 0.319066 0
0.708156 0.319265 0
0.740459 0.319219 0
0.772778 0.319188 0
0.805081 0.319142 0
0.8374 0.319112 0
0.869902 0.319097 0
0.90248 0.319234 0
0.934798 0.319203 0
0.967102 0.319158 0
0.999115 0.319203 0
0 0.351507 0
0 0.351583 0
0.0277867 0.351553 0
0.06009 0.351507 0
0.0926833 0.351614 0
0.125185 0.351644 0
0.157488 0.351598 0
0.189807 0.351568 0
0.222126 0.351522 0
0.254429 0.351492 0
0.286961 0.351675 0
0.31931 0.351675 0
0.351736 0.351598 0
0.384146 0.351537 0
0.416449 0.351507 0
0.448768 0.351461 0
0.481346 0.35169 0
0.513649 0.351644 0
0.545968 0.351614 0
0.578271 0.351568 0
0.610712 0.351507 0
0.643107 0.351446 0
0.675685 0.351659 0
0.707988 0.351629 0
0.740307 0.351583 0
0.772625 0.351553 0
0.804929 0.351507 0
0.837293 0.351522 0
0.869932 0.351659 0
0.902327 0.351598 0
0.934646 0.351568 0
0.966949 0.351522 0
0.998962 0.351568 0
0 0.383841 0
0 0.383917 0
0.0277104 0.383886 0
0.0601663 0.383993 0
0.0926986 0.384039 0
0.125109 0.383978 0
0.157427 0.383932 0
0.189731 0.383902 0
0.222049 0.383856 0
0.254551 0.384024 0
0.286931 0.384039 0
0.319234 0.384009 0
0.351659 0.383932 0
0.38407 0.383871 0
0.416388 0.383841 0
0.448951 0.384054 0
0.48127 0.384024 0
0.513573 0.383978 0
0.545892 0.383948 0
0.57821 0.383902 0
0.61088 0.38407 0
0.64329 0.384039 0
0.675608 0.383993 0
0.707912 0.383963 0
0.74023 0.383917 0
0.772549 0.383886 0
0.805112 0.3841 0
0.83743 0.38407 0
0.869856 0.383993 0
0.902251 0.383932 0
0.934569 0.383902 0
0.966903 0.383886 0
0.999146 0.384161 0
0 0.416159 0
0 0.416236 0
0.0279393 0.416449 0
0.0602579 0.416419 0
0.0926833 0.416342 0
0.125093 0.416281 0
0.157397 0.416251 0
0.189837 0.416327 0
0.222293 0.416434 0
0.254597 0.416388 0
0.286915 0.416358 0
0.319219 0.416312 0
0.351644 0.416251 0
0.384222 0.416358 0
0.416617 0.416403 0
0.448936 0.416373 0
0.481254 0.416327 0
0.513558 0.416297 0
0.545876 0.416251 0
0.578408 0.416434 0
0.61088 0.416403 0
0.643275 0.416342 0
0.675578 0.416312 0
0.707897 0.416266 0
0.740215 0.416236 0
0.772778 0.416449 0
0.805097 0.416419 0
0.8374 0.416373 0
0.869841 0.416312 0
0.902235 0.416251 0
0.934539 0.416205 0
0.967117 0.416434 0
0.99913 0.41648 0
0 0.448524 0
0 0.448798 0
0.027924 0.448768 0
0.0602274 0.448722 0
0.0926528 0.448661 0
0.125063 0.4486 0
0.157488 0.448661 0
0.18996 0.448783 0
0.222263 0.448753 0
0.254582 0.448707 0
0.286885 0.448661 0
0.319203 0.448631 0
0.351766 0.448707 0
0.384283 0.448753 0
0.416602 0.448722 0
0.44892 0.448676 0
0.481224 0.448646 0
0.513542 0.4486 0
0.546105 0.448829 0
0.578424 0.448798 0
0.610849 0.448722 0
0.643244 0.448661 0
0.675563 0.448615 0
0.708064 0.448768 0
0.740444 0.448798 0
0.772763 0.448768 0
0.805066 0.448722 0
0.837385 0.448692 0
0.869825 0.448615 0
0.902449 0.448798 0
0.934783 0.448783 0
0.967102 0.448737 0
0.9991 0.448783 0
0 0.481041 0
0 0.481117 0
0.0278935 0.481086 0
0.0602121 0.481041 0
0.0926375 0.48098 0
0.125307 0.481178 0
0.15761 0.481132 0
0.189929 0.481102 0
0.222248 0.481056 0
0.254551 0.48101 0
0.286946 0.481056 0
0.319432 0.481209 0
0.351858 0.481132 0
0.384268 0.481071 0
0.416571 0.481025 0
0.44889 0.480995 0
0.481331 0.481086 0
0.513771 0.481178 0
0.54609 0.481147 0
0.578393 0.481102 0
0.610834 0.481025 0
0.643229 0.480964 0
0.675715 0.481102 0
0.70811 0.481147 0
0.740429 0.481117 0
0.772732 0.481086 0
0.805051 0.481041 0
0.837354 0.48101 0
0.870008 0.481147 0
0.902449 0.481132 0
0.934768 0.481102 0
0.967071 0.481056 0
0.999084 0.481102 0
0 0.513359 0
0 0.513436 0
0.0278782 0.51339 0
0.0601968 0.513359 0
0.0928664 0.513542 0
0.125292 0.513481 0
0.157595 0.513451 0
0.189914 0.513405 0
0.222217 0.513375 0
0.254582 0.51339 0
0.287098 0.513558 0
0.319417 0.513512 0
0.351843 0.513451 0
0.384237 0.51339 0
0.416556 0.513344 0
0.448966 0.513405 0
0.481437 0.513527 0
0.513756 0.513497 0
0.546059 0.513451 0
0.578378 0.51342 0
0.610803 0.513344 0
0.643458 0.513542 0
0.675776 0.513512 0
0.708095 0.513466 0
0.740398 0.513436 0
0.772717 0.51339 0
0.805173 0.513497 0
0.837598 0.513573 0
0.870039 0.513512 0
0.902434 0.513451 0
0.934737 0.513405 0
0.967056 0.513375 0
0.999252 0.513603 0
0 0.545663 0
0 0.545739 0
0.027863 0.545708 0
0.0604257 0.545922 0
0.0928511 0.545861 0
0.125261 0.5458 0
0.157565 0.545754 0
0.189883 0.545724 0
0.222461 0.545937 0
0.254765 0.545907 0
0.287083 0.545861 0
0.319387 0.54583 0
0.351812 0.545754 0
0.384253 0.545724 0
0.4168 0.545922 0
0.449104 0.545876 0
0.481422 0.545846 0
0.513726 0.5458 0
0.546044 0.545769 0
0.578424 0.5458 0
0.611048 0.545922 0
0.643442 0.545861 0
0.675761 0.545815 0
0.708064 0.545785 0
0.740383 0.545739 0
0.772824 0.54583 0
0.805264 0.545922 0
0.837583 0.545892 0
0.870024 0.545815 0
0.902403 0.545754 0
0.934722 0.545724 0
0.967193 0.545846 0
0.999298 0.545983 0
0 0.577981 0
0 0.578286 0
0.0280919 0.578286 0
0.0604105 0.578241 0
0.0928206 0.57818 0
0.125246 0.578103 0
0.157549 0.578073 0
0.190127 0.578286 0
0.222431 0.578256 0
0.254749 0.57821 0
0.287053 0.57818 0
0.319371 0.578149 0
0.351797 0.578073 0
0.384451 0.578271 0
0.41677 0.578225 0
0.449088 0.578195 0
0.481392 0.578149 0
0.51371 0.578119 0
0.546075 0.578134 0
0.578592 0.578302 0
0.611017 0.578225 0
0.643412 0.578164 0
0.675731 0.578134 0
0.708049 0.578088 0
0.740612 0.578317 0
0.772931 0.578286 0
0.805234 0.578241 0
0.837552 0.578195 0
0.869993 0.578134 0
0.90248 0.578164 0
0.934951 0.578286 0
0.967269 0.578256 0
0.999268 0.578302 0
0 0.610559 0
0 0.610697 0
0.0279088 0.610651 0
0.0602121 0.61062 0
0.0926375 0.610544 0
0.125048 0.610483 0
0.157626 0.610712 0
0.189929 0.610666 0
0.222248 0.610636 0
0.254551 0.61059 0
0.28687 0.610559 0
0.319432 0.610758 0
0.351873 0.610712 0
0.384268 0.610651 0
0.416587 0.610605 0
0.448905 0.610574 0
0.481209 0.610529 0
0.513787 0.610758 0
0.54609 0.610712 0
0.578408 0.610681 0
0.610834 0.610605 0
0.643229 0.610544 0
0.675578 0.610544 0
0.708125 0.610727 0
0.740429 0.610697 0
0.772747 0.610651 0
0.805051 0.61062 0
0.837369 0.610574 0
0.869886 0.61059 0
0.902449 0.610712 0
0.934768 0.610666 0
0.967071 0.610636 0
0.999084 0.610681 0
0 0.642939 0
0 0.643015 0
0.027863 0.642985 0
0.0601663 0.642939 0
0.0927749 0.643046 0
0.125261 0.643076 0
0.15758 0.64303 0
0.189883 0.642985 0
0.222202 0.642954 0
0.254505 0.642908 0
0.287053 0.643107 0
0.319402 0.643107 0
0.351827 0.64303 0
0.384222 0.642969 0
0.416541 0.642939 0
0.448844 0.642893 0
0.481422 0.643122 0
0.513741 0.643076 0
0.546044 0.643046 0
0.578363 0.643 0
0.610788 0.642924 0
0.643198 0.642878 0
0.675761 0.643091 0
0.70808 0.643046 0
0.740383 0.643015 0
0.772702 0.642985 0
0.805005 0.642939 0
0.837583 0.643168 0
0.870024 0.643091 0
0.902403 0.64303 0
0.934722 0.643 0
0.967025 0.642954 0
0.999084 0.643046 0
0 0.675258 0
0 0.675334 0
0.0278477 0.675288 0
0.0603037 0.67541 0
0.0928359 0.675441 0
0.125246 0.67538 0
0.157549 0.675334 0
0.189868 0.675303 0
0.222187 0.675273 0
0.254749 0.675486 0
0.287068 0.675456 0
0.319371 0.67541 0
0.351797 0.675349 0
0.384207 0.675288 0
0.416724 0.675441 0
0.449088 0.675471 0
0.481407 0.675425 0
0.51371 0.67538 0
0.546029 0.675349 0
0.578332 0.675319 0
0.611017 0.675486 0
0.643427 0.675441 0
0.675746 0.67541 0
0.708049 0.675364 0
0.740368 0.675334 0
0.772671 0.675288 0
0.805249 0.675517 0
0.837568 0.675471 0
0.869993 0.67541 0
0.902388 0.675349 0
0.934707 0.675303 0
0.967041 0.675288 0
0.999283 0.675578 0
0 0.707561 0
0 0.707729 0
0.0280766 0.707866 0
0.0603952 0.70782 0
0.0928054 0.707759 0
0.125231 0.707698 0
0.157534 0.707652 0
0.189975 0.707744 0
0.222416 0.707835 0
0.254734 0.707805 0
0.287037 0.707759 0
0.319356 0.707729 0
0.351781 0.707652 0
0.38436 0.707774 0
0.416754 0.70782 0
0.449073 0.707774 0
0.481376 0.707744 0
0.513695 0.707698 0
0.545998 0.707668 0
0.578546 0.707851 0
0.611002 0.70782 0
0.643412 0.707759 0
0.675715 0.707713 0
0.708034 0.707683 0
0.740337 0.707637 0
0.772915 0.707866 0
0.805234 0.70782 0
0.837537 0.70779 0
0.869978 0.707713 0
0.902373 0.707652 0
0.934936 0.707881 0
0.967254 0.707835 0
0.999252 0.707881 0
0 0.73994 0
0 0.740215 0
0.0280613 0.740169 0
0.0603647 0.740139 0
0.0927901 0.740063 0
0.1252 0.740001 0
0.15761 0.740078 0
0.190082 0.740185 0
0.2224 0.740154 0
0.254704 0.740108 0
0.287022 0.740078 0
0.319326 0.740032 0
0.35201 0.74023 0
0.384421 0.740169 0
0.416739 0.740124 0
0.449042 0.740093 0
0.481361 0.740047 0
0.513817 0.740169 0
0.546242 0.74023 0
0.578561 0.7402 0
0.610986 0.740124 0
0.643381 0.740063 0
0.6757 0.740032 0
0.708202 0.740185 0
0.740581 0.740215 0
0.7729 0.740169 0
0.805203 0.740139 0
0.837522 0.740093 0
0.869947 0.740032 0
0.902586 0.740215 0
0.93492 0.740185 0
0.967224 0.740154 0
0.999237 0.7402 0
0 0.772457 0
0 0.772519 0
0.0280308 0.772488 0
0.0603494 0.772442 0
0.0928054 0.772412 0
0.125444 0.77258 0
0.157748 0.772534 0
0.190066 0.772503 0
0.22237 0.772473 0
0.254688 0.772427 0
0.287083 0.772473 0
0.31957 0.77261 0
0.351995 0.772534 0
0.384405 0.772473 0
0.416709 0.772442 0
0.449027 0.772396 0
0.481468 0.772488 0
0.513909 0.77258 0
0.546212 0.772549 0
0.578531 0.772519 0
0.610956 0.772442 0
0.643366 0.772381 0
0.675853 0.772519 0
0.708247 0.772564 0
0.740566 0.772519 0
0.772869 0.772488 0
0.805188 0.772442 0
0.837491 0.772412 0
0.870192 0.772595 0
0.902586 0.772534 0
0.93489 0.772503 0
0.967208 0.772473 0
0.999207 0.772503 0
0 0.804761 0
0 0.804837 0
0.0280156 0.804807 0
0.0603342 0.804776 0
0.0930037 0.804959 0
0.125414 0.804898 0
0.157733 0.804852 0
0.190036 0.804807 0
0.222354 0.804776 0
0.254719 0.804791 0
0.287236 0.804959 0
0.319554 0.804929 0
0.35198 0.804852 0
0.384375 0.804791 0
0.416693 0.804761 0
0.449256 0.804974 0
0.481575 0.804944 0
0.513878 0.804898 0
0.546197 0.804868 0
0.578515 0.804822 0
0.611048 0.804852 0
0.643595 0.804959 0
0.675914 0.804913 0
0.708217 0.804868 0
0.740536 0.804837 0
0.772854 0.804807 0
0.80531 0.804913 0
0.837736 0.80499 0
0.870176 0.804913 0
0.902556 0.804852 0
0.934874 0.804822 0
0.967193 0.804776 0
0.99939 0.80502 0
0 0.837079 0
0 0.837156 0
0.0282444 0.837369 0
0.0605631 0.837339 0
0.0929732 0.837263 0
0.125399 0.837201 0
0.157702 0.837171 0
0.190021 0.837125 0
0.222583 0.837354 0
