public/LUTS/Darken/Darken_09.cube
TITLE "Generated by Resolve"
LUT_3D_SIZE 5
0 0 0
0.218418 0 0
0.437842 0 0
0.657053 0 0
0.876219 0 0
0 0.218738 0
0.21886 0.218753 1.5259e-05
0.438285 0.218891 0.00015259
0.657496 0.218799 6.10361e-05
0.8766 0.218952 0.000213626
0.000137331 0.438056 0.000137331
0.218982 0.438071 0.00015259
0.4383 0.438087 0.000167849
0.657633 0.438132 0.000198367
0.87657 0.438117 0.000183108
9.15541e-05 0.657221 9.15541e-05
0.21912 0.657404 0.000274662
0.438331 0.657313 0.000198367
0.657755 0.65745 0.000335698
0.876707 0.657435 0.000320439
0.000183108 0.876478 0.000183108
0.219257 0.876722 0.000411994
0.438468 0.876631 0.000335698
0.657862 0.876738 0.000427253
0.876844 0.876753 0.000442512
0 0 0.21944
0.218418 0 0.219455
0.437842 0 0.219577
0.657053 0 0.219501
0.876081 0 0.219547
1.5259e-05 0.218753 0.219883
0.21886 0.218769 0.219898
0.438102 0.218692 0.219821
0.657511 0.218814 0.219944
0.876463 0.218799 0.219928
0 0.437858 0.219791
0.218997 0.438087 0.22002
0.438209 0.437995 0.219944
0.657633 0.438132 0.220081
0.876585 0.438117 0.220066
6.10361e-05 0.657176 0.219928
0.219135 0.657404 0.220157
0.438346 0.657328 0.220066
0.657649 0.657343 0.220096
0.876722 0.65745 0.220203
0.000198367 0.876493 0.220066
0.219089 0.876554 0.220127
0.438468 0.876646 0.220203
0.657679 0.876554 0.220127
0.87686 0.876768 0.220325
0 0 0.439734
0.218402 0 0.43975
0.437613 0 0.439658
0.657038 0 0.439796
0.87599 0 0.43978
0 0.218509 0.439963
0.218845 0.218738 0.440192
0.438056 0.218662 0.440116
0.657481 0.218799 0.440253
0.876432 0.218784 0.440238
0 0.437842 0.440101
0.218967 0.438056 0.440314
0.438193 0.43798 0.440238
0.65742 0.437919 0.440177
0.87657 0.438102 0.44036
4.57771e-05 0.65716 0.440223
0.218891 0.657176 0.440238
0.438315 0.657298 0.440375
0.657526 0.657221 0.440284
0.876692 0.65742 0.440497
0.000183108 0.876478 0.44036
0.219028 0.876493 0.440375
0.438453 0.876631 0.440513
0.657664 0.876539 0.440421
0.876616 0.876524 0.440406
0 0 0.659815
0.218372 0 0.660044
0.437598 0 0.659968
0.656977 0 0.66006
0.875975 0 0.66009
0 0.218494 0.660273
0.218723 0.218631 0.660395
0.438041 0.218647 0.66041
0.657252 0.218555 0.660334
0.876417 0.218769 0.660533
0 0.437812 0.660395
0.218738 0.437827 0.66041
0.438163 0.437964 0.660548
0.657374 0.437873 0.660456
0.876554 0.438087 0.66067
1.5259e-05 0.65713 0.660533
0.218875 0.657145 0.660548
0.438285 0.657267 0.660655
0.657511 0.657206 0.660594
0.876463 0.657191 0.660578
9.15541e-05 0.876387 0.660594
0.218997 0.876463 0.66067
0.438209 0.876387 0.660594
0.657649 0.876524 0.660731
0.8766 0.876509 0.660716
0 0 0.879606
0.218204 0 0.879652
0.437613 0 0.879759
0.656825 0 0.879667
0.87599 0 0.879881
0 0.218509 0.880064
0.218631 0.218524 0.880064
0.438056 0.218662 0.880201
0.657267 0.21857 0.880125
0.876387 0.218738 0.880278
0 0.437842 0.880186
0.218753 0.437842 0.880201
0.438087 0.437888 0.880232
0.657404 0.437903 0.880247
0.876341 0.437888 0.880232
0 0.657008 0.880171
0.218891 0.65716 0.880323
0.438102 0.657084 0.880247
0.657526 0.657221 0.880385
0.876478 0.657206 0.880369
0 0.876265 0.880232
0.219028 0.876493 0.880461
0.438239 0.876402 0.880385
0.657649 0.876524 0.880507
0.876173 0.876081 0.880064
