public/LUTS/Darken/Darken_01.cube
TITLE "Generated by Resolve"
LUT_3D_SIZE 33
0 0 0
0.00936904 0 0
0.0412299 0 0
0.0733501 0 0
0.105318 0 0
0.13727 0 0
0.169131 0 0
0.200992 0 0
0.232868 0 0
0.264973 0 0
0.296834 0 0
0.328695 0 0
0.360678 0 0
0.39263 0 0
0.424552 0 0
0.456611 0 0
0.488457 0 0
0.520333 0 0
0.552193 0 0
0.584054 0 0
0.616281 0 0
0.648234 0 0
0.680095 0 0
0.711955 0 0
0.743816 0 0
0.775784 0 0
0.807797 0 0
0.839658 0 0
0.871641 0 0
0.903578 0 0
0.935439 0 0
0.967453 0 0
0.99913 0 0
0 0.00962844 0
0.00970474 0.00968948 0
0.041825 0.00991836 0
0.0736858 0.00987259 0
0.105653 0.00981155 0
0.137621 0.00975052 0
0.169482 0.00970474 0
0.201602 0.00993362 0
0.233463 0.00988785 0
0.265324 0.00985733 0
0.297185 0.00981155 0
0.329046 0.00978103 0
0.361013 0.00970474 0
0.393225 0.0099031 0
0.425086 0.00987259 0
0.456947 0.00982681 0
0.488807 0.00979629 0
0.520668 0.00975052 0
0.552575 0.00976577 0
0.584649 0.00993362 0
0.616632 0.00987259 0
0.648585 0.00981155 0
0.680446 0.00976577 0
0.712306 0.00973526 0
0.744259 0.00978103 0
0.776287 0.00991836 0
0.808148 0.00987259 0
0.840009 0.00984207 0
0.871992 0.00976577 0
0.903929 0.00970474 0
0.935927 0.00981155 0
0.96791 0.00988785 0
0.999466 0.00993362 0
0 0.0416724 0
0.00994888 0.0418097 0
0.0418097 0.0417792 0
0.0736706 0.0417334 0
0.105638 0.0416724 0
0.137591 0.0416114 0
0.169696 0.0418097 0
0.201572 0.0417945 0
0.233433 0.0417487 0
0.265293 0.0417182 0
0.297154 0.0416876 0
0.329015 0.0416419 0
0.361257 0.041825 0
0.39321 0.0417639 0
0.425071 0.0417334 0
0.456931 0.0416876 0
0.488792 0.0416571 0
0.520668 0.0416419 0
0.552773 0.0418402 0
0.584634 0.0418097 0
0.616602 0.0417334 0
0.648554 0.0416724 0
0.680415 0.0416419 0
0.712535 0.0418555 0
0.744396 0.0418097 0
0.776257 0.0417792 0
0.808118 0.0417334 0
0.839979 0.0417029 0
0.872023 0.0416876 0
0.904158 0.041825 0
0.936019 0.0417945 0
0.96788 0.0417487 0
0.999451 0.0417945 0
0 0.0736095 0
0.00991836 0.0736706 0
0.0417792 0.07364 0
0.07364 0.0735943 0
0.105623 0.0735332 0
0.137835 0.0737316 0
0.169696 0.0736858 0
0.201556 0.0736553 0
0.233417 0.0736095 0
0.265278 0.073579 0
0.297353 0.0737469 0
0.329259 0.0737621 0
0.361227 0.0736858 0
0.393179 0.0736248 0
0.42504 0.0735943 0
0.456901 0.0735485 0
0.489021 0.0737774 0
0.520882 0.0737316 0
0.552743 0.0737011 0
0.584604 0.0736706 0
0.616587 0.0735943 0
0.648539 0.0735332 0
0.680659 0.0737469 0
0.71252 0.0737163 0
0.744381 0.0736706 0
0.776242 0.07364 0
0.808103 0.0735943 0
0.840009 0.0736095 0
0.872206 0.0737469 0
0.904143 0.0736858 0
0.936004 0.0736553 0
0.967865 0.0736095 0
0.99942 0.0736553 0
0 0.105516 0
0.00979629 0.105577 0
0.0416571 0.105547 0
0.0736553 0.105653 0
0.105745 0.105699 0
0.137697 0.105638 0
0.169558 0.105592 0
0.201419 0.105562 0
0.23328 0.105516 0
0.265339 0.105669 0
0.297261 0.105699 0
0.329122 0.105669 0
0.361105 0.105592 0
0.393057 0.105531 0
0.424918 0.105501 0
0.457008 0.105699 0
0.488899 0.105684 0
0.52076 0.105638 0
0.552621 0.105608 0
0.584482 0.105562 0
0.616464 0.105501 0
0.648661 0.105699 0
0.680522 0.105653 0
0.712383 0.105623 0
0.744244 0.105577 0
0.776104 0.105547 0
0.808225 0.10576 0
0.840085 0.10573 0
0.872068 0.105653 0
0.904005 0.105592 0
0.935882 0.105562 0
0.967758 0.105531 0
0.999557 0.105821 0
0 0.137407 0
0.00968948 0.137469 0
0.0416724 0.13756 0
0.0736706 0.137652 0
0.105638 0.137591 0
0.137606 0.13753 0
0.169467 0.137484 0
0.201328 0.137453 0
0.233448 0.137667 0
0.265309 0.137636 0
0.297169 0.137591 0
0.32903 0.13756 0
0.360998 0.137484 0
0.393118 0.137591 0
0.425071 0.137652 0
0.456931 0.137606 0
0.488792 0.137575 0
0.520653 0.13753 0
0.552514 0.137499 0
0.584588 0.137667 0
0.616617 0.137652 0
0.648569 0.137591 0
0.68043 0.137545 0
0.712291 0.137514 0
0.744152 0.137469 0
0.776257 0.137697 0
0.808133 0.137652 0
0.839994 0.137621 0
0.871977 0.137545 0
0.903914 0.137484 0
0.935775 0.137453 0
0.967895 0.137667 0
0.999451 0.137713 0
0 0.169314 0
0.00993362 0.169589 0
0.0417945 0.169558 0
0.0736553 0.169512 0
0.105623 0.169451 0
0.137591 0.16939 0
0.169543 0.169451 0
0.201556 0.169574 0
0.233417 0.169528 0
0.265278 0.169497 0
0.297139 0.169451 0
0.329 0.169421 0
0.36112 0.169497 0
0.393194 0.169543 0
0.425055 0.169512 0
0.456916 0.169467 0
0.488777 0.169436 0
0.520638 0.16939 0
0.552682 0.169543 0
0.584619 0.169574 0
0.616602 0.169512 0
0.648539 0.169451 0
0.6804 0.169406 0
0.712261 0.169375 0
0.744381 0.169589 0
0.776242 0.169558 0
0.808103 0.169512 0
0.839963 0.169482 0
0.871946 0.169406 0
0.904128 0.169589 0
0.936019 0.169574 0
0.967865 0.169528 0
0.999435 0.169574 0
0 0.201389 0
0.0099031 0.20145 0
0.0417792 0.201419 0
0.0736248 0.201373 0
0.105608 0.201312 0
0.137636 0.201328 0
0.16968 0.201465 0
0.201541 0.201434 0
0.233402 0.201389 0
0.265263 0.201358 0
0.297124 0.201312 0
0.329244 0.201541 0
0.361212 0.201465 0
0.393164 0.201404 0
0.425025 0.201373 0
0.456886 0.201328 0
0.488869 0.201419 0
0.520867 0.201511 0
0.552728 0.20148 0
0.584588 0.201434 0
0.616571 0.201373 0
0.648524 0.201312 0
0.680552 0.201434 0
0.712505 0.201495 0
0.744366 0.20145 0
0.776226 0.201419 0
0.808087 0.201373 0
0.839948 0.201343 0
0.872145 0.20148 0
0.904128 0.201465 0
0.935988 0.201434 0
0.967849 0.201389 0
0.999405 0.201434 0
0 0.233249 0
0.00988785 0.23331 0
0.0417487 0.23328 0
0.0736095 0.233249 0
0.105837 0.233433 0
0.137789 0.233371 0
0.16965 0.233326 0
0.201511 0.233295 0
0.233387 0.233265 0
0.265293 0.233265 0
0.297353 0.233433 0
0.329213 0.233402 0
0.361196 0.233326 0
0.393149 0.23328 0
0.42501 0.233234 0
0.456962 0.233295 0
0.488991 0.233417 0
0.520851 0.233371 0
0.552712 0.233341 0
0.584573 0.23331 0
0.616556 0.233234 0
0.64863 0.23331 0
0.680613 0.233402 0
0.712474 0.233356 0
0.744335 0.23331 0
0.776196 0.23328 0
0.808057 0.233234 0
0.840177 0.233463 0
0.87216 0.233387 0
0.904097 0.233326 0
0.935973 0.233295 0
0.967819 0.233249 0
0.999573 0.233478 0
0 0.26511 0
0.00987259 0.265187 0
0.0417334 0.265141 0
0.0738384 0.265354 0
0.105806 0.265293 0
0.137774 0.265232 0
0.169635 0.265187 0
0.201495 0.265156 0
0.233387 0.265141 0
0.265476 0.265339 0
0.297337 0.265309 0
0.329198 0.265263 0
0.361166 0.265202 0
0.393118 0.265141 0
0.425238 0.265354 0
0.457099 0.265309 0
0.48896 0.265278 0
0.520821 0.265232 0
0.552682 0.265202 0
0.584619 0.265232 0
0.616785 0.265354 0
0.648737 0.265293 0
0.680598 0.265263 0
0.712459 0.265217 0
0.74432 0.265187 0
0.776303 0.265263 0
0.808301 0.265354 0
0.840162 0.265324 0
0.872145 0.265248 0
0.904082 0.265187 0
0.935943 0.265156 0
0.967971 0.265278 0
0.999619 0.265415 0
0 0.296971 0
0.0100557 0.297261 0
0.0419623 0.297261 0
0.0738231 0.297215 0
0.105791 0.297154 0
0.137743 0.297093 0
0.169604 0.297047 0
0.201724 0.297276 0
0.233585 0.297246 0
0.265446 0.2972 0
0.297307 0.297169 0
0.329168 0.297124 0
0.361151 0.297063 0
0.393362 0.297261 0
0.425223 0.297215 0
0.457084 0.297169 0
0.488945 0.297139 0
0.520806 0.297093 0
0.552712 0.297108 0
0.584787 0.297292 0
0.616754 0.297215 0
0.648707 0.297154 0
0.680568 0.297124 0
0.712428 0.297078 0
0.744396 0.297139 0
0.77641 0.297261 0
0.80827 0.297215 0
0.840131 0.297185 0
0.872114 0.297108 0
0.904067 0.297063 0
0.936187 0.297276 0
0.968032 0.29723 0
0.999603 0.297276 0
0 0.32903 0
0.010071 0.329168 0
0.0419471 0.329122 0
0.0737926 0.329091 0
0.105776 0.329015 0
0.137728 0.328954 0
0.169833 0.329152 0
0.201709 0.329137 0
0.23357 0.329107 0
0.265431 0.329061 0
0.297292 0.32903 0
0.329152 0.328984 0
0.361379 0.329183 0
0.393332 0.329122 0
0.425193 0.329076 0
0.457053 0.329046 0
0.48893 0.329 0
0.521035 0.329213 0
0.552895 0.329183 0
0.584756 0.329152 0
0.616739 0.329076 0
0.648692 0.329015 0
0.680568 0.329 0
0.712673 0.329198 0
0.744533 0.329168 0
0.776394 0.329122 0
0.808255 0.329091 0
0.840116 0.329046 0
0.87216 0.329046 0
0.904295 0.329168 0
0.936156 0.329137 0
0.968017 0.329091 0
0.999573 0.329137 0
0 0.360998 0
0.00991836 0.361074 0
0.0417792 0.361044 0
0.07364 0.360998 0
0.105776 0.361105 0
0.137835 0.361135 0
0.169696 0.361089 0
0.201556 0.361059 0
0.233417 0.361013 0
0.265278 0.360983 0
0.297353 0.361151 0
0.329244 0.361151 0
0.361227 0.361089 0
0.393179 0.361028 0
0.42504 0.360983 0
0.456901 0.360952 0
0.489021 0.361181 0
0.520882 0.361135 0
0.552743 0.361105 0
0.584604 0.361059 0
0.616587 0.360998 0
0.648539 0.360937 0
0.680644 0.361151 0
0.712505 0.361105 0
0.744381 0.361074 0
0.776242 0.361044 0
0.808103 0.360998 0
0.840009 0.361013 0
0.872206 0.361151 0
0.904143 0.361089 0
0.936004 0.361059 0
0.967865 0.361013 0
0.99942 0.361059 0
0 0.392889 0
0.00984207 0.392966 0
0.0417182 0.39292 0
0.0737163 0.393027 0
0.105791 0.393072 0
0.137758 0.393011 0
0.169619 0.392966 0
0.20148 0.392935 0
0.233341 0.392905 0
0.2654 0.393057 0
0.297322 0.393088 0
0.329183 0.393042 0
0.361151 0.392981 0
0.393103 0.39292 0
0.424964 0.392874 0
0.457084 0.393088 0
0.488945 0.393057 0
0.520806 0.393011 0
0.552666 0.392981 0
0.584527 0.39295 0
0.616754 0.393103 0
0.648722 0.393072 0
0.680583 0.393042 0
0.712444 0.392996 0
0.744305 0.39295 0
0.776165 0.39292 0
0.808286 0.393133 0
0.840146 0.393103 0
0.872129 0.393027 0
0.904067 0.392966 0
0.935927 0.392935 0
0.967803 0.39292 0
0.999603 0.393194 0
0 0.42475 0
0.00982681 0.424826 0
0.0419471 0.42504 0
0.0738079 0.424994 0
0.105776 0.424933 0
0.137743 0.424872 0
0.169589 0.424826 0
0.201587 0.424918 0
0.23357 0.425025 0
0.265431 0.424979 0
0.297292 0.424949 0
0.329168 0.424903 0
0.361135 0.424842 0
0.393256 0.424949 0
0.425208 0.424994 0
0.457069 0.424949 0
0.48893 0.424918 0
0.52079 0.424872 0
0.552651 0.424842 0
0.584726 0.425025 0
0.616754 0.424994 0
0.648692 0.424933 0
0.680552 0.424903 0
0.712413 0.424857 0
0.744274 0.424826 0
0.776394 0.42504 0
0.808255 0.424994 0
0.840116 0.424964 0
0.872099 0.424887 0
0.904051 0.424826 0
0.935912 0.424796 0
0.968017 0.42501 0
0.999588 0.425055 0
0 0.456657 0
0.0100557 0.456931 0
0.0419318 0.456901 0
0.0737774 0.456855 0
0.10576 0.456794 0
0.137713 0.456733 0
0.16968 0.456794 0
0.201694 0.456916 0
0.233555 0.456886 0
0.265415 0.45684 0
0.297276 0.456809 0
0.329137 0.456764 0
0.361257 0.45684 0
0.393317 0.456901 0
0.425177 0.456855 0
0.457038 0.456809 0
0.488914 0.456779 0
0.52076 0.456733 0
0.55288 0.456962 0
0.584756 0.456931 0
0.616724 0.456855 0
0.648676 0.456794 0
0.680537 0.456764 0
0.712581 0.456901 0
0.744518 0.456931 0
0.776379 0.456901 0
0.80824 0.456855 0
0.840101 0.456825 0
0.872084 0.456764 0
0.904265 0.456931 0
0.936141 0.456916 0
0.968002 0.45687 0
0.999557 0.456916 0
0 0.488731 0
0.0100404 0.488807 0
0.0419013 0.488762 0
0.0737621 0.488731 0
0.10573 0.488655 0
0.137942 0.488853 0
0.169802 0.488807 0
0.201663 0.488777 0
0.233539 0.488746 0
0.265385 0.488701 0
0.297322 0.488746 0
0.329366 0.488884 0
0.361349 0.488823 0
0.393301 0.488762 0
0.425162 0.488716 0
0.457023 0.488685 0
0.489006 0.488762 0
0.521004 0.488853 0
0.552865 0.488823 0
0.584726 0.488792 0
0.616709 0.488716 0
0.648646 0.488655 0
0.680674 0.488792 0
0.712627 0.488838 0
0.744488 0.488807 0
0.776349 0.488762 0
0.808209 0.488731 0
0.84007 0.488685 0
0.872282 0.488838 0
0.904265 0.488807 0
0.936126 0.488777 0
0.967971 0.488731 0
0.999542 0.488777 0
0 0.520592 0
0.0100252 0.520668 0
0.041886 0.520623 0
0.0737469 0.520592 0
0.105974 0.520775 0
0.137926 0.520714 0
0.169787 0.520668 0
0.201648 0.520638 0
0.233509 0.520607 0
0.265431 0.520623 0
0.29749 0.52079 0
0.329351 0.520745 0
0.361318 0.520684 0
0.393271 0.520623 0
0.425132 0.520577 0
0.457099 0.520638 0
0.489113 0.52076 0
0.520974 0.520714 0
0.552834 0.520684 0
0.58471 0.520653 0
0.616678 0.520577 0
0.64889 0.520775 0
0.680751 0.520745 0
0.712612 0.520699 0
0.744472 0.520668 0
0.776333 0.520623 0
0.808331 0.520729 0
0.840314 0.520806 0
0.872297 0.520745 0
0.904234 0.520684 0
0.936095 0.520638 0
0.967956 0.520607 0
0.99971 0.520836 0
0 0.552453 0
0.00999466 0.552529 0
0.0418555 0.552483 0
0.0739757 0.552712 0
0.105943 0.552636 0
0.137911 0.552575 0
0.169772 0.552544 0
0.201633 0.552499 0
0.233753 0.552728 0
0.265599 0.552682 0
0.297475 0.552651 0
0.329335 0.552605 0
0.361303 0.552544 0
0.393286 0.552514 0
0.425376 0.552697 0
0.457237 0.552666 0
0.489097 0.552621 0
0.520958 0.55259 0
0.552819 0.552544 0
0.584756 0.55259 0
0.616922 0.552697 0
0.648859 0.552636 0
0.68072 0.552605 0
0.712581 0.55256 0
0.744457 0.552529 0
0.77644 0.552605 0
0.808423 0.552712 0
0.840299 0.552666 0
0.872282 0.552605 0
0.904219 0.552544 0
0.93608 0.552499 0
0.968109 0.552636 0
0.999756 0.552758 0
0 0.584314 0
0.010193 0.584604 0
0.0420996 0.584604 0
0.0739452 0.584573 0
0.105928 0.584497 0
0.137881 0.584436 0
0.169741 0.584405 0
0.201862 0.584619 0
0.233722 0.584588 0
0.265583 0.584543 0
0.297444 0.584512 0
0.329305 0.584466 0
0.361288 0.584405 0
0.393484 0.584604 0
0.425345 0.584558 0
0.457206 0.584527 0
0.489082 0.584482 0
0.520928 0.584451 0
0.55285 0.584466 0
0.584909 0.584634 0
0.616892 0.584558 0
0.648844 0.584497 0
0.680705 0.584466 0
0.712566 0.584421 0
0.744686 0.584649 0
0.776547 0.584604 0
0.808408 0.584573 0
0.840269 0.584527 0
0.872251 0.584466 0
0.90428 0.584497 0
0.936309 0.584619 0
0.96817 0.584588 0
0.999725 0.584634 0
0 0.616434 0
0.0100404 0.616571 0
0.0419165 0.616541 0
0.0737621 0.616495 0
0.105745 0.616434 0
0.137697 0.616373 0
0.169818 0.616587 0
0.201678 0.616541 0
0.233539 0.61651 0
0.2654 0.616464 0
0.297261 0.616434 0
0.329366 0.616648 0
0.361349 0.616587 0
0.393301 0.616526 0
0.425177 0.616495 0
0.457023 0.616449 0
0.488899 0.616419 0
0.521004 0.616632 0
0.552865 0.616587 0
0.584726 0.616556 0
0.616709 0.61648 0
0.648661 0.616419 0
0.680552 0.616419 0
0.712642 0.616602 0
0.744503 0.616571 0
0.776364 0.616541 0
0.808225 0.616495 0
0.840085 0.616464 0
0.872145 0.616464 0
0.904265 0.616587 0
0.936126 0.616541 0
0.967987 0.61651 0
0.999542 0.616556 0
0 0.648371 0
0.00999466 0.648447 0
0.0418708 0.648402 0
0.0737163 0.648371 0
0.105867 0.648478 0
0.137911 0.648493 0
0.169772 0.648447 0
0.201633 0.648417 0
0.233494 0.648386 0
0.265354 0.648341 0
0.297444 0.648524 0
0.329335 0.648524 0
0.361303 0.648463 0
0.393256 0.648402 0
0.425132 0.648356 0
0.456977 0.648325 0
0.489097 0.648539 0
0.520958 0.648493 0
0.552819 0.648463 0
0.58468 0.648432 0
0.616663 0.648356 0
0.648615 0.64831 0
0.680735 0.648524 0
0.712596 0.648478 0
0.744457 0.648447 0
0.776318 0.648402 0
0.808179 0.648371 0
0.840299 0.648585 0
0.872282 0.648524 0
0.904219 0.648463 0
0.93608 0.648417 0
0.967941 0.648386 0
0.999557 0.648478 0
0 0.680232 0
0.0099794 0.680308 0
0.0418402 0.680262 0
0.0738537 0.680385 0
0.105928 0.680415 0
0.137896 0.680354 0
0.169741 0.680323 0
0.201617 0.680278 0
0.233478 0.680247 0
0.265583 0.680461 0
0.297444 0.68043 0
0.32932 0.680385 0
0.361288 0.680323 0
0.39324 0.680262 0
0.425299 0.680415 0
0.457221 0.680446 0
0.489082 0.6804 0
0.520943 0.680369 0
0.552804 0.680323 0
0.584665 0.680293 0
0.616892 0.680461 0
0.648844 0.680415 0
0.680705 0.680385 0
0.712566 0.680339 0
0.744427 0.680308 0
0.776303 0.680262 0
0.808408 0.680491 0
0.840269 0.680446 0
0.872267 0.680385 0
0.904204 0.680323 0
0.936065 0.680278 0
0.967941 0.680262 0
0.999741 0.680537 0
0 0.712093 0
0.0100404 0.712245 0
0.0420844 0.712383 0
0.07393 0.712352 0
0.105913 0.712276 0
0.137865 0.712215 0
0.169726 0.712184 0
0.201724 0.712276 0
0.233707 0.712367 0
0.265568 0.712322 0
0.297429 0.712291 0
0.32929 0.712245 0
0.361257 0.712184 0
0.393393 0.712291 0
0.425345 0.712337 0
0.457206 0.712306 0
0.489067 0.712261 0
0.520912 0.71223 0
0.552789 0.712184 0
0.584863 0.712367 0
0.616876 0.712337 0
0.648829 0.712276 0
0.68069 0.712245 0
0.712551 0.7122 0
0.744411 0.712169 0
0.776532 0.712383 0
0.808392 0.712352 0
0.840253 0.712306 0
0.872236 0.712245 0
0.904173 0.712184 0
0.936294 0.712398 0
0.968154 0.712352 0
0.999725 0.712398 0
0 0.744015 0
0.010193 0.744289 0
0.0420539 0.744244 0
0.0739147 0.744213 0
0.105882 0.744137 0
0.13785 0.744076 0
0.169802 0.744152 0
0.201816 0.744259 0
0.233692 0.744228 0
0.265538 0.744183 0
0.297414 0.744152 0
0.329274 0.744106 0
0.361501 0.744305 0
0.393454 0.744244 0
0.425315 0.744198 0
0.457176 0.744167 0
0.489036 0.744121 0
0.52105 0.744228 0
0.553017 0.744305 0
0.584878 0.744274 0
0.616861 0.744198 0
0.648798 0.744137 0
0.680659 0.744106 0
0.712718 0.744259 0
0.74464 0.744289 0
0.776501 0.744244 0
0.808362 0.744213 0
0.840223 0.744167 0
0.872221 0.744106 0
0.904402 0.744289 0
0.936278 0.744259 0
0.968139 0.744228 0
0.999695 0.744274 0
0 0.776074 0
0.0101778 0.77615 0
0.0420386 0.776104 0
0.0738994 0.776074 0
0.105898 0.776043 0
0.138079 0.776196 0
0.16994 0.776165 0
0.201801 0.77612 0
0.233661 0.776089 0
0.265522 0.776043 0
0.297459 0.776089 0
0.329503 0.776226 0
0.361471 0.776165 0
0.393423 0.776104 0
0.425299 0.776059 0
0.45716 0.776028 0
0.489143 0.77612 0
0.521126 0.776211 0
0.552987 0.776165 0
0.584863 0.776135 0
0.616831 0.776059 0
0.648783 0.775998 0
0.680812 0.776135 0
0.712764 0.776181 0
0.744625 0.77615 0
0.776486 0.776104 0
0.808347 0.776074 0
0.840208 0.776028 0
0.87245 0.776226 0
0.904387 0.776165 0
0.936248 0.77612 0
0.968109 0.776089 0
0.99968 0.776135 0
0 0.807935 0
0.0101472 0.808011 0
0.0420081 0.807965 0
0.0738842 0.80795 0
0.106096 0.808118 0
0.138064 0.808057 0
0.169924 0.808026 0
0.201785 0.80798 0
0.233646 0.80795 0
0.265568 0.807965 0
0.297627 0.808133 0
0.329488 0.808087 0
0.361456 0.808026 0
0.393408 0.807965 0
0.425269 0.807919 0
0.457389 0.808148 0
0.48925 0.808103 0
0.521111 0.808072 0
0.552972 0.808026 0
0.584833 0.807996 0
0.616922 0.808026 0
0.649012 0.808118 0
0.680873 0.808087 0
0.712734 0.808042 0
0.74461 0.808011 0
0.776471 0.807965 0
0.808469 0.808072 0
0.840452 0.808148 0
0.872435 0.808087 0
0.904372 0.808026 0
0.936233 0.80798 0
0.968093 0.80795 0
0.999847 0.808179 0
0 0.839796 0
0.010132 0.839872 0
0.042237 0.840085 0
0.0740978 0.840055 0
0.106081 0.839979 0
0.138033 0.839918 0
0.169894 0.839887 0
0.201755 0.839841 0
0.233875 0.84007 0
