public/LUTS/Darken/Darken_14.cube
TITLE "Generated by Resolve"
LUT_3D_SIZE 9
0 0 0
0.0362554 0 0
0.13576 0 0
0.235431 0 0
0.335103 0 0
0.434806 0 0
0.534279 0 0
0.633982 0 0
0.733425 0 0
0 0.036408 0
0.0365911 0.0365606 0
0.13608 0.0364233 0
0.235767 0.0364843 0
0.335454 0.0365454 0
0.434943 0.036408 0
0.534615 0.0364691 0
0.634318 0.0365301 0
0.733745 0.0366522 0
0 0.136049 0
0.0366674 0.136187 0
0.136156 0.136049 0
0.235843 0.13611 0
0.335515 0.136172 0
0.435019 0.136034 0
0.534691 0.136095 0
0.634394 0.136156 0
0.733761 0.136233 0
0 0.235691 0
0.0366217 0.235767 0
0.136172 0.235706 0
0.235874 0.235767 0
0.335546 0.235828 0
0.435035 0.235691 0
0.534722 0.235752 0
0.634424 0.235813 0
0.733654 0.235737 0
0 0.335317 0
0.0365911 0.335256 0
0.136263 0.335332 0
0.235966 0.335378 0
0.335531 0.335348 0
0.435142 0.335302 0
0.534813 0.335378 0
0.634485 0.335393 0
0.733745 0.335363 0
0 0.434928 0
0.0365911 0.434928 0
0.136278 0.434989 0
0.235966 0.43505 0
0.335439 0.434913 0
0.435142 0.434958 0
0.534813 0.435035 0
0.634379 0.434943 0
0.733745 0.435019 0
0 0.534432 0
0.0366979 0.534539 0
0.136385 0.5346 0
0.236072 0.534661 0
0.335561 0.534524 0
0.435248 0.534585 0
0.534936 0.534646 0
0.634424 0.534508 0
0.733867 0.53463 0
0 0.634058 0
0.0366979 0.634195 0
0.13637 0.634272 0
0.235874 0.634134 0
0.335546 0.63418 0
0.435248 0.634241 0
0.53492 0.634318 0
0.634424 0.634165 0
0.733852 0.634302 0
0 0.733654 0
0.03682 0.733806 0
0.136507 0.733867 0
0.235996 0.73373 0
0.335683 0.733791 0
0.43537 0.733852 0
0.535027 0.733883 0
0.634546 0.733776 0
0.733989 0.733898 0
0 0 0.0364996
0.036286 0 0.0366522
0.135775 0 0.0365148
0.235462 0 0.0365606
0.335134 0 0.0366369
0.434684 0 0.0365301
0.53431 0 0.0365606
0.634012 0 0.0366217
0.733349 0 0.0366522
0 0.0364385 0.0368353
0.0365301 0.0364843 0.0368811
0.13611 0.0364538 0.0368505
0.235798 0.0365148 0.0369116
0.33547 0.0365759 0.0369726
0.434974 0.0364385 0.03682
0.534646 0.0364996 0.0368963
0.634348 0.0365606 0.0369421
0.733577 0.0364843 0.0368811
0 0.13608 0.0369116
0.0364996 0.136019 0.0368505
0.136172 0.13608 0.0369116
0.235874 0.136141 0.0369726
0.335546 0.136202 0.0370336
0.43505 0.136065 0.0368963
0.534722 0.136126 0.0369573
0.634424 0.136187 0.0370184
0.733654 0.13611 0.0369573
0 0.235721 0.0369421
0.0365148 0.235676 0.0368811
0.136202 0.235737 0.0369421
0.235889 0.235798 0.0370031
0.335378 0.235645 0.0368658
0.435065 0.235706 0.0369268
0.534737 0.235782 0.0369879
0.63444 0.235828 0.0370489
0.733684 0.235767 0.0369726
0 0.335348 0.0370336
0.0366064 0.335286 0.0369726
0.136294 0.335348 0.0370336
0.235996 0.335409 0.0370947
0.33547 0.335271 0.0369573
0.435157 0.335332 0.0370184
0.534844 0.335409 0.0370794
0.634455 0.335378 0.0370642
0.733776 0.335393 0.0370642
0 0.434913 0.0369421
0.0366217 0.434943 0.0369879
0.136294 0.435004 0.0370489
0.235981 0.43505 0.0370794
0.33547 0.434928 0.0369573
0.435172 0.434989 0.0370184
0.534844 0.435065 0.0370947
0.634348 0.434913 0.0369421
0.733776 0.43505 0.0370794
0 0.534417 0.0369421
0.0367285 0.534569 0.0370947
0.136416 0.53463 0.0371557
0.235981 0.534554 0.0370794
0.335576 0.534554 0.0370794
0.435279 0.534615 0.0371405
0.534905 0.534615 0.0371405
0.634455 0.534524 0.0370642
0.733883 0.534661 0.0371862
0 0.634089 0.0369421
0.0367285 0.634226 0.0370794
0.1364 0.634287 0.0371405
0.235889 0.63415 0.0370031
0.335576 0.634211 0.0370642
0.435279 0.634272 0.0371252
0.534783 0.634165 0.0370184
0.63444 0.634195 0.0370489
0.733883 0.634333 0.0371862
0 0.733684 0.0370642
0.0368505 0.733837 0.0372168
0.136538 0.733898 0.0372778
0.236027 0.733761 0.0371405
0.335698 0.733822 0.0372015
0.435401 0.733883 0.0372625
0.534874 0.733745 0.0371252
0.634577 0.733806 0.0371862
0.734005 0.733928 0.0373083
0 0 0.136675
0.0362249 0 0.136782
0.13576 0 0.13669
0.235447 0 0.136751
0.335119 0 0.136812
0.434623 0 0.136675
0.534295 0 0.136736
0.633997 0 0.136797
0.733288 0 0.136782
0 0.0364233 0.137011
0.0364538 0.0364233 0.137011
0.13608 0.0364385 0.137026
0.235782 0.0364996 0.137087
0.335378 0.0364843 0.137072
0.434958 0.036408 0.137011
0.53463 0.0364843 0.137072
0.634333 0.0365301 0.137133
0.733562 0.0364691 0.137057
0 0.136049 0.137087
0.0364691 0.136004 0.137026
0.136156 0.136065 0.137087
0.235859 0.136126 0.137148
0.335348 0.136004 0.137026
0.435035 0.136049 0.137072
0.534707 0.13611 0.137133
0.634287 0.136065 0.137087
0.733639 0.136095 0.137133
0 0.235584 0.136995
0.0364996 0.235645 0.137057
0.136187 0.235706 0.137118
0.235874 0.235767 0.137179
0.335363 0.23563 0.137041
0.43505 0.235691 0.137102
0.534722 0.235767 0.137163
0.634226 0.235615 0.137026
0.733669 0.235752 0.137148
0 0.335134 0.137011
0.0365911 0.335271 0.137148
0.136278 0.335332 0.137209
0.235966 0.335393 0.13727
0.335454 0.335256 0.137133
0.435142 0.335317 0.137194
0.534813 0.335378 0.137255
0.634318 0.335241 0.137118
0.733761 0.335378 0.137255
0 0.434791 0.137011
0.0366064 0.434928 0.137163
0.136278 0.434989 0.137224
0.235782 0.434852 0.137072
0.335454 0.434913 0.137148
0.435157 0.434974 0.137194
0.534829 0.435035 0.13727
0.634333 0.434897 0.137118
0.733761 0.435035 0.137255
0 0.534401 0.137118
0.0367132 0.534554 0.13727
0.1364 0.534615 0.137331
0.235889 0.534478 0.137194
0.335561 0.534539 0.137255
0.435264 0.5346 0.137316
0.534829 0.534554 0.13727
0.63444 0.534508 0.13724
0.733867 0.534646 0.137362
0 0.634073 0.137118
0.0367132 0.634211 0.137255
0.136339 0.634226 0.13727
0.235874 0.634134 0.137179
0.335561 0.634195 0.13724
0.435248 0.634256 0.137301
0.534722 0.634119 0.137163
0.634424 0.63418 0.137224
0.733867 0.634318 0.137362
0 0.733669 0.13724
0.0368353 0.733822 0.137392
0.13637 0.73373 0.137301
0.236011 0.733745 0.137316
0.335683 0.733806 0.137377
0.435309 0.733776 0.137346
0.534859 0.73373 0.137301
0.634562 0.733791 0.137362
0.733989 0.733913 0.137484
0 0 0.236667
0.0360723 0 0.236606
0.135744 0 0.236667
0.235447 0 0.236728
0.335103 0 0.236789
0.434623 0 0.236652
0.534295 0 0.236713
0.633997 0 0.236774
0.733227 0 0.236713
0 0.0364233 0.237003
0.036408 0.0363622 0.236942
0.13608 0.0364385 0.237003
0.235782 0.0364843 0.237064
0.335256 0.036347 0.236927
0.434958 0.036408 0.236988
0.53463 0.0364843 0.237049
0.634287 0.0364843 0.237064
0.733562 0.0364691 0.237049
0 0.135988 0.237018
0.0364691 0.136004 0.237018
0.136156 0.136065 0.237079
0.235843 0.136126 0.23714
0.335332 0.135988 0.237003
0.435019 0.136049 0.237064
0.534691 0.13611 0.237125
0.634241 0.136004 0.237018
0.733639 0.136095 0.23711
0 0.235538 0.236927
0.0364996 0.235645 0.237049
0.136187 0.235706 0.23711
0.235782 0.235676 0.237064
0.335348 0.23563 0.237034
0.43505 0.235691 0.237095
0.534722 0.235752 0.237156
0.634226 0.235615 0.237018
0.733654 0.235752 0.23714
0 0.335134 0.236988
0.0365911 0.335271 0.23714
0.136278 0.335332 0.237201
0.235767 0.335195 0.237064
0.335439 0.335256 0.237125
0.435142 0.335317 0.237186
0.534676 0.335241 0.23711
0.634318 0.335241 0.23711
0.733745 0.335363 0.237232
0 0.434791 0.237003
0.0366064 0.434928 0.23714
0.136278 0.434989 0.237201
0.235782 0.434852 0.237064
0.335454 0.434913 0.237125
0.435157 0.434974 0.237186
0.53463 0.434836 0.237049
0.634333 0.434897 0.23711
0.733761 0.435035 0.237247
0 0.534401 0.23711
0.0367132 0.534539 0.237263
0.1364 0.534615 0.237324
0.235889 0.534463 0.237186
0.335561 0.534539 0.237247
0.435264 0.534585 0.237308
0.534737 0.534447 0.237171
0.63444 0.534508 0.237217
0.733867 0.534646 0.237354
0 0.634058 0.237095
0.0366979 0.634211 0.237247
0.136187 0.634073 0.23711
0.235874 0.634134 0.237171
0.335561 0.634195 0.237232
0.435233 0.634241 0.237263
0.534722 0.634119 0.237156
0.634424 0.63418 0.237217
0.733867 0.634302 0.237339
0 0.733669 0.237232
0.0368353 0.733822 0.237385
0.136324 0.733684 0.237247
0.236011 0.733745 0.237308
0.335683 0.733806 0.237369
0.435248 0.73373 0.237293
0.534859 0.73373 0.237293
0.634562 0.733791 0.237339
0.733928 0.733852 0.237415
0 0 0.336843
0.0360571 0 0.336782
0.135729 0 0.336843
0.235431 0 0.336904
0.334905 0 0.336767
0.434607 0 0.336828
0.534279 0 0.336889
0.633783 0 0.336751
0.733211 0 0.336889
0 0.0362097 0.336965
0.0363928 0.036347 0.337118
0.136065 0.0364233 0.337179
0.235767 0.0364691 0.33724
0.335241 0.0363317 0.337102
0.434943 0.0363928 0.337163
0.534615 0.0364691 0.337224
0.634119 0.0363165 0.337087
0.733547 0.0364538 0.337209
0 0.135836 0.337041
0.0364538 0.135988 0.337194
0.136141 0.136049 0.337255
0.235798 0.136065 0.33727
0.335317 0.135973 0.337179
0.435004 0.136034 0.33724
0.534676 0.136095 0.337301
0.63418 0.135958 0.337163
0.733608 0.13608 0.337285
0 0.235492 0.337072
0.0364843 0.23563 0.337224
0.136172 0.235691 0.337285
0.23566 0.235554 0.337133
0.335332 0.235615 0.337209
0.435035 0.235676 0.33727
0.53463 0.235676 0.337255
0.634211 0.235599 0.337179
0.733639 0.235737 0.337316
0 0.335119 0.337163
0.0365759 0.335256 0.337316
0.136248 0.335302 0.337362
0.235752 0.33518 0.337224
0.335424 0.335241 0.337301
0.435126 0.335302 0.337362
0.534615 0.33518 0.33724
0.634302 0.335225 0.337285
0.73373 0.335348 0.337407
0 0.434775 0.337179
0.0365911 0.434913 0.337316
0.136141 0.434852 0.337255
0.235752 0.434836 0.33724
0.335439 0.434897 0.337301
0.435142 0.434958 0.337362
0.5346 0.434821 0.337224
0.634318 0.434882 0.337285
0.733745 0.435004 0.337407
0 0.534386 0.337285
0.0366979 0.534524 0.337423
0.136187 0.534386 0.337285
0.235874 0.534447 0.337346
0.335546 0.534508 0.337423
0.435096 0.534417 0.337316
0.534722 0.534432 0.337331
0.634424 0.534493 0.337392
0.733852 0.53463 0.33753
0 0.634043 0.33727
0.0366827 0.634195 0.337423
0.136172 0.634058 0.337285
0.235859 0.634119 0.337346
0.335546 0.63418 0.337407
0.435035 0.634043 0.33727
0.534707 0.634104 0.337331
0.634409 0.634165 0.337392
0.733837 0.634287 0.337514
0 0.733654 0.337407
0.0368048 0.733791 0.337545
0.136294 0.733669 0.337407
0.235996 0.73373 0.337469
0.335668 0.733791 0.337545
0.435172 0.733654 0.337392
0.534844 0.733715 0.337453
0.634546 0.733776 0.337514
0.733776 0.7337 0.337453
0 0 0.436683
0.0360571 0 0.436774
0.135729 0 0.436835
0.235355 0 0.43682
0.334905 0 0.436759
0.434607 0 0.43682
0.534279 0 0.436881
0.633768 0 0.436744
0.733211 0 0.436866
0 0.0362097 0.436957
0.0363928 0.036347 0.43711
0.136065 0.036408 0.437171
0.235584 0.0363012 0.437049
0.335241 0.0363317 0.437095
0.434928 0.0363928 0.437156
0.534615 0.0364538 0.437217
0.634119 0.0363165 0.437079
0.733547 0.0364538 0.437201
0 0.135836 0.437034
0.0364538 0.135988 0.437171
0.136141 0.136049 0.437247
0.23563 0.135897 0.437095
0.335317 0.135973 0.437171
0.435004 0.136019 0.437217
0.534478 0.135897 0.437095
0.63418 0.135943 0.43714
0.733608 0.13608 0.437278
0 0.235477 0.437064
0.0364843 0.23563 0.437201
0.136172 0.235691 0.437263
0.23566 0.235554 0.437125
0.335332 0.235615 0.437186
0.435035 0.235676 0.437247
0.534508 0.235538 0.43711
0.634211 0.235599 0.437171
0.733639 0.235721 0.437308
0 0.335103 0.437156
0.0365759 0.335256 0.437293
0.136202 0.335256 0.437293
0.235752 0.33518 0.437217
0.335424 0.335241 0.437278
0.435126 0.335302 0.437339
0.5346 0.335164 0.437201
0.634302 0.335225 0.437263
0.73373 0.335348 0.4374
0 0.43476 0.437156
0.0365759 0.434913 0.437308
0.136065 0.434775 0.437171
0.235752 0.434836 0.437232
0.335439 0.434897 0.437293
0.435035 0.434867 0.437247
0.5346 0.434821 0.437217
0.634318 0.434882 0.437278
0.733715 0.434989 0.437369
0 0.534386 0.437263
0.0366522 0.534493 0.437385
0.136172 0.534386 0.437278
0.235874 0.534447 0.437339
0.335546 0.534508 0.4374
0.43505 0.534371 0.437263
0.534722 0.534432 0.437324
0.634424 0.534493 0.437385
0.733715 0.534493 0.437385
0 0.634043 0.437263
0.0365301 0.634043 0.437263
0.136172 0.634058 0.437263
0.235859 0.634119 0.437324
0.335531 0.63418 0.4374
0.435035 0.634043 0.437247
0.534707 0.634104 0.437308
0.634409 0.634165 0.437369
0.733639 0.634089 0.437308
0 0.733654 0.4374
0.0366217 0.733593 0.437339
0.136294 0.733669 0.4374
0.235996 0.733715 0.437461
0.335485 0.733608 0.437339
0.435172 0.733639 0.437385
0.534844 0.733715 0.437446
0.634546 0.733761 0.437507
0.733776 0.7337 0.43743
0 0 0.536797
0.0360418 0 0.53695
0.135714 0 0.537011
0.235294 0 0.53695
0.33489 0 0.536934
0.434592 0 0.536995
0.534218 0 0.537011
0.633753 0 0.536919
0.733196 0 0.537041
0 0.0361944 0.537133
0.0363622 0.0363317 0.537285
0.136049 0.0363928 0.537346
0.235538 0.0362554 0.537209
0.335225 0.0363165 0.53727
0.434913 0.0363775 0.537331
0.534447 0.036286 0.53724
0.634089 0.0363012 0.537255
0.733532 0.0364385 0.537377
0 0.135821 0.537209
0.0364385 0.135973 0.537362
0.136034 0.135943 0.537331
0.235615 0.135882 0.53727
0.335302 0.135958 0.537346
0.434989 0.136004 0.537392
0.534463 0.135882 0.53727
0.634165 0.135927 0.537316
0.733593 0.136065 0.537453
0 0.235462 0.53724
0.0364691 0.235615 0.537377
0.135958 0.235477 0.53724
0.235645 0.235538 0.537301
0.335317 0.235599 0.537362
0.435019 0.23566 0.537423
0.534493 0.235523 0.537285
0.634195 0.235584 0.537346
0.733623 0.235706 0.537484
0 0.335088 0.537331
0.0365606 0.335241 0.537469
0.136049 0.335103 0.537331
0.235737 0.335164 0.537392
0.335409 0.335225 0.537469
0.434913 0.335088 0.537316
0.534585 0.335149 0.537377
0.634287 0.33521 0.537438
0.733715 0.335332 0.537575
0 0.434745 0.537331
0.0365606 0.434897 0.537484
0.136049 0.43476 0.537346
0.235737 0.434821 0.537408
0.335424 0.434882 0.537469
0.434913 0.434745 0.537331
0.534585 0.434806 0.537392
0.634287 0.434867 0.537453
0.733654 0.434913 0.537499
0 0.534371 0.537453
0.0365911 0.534432 0.537514
0.136156 0.534371 0.537453
0.235859 0.534432 0.537514
0.335515 0.534478 0.53756
0.435035 0.534356 0.537438
0.534707 0.534417 0.537499
0.634409 0.534478 0.53756
0.733639 0.534401 0.537484
0 0.634028 0.537438
0.0364691 0.633982 0.537377
0.136156 0.634043 0.537453
0.235843 0.634104 0.537499
0.335393 0.634043 0.537453
0.435019 0.634012 0.537423
0.534691 0.634089 0.537499
0.634348 0.634089 0.537499
0.733623 0.634073 0.537484
0 0.733577 0.537499
0.0366064 0.733577 0.537514
0.136278 0.733654 0.537575
0.235981 0.7337 0.537636
0.335454 0.733562 0.537499
0.435157 0.733623 0.53756
0.534829 0.7337 0.537621
0.634363 0.733593 0.53753
0.733761 0.733684 0.537606
0 0 0.63679
0.0360266 0 0.636942
0.135714 0 0.637003
0.235203 0 0.636866
0.33489 0 0.636927
0.434577 0 0.636988
0.534051 0 0.636851
0.633753 0 0.636896
0.733196 0 0.637034
0 0.0361791 0.637125
0.0363622 0.0363317 0.637278
0.136019 0.0363622 0.637308
0.235538 0.0362554 0.637186
0.335225 0.0363165 0.637263
0.434913 0.0363775 0.637308
0.534386 0.0362402 0.637186
0.634089 0.0363012 0.637232
0.733532 0.0364233 0.637369
0 0.135821 0.637201
0.0364385 0.135958 0.637339
0.135973 0.135882 0.637263
0.235615 0.135882 0.637263
0.335286 0.135958 0.637324
0.434928 0.135943 0.637324
0.534463 0.135882 0.637247
0.634165 0.135927 0.637308
0.733593 0.136065 0.637446
0 0.235462 0.637217
0.0364691 0.235615 0.637369
0.135943 0.235477 0.637232
0.235645 0.235538 0.637293
0.335317 0.235599 0.637354
0.434836 0.235477 0.637232
0.534493 0.235523 0.637278
0.634195 0.235584 0.637339
0.733516 0.235599 0.637369
0 0.335088 0.637308
0.0364385 0.335119 0.637339
0.136034 0.335103 0.637324
0.235737 0.335164 0.637385
0.335409 0.335225 0.637446
0.434913 0.335088 0.637308
0.534585 0.335149 0.637369
0.634287 0.33521 0.63743
0.733516 0.335134 0.637354
0 0.434745 0.637324
0.0363622 0.434699 0.637263
0.136049 0.43476 0.637339
0.235737 0.434821 0.637385
0.335424 0.434882 0.637461
0.434913 0.434745 0.637308
0.534585 0.434806 0.637385
0.634287 0.434867 0.63743
0.733516 0.434791 0.637369
0 0.534356 0.63743
0.0364843 0.53431 0.637385
0.136156 0.534371 0.637446
0.235859 0.534432 0.637507
0.335332 0.534295 0.637369
0.435035 0.534356 0.63743
0.534707 0.534417 0.637491
0.634409 0.534478 0.637552
0.733639 0.534401 0.637476
0 0.634028 0.637415
0.0364691 0.633967 0.637369
0.136156 0.634043 0.63743
0.235843 0.634104 0.637491
0.335317 0.633967 0.637354
0.435019 0.634012 0.637415
0.534691 0.634089 0.637476
0.634287 0.634043 0.637446
0.733623 0.634073 0.637461
0 0.733516 0.637446
0.0366064 0.733577 0.637507
0.136278 0.733639 0.637568
0.235935 0.733669 0.637583
0.335454 0.733562 0.637491
0.435142 0.733623 0.637552
0.534829 0.733684 0.637613
0.634333 0.733547 0.637476
0.733761 0.733684 0.637598
0 0 0.736492
0.0360571 0 0.736645
0.135561 0 0.736538
0.235233 0 0.736568
0.334905 0 0.736629
0.434607 0 0.73669
0.534081 0 0.736553
0.633783 0 0.736614
0.733211 0 0.736736
0 0.0362097 0.736828
0.0363928 0.036347 0.73698
0.135866 0.0362097 0.736843
0.235569 0.0362707 0.736904
0.335241 0.0363317 0.736965
0.434928 0.0363928 0.737026
0.534417 0.0362707 0.736889
0.634119 0.0363165 0.73695
0.733547 0.0364538 0.737072
0 0.135836 0.736904
0.0364538 0.135988 0.737057
0.135943 0.135851 0.736919
0.23563 0.135912 0.73698
0.335317 0.135973 0.737041
0.434806 0.135836 0.736889
0.534478 0.135897 0.736965
0.63418 0.135958 0.737011
0.733577 0.136034 0.737102
0 0.235492 0.736934
0.0364385 0.235584 0.737026
0.135973 0.235492 0.736934
0.23566 0.235554 0.736996
0.335348 0.235615 0.737072
0.434836 0.235477 0.736919
0.534508 0.235538 0.736996
0.634211 0.235599 0.737041
0.733486 0.235584 0.737026
0 0.335103 0.737026
0.036408 0.335088 0.737011
0.136065 0.335119 0.737026
0.235752 0.33518 0.737087
0.335348 0.335149 0.737072
0.434928 0.335103 0.737011
0.5346 0.335164 0.737087
0.634302 0.335225 0.737133
0.733532 0.335149 0.737072
0 0.434775 0.737026
0.0363928 0.434714 0.73698
0.136065 0.434775 0.737041
0.235767 0.434836 0.737102
0.335241 0.434699 0.736965
0.434928 0.43476 0.737026
0.534615 0.434821 0.737087
0.63418 0.434745 0.737011
0.733547 0.434806 0.737072
0 0.534249 0.737011
0.0364996 0.534325 0.737087
0.136172 0.534386 0.737148
0.235874 0.534447 0.737209
0.335348 0.53431 0.737072
0.43505 0.534371 0.737133
0.534722 0.534447 0.737194
0.634226 0.534295 0.737057
0.733654 0.534432 0.737194
0 0.633844 0.736934
0.0364843 0.633997 0.737087
0.136172 0.634058 0.737148
0.235859 0.634119 0.737209
0.335348 0.633982 0.737072
0.435035 0.634043 0.737118
0.534707 0.634104 0.737194
0.634211 0.633967 0.737041
0.733639 0.634089 0.737179
0 0.733455 0.737072
0.0366217 0.733608 0.737209
0.136309 0.733669 0.73727
0.235798 0.733516 0.737133
0.33547 0.733593 0.737194
0.435172 0.733639 0.737255
0.534829 0.7337 0.737301
0.634348 0.733562 0.737179
0.733379 0.733303 0.736904
