public/LUTS/Darken/Darken_05.cube
TITLE "Generated by Resolve"
LUT_3D_SIZE 9
0 0 0
0.0463264 0 0
0.18201 0 0
0.317937 0 0
0.453864 0 0
0.589822 0 0
0.72546 0 0
0.861418 0 0
0.997009 0 0
0 0.04654 0
0.0467842 0.0467384 0
0.182437 0.04654 0
0.318395 0.0466316 0
0.454322 0.0467231 0
0.590005 0.0465248 0
0.725917 0.0466163 0
0.861875 0.0466926 0
0.997467 0.0468605 0
0 0.182406 0
0.0468757 0.182605 0
0.182544 0.182406 0
0.318486 0.182498 0
0.454414 0.182574 0
0.590097 0.182391 0
0.726024 0.182483 0
0.861982 0.182559 0
0.997497 0.18265 0
0 0.318288 0
0.0468299 0.318395 0
0.182574 0.318303 0
0.318532 0.318379 0
0.454459 0.318471 0
0.590127 0.318273 0
0.726055 0.318364 0
0.862013 0.318441 0
0.99733 0.318349 0
0 0.454139 0
0.0467689 0.454063 0
0.182712 0.454154 0
0.318654 0.454231 0
0.454429 0.454185 0
0.590265 0.454124 0
0.726177 0.454215 0
0.862104 0.454246 0
0.997452 0.4542 0
0 0.589975 0
0.0467842 0.58996 0
0.182712 0.590051 0
0.318654 0.590127 0
0.454322 0.589944 0
0.590265 0.590021 0
0.726192 0.590112 0
0.861952 0.590005 0
0.997467 0.590097 0
0 0.725673 0
0.0469368 0.725811 0
0.182864 0.725902 0
0.318807 0.725978 0
0.454475 0.725795 0
0.590417 0.725872 0
0.726345 0.725963 0
0.862028 0.725765 0
0.99762 0.725948 0
0 0.861509 0
0.0469215 0.861723 0
0.182849 0.861799 0
0.318532 0.861616 0
0.454459 0.861692 0
0.590402 0.861784 0
0.726329 0.86186 0
0.862013 0.861677 0
0.997604 0.861845 0
0 0.997345 0
0.0471046 0.997543 0
0.183032 0.997635 0
0.3187 0.997436 0
0.454627 0.997528 0
0.590585 0.997604 0
0.726467 0.997665 0
0.862196 0.997497 0
0.997787 0.997681 0
0 0 0.0466621
0.0463569 0 0.0468605
0.182025 0 0.0466621
0.317968 0 0.0467536
0.453895 0 0.0468299
0.589639 0 0.0466926
0.725505 0 0.0467231
0.861463 0 0.0468147
0.996933 0 0.0468605
0 0.0465705 0.0471199
0.0466926 0.0466468 0.0471809
0.182483 0.0465858 0.0471199
0.318425 0.0466621 0.0472114
0.454353 0.0467536 0.0472877
0.590036 0.0465553 0.0471046
0.725948 0.0466468 0.0471809
0.861921 0.0467231 0.0472725
0.997238 0.0466316 0.0471809
0 0.182437 0.0472114
0.0466468 0.182361 0.0471351
0.182574 0.182452 0.0472267
0.318532 0.182528 0.047303
0.454444 0.18262 0.0473945
0.590127 0.182422 0.0471962
0.726055 0.182513 0.0472877
0.862013 0.182589 0.047364
0.99733 0.182498 0.0472725
0 0.318334 0.0472419
0.0466773 0.318257 0.0471809
0.18262 0.318334 0.0472572
0.318563 0.318425 0.0473487
0.454215 0.318227 0.0471504
0.590173 0.318318 0.0472419
0.726085 0.318395 0.0473182
0.862058 0.318486 0.0473945
0.997375 0.318379 0.047303
0 0.454185 0.0473793
0.0468147 0.454109 0.047303
0.182742 0.454185 0.0473793
0.318685 0.454276 0.0474708
0.454337 0.454078 0.0472725
0.590295 0.45417 0.047364
0.726223 0.454261 0.0474556
0.862074 0.454215 0.0474098
0.997497 0.454246 0.0474403
0 0.589944 0.0472572
0.0468147 0.590005 0.047303
0.182742 0.590082 0.0473945
0.318669 0.590143 0.0474556
0.454353 0.58999 0.0472877
0.590311 0.590066 0.047364
0.726223 0.590158 0.0474556
0.861906 0.58996 0.0472572
0.997513 0.590143 0.0474403
0 0.725643 0.0472572
0.0469673 0.725841 0.0474708
0.182895 0.725933 0.0475471
0.318669 0.725841 0.0474556
0.454505 0.725826 0.0474403
0.590463 0.725902 0.0475166
0.726299 0.725917 0.0475319
0.862074 0.725795 0.0474098
0.997665 0.725978 0.0475929
0 0.861555 0.0472419
0.046952 0.861753 0.0474556
0.182895 0.861845 0.0475319
0.318563 0.861646 0.0473487
0.45449 0.861738 0.047425
0.590448 0.861814 0.0475013
0.726146 0.861677 0.047364
0.862058 0.861708 0.0473945
0.99765 0.861891 0.0475776
0 0.997391 0.047425
0.0471351 0.997589 0.0476234
0.183062 0.997665 0.047715
0.318746 0.997482 0.0475166
0.454673 0.997559 0.0476081
0.590631 0.99765 0.0476844
0.726268 0.997467 0.0475013
0.862226 0.997543 0.0475776
0.997833 0.997726 0.0477607
0 0 0.183261
0.0462806 0 0.183413
0.181994 0 0.183276
0.317952 0 0.183352
0.45388 0 0.183444
0.589563 0 0.183246
0.725475 0 0.183337
0.861433 0 0.183413
0.996841 0 0.183413
0 0.0465553 0.183719
0.0466011 0.0465553 0.183719
0.182452 0.0465553 0.183734
0.31841 0.0466468 0.18381
0.454231 0.0466316 0.183795
0.590021 0.04654 0.183703
0.725933 0.0466316 0.183795
0.861891 0.0467079 0.183871
0.997208 0.0466011 0.18378
0 0.182422 0.183825
0.0466163 0.182345 0.183734
0.182559 0.182422 0.183825
0.318502 0.182513 0.183917
0.454185 0.182345 0.183749
0.590112 0.182406 0.18381
0.726024 0.182483 0.183886
0.861845 0.182422 0.183825
0.997314 0.182483 0.183871
0 0.318135 0.183688
0.0466621 0.318227 0.18378
0.182589 0.318318 0.183871
0.318547 0.318395 0.183948
0.4542 0.318212 0.183764
0.590143 0.318288 0.183841
0.72607 0.318379 0.183932
0.861753 0.318181 0.183734
0.997345 0.318364 0.183917
0 0.45388 0.183703
0.0467842 0.454078 0.183902
0.182712 0.45417 0.183993
0.318669 0.454246 0.18407
0.454322 0.454063 0.183886
0.59028 0.454139 0.183963
0.726192 0.454231 0.184054
0.861875 0.454032 0.183856
0.997482 0.454215 0.184039
0 0.589776 0.183719
0.0467994 0.58999 0.183917
0.182727 0.590066 0.183993
0.31841 0.589883 0.18381
0.454322 0.58996 0.183902
0.59028 0.590051 0.183978
0.726207 0.590127 0.18407
0.861891 0.589929 0.183871
0.997482 0.590112 0.184054
0 0.725628 0.183871
0.046952 0.725826 0.18407
0.182879 0.725902 0.184161
0.318563 0.725719 0.183963
0.454475 0.725811 0.184054
0.590433 0.725887 0.184131
0.726207 0.725826 0.18407
0.862043 0.72578 0.184024
0.997635 0.725963 0.184207
0 0.86154 0.183856
0.0469368 0.861738 0.184054
0.182803 0.861753 0.184085
0.318547 0.861631 0.183948
0.454459 0.861708 0.184039
0.590417 0.861799 0.184115
0.72607 0.861616 0.183932
0.862028 0.861692 0.184009
0.99762 0.86186 0.184192
0 0.99736 0.184039
0.0471199 0.997559 0.184237
0.182834 0.997436 0.184115
0.31873 0.997452 0.184131
0.454643 0.997543 0.184222
0.590494 0.997513 0.184192
0.726253 0.997436 0.184115
0.862211 0.997513 0.184192
0.997803 0.997696 0.184375
0 0 0.319615
0.046067 0 0.319539
0.181994 0 0.319631
0.317952 0 0.319707
0.453849 0 0.319768
0.589548 0 0.3196
0.725475 0 0.319692
0.861433 0 0.319768
0.99675 0 0.319677
0 0.0465553 0.320073
0.0465248 0.046479 0.319997
0.182452 0.0465553 0.320089
0.318395 0.0466468 0.320165
0.454063 0.0464485 0.319982
0.590021 0.04654 0.320058
0.725933 0.0466163 0.32015
0.86183 0.0466316 0.32015
0.997208 0.0466011 0.320119
0 0.18233 0.320089
0.0466163 0.18233 0.320089
0.182559 0.182422 0.32018
0.318502 0.182498 0.320256
0.454154 0.182315 0.320073
0.590112 0.182406 0.32015
0.726024 0.182483 0.320241
0.861769 0.182345 0.320104
0.997314 0.182467 0.320226
0 0.318074 0.319966
0.0466621 0.318227 0.320134
0.182589 0.318318 0.320211
0.31841 0.318257 0.320165
0.454185 0.318212 0.320104
0.590143 0.318288 0.320195
0.72607 0.318379 0.320272
0.861753 0.318181 0.320089
0.997345 0.318364 0.320256
0 0.45388 0.320058
0.0467842 0.454078 0.320256
0.182712 0.45417 0.320348
0.318395 0.453971 0.32015
0.454322 0.454063 0.320241
0.59028 0.454139 0.320317
0.726009 0.454047 0.320226
0.861875 0.454032 0.320211
0.997467 0.454215 0.320394
0 0.589776 0.320073
0.0467842 0.589975 0.320256
0.182727 0.590066 0.320348
0.318395 0.589868 0.320165
0.454322 0.58996 0.320241
0.59028 0.590036 0.320333
0.725933 0.589853 0.320134
0.861891 0.589929 0.320226
0.997482 0.590112 0.320394
0 0.725628 0.320226
0.0469368 0.725826 0.320424
0.182879 0.725902 0.3205
0.318563 0.725719 0.320317
0.454475 0.725795 0.320394
0.590433 0.725887 0.320485
0.726085 0.725704 0.320287
0.862043 0.72578 0.320378
0.997635 0.725963 0.320546
0 0.86154 0.320211
0.0469368 0.861723 0.320409
0.182589 0.86154 0.320211
0.318547 0.861631 0.320302
0.454459 0.861708 0.320378
0.590387 0.861769 0.320439
0.72607 0.861601 0.320272
0.862028 0.861692 0.320363
0.99762 0.86186 0.320531
0 0.99736 0.320394
0.0471199 0.997559 0.320592
0.182773 0.997375 0.320394
0.318715 0.997452 0.320485
0.454643 0.997543 0.320562
0.590417 0.997452 0.32047
0.726253 0.997436 0.320455
0.862211 0.997513 0.320546
0.997726 0.99762 0.320638
0 0 0.456214
0.0460365 0 0.456138
0.181979 0 0.45623
0.317922 0 0.456306
0.453574 0 0.456123
0.589532 0 0.456199
0.72546 0 0.456291
0.861158 0 0.456107
0.996735 0 0.456275
0 0.0462501 0.456397
0.0464942 0.0464485 0.456596
0.182437 0.04654 0.456687
0.318379 0.0466163 0.456764
0.454032 0.0464332 0.45658
0.58999 0.0465095 0.456657
0.725917 0.0466011 0.456748
0.861601 0.0464027 0.45655
0.997192 0.0465858 0.456733
0 0.182116 0.456489
0.0466011 0.182315 0.456703
0.182528 0.182406 0.456779
0.318425 0.182437 0.456809
0.454139 0.1823 0.456672
0.590097 0.182376 0.456764
0.726009 0.182467 0.45684
0.861692 0.182269 0.456657
0.997284 0.182452 0.456825
0 0.318013 0.456535
0.0466316 0.318212 0.456733
0.182574 0.318288 0.456825
0.318242 0.31809 0.456626
0.45417 0.318181 0.456718
0.590127 0.318273 0.456794
0.725948 0.318257 0.456779
0.861738 0.318166 0.456687
0.99733 0.318334 0.45687
0 0.453864 0.456657
0.0467536 0.454063 0.456855
0.182681 0.454124 0.456931
0.318364 0.453956 0.456748
0.454292 0.454032 0.45684
0.590249 0.454124 0.456916
0.725917 0.453956 0.456764
0.86186 0.454017 0.456809
0.997452 0.454185 0.456992
0 0.589761 0.456672
0.0467689 0.58996 0.45687
0.182528 0.589883 0.456779
0.318379 0.589853 0.456764
0.454307 0.589944 0.456855
0.590265 0.590021 0.456931
0.725902 0.589837 0.456748
0.861875 0.589914 0.456825
0.997452 0.590082 0.456992
0 0.725597 0.456825
0.0469215 0.725795 0.457023
0.182589 0.725612 0.45684
0.318532 0.725689 0.456916
0.454459 0.72578 0.457008
0.590188 0.725643 0.45687
0.726055 0.725673 0.456901
0.862028 0.72575 0.456977
0.997604 0.725933 0.457145
0 0.861509 0.456809
0.0469062 0.861708 0.457008
0.182574 0.861524 0.456825
0.318517 0.861601 0.456901
0.454444 0.861692 0.456992
0.590127 0.861494 0.456794
0.72604 0.861585 0.456886
0.862013 0.861662 0.456962
0.997589 0.861845 0.457145
0 0.997345 0.456992
0.0470741 0.997528 0.457176
0.182742 0.997345 0.457008
0.3187 0.997436 0.457084
0.454627 0.997528 0.457176
0.590311 0.99733 0.456977
0.726223 0.997421 0.457069
0.862181 0.997497 0.457145
0.997497 0.997391 0.457038
0 0 0.592371
0.0460365 0 0.592493
0.181979 0 0.592569
0.31783 0 0.592569
0.453574 0 0.592477
0.589532 0 0.592554
0.72546 0 0.592645
0.861143 0 0.592447
0.996735 0 0.59263
0 0.0462501 0.592752
0.0464942 0.0464485 0.59295
0.182437 0.04654 0.593042
0.318135 0.0463722 0.592874
0.454032 0.0464332 0.592935
0.58999 0.0465095 0.593011
0.725902 0.0466011 0.593103
0.861601 0.0464027 0.592905
0.997192 0.0465858 0.593072
0 0.182116 0.592844
0.0466011 0.182315 0.593042
0.182528 0.182406 0.593133
0.318196 0.182208 0.592935
0.454139 0.1823 0.593027
0.590082 0.182376 0.593103
0.725734 0.182193 0.59292
0.861692 0.182269 0.592996
0.997284 0.182452 0.593179
0 0.317998 0.592874
0.0466316 0.318196 0.593088
0.182574 0.318288 0.593164
0.318242 0.31809 0.592981
0.45417 0.318181 0.593057
0.590127 0.318257 0.593149
0.725765 0.318074 0.592966
0.861738 0.318166 0.593042
0.997314 0.318334 0.59321
0 0.453849 0.593011
0.0467536 0.454063 0.59321
0.182605 0.454063 0.59321
0.318364 0.453956 0.593103
0.454292 0.454032 0.593194
0.590249 0.454109 0.593271
0.725902 0.453925 0.593088
0.86186 0.454017 0.593164
0.997452 0.454185 0.593347
0 0.589761 0.593011
0.0467689 0.58996 0.59321
0.182422 0.589776 0.593027
0.318379 0.589853 0.593103
0.454307 0.589944 0.593194
0.590127 0.589883 0.593149
0.725902 0.589837 0.593088
0.86186 0.589914 0.593179
0.997421 0.590051 0.593317
0 0.725597 0.593164
0.0468757 0.72575 0.593317
0.182589 0.725612 0.593179
0.318532 0.725689 0.593271
0.454459 0.72578 0.593347
0.590143 0.725582 0.593164
0.726055 0.725673 0.59324
0.862028 0.72575 0.593332
0.997421 0.72575 0.593317
0 0.861509 0.593164
0.0467079 0.861509 0.593149
0.182574 0.861524 0.593164
0.318517 0.861601 0.593256
0.454444 0.861692 0.593332
0.590127 0.861494 0.593149
0.72604 0.861585 0.593225
0.862013 0.861662 0.593317
0.997314 0.86157 0.59321
0 0.997345 0.593347
0.0468147 0.997269 0.593256
0.182742 0.997345 0.593347
0.3187 0.997436 0.593423
0.454368 0.997269 0.593271
0.590311 0.99733 0.593332
0.726223 0.997406 0.593408
0.862181 0.997497 0.5935
0.997497 0.997391 0.593393
0 0 0.728893
0.0460212 0 0.729091
0.181949 0 0.729183
0.317739 0 0.729107
0.453559 0 0.729076
0.589502 0 0.729152
0.725368 0 0.729183
0.861112 0 0.729046
0.996704 0 0.729229
0 0.0462348 0.729351
0.046479 0.0464332 0.729549
0.182406 0.0465095 0.729641
0.31809 0.0463264 0.729442
0.454017 0.0464179 0.729534
0.58996 0.0464942 0.72961
0.725673 0.0463722 0.729503
0.86157 0.0463874 0.729503
0.997162 0.0465553 0.729686
0 0.182086 0.729458
0.0465705 0.1823 0.729656
0.182376 0.182254 0.72961
0.318181 0.182193 0.729549
0.454109 0.182269 0.729641
0.590066 0.182345 0.729717
0.725704 0.182162 0.729534
0.861662 0.182239 0.72961
0.997269 0.182422 0.729778
0 0.317983 0.729488
0.0466163 0.318181 0.729686
0.182269 0.317998 0.729503
0.318212 0.318074 0.72958
0.454154 0.318166 0.729671
0.590097 0.318242 0.729747
0.72575 0.318059 0.729564
0.861708 0.318135 0.729641
0.997299 0.318318 0.729824
0 0.453834 0.72961
0.0467384 0.454032 0.729809
0.182391 0.453849 0.729625
0.318349 0.453925 0.729702
0.454276 0.454017 0.729793
0.589944 0.453819 0.729595
0.725872 0.45391 0.729686
0.86183 0.453986 0.729778
0.997421 0.45417 0.729946
0 0.589731 0.729625
0.0467384 0.589929 0.729824
0.182406 0.589746 0.729641
0.318349 0.589822 0.729717
0.454276 0.589914 0.729809
0.58996 0.589715 0.72961
0.725887 0.589807 0.729702
0.861845 0.589883 0.729778
0.99733 0.58996 0.729854
0 0.725582 0.729778
0.0467842 0.725658 0.729854
0.182559 0.725582 0.729793
0.318502 0.725673 0.72987
0.454414 0.725734 0.729946
0.590112 0.725567 0.729763
0.72604 0.725658 0.729854
0.861997 0.725734 0.729931
0.997314 0.725628 0.729839
0 0.861479 0.729763
0.0466163 0.861418 0.729686
0.182544 0.861494 0.729778
0.318486 0.86157 0.729854
0.454246 0.861494 0.729778
0.590097 0.861463 0.729747
0.726024 0.861555 0.729839
0.861906 0.86157 0.729854
0.997299 0.86154 0.729824
0 0.997223 0.729854
0.0467842 0.997238 0.72987
0.182727 0.99733 0.729961
0.318669 0.997406 0.730037
0.454322 0.997223 0.729854
0.59028 0.997299 0.729931
0.726207 0.997391 0.730022
0.861952 0.997253 0.729885
0.997482 0.997375 0.730007
0 0 0.865248
0.0460212 0 0.865446
0.181949 0 0.865538
0.317632 0 0.865339
0.453544 0 0.865431
0.589502 0 0.865507
0.725155 0 0.865324
0.861112 0 0.8654
0.996704 0 0.865583
0 0.0462196 0.865705
0.046479 0.0464332 0.865904
0.182361 0.0464637 0.86595
0.318074 0.0463264 0.865797
0.454017 0.0464027 0.865888
0.58996 0.046479 0.865965
0.725612 0.0462959 0.865782
0.86157 0.0463722 0.865858
0.997162 0.0465553 0.866041
0 0.182086 0.865797
0.0465705 0.182284 0.865995
0.182315 0.182177 0.865888
0.318181 0.182177 0.865888
0.454109 0.182269 0.86598
0.589975 0.182254 0.865965
0.725704 0.182162 0.865873
0.861662 0.182239 0.86595
0.997253 0.182422 0.866133
0 0.317983 0.865843
0.0466163 0.318181 0.866041
0.182269 0.317983 0.865843
0.318212 0.318074 0.865934
0.454139 0.318166 0.866026
0.589853 0.317998 0.865858
0.72575 0.318059 0.865919
0.861708 0.318135 0.865995
0.997162 0.318166 0.866026
0 0.453834 0.865965
0.0465705 0.45388 0.866011
0.182391 0.453849 0.86598
0.318349 0.453925 0.866056
0.454276 0.454017 0.866148
0.589944 0.453819 0.86595
0.725872 0.45391 0.866041
0.86183 0.453986 0.866117
0.997147 0.453895 0.866026
0 0.589731 0.86598
0.0464637 0.589654 0.865904
0.182406 0.589746 0.865995
0.318349 0.589822 0.866072
0.454276 0.589914 0.866163
0.58996 0.589715 0.865965
0.725887 0.589807 0.866056
0.861845 0.589883 0.866133
0.997162 0.589792 0.866026
0 0.725567 0.866133
0.0466316 0.725505 0.866056
0.182559 0.725582 0.866148
0.318502 0.725673 0.866224
0.454154 0.725475 0.866041
0.590112 0.725567 0.866117
0.72604 0.725643 0.866209
0.861997 0.725719 0.866285
0.997314 0.725628 0.866194
0 0.861479 0.866117
0.0466163 0.861402 0.866041
0.182544 0.861494 0.866133
0.318486 0.86157 0.866209
0.454139 0.861387 0.866026
0.590097 0.861463 0.866102
0.726024 0.861555 0.866194
0.861845 0.861509 0.866133
0.997299 0.86154 0.866178
0 0.997162 0.866148
0.0467842 0.997238 0.866224
0.182727 0.99733 0.8663
0.318624 0.99736 0.866331
0.454322 0.997223 0.866209
0.59028 0.997299 0.866285
0.726207 0.997391 0.866377
0.861891 0.997192 0.866178
0.997482 0.997375 0.866346
0 0 1
0.0460517 0 1
0.18175 0 1
0.317647 0 1
0.453574 0 1
0.589532 0 1
0.725185 0 1
0.861143 0 1
0.996735 0 1
0 0.0462501 1
0.0465095 0.0464485 1
0.182162 0.0462654 1
0.318105 0.0463417 1
0.454032 0.0464332 1
0.589975 0.0465095 1
0.725643 0.0463264 1
0.861601 0.0464027 1
0.997192 0.0465858 1
0 0.182116 1
0.0466011 0.182315 1
0.182254 0.182132 1
0.318212 0.182208 1
0.454139 0.1823 1
0.589807 0.182101 1
0.725734 0.182193 1
0.861692 0.182269 1
0.997223 0.182391 1
0 0.318013 1
0.0465553 0.318135 1
0.1823 0.318013 1
0.318242 0.318105 1
0.45417 0.318196 1
0.589853 0.317998 1
0.72578 0.31809 1
0.861738 0.318166 1
0.997116 0.318135 1
0 0.453864 1
0.04654 0.453834 1
0.182422 0.453864 1
0.318364 0.453956 1
0.45417 0.45391 1
0.589975 0.453849 1
0.725902 0.453941 1
0.86186 0.454017 1
0.997177 0.453925 1
0 0.589761 1
0.0464942 0.589685 1
0.182422 0.589776 1
0.318379 0.589853 1
0.454032 0.58967 1
0.58999 0.589746 1
0.725902 0.589837 1
0.861692 0.589731 1
0.997192 0.589822 1
0 0.725414 1
0.0466468 0.725521 1
0.182589 0.725612 1
0.318532 0.725689 1
0.454185 0.725505 1
0.590143 0.725582 1
0.72607 0.725673 1
0.861753 0.725475 1
0.997345 0.725658 1
0 0.861234 1
0.0466316 0.861433 1
0.182574 0.861524 1
0.318517 0.861601 1
0.45417 0.861418 1
0.590127 0.861494 1
0.726055 0.861585 1
0.861738 0.861387 1
0.99733 0.86157 1
0 0.99707 1
0.0468147 0.997269 1
0.182757 0.99736 1
0.318425 0.997162 1
0.454353 0.997253 1
0.590311 0.99733 1
0.726207 0.997391 1
0.861906 0.997223 1
0.996963 0.996857 1
