public/LUTS/Darken/Darken_04.cube
TITLE "Generated by Resolve"
LUT_3D_SIZE 9
0 0 0
0.0628061 0 0
0.196216 0 0
0.32987 0 0
0.463523 0 0
0.597208 0 0
0.730587 0 0
0.864271 0 0
0.997604 0 0
0 0.0630045 0
0.0632486 0.0632029 0
0.196643 0.0630198 0
0.330312 0.0630961 0
0.463981 0.0631876 0
0.597391 0.0629892 0
0.731044 0.0630808 0
0.864729 0.0631571 0
0.998047 0.0633249 0
0 0.196597 0
0.0633402 0.196796 0
0.196735 0.196612 0
0.330419 0.196689 0
0.464073 0.19678 0
0.597482 0.196582 0
0.731136 0.196674 0
0.86482 0.19675 0
0.998077 0.196857 0
0 0.33022 0
0.0632944 0.330327 0
0.19678 0.330236 0
0.330449 0.330312 0
0.464103 0.330404 0
0.597513 0.330205 0
0.731167 0.330297 0
0.864851 0.330373 0
0.997909 0.330282 0
0 0.463798 0
0.0632334 0.463722 0
0.196902 0.463813 0
0.330571 0.46389 0
0.464088 0.463844 0
0.59765 0.463783 0
0.731289 0.463874 0
0.864942 0.463905 0
0.998047 0.463859 0
0 0.597375 0
0.0632486 0.59736 0
0.196902 0.597436 0
0.330587 0.597528 0
0.463966 0.597345 0
0.59765 0.597421 0
0.731304 0.597498 0
0.864805 0.597391 0
0.998047 0.597482 0
0 0.7308 0
0.0634012 0.730922 0
0.197055 0.731014 0
0.330739 0.73109 0
0.464118 0.730907 0
0.597803 0.730983 0
0.731456 0.731075 0
0.864881 0.730892 0
0.998199 0.73106 0
0 0.864363 0
0.063386 0.864561 0
0.19704 0.864652 0
0.330465 0.864469 0
0.464103 0.864546 0
0.597787 0.864622 0
0.731441 0.864713 0
0.864866 0.86453 0
0.998184 0.864698 0
0 0.997925 0
0.0635538 0.998123 0
0.197223 0.998215 0
0.330632 0.998016 0
0.464286 0.998108 0
0.597971 0.998184 0
0.731579 0.998245 0
0.865034 0.998093 0
0.998367 0.99826 0
0 0 0.0631266
0.0628367 0 0.0633249
0.196231 0 0.0631418
0.3299 0 0.0632181
0.463569 0 0.0632944
0.597025 0 0.0631723
0.730617 0 0.0632029
0.864317 0 0.0632792
0.997513 0 0.0633249
0 0.0630503 0.0635691
0.0631571 0.0631113 0.0636454
0.196674 0.0630503 0.0635843
0.330358 0.0631418 0.0636606
0.464012 0.0632181 0.0637522
0.597421 0.063035 0.0635538
0.731075 0.0631113 0.0636454
0.864759 0.0631876 0.0637217
0.997833 0.0631113 0.0636454
0 0.196643 0.0636759
0.0631113 0.196567 0.0635996
0.19678 0.196643 0.0636759
0.330449 0.196735 0.0637675
0.464103 0.196811 0.0638437
0.597528 0.196628 0.0636606
0.731167 0.196704 0.0637369
0.864866 0.196796 0.0638132
0.997925 0.196689 0.0637217
0 0.330251 0.0637064
0.0631571 0.33019 0.0636301
0.196811 0.330266 0.0637217
0.330495 0.330343 0.063798
0.463874 0.330159 0.0636149
0.597559 0.330236 0.0636912
0.731212 0.330327 0.0637827
0.864897 0.330404 0.063859
0.997955 0.330312 0.0637675
0 0.463844 0.0638285
0.0632792 0.463767 0.0637522
0.196933 0.463844 0.0638437
0.330617 0.463935 0.06392
0.463996 0.463752 0.0637369
0.597681 0.463828 0.0638132
0.731334 0.46392 0.0639048
0.864912 0.463874 0.0638743
0.998077 0.46389 0.0638895
0 0.597345 0.0637064
0.0632792 0.597391 0.0637675
0.196948 0.597482 0.0638437
0.330587 0.597528 0.0639048
0.464012 0.597375 0.0637522
0.597696 0.597452 0.0638285
0.73135 0.597543 0.06392
0.864759 0.597345 0.0637217
0.998093 0.597528 0.0638895
0 0.73077 0.0637217
0.0634318 0.730968 0.06392
0.197101 0.731044 0.0639963
0.330602 0.730953 0.0639048
0.464164 0.730953 0.0638895
0.597848 0.731029 0.0639811
0.731411 0.731044 0.0639811
0.864912 0.730922 0.0638743
0.998245 0.73109 0.0640421
0 0.864408 0.0637064
0.0634165 0.864607 0.0639048
0.197086 0.864683 0.0639811
0.330495 0.8645 0.063798
0.464149 0.864576 0.0638895
0.597833 0.864668 0.0639658
0.731258 0.86453 0.0638285
0.864897 0.864561 0.063859
0.99823 0.864729 0.0640269
0 0.997971 0.0638895
0.0635996 0.998169 0.0640879
0.197253 0.998245 0.0641642
0.330663 0.998062 0.0639811
0.464317 0.998138 0.0640574
0.598001 0.99823 0.0641337
0.73138 0.998047 0.0639658
0.86508 0.998123 0.0640421
0.998398 0.998291 0.06421
0 0 0.197452
0.0627604 0 0.197589
0.196216 0 0.197467
0.329885 0 0.197543
0.463539 0 0.19762
0.596963 0 0.197436
0.730602 0 0.197528
0.864302 0 0.197604
0.997436 0 0.197589
0 0.0630198 0.197894
0.0630655 0.0630198 0.197894
0.196658 0.063035 0.19791
0.330343 0.0631113 0.197986
0.46389 0.0630961 0.197971
0.597406 0.0630045 0.197879
0.731044 0.0630961 0.197971
0.864744 0.0631723 0.198047
0.997803 0.0630808 0.197955
0 0.196612 0.198001
0.0630961 0.196536 0.197925
0.19675 0.196628 0.198001
0.330434 0.196704 0.198093
0.463844 0.196551 0.197925
0.597498 0.196597 0.197986
0.731151 0.196689 0.198062
0.864683 0.196612 0.198001
0.997894 0.196674 0.198047
0 0.330068 0.197864
0.0631266 0.330159 0.197955
0.196796 0.330251 0.198047
0.330465 0.330327 0.198123
0.463859 0.330144 0.19794
0.597543 0.33022 0.198016
0.731182 0.330312 0.198108
0.864607 0.330114 0.19791
0.99794 0.330297 0.198093
0 0.463554 0.197879
0.0632486 0.463737 0.198077
0.196918 0.463828 0.198169
0.330587 0.463905 0.198245
0.463981 0.463722 0.198062
0.597665 0.463798 0.198138
0.731304 0.46389 0.19823
0.864729 0.463691 0.198032
0.998062 0.463874 0.198215
0 0.597177 0.197894
0.0632639 0.597375 0.198093
0.196918 0.597452 0.198169
0.330327 0.597269 0.197986
0.463981 0.597345 0.198077
0.597665 0.597436 0.198154
0.731319 0.597513 0.19823
0.864744 0.59733 0.198047
0.998062 0.597498 0.198215
0 0.730755 0.198047
0.0634165 0.730953 0.198245
0.19707 0.731029 0.198322
0.33048 0.730846 0.198138
0.464134 0.730922 0.198215
0.597818 0.730999 0.198306
0.731319 0.730953 0.198245
0.864897 0.730892 0.198199
0.998215 0.731075 0.198367
0 0.864393 0.198032
0.0634012 0.864591 0.19823
0.196994 0.864607 0.198245
0.330465 0.864485 0.198123
0.464118 0.864561 0.198215
0.597803 0.864637 0.198291
0.731182 0.864469 0.198108
0.864881 0.86453 0.198184
0.998199 0.864713 0.198352
0 0.997955 0.198215
0.0635843 0.998138 0.198413
0.197024 0.998016 0.198276
0.330648 0.998047 0.198306
0.464302 0.998123 0.198383
0.597879 0.998093 0.198352
0.731365 0.998032 0.198291
0.865049 0.998093 0.198367
0.998383 0.998276 0.198535
0 0 0.331518
0.0625467 0 0.331441
0.196201 0 0.331533
0.329885 0 0.331609
0.463523 0 0.331685
0.596948 0 0.331502
0.730602 0 0.331594
0.864286 0 0.33167
0.997345 0 0.331579
0 0.0630198 0.331975
0.0629892 0.0629435 0.331899
0.196658 0.063035 0.331975
0.330327 0.0631113 0.332052
0.463722 0.0629282 0.331884
0.597406 0.0630045 0.33196
0.731044 0.0630961 0.332036
0.864668 0.0631113 0.332052
0.997803 0.0630808 0.332021
0 0.196536 0.331991
0.0630808 0.196536 0.331991
0.19675 0.196628 0.332082
0.330419 0.196704 0.332158
0.463813 0.196521 0.331975
0.597498 0.196597 0.332052
0.731151 0.196689 0.332143
0.864622 0.196551 0.332006
0.997894 0.196674 0.332128
0 0.330007 0.331868
0.0631266 0.330159 0.332021
0.19678 0.330236 0.332113
0.330327 0.33019 0.332067
0.463844 0.330144 0.332006
0.597528 0.33022 0.332097
0.731182 0.330297 0.332174
0.864607 0.330114 0.331991
0.997925 0.330282 0.332158
0 0.463554 0.33196
0.0632486 0.463737 0.332158
0.196918 0.463828 0.332235
0.330327 0.463645 0.332052
0.463981 0.463722 0.332128
0.597665 0.463798 0.332219
0.731121 0.463706 0.332113
0.864729 0.463691 0.332113
0.998047 0.463874 0.33228
0 0.597177 0.33196
0.0632639 0.597375 0.332158
0.196918 0.597452 0.33225
0.330327 0.597269 0.332052
0.463981 0.597345 0.332143
0.597665 0.597436 0.332219
0.731044 0.597253 0.332036
0.864729 0.59733 0.332113
0.998062 0.597498 0.332296
0 0.730755 0.332113
0.0634012 0.730938 0.332311
0.19707 0.731029 0.332403
0.33048 0.730846 0.332204
0.464134 0.730922 0.332296
0.597818 0.730999 0.332372
0.731197 0.730816 0.332189
0.864881 0.730892 0.332265
0.998215 0.731075 0.332448
0 0.864378 0.332097
0.063386 0.864576 0.332296
0.19678 0.864393 0.332113
0.330465 0.864485 0.332189
0.464118 0.864561 0.33228
0.597772 0.864607 0.332326
0.731182 0.864454 0.332174
0.864866 0.86453 0.33225
0.998199 0.864713 0.332433
0 0.99794 0.33228
0.0635691 0.998138 0.332479
0.196963 0.997955 0.332296
0.330648 0.998032 0.332372
0.464302 0.998123 0.332464
0.597803 0.998032 0.332357
0.731365 0.998016 0.332357
0.865049 0.998093 0.332433
0.998306 0.998199 0.332525
0 0 0.465843
0.0625162 0 0.465766
0.196185 0 0.465858
0.329854 0 0.465934
0.463249 0 0.465751
0.596933 0 0.465827
0.730587 0 0.465919
0.864012 0 0.465736
0.99733 0 0.465904
0 0.0627298 0.466026
0.062974 0.0629282 0.466209
0.196628 0.0630045 0.4663
0.330312 0.0630808 0.466377
0.463691 0.0629129 0.466194
0.597375 0.0629892 0.46627
0.731029 0.0630655 0.466361
0.864454 0.0628824 0.466178
0.997772 0.0630503 0.466346
0 0.196323 0.466117
0.0630655 0.196521 0.466316
0.196735 0.196597 0.466392
0.330358 0.196628 0.466423
0.463798 0.196506 0.4663
0.597482 0.196582 0.466377
0.731121 0.196658 0.466453
0.864546 0.196475 0.46627
0.997864 0.196643 0.466438
0 0.329946 0.466163
0.0630961 0.330129 0.466346
0.196765 0.33022 0.466438
0.330175 0.330037 0.466239
0.463828 0.330114 0.466331
0.597513 0.330205 0.466407
0.73106 0.33019 0.466392
0.864576 0.330098 0.4663
0.997909 0.330266 0.466484
0 0.463523 0.466285
0.0632334 0.463722 0.466468
0.196872 0.463783 0.466545
0.330297 0.463615 0.466361
0.463951 0.463706 0.466453
0.597635 0.463783 0.466529
0.731044 0.463615 0.466377
0.864713 0.463676 0.466423
0.998032 0.463844 0.466606
0 0.597147 0.466285
0.0632334 0.597345 0.466484
0.196735 0.597269 0.466407
0.330297 0.597238 0.466377
0.463966 0.59733 0.466468
0.59765 0.597406 0.466545
0.731029 0.597223 0.466361
0.864713 0.597299 0.466438
0.998032 0.597482 0.466606
0 0.730724 0.466438
0.063386 0.730922 0.466636
0.19678 0.730739 0.466453
0.330449 0.730816 0.466529
0.464118 0.730907 0.466621
0.597589 0.73077 0.466484
0.731182 0.7308 0.466514
0.864866 0.730877 0.46659
0.998184 0.731044 0.466758
0 0.864363 0.466423
0.0633707 0.864561 0.466621
0.196765 0.864378 0.466438
0.330449 0.864454 0.466514
0.464103 0.864546 0.466606
0.597513 0.864347 0.466407
0.731167 0.864439 0.466499
0.864851 0.864515 0.466575
0.998169 0.864683 0.466743
0 0.997925 0.466606
0.0635386 0.998108 0.466789
0.196948 0.99794 0.466606
0.330617 0.998016 0.466697
0.464271 0.998108 0.466773
0.597696 0.997909 0.46659
0.731334 0.998001 0.466667
0.865034 0.998077 0.466758
0.998077 0.997986 0.466651
0 0 0.599725
0.0625162 0 0.599832
0.196185 0 0.599924
0.329763 0 0.599908
0.463249 0 0.599817
0.596933 0 0.599893
0.730587 0 0.599985
0.863996 0 0.599786
0.99733 0 0.59997
0 0.0627298 0.600092
0.062974 0.0629282 0.60029
0.196628 0.0630045 0.600381
0.330068 0.0628519 0.600214
0.463691 0.0628977 0.600275
0.597375 0.062974 0.600351
0.731029 0.0630655 0.600443
0.864454 0.0628824 0.600244
0.997772 0.0630503 0.600412
0 0.196323 0.600183
0.0630655 0.196521 0.600381
0.196735 0.196597 0.600473
0.330129 0.196414 0.600275
0.463798 0.196506 0.600366
0.597467 0.196582 0.600443
0.730861 0.196399 0.600259
0.864546 0.196475 0.600336
0.997864 0.196643 0.600519
0 0.329931 0.600229
0.0630961 0.330129 0.600427
0.196765 0.33022 0.600504
0.330175 0.330022 0.60032
0.463828 0.330114 0.600397
0.597513 0.33019 0.600473
0.730892 0.330007 0.600305
0.864576 0.330098 0.600381
0.997909 0.330266 0.600549
0 0.463523 0.600351
0.0632181 0.463722 0.600549
0.196811 0.463722 0.600549
0.330297 0.463615 0.600443
0.463951 0.463706 0.600519
0.597635 0.463783 0.600595
0.731014 0.4636 0.600427
0.864698 0.463676 0.600504
0.998032 0.463844 0.600671
0 0.597147 0.600351
0.0632334 0.597345 0.600549
0.196628 0.597162 0.600366
0.330297 0.597238 0.600443
0.463966 0.59733 0.600534
0.597513 0.597269 0.600488
0.731029 0.597223 0.600427
0.864713 0.597299 0.600504
0.998001 0.597436 0.600641
0 0.730724 0.600504
0.0633402 0.730861 0.600656
0.19678 0.730739 0.600519
0.330449 0.730816 0.600595
0.464118 0.730907 0.600687
0.597528 0.730709 0.600504
0.731182 0.7308 0.60058
0.864866 0.730877 0.600656
0.998001 0.730861 0.600656
0 0.864363 0.600504
0.0631723 0.864363 0.600488
0.196765 0.864378 0.600504
0.330434 0.864454 0.60058
0.464103 0.86453 0.600671
0.597513 0.864347 0.600488
0.731167 0.864439 0.600565
0.864851 0.864515 0.600641
0.997909 0.864424 0.600549
0 0.997925 0.600671
0.0632792 0.997848 0.600595
0.196948 0.99794 0.600687
0.330617 0.998016 0.600763
0.464027 0.997848 0.600595
0.597696 0.997909 0.600656
0.731334 0.998001 0.600748
0.865034 0.998077 0.600824
0.998077 0.997971 0.600732
0 0 0.733974
0.062501 0 0.734157
0.196155 0 0.734249
0.329686 0 0.734173
0.463218 0 0.734142
0.596902 0 0.734218
0.730495 0 0.734249
0.863981 0 0.734112
0.997299 0 0.734295
0 0.0626993 0.734417
0.0629435 0.0628977 0.734615
0.196612 0.0629892 0.734707
0.330022 0.0627909 0.734508
0.463676 0.0628824 0.7346
0.59736 0.0629587 0.734676
0.7308 0.0628367 0.734554
0.864424 0.0628519 0.734569
0.997757 0.063035 0.734737
0 0.196292 0.734508
0.0630503 0.19649 0.734707
0.196582 0.19646 0.734676
0.330114 0.196384 0.7346
0.463767 0.196475 0.734691
0.597452 0.196551 0.734768
0.730831 0.196368 0.734585
0.864515 0.196445 0.734661
0.997848 0.196628 0.734844
0 0.329915 0.734554
0.0630808 0.330114 0.734752
0.196475 0.329931 0.734569
0.330144 0.330007 0.734646
0.463813 0.330098 0.734722
0.597482 0.330175 0.734798
0.730877 0.329992 0.73463
0.864561 0.330068 0.734691
0.997879 0.330236 0.734874
0 0.463493 0.734676
0.0632029 0.463691 0.734874
0.196597 0.463508 0.734691
0.330266 0.463584 0.734768
0.463935 0.463676 0.734844
0.597345 0.463478 0.734661
0.730999 0.463569 0.734752
0.864683 0.463645 0.734829
0.998001 0.463828 0.734997
0 0.597131 0.734676
0.0632181 0.59733 0.734874
0.196612 0.597147 0.734691
0.330282 0.597223 0.734768
0.463935 0.597299 0.734859
0.597345 0.597116 0.734661
0.730999 0.597208 0.734752
0.864698 0.597284 0.734829
0.997909 0.59736 0.734905
0 0.730694 0.734829
0.0632486 0.730785 0.73492
0.196765 0.730709 0.734844
0.330434 0.730785 0.73492
0.464073 0.730861 0.734997
0.597498 0.730678 0.734813
0.731151 0.73077 0.734905
0.864851 0.730846 0.734981
0.997894 0.730755 0.73489
0 0.864332 0.734813
0.0630808 0.864271 0.734752
0.19675 0.864347 0.734829
0.330419 0.864424 0.734905
0.463905 0.864347 0.734829
0.597482 0.864317 0.734798
0.731136 0.864408 0.73489
0.864759 0.864424 0.734905
0.997879 0.864393 0.734874
0 0.997818 0.734905
0.0632639 0.997833 0.73492
0.196918 0.997909 0.735012
0.330602 0.997986 0.735088
0.463981 0.997803 0.734905
0.597665 0.997879 0.734981
0.731319 0.997971 0.735073
0.86479 0.997833 0.734936
0.998062 0.997955 0.735058
0 0 0.86804
0.062501 0 0.868238
0.196155 0 0.868315
0.329564 0 0.868132
0.463218 0 0.868208
0.596902 0 0.868299
0.730282 0 0.868116
0.863966 0 0.868193
0.997299 0 0.86836
0 0.0626993 0.868482
0.0629435 0.0628977 0.868681
0.196567 0.0629435 0.868727
0.330022 0.0627909 0.868574
0.463676 0.0628824 0.868666
0.59736 0.0629587 0.868742
0.730739 0.0627756 0.868559
0.864424 0.0628519 0.868635
0.997757 0.063035 0.868818
0 0.196292 0.868589
0.063035 0.19649 0.868788
0.196521 0.196384 0.868681
0.330114 0.196384 0.868681
0.463767 0.196475 0.868757
0.59736 0.19646 0.868742
0.730831 0.196368 0.868666
0.864515 0.196445 0.868727
0.997848 0.196628 0.86891
0 0.329915 0.86862
0.0630808 0.330114 0.868818
0.196475 0.329931 0.868635
0.330144 0.330007 0.868711
0.463798 0.330098 0.868803
0.597253 0.329931 0.868635
0.730861 0.329992 0.868696
0.864561 0.330068 0.868772
0.997742 0.330098 0.868803
0 0.463493 0.868742
0.0630503 0.463539 0.868788
0.196597 0.463508 0.868757
0.330266 0.463584 0.868833
0.463935 0.463676 0.868925
0.597345 0.463478 0.868727
0.730999 0.463569 0.868818
0.864683 0.463645 0.868894
0.997742 0.463554 0.868803
0 0.597131 0.868757
0.0629435 0.597055 0.868681
0.196612 0.597147 0.868772
0.330282 0.597223 0.868849
0.463935 0.597299 0.868925
0.597345 0.597116 0.868742
0.730999 0.597208 0.868833
0.864683 0.597269 0.86891
0.997742 0.597177 0.868803
0 0.730694 0.86891
0.0630961 0.730632 0.868833
0.19675 0.730709 0.868925
0.330434 0.730785 0.869001
0.463813 0.730602 0.868818
0.597498 0.730678 0.868894
0.731151 0.73077 0.868986
0.864836 0.730846 0.869047
0.997894 0.730755 0.868955
0 0.864332 0.868879
0.0630808 0.864271 0.868818
0.196735 0.864347 0.86891
0.330419 0.864424 0.868986
0.463798 0.86424 0.868803
0.597482 0.864317 0.868879
0.731136 0.864408 0.868971
0.864698 0.864363 0.86891
0.997879 0.864393 0.86894
0 0.997742 0.86891
0.0632639 0.997818 0.869001
0.196918 0.997909 0.869078
0.330541 0.99794 0.869108
0.463981 0.997803 0.868971
0.597665 0.997879 0.869047
0.731319 0.997971 0.869139
0.864729 0.997787 0.868955
0.998062 0.997955 0.869123
0 0 1
0.0625315 0 1
0.195956 0 1
0.329595 0 1
0.463249 0 1
0.596933 0 1
0.730312 0 1
0.863996 0 1
0.99733 0 1
0 0.0627298 1
0.062974 0.0629282 1
0.196368 0.0627451 1
0.330037 0.0628214 1
0.463691 0.0628977 1
0.597375 0.062974 1
0.73077 0.0628061 1
0.864454 0.0628824 1
0.997772 0.0630503 1
0 0.196323 1
0.0630655 0.196521 1
0.19646 0.196338 1
0.330144 0.196414 1
0.463798 0.196506 1
0.597208 0.196307 1
0.730861 0.196399 1
0.864546 0.196475 1
0.997818 0.196597 1
0 0.329946 1
0.063035 0.330068 1
0.19649 0.329946 1
0.330175 0.330037 1
0.463828 0.330114 1
0.597238 0.329931 1
0.730892 0.330022 1
0.864576 0.330098 1
0.997711 0.330068 1
0 0.463523 1
0.0630045 0.463508 1
0.196612 0.463539 1
0.330297 0.463615 1
0.463828 0.463584 1
0.59736 0.463508 1
0.731014 0.4636 1
0.864698 0.463676 1
0.997757 0.463584 1
0 0.597147 1
0.062974 0.597086 1
0.196628 0.597162 1
0.330312 0.597238 1
0.463691 0.59707 1
0.597375 0.597147 1
0.731029 0.597223 1
0.864546 0.597131 1
0.997772 0.597208 1
0 0.730541 1
0.0631266 0.730648 1
0.19678 0.730739 1
0.330465 0.730816 1
0.463844 0.730632 1
0.597528 0.730709 1
0.731182 0.7308 1
0.864591 0.730602 1
0.997925 0.730785 1
0 0.864088 1
0.0631113 0.864286 1
0.196765 0.864378 1
0.330449 0.864454 1
0.463828 0.864271 1
0.597513 0.864347 1
0.731167 0.864439 1
0.864576 0.86424 1
0.997909 0.864424 1
0 0.99765 1
0.0632792 0.997848 1
0.196948 0.99794 1
0.330358 0.997742 1
0.464012 0.997833 1
0.597696 0.997909 1
0.731319 0.997986 1
0.864759 0.997803 1
0.997543 0.997436 1
