public/LUTS/Darken/Darken_12.cube
TITLE "Generated by Resolve"
LUT_3D_SIZE 5
0 0 0
0.183322 0 0
0.367468 0 0
0.551446 0 0
0.735393 0 0
0 0.183581 0
0.183673 0.183597 1.5259e-05
0.367849 0.183703 0.000122072
0.551827 0.183642 6.10361e-05
0.735714 0.183749 0.000183108
0.000122072 0.367651 0.000122072
0.183795 0.367666 0.000122072
0.367849 0.367681 0.000137331
0.551934 0.367712 0.000167849
0.735683 0.367697 0.00015259
7.62951e-05 0.551583 7.62951e-05
0.183902 0.551736 0.000228885
0.36788 0.551659 0.000167849
0.552041 0.551781 0.000274662
0.735805 0.551766 0.000259403
0.00015259 0.735607 0.00015259
0.184009 0.735805 0.000350958
0.367987 0.735744 0.000274662
0.552132 0.735821 0.000366217
0.735912 0.735836 0.000381476
0 0 0.184161
0.183322 0 0.184176
0.367483 0 0.184298
0.551461 0 0.184222
0.735271 0 0.184268
1.5259e-05 0.183597 0.184543
0.183688 0.183597 0.184558
0.367681 0.183551 0.184497
0.551827 0.183642 0.184588
0.735592 0.183642 0.184588
0 0.367483 0.184466
0.183795 0.367681 0.184665
0.367773 0.367605 0.184588
0.551934 0.367712 0.18471
0.735698 0.367712 0.184695
4.57771e-05 0.551553 0.184573
0.183917 0.551751 0.184771
0.36788 0.551675 0.184695
0.551949 0.55169 0.18471
0.735805 0.551781 0.184802
0.000167849 0.735622 0.184695
0.183886 0.735668 0.184741
0.368002 0.735744 0.184817
0.55198 0.735683 0.184741
0.735927 0.735851 0.184924
0 0 0.369055
0.183291 0 0.36907
0.367269 0 0.368994
0.551446 0 0.369116
0.735195 0 0.3691
0 0.183398 0.369253
0.183673 0.183581 0.369451
0.367651 0.18352 0.369375
0.551812 0.183627 0.369482
0.735576 0.183612 0.369482
0 0.367468 0.36936
0.183764 0.367651 0.369543
0.367758 0.36759 0.369482
0.551751 0.367529 0.369421
0.735683 0.367681 0.369589
3.0518e-05 0.551537 0.369467
0.183703 0.551553 0.369482
0.367864 0.551659 0.369589
0.551843 0.551583 0.369528
0.73579 0.551766 0.369696
0.00015259 0.735607 0.369589
0.183825 0.735622 0.369589
0.367987 0.735729 0.369711
0.551965 0.735653 0.369635
0.735714 0.735653 0.369619
0 0 0.553765
0.183276 0 0.553964
0.367254 0 0.553903
0.551385 0 0.553964
0.73518 0 0.553994
0 0.183383 0.554147
0.183566 0.18349 0.554253
0.367636 0.183505 0.554269
0.551614 0.183429 0.554192
0.735561 0.183597 0.554376
0 0.367453 0.554253
0.183581 0.367453 0.554269
0.367742 0.367575 0.554376
0.55172 0.367498 0.554314
0.735668 0.367666 0.554482
1.5259e-05 0.551522 0.55436
0.183688 0.551522 0.554376
0.367849 0.551629 0.554482
0.551827 0.551568 0.554421
0.735592 0.551553 0.554406
7.62951e-05 0.735531 0.554421
0.18381 0.735607 0.554482
0.367788 0.735531 0.554421
0.551949 0.735637 0.554528
0.735698 0.735637 0.554513
0 0 0.738231
0.183139 0 0.738277
0.367269 0 0.738354
0.551247 0 0.738293
0.735195 0 0.73846
0 0.183398 0.738613
0.18349 0.183398 0.738613
0.367651 0.18352 0.738735
0.551629 0.183444 0.738659
0.735531 0.183581 0.738796
0 0.367468 0.73872
0.183597 0.367468 0.738735
0.367681 0.367498 0.738766
0.551736 0.367514 0.738781
0.7355 0.367498 0.738766
0 0.5514 0.738705
0.183703 0.551537 0.738842
0.367681 0.551476 0.738766
0.551858 0.551583 0.738888
0.735607 0.551583 0.738872
0 0.735424 0.738766
0.183825 0.735622 0.738949
0.367803 0.735546 0.738888
0.551949 0.735653 0.738979
0.735348 0.735271 0.738613
