public/LUTS/Darken/Darken_07.cube
TITLE "Generated by Resolve"
LUT_3D_SIZE 33
0 0 0
0 0 0
0 0 0
0 0 0
0 0 0
0.0268101 0 0
0.0626078 0 0
0.0984054 0 0
0.134218 0 0
0.170275 0 0
0.206073 0 0
0.241871 0 0
0.27779 0 0
0.31368 0 0
0.349554 0 0
0.385565 0 0
0.421347 0 0
0.457145 0 0
0.492943 0 0
0.528725 0 0
0.56495 0 0
0.600839 0 0
0.636622 0 0
0.672419 0 0
0.708217 0 0
0.744137 0 0
0.780102 0 0
0.815885 0 0
0.85182 0 0
0.887709 0 0
0.923491 0 0
0.959457 0 0
0.995041 0 0
0 0 0
0 0 0
0 0 0
0 0 0
0 0 0
0.0272068 0 0
0.0630045 0 0
0.0990768 0 0
0.134874 0 0
0.170672 0 0
0.20647 0 0
0.242252 0 0
0.278172 0 0
0.314366 0 0
0.350149 0 0
0.385946 0 0
0.421744 0 0
0.457527 0 0
0.49337 0 0
0.529412 0 0
0.565332 0 0
0.601221 0 0
0.637018 0 0
0.672816 0 0
0.708705 0 0
0.744686 0 0
0.780484 0 0
0.816281 0 0
0.852216 0 0
0.88809 0 0
0.924041 0 0
0.95996 0 0
0.995422 0 0
0 0 0
0 0 0
0 0 0
0 0 0
0 0 0
0.0271763 0 0
0.0632334 0 0
0.0990616 0 0
0.134844 0 0
0.170642 0 0
0.206439 0 0
0.242222 0 0
0.278431 0 0
0.314336 0 0
0.350134 0 0
0.385916 0 0
0.421714 0 0
0.457527 0 0
0.493584 0 0
0.529381 0 0
0.565316 0 0
0.601205 0 0
0.636988 0 0
0.673075 0 0
0.708873 0 0
0.744656 0 0
0.780453 0 0
0.816251 0 0
0.852262 0 0
0.88835 0 0
0.924147 0 0
0.959945 0 0
0.995392 0 0
0 0 0
0 0 0
0 0 0
0 0 0
0 0 0
0.027451 0 0
0.0632334 0 0
0.0990311 0 0
0.134829 0 0
0.170611 0 0
0.206653 0 0
0.242496 0 0
0.278416 0 0
0.314305 0 0
0.350103 0 0
0.385901 0 0
0.421988 0 0
0.457771 0 0
0.493568 0 0
0.529366 0 0
0.565286 0 0
0.601175 0 0
0.637263 0 0
0.67306 0 0
0.708843 0 0
0.74464 0 0
0.780438 0 0
0.816281 0 0
0.852445 0 0
0.888334 0 0
0.924132 0 0
0.959915 0 0
0.995377 0 0
0 0 0
0 0 0
0 0 0
0 0 0
0 0 0
0.0272984 0 0
0.0630961 0 0
0.0988785 0 0
0.134676 0 0
0.170687 0 0
0.206561 0 0
0.242344 0 0
0.278264 0 0
0.314168 0 0
0.34995 0 0
0.386023 0 0
0.421836 0 0
0.457633 0 0
0.493416 0 0
0.529213 0 0
0.565133 0 0
0.601312 0 0
0.63711 0 0
0.672908 0 0
0.708705 0 0
0.744488 0 0
0.780575 0 0
0.816373 0 0
0.852308 0 0
0.888182 0 0
0.92398 0 0
0.959792 0 0
0.995514 0 0
0 0.0269627 0
0 0.027039 0
0 0.0271458 0
0 0.0272526 0
0 0.0271763 0
0.0271916 0.0271 0
0.062974 0.0270542 0
0.0987716 0.0270237 0
0.134859 0.0272679 0
0.170642 0.0272221 0
0.206439 0.0271763 0
0.242237 0.0271305 0
0.278157 0.0270542 0
0.314229 0.0271763 0
0.350134 0.0272374 0
0.385931 0.0271916 0
0.421729 0.0271611 0
0.457511 0.0271153 0
0.493309 0.0270695 0
0.529335 0.0272679 0
0.565316 0.0272374 0
0.601205 0.0271763 0
0.637003 0.0271305 0
0.672801 0.0270848 0
0.708598 0.027039 0
0.744671 0.0272831 0
0.780468 0.0272526 0
0.816266 0.0272068 0
0.852186 0.0271153 0
0.888075 0.0270542 0
0.923873 0.0270237 0
0.959945 0.0272679 0
0.995407 0.0273136 0
0 0.0628061 0
0 0.0631266 0
0 0.0630808 0
0 0.063035 0
0 0.062974 0
0.0271611 0.0628977 0
0.0630655 0.0629587 0
0.0990463 0.0630961 0
0.134829 0.0630655 0
0.170626 0.0630198 0
0.206424 0.062974 0
0.242206 0.0629282 0
0.278294 0.0630198 0
0.314321 0.0630808 0
0.350118 0.063035 0
0.385901 0.0629892 0
0.421698 0.0629435 0
0.457496 0.0628977 0
0.493492 0.0630808 0
0.529366 0.0631113 0
0.565301 0.063035 0
0.60119 0.0629587 0
0.636973 0.0629282 0
0.67277 0.0628824 0
0.708858 0.0631266 0
0.74464 0.0630808 0
0.780438 0.063035 0
0.816236 0.0630045 0
0.852171 0.0629129 0
0.888304 0.0631113 0
0.924132 0.0630961 0
0.95993 0.0630503 0
0.995377 0.0631113 0
0 0.0988327 0
0 0.0989242 0
0 0.0988785 0
0 0.0988327 0
0 0.0987564 0
0.0272221 0.0987716 0
0.0632181 0.0989395 0
0.0990158 0.0988937 0
0.134813 0.0988479 0
0.170596 0.0988022 0
0.206394 0.0987716 0
0.242481 0.0990158 0
0.278401 0.0989395 0
0.31429 0.0988632 0
0.350088 0.0988174 0
0.385885 0.0987869 0
0.421805 0.0988785 0
0.457755 0.0989853 0
0.493553 0.0989395 0
0.529351 0.098909 0
0.56527 0.0988174 0
0.60116 0.0987564 0
0.63714 0.0988937 0
0.673045 0.0989548 0
0.708827 0.0989242 0
0.744625 0.0988785 0
0.780423 0.0988327 0
0.81622 0.0987869 0
0.852384 0.0989395 0
0.888319 0.0989395 0
0.924117 0.0988937 0
0.959899 0.0988479 0
0.995361 0.0988937 0
0 0.13463 0
0 0.134722 0
0 0.134676 0
0 0.13463 0
0 0.134844 0
0.0274052 0.134768 0
0.0631876 0.134722 0
0.0989853 0.134691 0
0.134783 0.134646 0
0.170626 0.134661 0
0.206653 0.134844 0
0.242451 0.134813 0
0.27837 0.134737 0
0.31426 0.134661 0
0.350057 0.134615 0
0.385962 0.134691 0
0.421942 0.134829 0
0.457725 0.134783 0
0.493523 0.134737 0
0.52932 0.134707 0
0.56524 0.134615 0
0.601297 0.134707 0
0.637217 0.134798 0
0.673014 0.134752 0
0.708812 0.134707 0
0.744595 0.134676 0
0.780392 0.13463 0
0.81648 0.134874 0
0.852399 0.134798 0
0.888289 0.134737 0
0.924086 0.134691 0
0.959869 0.134646 0
0.995544 0.134905 0
0 0.170428 0
0 0.170504 0
0 0.170474 0
0 0.170718 0
0 0.170642 0
0.0273747 0.170565 0
0.0631723 0.17052 0
0.09897 0.170489 0
0.134783 0.170474 0
0.17084 0.170687 0
0.206638 0.170642 0
0.24242 0.170596 0
0.27834 0.17052 0
0.314244 0.170459 0
0.350332 0.170703 0
0.386114 0.170657 0
0.421912 0.170626 0
0.45771 0.170581 0
0.493507 0.170535 0
0.529381 0.170565 0
0.565515 0.170703 0
0.601404 0.170642 0
0.637186 0.170596 0
0.672984 0.17055 0
0.708782 0.170504 0
0.744701 0.170596 0
0.780652 0.170718 0
0.816449 0.170672 0
0.852384 0.170581 0
0.888258 0.17052 0
0.924056 0.170489 0
0.960037 0.170626 0
0.99559 0.170779 0
0 0.206226 0
0 0.206546 0
0 0.206546 0
0 0.2065 0
0 0.206439 0
0.0273594 0.206363 0
0.0631418 0.206317 0
0.0992294 0.206561 0
0.135027 0.206531 0
0.170809 0.206485 0
0.206607 0.206439 0
0.242405 0.206394 0
0.278325 0.206317 0
0.314504 0.206546 0
0.350301 0.2065 0
0.386099 0.206455 0
0.421881 0.206409 0
0.457679 0.206363 0
0.493523 0.206378 0
0.529564 0.206577 0
0.565484 0.2065 0
0.601373 0.206424 0
0.637171 0.206394 0
0.672953 0.206348 0
0.708858 0.206409 0
0.744839 0.206546 0
0.780636 0.2065 0
0.816419 0.20647 0
0.852354 0.206378 0
0.888243 0.206317 0
0.924315 0.206561 0
0.960113 0.206516 0
0.995575 0.206577 0
0 0.242237 0
0 0.24239 0
0 0.242344 0
0 0.242298 0
0 0.242222 0
0.0273289 0.242161 0
0.063386 0.24239 0
0.0991989 0.242359 0
0.134997 0.242313 0
0.170794 0.242267 0
0.206577 0.242237 0
0.242374 0.242191 0
0.278584 0.242405 0
0.314473 0.242329 0
0.350271 0.242283 0
0.386069 0.242252 0
0.421866 0.242206 0
0.457938 0.242451 0
0.493736 0.242405 0
0.529534 0.242374 0
0.565454 0.242283 0
0.601343 0.242222 0
0.637171 0.242206 0
0.673228 0.24242 0
0.709026 0.24239 0
0.744808 0.242344 0
0.780606 0.242298 0
0.816403 0.242252 0
0.852415 0.242252 0
0.888502 0.242405 0
0.9243 0.242359 0
0.960082 0.242313 0
0.995544 0.242359 0
0 0.278157 0
0 0.278233 0
0 0.278202 0
0 0.278157 0
0 0.278279 0
0.0274357 0.278294 0
0.0632334 0.278248 0
0.0990311 0.278218 0
0.134829 0.278172 0
0.170611 0.278126 0
0.206653 0.278325 0
0.242481 0.278325 0
0.278416 0.278264 0
0.314305 0.278187 0
0.350103 0.278141 0
0.385901 0.278096 0
0.421973 0.278355 0
0.457771 0.278309 0
0.493568 0.278264 0
0.529366 0.278218 0
0.565286 0.278141 0
0.601175 0.27808 0
0.637263 0.278325 0
0.673045 0.278279 0
0.708843 0.278233 0
0.74464 0.278202 0
0.780438 0.278157 0
0.816281 0.278172 0
0.852445 0.278325 0
0.888334 0.278248 0
0.924117 0.278218 0
0.959915 0.278172 0
0.995377 0.278218 0
0 0.31397 0
0 0.314061 0
0 0.314015 0
0 0.314137 0
0 0.314183 0
0.0273594 0.314122 0
0.0631571 0.314076 0
0.0989395 0.314031 0
0.134737 0.313985 0
0.170748 0.314168 0
0.206622 0.314199 0
0.242405 0.314153 0
0.278325 0.314076 0
0.314229 0.314 0
0.350011 0.313954 0
0.386099 0.314214 0
0.421897 0.314168 0
0.457694 0.314122 0
0.493477 0.314076 0
0.529274 0.314046 0
0.565469 0.314229 0
0.601373 0.314183 0
0.637171 0.314137 0
0.672969 0.314092 0
0.708766 0.314061 0
0.744564 0.314015 0
0.780636 0.31426 0
0.816434 0.314214 0
0.852369 0.314137 0
0.888243 0.314076 0
0.924041 0.314031 0
0.959854 0.314015 0
0.995575 0.314321 0
0 0.349767 0
0 0.349844 0
0 0.350103 0
0 0.350057 0
0 0.349981 0
0.0273289 0.349905 0
0.0631266 0.349859 0
0.0990616 0.349966 0
0.135012 0.350072 0
0.170794 0.350027 0
0.206592 0.349981 0
0.24239 0.34995 0
0.278309 0.349874 0
0.314397 0.349996 0
0.350286 0.350042 0
0.386084 0.349996 0
0.421866 0.349966 0
0.457664 0.34992 0
0.493462 0.349874 0
0.529488 0.350072 0
0.565469 0.350042 0
0.601358 0.349981 0
0.637156 0.349935 0
0.672938 0.349889 0
0.708736 0.349844 0
0.744823 0.350103 0
0.780621 0.350057 0
0.816403 0.350011 0
0.852338 0.349935 0
0.888228 0.349874 0
0.92401 0.349828 0
0.960098 0.350072 0
0.99556 0.350118 0
0 0.385626 0
0 0.385931 0
0 0.385901 0
0 0.385855 0
0 0.385779 0
0.0273136 0.385702 0
0.0632181 0.385779 0
0.0991836 0.385901 0
0.134981 0.38587 0
0.170779 0.385824 0
0.206561 0.385779 0
0.242359 0.385748 0
0.278447 0.385824 0
0.314458 0.385885 0
0.350256 0.38584 0
0.386053 0.385794 0
0.421851 0.385763 0
0.457633 0.385718 0
0.493721 0.385962 0
0.529519 0.385916 0
0.565438 0.38584 0
0.601328 0.385779 0
0.637125 0.385733 0
0.673136 0.385901 0
0.70901 0.385931 0
0.744793 0.385885 0
0.780591 0.385855 0
0.816388 0.385809 0
0.852323 0.385733 0
0.888457 0.385931 0
0.924285 0.385916 0
0.960067 0.38587 0
0.995529 0.385916 0
0 0.421653 0
0 0.421729 0
0 0.421683 0
0 0.421637 0
0 0.421576 0
0.0275731 0.42179 0
0.0633707 0.421744 0
0.0991531 0.421698 0
0.134951 0.421668 0
0.170748 0.421622 0
0.206622 0.421668 0
0.242618 0.42182 0
0.278538 0.421744 0
0.314443 0.421683 0
0.350225 0.421637 0
0.386023 0.421592 0
0.421958 0.421683 0
0.457908 0.42179 0
0.49369 0.421759 0
0.529488 0.421714 0
0.565408 0.421637 0
0.601297 0.421561 0
0.637293 0.421714 0
0.673182 0.421775 0
0.70898 0.421729 0
0.744778 0.421683 0
0.78056 0.421637 0
0.816358 0.421607 0
0.852537 0.421759 0
0.888457 0.421744 0
0.924254 0.421698 0
0.960052 0.421653 0
0.995499 0.421714 0
0 0.457435 0
0 0.457527 0
0 0.457481 0
0 0.45745 0
0 0.457649 0
0.0275578 0.457588 0
0.0633402 0.457542 0
0.0991379 0.457496 0
0.134936 0.45745 0
0.170779 0.457465 0
0.206806 0.457664 0
0.242603 0.457618 0
0.278523 0.457542 0
0.314412 0.457465 0
0.35021 0.45742 0
0.386114 0.457496 0
0.42208 0.457633 0
0.457877 0.457588 0
0.493675 0.457542 0
0.529473 0.457511 0
0.565393 0.45742 0
0.601572 0.457649 0
0.637369 0.457603 0
0.673152 0.457557 0
0.708949 0.457527 0
0.744747 0.457481 0
0.780697 0.457603 0
0.816617 0.457679 0
0.852552 0.457603 0
0.888441 0.457542 0
0.924239 0.457496 0
0.960021 0.45745 0
0.995697 0.45771 0
0 0.493233 0
0 0.493309 0
0 0.493278 0
0 0.493523 0
0 0.493446 0
0.0275273 0.49337 0
0.0633249 0.493324 0
0.0991073 0.493294 0
0.135195 0.493538 0
0.170993 0.493492 0
0.206775 0.493446 0
0.242573 0.493416 0
0.278492 0.493339 0
0.314427 0.493294 0
0.350469 0.493507 0
0.386267 0.493462 0
0.422065 0.493431 0
0.457847 0.493385 0
0.493645 0.493339 0
0.529534 0.493385 0
0.565652 0.493507 0
0.601541 0.493446 0
0.637339 0.4934 0
0.673136 0.493355 0
0.708934 0.493309 0
0.744854 0.493416 0
0.780804 0.493523 0
0.816602 0.493477 0
0.852537 0.4934 0
0.888411 0.493339 0
0.924208 0.493294 0
0.960189 0.493431 0
0.995743 0.493584 0
0 0.52903 0
0 0.529366 0
0 0.529366 0
0 0.52932 0
0 0.529244 0
0.0274968 0.529168 0
0.0632944 0.529122 0
0.099382 0.529381 0
0.135164 0.529335 0
0.170962 0.52929 0
0.20676 0.529244 0
0.242557 0.529213 0
0.278477 0.529137 0
0.314656 0.529351 0
0.350454 0.529305 0
0.386236 0.529259 0
0.422034 0.529229 0
0.457832 0.529183 0
0.493675 0.529198 0
0.529702 0.529381 0
0.565637 0.529305 0
0.601526 0.529244 0
0.637308 0.529198 0
0.673106 0.529152 0
0.709194 0.529397 0
0.744991 0.529366 0
0.780774 0.52932 0
0.816571 0.529274 0
0.852506 0.529198 0
0.888487 0.529229 0
0.924468 0.529381 0
0.960266 0.529335 0
0.995712 0.529381 0
0 0.565118 0
0 0.56527 0
0 0.565225 0
0 0.565179 0
0 0.565103 0
0.0272984 0.565042 0
0.0633707 0.565286 0
0.0991684 0.56524 0
0.134966 0.565194 0
0.170748 0.565148 0
0.206546 0.565118 0
0.242618 0.565347 0
0.278553 0.565286 0
0.314443 0.565209 0
0.35024 0.565179 0
0.386038 0.565133 0
0.421836 0.565087 0
0.457908 0.565332 0
0.493706 0.565286 0
0.529503 0.565255 0
0.565423 0.565164 0
0.601312 0.565103 0
0.63714 0.565087 0
0.673198 0.565301 0
0.70898 0.56527 0
0.744778 0.565225 0
0.780575 0.565179 0
0.816373 0.565133 0
0.852384 0.565148 0
0.888472 0.565286 0
0.924269 0.56524 0
0.960052 0.565194 0
0.995514 0.56524 0
0 0.600992 0
0 0.601068 0
0 0.601038 0
0 0.600992 0
0 0.601114 0
0.0275273 0.601129 0
0.0633249 0.601083 0
0.0991226 0.601053 0
0.13492 0.601007 0
0.170703 0.600961 0
0.206744 0.601175 0
0.242588 0.601175 0
0.278492 0.601083 0
0.314397 0.601022 0
0.350195 0.600977 0
0.385977 0.600931 0
0.422065 0.60119 0
0.457862 0.601144 0
0.49366 0.601099 0
0.529442 0.601053 0
0.565377 0.600977 0
0.601267 0.600916 0
0.637339 0.60116 0
0.673136 0.601114 0
0.708934 0.601068 0
0.744732 0.601038 0
0.780514 0.600992 0
0.816602 0.601236 0
0.852537 0.60116 0
0.888411 0.601083 0
0.924208 0.601053 0
0.960006 0.601007 0
0.995514 0.601114 0
0 0.63679 0
0 0.636866 0
0 0.63682 0
0 0.636957 0
0 0.637003 0
0.027512 0.636927 0
0.0632944 0.636881 0
0.0990921 0.636835 0
0.13489 0.636805 0
0.170962 0.637049 0
0.20676 0.637003 0
0.242557 0.636957 0
0.278477 0.636881 0
0.314366 0.63682 0
0.350393 0.636988 0
0.386252 0.637018 0
0.422049 0.636973 0
0.457832 0.636927 0
0.493629 0.636896 0
0.529427 0.636851 0
0.565621 0.637049 0
0.601526 0.636988 0
0.637324 0.636957 0
0.673121 0.636912 0
0.708919 0.636866 0
0.744701 0.63682 0
0.780789 0.637064 0
0.816587 0.637034 0
0.852522 0.636957 0
0.888395 0.636881 0
0.924193 0.636835 0
0.960006 0.63682 0
0.995727 0.63714 0
0 0.672572 0
0 0.672755 0
0 0.672908 0
0 0.672862 0
0 0.672786 0
0.0274815 0.672724 0
0.0632792 0.672679 0
0.0992142 0.67277 0
0.135149 0.672877 0
0.170947 0.672831 0
0.206744 0.672801 0
0.242542 0.672755 0
0.278447 0.672679 0
0.314549 0.672801 0
0.350439 0.672862 0
0.386221 0.672816 0
0.422019 0.67277 0
0.457816 0.672724 0
0.493599 0.672679 0
0.529656 0.672892 0
0.565621 0.672847 0
0.601511 0.672786 0
0.637293 0.67274 0
0.673091 0.672694 0
0.708888 0.672663 0
0.744976 0.672908 0
0.780758 0.672862 0
0.816556 0.672816 0
0.852491 0.67274 0
0.888365 0.672679 0
0.924453 0.672923 0
0.96025 0.672877 0
0.995697 0.672923 0
0 0.708446 0
0 0.708736 0
0 0.708705 0
0 0.708659 0
0 0.708583 0
0.027451 0.708507 0
0.0633707 0.708583 0
0.0993362 0.708721 0
0.135134 0.708675 0
0.170916 0.708629 0
0.206714 0.708598 0
0.242512 0.708553 0
0.278721 0.708766 0
0.314611 0.70869 0
0.350408 0.708644 0
0.386206 0.708614 0
0.421988 0.708568 0
0.457954 0.70869 0
0.493874 0.708766 0
0.529656 0.708736 0
0.565591 0.708644 0
0.60148 0.708583 0
0.637278 0.708537 0
0.673289 0.708721 0
0.709148 0.708736 0
0.744945 0.708705 0
0.780728 0.708659 0
0.816526 0.708614 0
0.852461 0.708537 0
0.888609 0.708736 0
0.924422 0.708721 0
0.96022 0.708675 0
0.995682 0.708721 0
0 0.744457 0
0 0.744533 0
0 0.744503 0
0 0.744457 0
0 0.744411 0
0.0277256 0.744595 0
0.063508 0.744549 0
0.0993057 0.744518 0
0.135103 0.744472 0
0.170901 0.744427 0
0.206775 0.744472 0
0.242771 0.74464 0
0.278691 0.744549 0
0.31458 0.744488 0
0.350378 0.744442 0
0.386175 0.744396 0
0.42211 0.744503 0
0.458045 0.74461 0
0.493843 0.744564 0
0.529641 0.744518 0
0.56556 0.744442 0
0.60145 0.744381 0
0.637446 0.744533 0
0.673335 0.744579 0
0.709133 0.744533 0
0.744915 0.744503 0
0.780713 0.744457 0
0.81651 0.744411 0
0.852735 0.744625 0
0.888609 0.744549 0
0.924407 0.744518 0
0.960204 0.744472 0
0.995651 0.744518 0
0 0.780255 0
0 0.780331 0
0 0.780285 0
0 0.780255 0
0 0.780468 0
0.0276951 0.780392 0
0.0634928 0.780346 0
0.0992905 0.780301 0
0.135073 0.78027 0
0.170932 0.780285 0
0.206958 0.780468 0
0.242756 0.780423 0
0.27866 0.780346 0
0.314565 0.780285 0
0.350362 0.78024 0
0.386435 0.780484 0
0.422232 0.780438 0
0.45803 0.780392 0
0.493828 0.780362 0
0.52961 0.780316 0
0.565652 0.780346 0
0.601724 0.780453 0
0.637507 0.780423 0
0.673304 0.780377 0
0.709102 0.780331 0
0.7449 0.780285 0
0.78085 0.780407 0
0.81677 0.780499 0
0.852705 0.780423 0
0.888579 0.780346 0
0.924376 0.780301 0
0.960174 0.78027 0
0.99585 0.780529 0
0 0.816037 0
0 0.816129 0
0 0.816358 0
0 0.816327 0
0 0.816251 0
0.0276646 0.81619 0
0.0634623 0.816144 0
0.0992599 0.816098 0
0.135348 0.816342 0
