public/LUTS/Darken/Darken_15.cube
TITLE "Generated by Resolve"
LUT_3D_SIZE 5
0 0 0
0.125307 0 0
0.309026 0 0
0.492576 0 0
0.676097 0 0
0 0.125582 0
0.125673 0.125582 0
0.309407 0.125704 0
0.492958 0.125628 0
0.676417 0.12575 0
0 0.309224 0
0.12578 0.309224 0
0.309422 0.309239 0
0.493065 0.30927 0
0.676402 0.309255 0
0 0.492714 0
0.125887 0.492866 0
0.309438 0.492805 0
0.493172 0.492912 0
0.676509 0.492897 0
0 0.676326 0
0.126009 0.676509 0
0.30956 0.676448 0
0.493263 0.676539 0
0.676616 0.676539 0
0 0 0.126162
0.125307 0 0.126162
0.309041 0 0.126284
0.492592 0 0.126207
0.675975 0 0.126253
0 0.125582 0.126528
0.125673 0.125597 0.126543
0.309239 0.125536 0.126482
0.492958 0.125643 0.126589
0.676295 0.125628 0.126574
0 0.309041 0.126467
0.125795 0.309239 0.12665
0.309346 0.309163 0.126574
0.49308 0.309285 0.126696
0.676402 0.30927 0.12668
0 0.492683 0.126574
0.125902 0.492882 0.126757
0.309453 0.492805 0.126696
0.49308 0.492821 0.126711
0.676524 0.492912 0.126787
0 0.676326 0.12668
0.125872 0.676387 0.126726
0.30956 0.676448 0.126802
0.493111 0.676387 0.126741
0.676631 0.676555 0.126909
0 0 0.310628
0.125292 0 0.310628
0.308843 0 0.310567
0.492576 0 0.310674
0.675898 0 0.310658
0 0.125383 0.310811
0.125658 0.125582 0.311009
0.309209 0.125505 0.310933
0.492943 0.125628 0.31104
0.67628 0.125612 0.31104
0 0.309026 0.310918
0.125765 0.309209 0.311101
0.309331 0.309148 0.31104
0.492882 0.309102 0.310994
0.676387 0.309255 0.311147
0 0.492668 0.31104
0.125704 0.492683 0.31104
0.309438 0.49279 0.311147
0.492988 0.492729 0.311086
0.676493 0.492897 0.311254
0 0.67631 0.311147
0.125811 0.676326 0.311147
0.309545 0.676432 0.311269
0.493095 0.676371 0.311192
0.676432 0.676356 0.311177
0 0 0.494896
0.125277 0 0.495094
0.308827 0 0.495018
0.492515 0 0.495094
0.675883 0 0.495125
0 0.125368 0.495277
0.125566 0.125475 0.495384
0.309194 0.12549 0.495399
0.492744 0.125414 0.495323
0.676265 0.125597 0.495506
0 0.30901 0.495384
0.125582 0.309026 0.495399
0.309316 0.309133 0.495506
0.492851 0.309071 0.495445
0.676371 0.309239 0.495613
0 0.492653 0.495491
0.125689 0.492668 0.495506
0.309407 0.49276 0.495613
0.492973 0.492714 0.495552
0.676295 0.492699 0.495537
0 0.676234 0.495552
0.125795 0.67631 0.495613
0.309346 0.676234 0.495552
0.49308 0.676356 0.495659
0.676417 0.676341 0.495644
0 0 0.678935
0.125124 0 0.678965
0.308843 0 0.679057
0.492393 0 0.678981
0.675914 0 0.679164
0 0.125383 0.679316
0.125475 0.125399 0.679316
0.309209 0.125505 0.679438
0.49276 0.125444 0.679362
0.676234 0.125566 0.6795
0 0.309026 0.679423
0.125582 0.309041 0.679423
0.309239 0.309071 0.679454
0.492882 0.309087 0.679469
0.676204 0.309071 0.679469
0 0.492546 0.679408
0.125704 0.492683 0.679545
0.309255 0.492607 0.679469
0.492988 0.492729 0.679591
0.67631 0.492714 0.679576
0 0.676127 0.679454
0.125811 0.676326 0.679652
0.309361 0.676249 0.679576
0.49308 0.676356 0.679683
0.676066 0.67599 0.679316
