public/LUTS/Darken/Darken_09.cube
TITLE "Generated by Resolve"
LUT_3D_SIZE 9
0 0 0
0.108919 0 0
0.218418 0 0
0.32813 0 0
0.437842 0 0
0.54757 0 0
0.657053 0 0
0.766781 0 0
0.876219 0 0
0 0.109087 0
0.109285 0.109239 9.15541e-05
0.218769 0.109087 0
0.328496 0.109163 0
0.438209 0.109239 7.62951e-05
0.547707 0.109071 0
0.65742 0.109148 0
0.767147 0.109209 4.57771e-05
0.876585 0.109346 0.000198367
0 0.218738 0
0.109361 0.218906 0.000167849
0.21886 0.218753 1.5259e-05
0.328573 0.218814 7.62951e-05
0.438285 0.218891 0.00015259
0.547799 0.218723 0
0.657496 0.218799 6.10361e-05
0.767224 0.21886 0.000122072
0.8766 0.218952 0.000213626
3.0518e-05 0.32842 3.0518e-05
0.109316 0.328496 0.000122072
0.218891 0.328435 4.57771e-05
0.328603 0.328496 0.000106813
0.438315 0.328557 0.000183108
0.547829 0.328405 3.0518e-05
0.657526 0.328481 9.15541e-05
0.767254 0.328542 0.00015259
0.876478 0.328466 7.62951e-05
0.000137331 0.438056 0.000137331
0.10927 0.43801 7.62951e-05
0.218982 0.438071 0.00015259
0.32871 0.438132 0.000213626
0.4383 0.438087 0.000167849
0.547921 0.438056 0.000122072
0.657633 0.438132 0.000198367
0.76733 0.438148 0.000228885
0.87657 0.438117 0.000183108
9.15541e-05 0.547692 9.15541e-05
0.109285 0.547692 9.15541e-05
0.218997 0.547753 0.00015259
0.32871 0.547829 0.000213626
0.438209 0.547677 7.62951e-05
0.547936 0.547738 0.000137331
0.657633 0.547814 0.000198367
0.767208 0.547723 0.000106813
0.876585 0.547799 0.000198367
9.15541e-05 0.657221 9.15541e-05
0.109407 0.657328 0.000213626
0.21912 0.657404 0.000274662
0.328847 0.657465 0.000350958
0.438331 0.657313 0.000198367
0.548058 0.657374 0.000259403
0.657755 0.65745 0.000335698
0.767269 0.657298 0.000167849
0.876707 0.657435 0.000320439
3.0518e-05 0.766857 3.0518e-05
0.109392 0.767025 0.000198367
0.219104 0.767086 0.000274662
0.328618 0.766949 0.000122072
0.438315 0.76701 0.000183108
0.548043 0.767071 0.000244144
0.65774 0.767132 0.000320439
0.767254 0.766979 0.000167849
0.876692 0.767132 0.00030518
0.000183108 0.876478 0.000183108
0.109545 0.876646 0.000335698
0.219257 0.876722 0.000411994
0.328756 0.876554 0.000259403
0.438468 0.876631 0.000335698
0.548196 0.876692 0.000396735
0.657862 0.876738 0.000427253
0.767407 0.876616 0.00030518
0.876844 0.876753 0.000442512
0 0 0.109178
0.108949 0 0.109346
0.218433 0 0.109194
0.328161 0 0.109255
0.437873 0 0.109331
0.547417 0 0.109209
0.657084 0 0.109239
0.766812 0 0.1093
0.876143 0 0.109346
0 0.109117 0.109545
0.109209 0.109163 0.109606
0.218799 0.109117 0.10956
0.328527 0.109194 0.109621
0.438239 0.109255 0.109697
0.547738 0.109102 0.109545
0.65745 0.109178 0.109606
0.767178 0.109239 0.109682
0.876402 0.109163 0.109606
3.0518e-05 0.218769 0.109636
0.109178 0.218708 0.109575
0.218891 0.218784 0.109636
0.328603 0.218845 0.109712
0.438315 0.218921 0.109773
0.547829 0.218769 0.109621
0.657526 0.21883 0.109682
0.767254 0.218891 0.109758
0.876478 0.218814 0.109682
6.10361e-05 0.32845 0.109667
0.109209 0.328389 0.109606
0.218921 0.32845 0.109667
0.328634 0.328527 0.109743
0.438117 0.328374 0.10959
0.54786 0.328435 0.109651
0.657557 0.328511 0.109712
0.767285 0.328573 0.109789
0.876509 0.328496 0.109712
0.000167849 0.438102 0.109758
0.1093 0.438041 0.109697
0.219013 0.438102 0.109773
0.32874 0.438163 0.109834
0.438224 0.43801 0.109682
0.547951 0.438087 0.109758
0.657664 0.438163 0.109819
0.7673 0.438132 0.109789
0.8766 0.438148 0.109804
7.62951e-05 0.547677 0.109667
0.109316 0.547723 0.109712
0.219028 0.547784 0.109773
0.328725 0.547829 0.109819
0.438239 0.547707 0.109697
0.547967 0.547768 0.109758
0.657664 0.547845 0.109834
0.767178 0.547677 0.109667
0.876616 0.547829 0.109819
7.62951e-05 0.657191 0.109667
0.109438 0.657359 0.109834
0.21915 0.65742 0.109895
0.328725 0.657343 0.109819
0.438361 0.657343 0.109819
0.548089 0.657404 0.10988
0.657725 0.65742 0.109895
0.7673 0.657313 0.109789
0.876738 0.657465 0.109941
6.10361e-05 0.766888 0.109667
0.109422 0.767056 0.109819
0.219135 0.767117 0.109895
0.328634 0.766964 0.109743
0.438346 0.767025 0.109804
0.548074 0.767102 0.109865
0.657588 0.766979 0.109758
0.767285 0.76701 0.109789
0.876722 0.767163 0.109926
0.000213626 0.876524 0.109804
0.109575 0.876677 0.109972
0.219287 0.876753 0.110033
0.328786 0.876585 0.10988
0.438483 0.876661 0.109957
0.548226 0.876722 0.110018
0.65771 0.876585 0.109865
0.767437 0.876646 0.109926
0.876875 0.876783 0.110079
0 0 0.21944
0.108888 0 0.219562
0.218418 0 0.219455
0.328145 0 0.219516
0.437842 0 0.219577
0.547356 0 0.219425
0.657053 0 0.219501
0.766796 0 0.219562
0.876081 0 0.219547
0 0.109102 0.219806
0.109133 0.109102 0.219806
0.218784 0.109102 0.219821
0.328511 0.109178 0.219883
0.438132 0.109163 0.219867
0.547723 0.109087 0.219791
0.65742 0.109163 0.219867
0.767163 0.109224 0.219928
0.876371 0.109148 0.219852
1.5259e-05 0.218753 0.219883
0.109148 0.218692 0.219821
0.21886 0.218769 0.219898
0.328588 0.21883 0.219959
0.438102 0.218692 0.219821
0.547799 0.218738 0.219883
0.657511 0.218814 0.219944
0.767117 0.218753 0.219883
0.876463 0.218799 0.219928
0 0.328298 0.219776
0.109178 0.328374 0.219852
0.218891 0.328435 0.219928
0.328618 0.328511 0.219989
0.438102 0.328359 0.219837
0.547829 0.32842 0.219913
0.657542 0.328496 0.219974
0.767056 0.328328 0.219821
0.876493 0.328481 0.219959
0 0.437858 0.219791
0.109285 0.43801 0.219959
0.218997 0.438087 0.22002
0.328725 0.438148 0.220096
0.438209 0.437995 0.219944
0.547936 0.438071 0.220005
0.657633 0.438132 0.220081
0.767147 0.43798 0.219913
0.876585 0.438117 0.220066
0 0.547539 0.219806
0.1093 0.547707 0.219959
0.218997 0.547768 0.220035
0.328511 0.547616 0.219883
0.438209 0.547692 0.219944
0.547951 0.547753 0.22002
0.657649 0.547814 0.220081
0.767163 0.547662 0.219928
0.8766 0.547814 0.220066
6.10361e-05 0.657176 0.219928
0.109422 0.657343 0.220096
0.219135 0.657404 0.220157
0.328634 0.657252 0.220005
0.438346 0.657328 0.220066
0.548074 0.657389 0.220142
0.657649 0.657343 0.220096
0.767285 0.657298 0.22005
0.876722 0.65745 0.220203
4.57771e-05 0.766873 0.219913
0.109407 0.767025 0.220081
0.219074 0.767056 0.220096
0.328618 0.766949 0.219989
0.438331 0.76701 0.220066
0.548058 0.767086 0.220127
0.657542 0.766934 0.219974
0.767269 0.766995 0.220035
0.876707 0.767132 0.220188
0.000198367 0.876493 0.220066
0.10956 0.876661 0.220218
0.219089 0.876554 0.220127
0.328771 0.87657 0.220142
0.438468 0.876646 0.220203
0.548119 0.876616 0.220188
0.657679 0.876554 0.220127
0.767422 0.876616 0.220188
0.87686 0.876768 0.220325
0 0 0.329488
0.108705 0 0.329427
0.218418 0 0.329503
0.328145 0 0.329564
0.437827 0 0.32961
0.547356 0 0.329473
0.657053 0 0.329549
0.766796 0 0.32961
0.876005 0 0.329534
0 0.109102 0.329854
0.109071 0.109041 0.329793
0.218784 0.109102 0.32987
0.328511 0.109163 0.329931
0.437995 0.109026 0.329778
0.547723 0.109087 0.329839
0.65742 0.109163 0.329915
0.767102 0.109163 0.329931
0.876371 0.109148 0.3299
0 0.218692 0.32987
0.109148 0.218692 0.32987
0.21886 0.218769 0.329946
0.328588 0.21883 0.330007
0.438071 0.218677 0.329854
0.547799 0.218738 0.329931
0.657511 0.218814 0.329992
0.767071 0.218708 0.329885
0.876448 0.218799 0.329976
0 0.328237 0.329778
0.109178 0.328359 0.3299
0.218891 0.328435 0.329976
0.328511 0.328389 0.329931
0.438102 0.328359 0.329885
0.547829 0.32842 0.329946
0.657542 0.328481 0.330022
0.767056 0.328328 0.32987
0.876478 0.328466 0.330007
0 0.437858 0.329839
0.109285 0.43801 0.330007
0.218997 0.438087 0.330068
0.328496 0.437934 0.329915
0.438209 0.437995 0.329992
0.547936 0.438071 0.330053
0.657481 0.43798 0.329976
0.767147 0.43798 0.329961
0.876585 0.438117 0.330114
0 0.547539 0.329854
0.109285 0.547692 0.330007
0.218997 0.547768 0.330083
0.328511 0.547616 0.329931
0.438209 0.547677 0.329992
0.547936 0.547753 0.330068
0.65742 0.547601 0.329915
0.767163 0.547662 0.329976
0.8766 0.547814 0.330114
6.10361e-05 0.657176 0.329976
0.109422 0.657328 0.330129
0.219135 0.657404 0.330205
0.328634 0.657252 0.330053
0.438331 0.657328 0.330114
0.548074 0.657389 0.33019
0.657542 0.657237 0.330037
0.767285 0.657298 0.330098
0.876722 0.65745 0.330251
4.57771e-05 0.766873 0.329961
0.109407 0.767025 0.330129
0.218891 0.766873 0.329976
0.328618 0.766949 0.330037
0.438331 0.76701 0.330114
0.548028 0.767056 0.330144
0.657542 0.766934 0.330022
0.767269 0.766995 0.330083
0.876707 0.767132 0.330236
0.000198367 0.876493 0.330114
0.10956 0.876661 0.330266
0.219043 0.876509 0.330114
0.328771 0.87657 0.33019
0.438468 0.876646 0.330251
0.548058 0.87657 0.330175
0.657679 0.876554 0.330175
0.767422 0.876616 0.330236
0.876783 0.876707 0.330312
0 0 0.439734
0.10869 0 0.439673
0.218402 0 0.43975
0.32813 0 0.439811
0.437613 0 0.439658
0.547341 0 0.439719
0.657038 0 0.439796
0.766567 0 0.439643
0.87599 0 0.43978
0 0.108858 0.439887
0.109056 0.10901 0.44004
0.218769 0.109087 0.440116
0.328496 0.109148 0.440177
0.43798 0.10901 0.440024
0.547707 0.109071 0.440101
0.657404 0.109133 0.440162
0.766918 0.10898 0.440009
0.876356 0.109117 0.440146
0 0.218509 0.439963
0.109133 0.218677 0.440131
0.218845 0.218738 0.440192
0.328527 0.218769 0.440223
0.438056 0.218662 0.440116
0.547784 0.218723 0.440177
0.657481 0.218799 0.440253
0.766995 0.218631 0.440085
0.876432 0.218784 0.440238
0 0.328191 0.439994
0.109163 0.328344 0.440162
0.218875 0.32842 0.440223
0.328374 0.328267 0.44007
0.438087 0.328328 0.440146
0.547814 0.328405 0.440208
0.657435 0.328389 0.440192
0.767025 0.328313 0.440116
0.876463 0.32845 0.440269
0 0.437842 0.440101
0.10927 0.437995 0.440253
0.218967 0.438056 0.440314
0.328481 0.437903 0.440177
0.438193 0.43798 0.440238
0.547921 0.438041 0.440314
0.65742 0.437919 0.440177
0.767132 0.437964 0.440223
0.87657 0.438102 0.44036
0 0.547524 0.440101
0.10927 0.547677 0.440269
0.218845 0.547616 0.440192
0.328481 0.547601 0.440177
0.438193 0.547662 0.440253
0.547921 0.547738 0.440314
0.657404 0.547585 0.440162
0.767147 0.547646 0.440223
0.87657 0.547784 0.440375
4.57771e-05 0.65716 0.440223
0.109392 0.657313 0.440391
0.218891 0.657176 0.440238
0.328618 0.657237 0.440299
0.438315 0.657298 0.440375
0.547875 0.657191 0.440269
0.657526 0.657221 0.440284
0.767269 0.657282 0.44036
0.876692 0.65742 0.440497
3.0518e-05 0.766857 0.440223
0.109392 0.76701 0.440375
0.218875 0.766857 0.440223
0.328603 0.766934 0.440299
0.4383 0.766995 0.44036
0.547814 0.766842 0.440208
0.657511 0.766903 0.440269
0.767254 0.766979 0.440345
0.876692 0.767117 0.440482
0.000183108 0.876478 0.44036
0.109529 0.876631 0.440513
0.219028 0.876493 0.440375
0.328756 0.876554 0.440436
0.438453 0.876631 0.440513
0.547967 0.876463 0.440345
0.657664 0.876539 0.440421
0.767391 0.8766 0.440482
0.876616 0.876524 0.440406
0 0 0.54963
0.10869 0 0.549722
0.218402 0 0.549798
0.328038 0 0.549783
0.437613 0 0.549706
0.547341 0 0.549767
0.657038 0 0.549844
0.766552 0 0.549691
0.87599 0 0.549828
0 0.108858 0.549935
0.109056 0.10901 0.550088
0.218769 0.109087 0.550164
0.328298 0.108949 0.550042
0.43798 0.108995 0.550072
0.547707 0.109071 0.550149
0.657404 0.109133 0.55021
0.766918 0.10898 0.550057
0.876356 0.109117 0.550195
0 0.218509 0.550011
0.109133 0.218677 0.550179
0.218845 0.218738 0.55024
0.328344 0.218585 0.550088
0.438056 0.218662 0.550164
0.547784 0.218723 0.550225
0.657267 0.21857 0.550072
0.766995 0.218631 0.550134
0.876432 0.218784 0.550286
0 0.328191 0.550042
0.109163 0.328344 0.55021
0.218875 0.32842 0.550271
0.328374 0.328267 0.550118
0.438087 0.328328 0.550195
0.547814 0.328389 0.550256
0.657298 0.328252 0.550103
0.767025 0.328313 0.550164
0.876463 0.32845 0.550317
0 0.437827 0.550149
0.10927 0.437995 0.550301
0.218906 0.437995 0.550301
0.328481 0.437903 0.550225
0.438193 0.43798 0.550286
0.547921 0.438041 0.550347
0.657389 0.437888 0.55021
0.767132 0.437964 0.550271
0.87657 0.438102 0.550408
0 0.547524 0.550149
0.10927 0.547677 0.550317
0.218769 0.547524 0.550164
0.328481 0.547585 0.550225
0.438193 0.547662 0.550301
0.547814 0.547616 0.550256
0.657404 0.547585 0.55021
0.767132 0.547646 0.550271
0.876539 0.547753 0.550393
3.0518e-05 0.65716 0.550271
0.109361 0.657282 0.550393
0.218891 0.65716 0.550286
0.328603 0.657237 0.550347
0.438315 0.657298 0.550423
0.547829 0.657145 0.550271
0.657526 0.657221 0.550332
0.767269 0.657282 0.550408
0.876554 0.657267 0.550393
3.0518e-05 0.766857 0.550271
0.109224 0.766842 0.550256
0.218875 0.766857 0.550271
0.328603 0.766918 0.550332
0.4383 0.766995 0.550408
0.547814 0.766842 0.550256
0.657511 0.766903 0.550317
0.767254 0.766979 0.550393
0.876463 0.766888 0.550317
0.000167849 0.876478 0.550408
0.109316 0.876417 0.550347
0.219028 0.876493 0.550423
0.32874 0.876554 0.550484
0.438254 0.876417 0.550347
0.547967 0.876463 0.550393
0.657664 0.876539 0.550469
0.767391 0.8766 0.55053
0.876616 0.876524 0.550454
0 0 0.659815
0.108675 0 0.659983
0.218372 0 0.660044
0.327977 0 0.659983
0.437598 0 0.659968
0.547326 0 0.660029
0.656977 0 0.66006
0.766537 0 0.659937
0.875975 0 0.66009
0 0.108843 0.660182
0.109041 0.108995 0.660349
0.218753 0.109071 0.660426
0.328252 0.108919 0.660258
0.437964 0.10898 0.660334
0.547692 0.109041 0.660395
0.657221 0.108949 0.660304
0.766903 0.108965 0.660319
0.876341 0.109102 0.660456
0 0.218494 0.660273
0.109117 0.218662 0.660426
0.218723 0.218631 0.660395
0.328328 0.21857 0.660349
0.438041 0.218647 0.66041
0.547768 0.218708 0.660471
0.657252 0.218555 0.660334
0.766979 0.218616 0.660395
0.876417 0.218769 0.660533
0 0.328161 0.660304
0.109148 0.328328 0.660456
0.218631 0.328176 0.660304
0.328359 0.328237 0.660365
0.438071 0.328313 0.660441
0.547799 0.328374 0.660502
0.657282 0.328237 0.660365
0.76701 0.328298 0.660426
0.876448 0.328435 0.660563
0 0.437812 0.660395
0.109255 0.43798 0.660563
0.218738 0.437827 0.66041
0.328466 0.437888 0.660471
0.438163 0.437964 0.660548
0.547677 0.437797 0.66038
0.657374 0.437873 0.660456
0.767117 0.437949 0.660533
0.876554 0.438087 0.66067
0 0.547494 0.66041
0.109255 0.547662 0.660563
0.218753 0.547509 0.66041
0.328466 0.54757 0.660487
0.438178 0.547646 0.660548
0.547677 0.547494 0.660395
0.657389 0.547555 0.660471
0.767117 0.547631 0.660533
0.876478 0.547692 0.660594
1.5259e-05 0.65713 0.660533
0.109285 0.657206 0.660594
0.218875 0.657145 0.660548
0.328588 0.657206 0.660609
0.438285 0.657267 0.660655
0.547814 0.65713 0.660517
0.657511 0.657206 0.660594
0.767239 0.657267 0.660655
0.876463 0.657191 0.660578
1.5259e-05 0.766827 0.660517
0.109148 0.766766 0.660456
0.21886 0.766842 0.660533
0.328588 0.766903 0.660594
0.438148 0.766842 0.660533
0.547799 0.766812 0.660502
0.657496 0.766888 0.660578
0.767178 0.766903 0.660594
0.876448 0.766873 0.660563
9.15541e-05 0.876387 0.660594
0.109285 0.876402 0.660609
0.218997 0.876463 0.66067
0.328725 0.876539 0.660746
0.438209 0.876387 0.660594
0.547936 0.876448 0.660655
0.657649 0.876524 0.660731
0.767208 0.876402 0.660609
0.8766 0.876509 0.660716
0 0 0.769863
0.108675 0 0.770031
0.218372 0 0.770092
0.327886 0 0.76994
0.437583 0 0.770016
0.547311 0 0.770077
0.656794 0 0.769924
0.766537 0 0.769985
0.875975 0 0.770138
0 0.108843 0.77023
0.109041 0.108995 0.770397
0.218708 0.109026 0.770428
0.328252 0.108904 0.770306
0.437964 0.10898 0.770382
0.547692 0.109041 0.770443
0.65716 0.108904 0.770306
0.766903 0.108965 0.770367
0.876341 0.109102 0.770504
0 0.218494 0.770321
0.109117 0.218647 0.770474
0.218677 0.21857 0.770397
0.328328 0.21857 0.770397
0.438041 0.218631 0.770459
0.547692 0.218631 0.770443
0.657252 0.218555 0.770382
0.766979 0.218616 0.770443
0.876417 0.218753 0.770581
0 0.328161 0.770352
0.109148 0.328328 0.770504
0.218631 0.328176 0.770352
0.328359 0.328237 0.770413
0.438071 0.328313 0.770489
0.547601 0.328176 0.770367
0.657282 0.328222 0.770413
0.76701 0.328298 0.770474
0.876326 0.328313 0.770504
0 0.437812 0.770443
0.109117 0.437842 0.770474
0.218738 0.437827 0.770459
0.328466 0.437888 0.77052
0.438163 0.437964 0.770596
0.547677 0.437797 0.770428
0.657374 0.437873 0.770504
0.767117 0.437934 0.770565
0.876326 0.437858 0.770489
0 0.547494 0.770459
0.109026 0.547433 0.770397
0.218738 0.547509 0.770459
0.328466 0.54757 0.770535
0.438178 0.547646 0.770596
0.547677 0.547494 0.770443
0.657389 0.547555 0.77052
0.767117 0.547616 0.770581
0.876326 0.547539 0.770504
1.5259e-05 0.65713 0.770581
0.109163 0.657084 0.77052
0.218875 0.657145 0.770596
0.328588 0.657206 0.770657
0.438071 0.657069 0.770504
0.547799 0.65713 0.770565
0.657511 0.657191 0.770642
0.767239 0.657267 0.770703
0.876463 0.657191 0.770626
0 0.766827 0.770565
0.109148 0.766766 0.770504
0.21886 0.766842 0.770581
0.328573 0.766903 0.770642
0.438071 0.766751 0.770489
0.547799 0.766812 0.77055
0.657496 0.766888 0.770626
0.767117 0.766842 0.770581
0.876448 0.766873 0.770611
3.0518e-05 0.876341 0.770596
0.109285 0.876402 0.770657
0.218997 0.876463 0.770718
0.328679 0.876493 0.770748
0.438209 0.876387 0.770642
0.547936 0.876448 0.770703
0.657649 0.876524 0.770779
0.767163 0.876356 0.770611
0.876585 0.876509 0.770764
0 0 0.879606
0.10869 0 0.879774
0.218204 0 0.879652
0.327901 0 0.879683
0.437613 0 0.879759
0.547341 0 0.87982
0.656825 0 0.879667
0.766552 0 0.879728
0.87599 0 0.879881
0 0.108858 0.879973
0.109056 0.109026 0.88014
0.21854 0.108873 0.879988
0.328267 0.108934 0.880049
0.43798 0.108995 0.880125
0.547707 0.109056 0.880186
0.657191 0.108919 0.880034
0.766918 0.10898 0.880095
0.876356 0.109133 0.880247
0 0.218509 0.880064
0.109133 0.218677 0.880217
0.218631 0.218524 0.880064
0.328359 0.218585 0.880125
0.438056 0.218662 0.880201
0.54757 0.218509 0.880049
0.657267 0.21857 0.880125
0.766995 0.218631 0.880186
0.876387 0.218738 0.880278
0 0.328191 0.880079
0.109102 0.328298 0.880186
0.218662 0.328191 0.880095
0.328374 0.328267 0.880156
0.438087 0.328344 0.880232
0.547601 0.328176 0.880079
0.657298 0.328252 0.880156
0.767025 0.328313 0.880217
0.876295 0.328283 0.880186
0 0.437842 0.880186
0.109087 0.437812 0.880171
0.218753 0.437842 0.880201
0.328481 0.437919 0.880262
0.438087 0.437888 0.880232
0.547692 0.437827 0.880171
0.657404 0.437903 0.880247
0.767132 0.437964 0.880308
0.876341 0.437888 0.880232
0 0.547524 0.880201
0.109056 0.547463 0.88014
0.218769 0.547524 0.880201
0.328496 0.547601 0.880278
0.43798 0.547448 0.880125
0.547707 0.547509 0.880186
0.657404 0.547585 0.880262
0.766995 0.547509 0.880171
0.876356 0.54757 0.880247
0 0.657008 0.880171
0.109178 0.657099 0.880262
0.218891 0.65716 0.880323
0.328618 0.657237 0.8804
0.438102 0.657084 0.880247
0.547829 0.657145 0.880308
0.657526 0.657221 0.880385
0.76704 0.657069 0.880217
0.876478 0.657206 0.880369
0 0.766629 0.880079
0.109163 0.766796 0.880247
0.218875 0.766857 0.880323
0.328603 0.766934 0.880385
0.438087 0.766781 0.880232
0.547814 0.766842 0.880293
0.657526 0.766918 0.880369
0.767025 0.766751 0.880217
0.876463 0.766903 0.880354
0 0.876265 0.880232
0.109316 0.876417 0.8804
0.219028 0.876493 0.880461
0.328527 0.876341 0.880308
0.438239 0.876402 0.880385
0.547967 0.876463 0.880446
0.657649 0.876524 0.880507
0.767178 0.876387 0.880354
0.876173 0.876081 0.880064
