public/LUTS/Darken/Darken_05.cube
TITLE "Generated by Resolve"
LUT_3D_SIZE 33
0 0 0
0 0 0
0 0 0
0.0123293 0 0
0.0463264 0 0
0.0803235 0 0
0.114214 0 0
0.148104 0 0
0.18201 0 0
0.216144 0 0
0.250034 0 0
0.283925 0 0
0.317937 0 0
0.351919 0 0
0.385885 0 0
0.419974 0 0
0.453864 0 0
0.487755 0 0
0.521645 0 0
0.55552 0 0
0.589822 0 0
0.623789 0 0
0.657679 0 0
0.691569 0 0
0.72546 0 0
0.759472 0 0
0.793515 0 0
0.827405 0 0
0.861418 0 0
0.895399 0 0
0.92929 0 0
0.963333 0 0
0.997009 0 0
0 0 0
0 0 0
0 0 0
0.0126955 0 0
0.0466926 0 0
0.0806897 0 0
0.11458 0 0
0.148745 0 0
0.18262 0 0
0.21651 0 0
0.250401 0 0
0.284291 0 0
0.318303 0 0
0.35256 0 0
0.38645 0 0
0.42034 0 0
0.454231 0 0
0.488121 0 0
0.522057 0 0
0.556176 0 0
0.590188 0 0
0.62417 0 0
0.658061 0 0
0.691936 0 0
0.725933 0 0
0.759991 0 0
0.793881 0 0
0.827771 0 0
0.861784 0 0
0.895766 0 0
0.929793 0 0
0.963821 0 0
0.997391 0 0
0 0 0
0 0 0
0 0 0
0.012665 0 0
0.0466773 0 0
0.0806592 0 0
0.114809 0 0
0.148714 0 0
0.182605 0 0
0.216495 0 0
0.250385 0 0
0.28426 0 0
0.318547 0 0
0.352529 0 0
0.386419 0 0
0.42031 0 0
0.4542 0 0
0.488121 0 0
0.522255 0 0
0.556146 0 0
0.590158 0 0
0.62414 0 0
0.65803 0 0
0.692195 0 0
0.726085 0 0
0.75996 0 0
0.793851 0 0
0.827741 0 0
0.86183 0 0
0.89601 0 0
0.9299 0 0
0.96379 0 0
0.99736 0 0
0 0.012604 0
0 0.0126802 0
0 0.0126345 0
0.0126497 0.0125887 0
0.0466468 0.0125277 0
0.0809186 0.0127413 0
0.114809 0.0126955 0
0.148699 0.0126497 0
0.182574 0.012604 0
0.216464 0.0125734 0
0.250584 0.0127565 0
0.28452 0.0127565 0
0.318532 0.0126955 0
0.352514 0.0126345 0
0.386404 0.0125887 0
0.420294 0.0125429 0
0.454459 0.0127871 0
0.48835 0.0127413 0
0.52224 0.0126955 0
0.55613 0.012665 0
0.590143 0.0125887 0
0.624109 0.0125277 0
0.658274 0.0127565 0
0.692164 0.0127108 0
0.726055 0.0126802 0
0.759945 0.0126345 0
0.793835 0.0125887 0
0.827771 0.012604 0
0.862013 0.0127565 0
0.895994 0.0126955 0
0.929885 0.0126497 0
0.96376 0.012604 0
0.99733 0.012665 0
0 0.04654 0
0 0.0466163 0
0 0.0465705 0
0.012665 0.0466773 0
0.0467842 0.0467384 0
0.0807813 0.0466621 0
0.114656 0.0466316 0
0.148547 0.0465858 0
0.182437 0.04654 0
0.216526 0.0467079 0
0.250492 0.0467384 0
0.284382 0.0466926 0
0.318395 0.0466316 0
0.352377 0.0465705 0
0.386267 0.0465248 0
0.420401 0.0467384 0
0.454322 0.0467231 0
0.488212 0.0466773 0
0.522103 0.0466316 0
0.555993 0.0466011 0
0.590005 0.0465248 0
0.624247 0.0467384 0
0.658137 0.0466926 0
0.692027 0.0466468 0
0.725917 0.0466163 0
0.759808 0.0465705 0
0.793973 0.0467994 0
0.827863 0.0467689 0
0.861875 0.0466926 0
0.895857 0.0466316 0
0.929747 0.0465858 0
0.963653 0.0465705 0
0.997467 0.0468605 0
0 0.0804608 0
0 0.0805371 0
0 0.0806287 0
0.0126802 0.0807202 0
0.0466773 0.0806592 0
0.0806744 0.0805982 0
0.114565 0.0805524 0
0.148455 0.0805066 0
0.182605 0.0807507 0
0.216495 0.080705 0
0.250385 0.0806592 0
0.284276 0.0806287 0
0.318288 0.0805524 0
0.352438 0.0806592 0
0.386435 0.0807202 0
0.420325 0.0806744 0
0.454215 0.0806439 0
0.488106 0.0805982 0
0.521996 0.0805524 0
0.5561 0.0807507 0
0.590158 0.0807202 0
0.62414 0.0806592 0
0.65803 0.0806134 0
0.69192 0.0805676 0
0.725811 0.0805371 0
0.759976 0.080766 0
0.793866 0.0807202 0
0.827756 0.0806897 0
0.861769 0.0806134 0
0.89575 0.0805524 0
0.929641 0.0805066 0
0.96379 0.0807355 0
0.99736 0.0807965 0
0 0.114397 0
0 0.114702 0
0 0.114656 0
0.0126497 0.114611 0
0.0466621 0.114549 0
0.0806439 0.114473 0
0.114641 0.114534 0
0.148699 0.114672 0
0.182589 0.114641 0
0.21648 0.114595 0
0.25037 0.114549 0
0.284245 0.114504 0
0.31841 0.114595 0
0.352514 0.114656 0
0.386404 0.114611 0
0.420294 0.114565 0
0.454185 0.114534 0
0.488075 0.114488 0
0.522164 0.114641 0
0.55613 0.114687 0
0.590143 0.114611 0
0.624125 0.114549 0
0.658015 0.114504 0
0.691905 0.114458 0
0.72607 0.114702 0
0.759945 0.114656 0
0.793835 0.114611 0
0.827726 0.11458 0
0.861753 0.114504 0
0.895964 0.114687 0
0.929885 0.114672 0
0.963775 0.114626 0
0.997345 0.114672 0
0 0.148516 0
0 0.148592 0
0 0.148547 0
0.0126345 0.148501 0
0.0466316 0.14844 0
0.080705 0.148455 0
0.114794 0.148608 0
0.148684 0.148562 0
0.182574 0.148516 0
0.216449 0.148486 0
0.25034 0.14844 0
0.284504 0.148669 0
0.318517 0.148608 0
0.352499 0.148531 0
0.386389 0.148501 0
0.420279 0.148455 0
0.454292 0.148547 0
0.488334 0.148653 0
0.522225 0.148608 0
0.556115 0.148577 0
0.590127 0.148501 0
0.624094 0.14844 0
0.658167 0.148562 0
0.692149 0.148623 0
0.72604 0.148592 0
0.75993 0.148547 0
0.79382 0.148501 0
0.82771 0.14847 0
0.861952 0.148608 0
0.895979 0.148608 0
0.92987 0.148562 0
0.963745 0.148516 0
0.997314 0.148562 0
0 0.182406 0
0 0.182483 0
0 0.182437 0
0.012604 0.182391 0
0.0468757 0.182605 0
0.0808728 0.182528 0
0.114763 0.182483 0
0.148653 0.182452 0
0.182544 0.182406 0
0.21648 0.182422 0
0.250599 0.182605 0
0.284474 0.182559 0
0.318486 0.182498 0
0.352468 0.182422 0
0.386358 0.182391 0
0.420356 0.182452 0
0.454414 0.182574 0
0.488304 0.182544 0
0.522194 0.182498 0
0.556085 0.182467 0
0.590097 0.182391 0
0.624231 0.182467 0
0.658244 0.182559 0
0.692134 0.182513 0
0.726024 0.182483 0
0.759899 0.182437 0
0.79379 0.182391 0
0.827955 0.182635 0
0.861982 0.182559 0
0.895949 0.182498 0
0.929839 0.182452 0
0.963729 0.182406 0
0.997497 0.18265 0
0 0.216281 0
0 0.216358 0
0 0.216327 0
0.0128481 0.216556 0
0.0468605 0.216495 0
0.0808576 0.216419 0
0.114733 0.216373 0
0.148623 0.216342 0
0.182544 0.216327 0
0.216678 0.216541 0
0.250568 0.216495 0
0.284459 0.216449 0
0.318471 0.216388 0
0.352453 0.216312 0
0.386618 0.216541 0
0.420508 0.21651 0
0.454398 0.216464 0
0.488273 0.216434 0
0.522164 0.216388 0
0.55613 0.216419 0
0.590341 0.216541 0
0.624323 0.21648 0
0.658213 0.216449 0
0.692103 0.216403 0
0.725994 0.216358 0
0.760006 0.216449 0
0.794049 0.216556 0
0.827939 0.216526 0
0.861952 0.216434 0
0.895933 0.216373 0
0.929824 0.216342 0
0.963882 0.21648 0
0.997543 0.216617 0
0 0.250172 0
0 0.250492 0
0 0.250492 0
0.0128328 0.250446 0
0.0468299 0.250385 0
0.080827 0.250309 0
0.114717 0.250263 0
0.148882 0.250507 0
0.182773 0.250462 0
0.216648 0.250431 0
0.250538 0.250385 0
0.284428 0.25034 0
0.318441 0.250278 0
0.352697 0.250477 0
0.386587 0.250431 0
0.420478 0.250401 0
0.454368 0.250355 0
0.488258 0.250324 0
0.522194 0.250324 0
0.556313 0.250523 0
0.590326 0.250431 0
0.624308 0.25037 0
0.658198 0.25034 0
0.692073 0.250294 0
0.72607 0.250355 0
0.760128 0.250492 0
0.794018 0.250446 0
0.827909 0.250416 0
0.861921 0.250324 0
0.895903 0.250263 0
0.930068 0.250507 0
0.963958 0.250462 0
0.997528 0.250507 0
0 0.284276 0
0 0.284413 0
0 0.284382 0
0.0128023 0.284337 0
0.0468147 0.28426 0
0.0808118 0.284199 0
0.114946 0.284413 0
0.148852 0.284398 0
0.182742 0.284352 0
0.216632 0.284306 0
0.250523 0.284276 0
0.284413 0.28423 0
0.318685 0.284428 0
0.352682 0.284367 0
0.386572 0.284321 0
0.420462 0.284291 0
0.454353 0.284245 0
0.488502 0.284474 0
0.522393 0.284443 0
0.556283 0.284398 0
0.590295 0.284321 0
0.624277 0.28426 0
0.658198 0.284245 0
0.692332 0.284459 0
0.726223 0.284413 0
0.760113 0.284382 0
0.794003 0.284337 0
0.827893 0.284306 0
0.861982 0.284291 0
0.896147 0.284428 0
0.930037 0.284398 0
0.963928 0.284352 0
0.997497 0.284398 0
0 0.318288 0
0 0.318364 0
0 0.318334 0
0.0126345 0.318288 0
0.0468299 0.318395 0
0.0809186 0.318425 0
0.114794 0.318379 0
0.148684 0.318334 0
0.182574 0.318303 0
0.216464 0.318257 0
0.250584 0.318456 0
0.28452 0.318456 0
0.318532 0.318379 0
0.352514 0.318318 0
0.386404 0.318273 0
0.420294 0.318242 0
0.454459 0.318471 0
0.488334 0.318425 0
0.522225 0.318395 0
0.556115 0.318349 0
0.590127 0.318273 0
0.624109 0.318212 0
0.658274 0.318441 0
0.692164 0.31841 0
0.726055 0.318364 0
0.759945 0.318318 0
0.793835 0.318288 0
0.827771 0.318288 0
0.862013 0.318441 0
0.895979 0.318379 0
0.92987 0.318334 0
0.96376 0.318303 0
0.99733 0.318349 0
0 0.352193 0
0 0.35227 0
0 0.352239 0
0.012726 0.352346 0
0.0468452 0.352392 0
0.0808423 0.352331 0
0.114717 0.352285 0
0.148608 0.352255 0
0.182498 0.352209 0
0.216602 0.352377 0
0.250553 0.352407 0
0.284443 0.352361 0
0.318441 0.352285 0
0.352438 0.352224 0
0.386328 0.352178 0
0.420493 0.352422 0
0.454383 0.352377 0
0.488258 0.352331 0
0.522148 0.3523 0
0.556039 0.352255 0
0.590311 0.352438 0
0.624308 0.352392 0
0.658198 0.352361 0
0.692088 0.352316 0
0.725978 0.35227 0
0.759869 0.352239 0
0.794034 0.352468 0
0.827924 0.352422 0
0.861936 0.352346 0
0.895903 0.352285 0
0.929793 0.352255 0
0.963714 0.352239 0
0.997528 0.352529 0
0 0.386084 0
0 0.38616 0
0 0.386404 0
0.0128176 0.386358 0
0.0468147 0.386282 0
0.0808118 0.386221 0
0.114702 0.386175 0
0.148714 0.386267 0
0.182757 0.386374 0
0.216632 0.386328 0
0.250523 0.386297 0
0.284413 0.386252 0
0.318425 0.386175 0
0.35259 0.386297 0
0.386572 0.386343 0
0.420462 0.386313 0
0.454353 0.386267 0
0.488243 0.386221 0
0.522133 0.386191 0
0.556252 0.386374 0
0.590311 0.386343 0
0.624292 0.386282 0
0.658183 0.386252 0
0.692058 0.386206 0
0.725948 0.38616 0
0.760113 0.386404 0
0.794003 0.386358 0
0.827893 0.386313 0
0.861906 0.386236 0
0.895888 0.386175 0
0.929778 0.386145 0
0.963943 0.386374 0
0.997513 0.386419 0
0 0.420035 0
0 0.420325 0
0 0.420294 0
0.0127871 0.420249 0
0.0467994 0.420172 0
0.0807965 0.420111 0
0.114778 0.420172 0
0.148836 0.42031 0
0.182727 0.420264 0
0.216617 0.420218 0
0.250507 0.420188 0
0.284398 0.420142 0
0.318563 0.420233 0
0.352667 0.420279 0
0.386557 0.420233 0
0.420447 0.420203 0
0.454337 0.420157 0
0.488212 0.420111 0
0.522377 0.420356 0
0.556268 0.42031 0
0.59028 0.420233 0
0.624262 0.420172 0
0.658152 0.420142 0
0.692241 0.420294 0
0.726207 0.420325 0
0.760098 0.420294 0
0.793988 0.420249 0
0.827878 0.420203 0
0.861891 0.420127 0
0.896117 0.420325 0
0.930022 0.42031 0
0.963912 0.420264 0
0.997482 0.42031 0
0 0.454139 0
0 0.454215 0
0 0.454185 0
0.0127718 0.454139 0
0.0467689 0.454063 0
0.0810407 0.454276 0
0.114931 0.454231 0
0.148821 0.4542 0
0.182712 0.454154 0
0.216587 0.454109 0
0.250568 0.454154 0
0.284642 0.454307 0
0.318654 0.454231 0
0.352636 0.45417 0
0.386526 0.454124 0
0.420417 0.454093 0
0.454429 0.454185 0
0.488472 0.454276 0
0.522362 0.454246 0
0.556252 0.4542 0
0.590265 0.454124 0
0.624231 0.454063 0
0.658305 0.4542 0
0.692287 0.454261 0
0.726177 0.454215 0
0.760067 0.454185 0
0.793957 0.454139 0
0.827848 0.454093 0
0.862104 0.454246 0
0.896117 0.454231 0
0.930007 0.4542 0
0.963882 0.454154 0
0.997452 0.4542 0
0 0.488029 0
0 0.488106 0
0 0.488075 0
0.0127565 0.488029 0
0.0470283 0.488228 0
0.0810101 0.488167 0
0.1149 0.488121 0
0.148791 0.488075 0
0.182681 0.488045 0
0.216632 0.48806 0
0.250736 0.488243 0
0.284627 0.488197 0
0.318624 0.488121 0
0.352621 0.48806 0
0.386496 0.488014 0
0.420493 0.48809 0
0.454551 0.488212 0
0.488441 0.488167 0
0.522332 0.488136 0
0.556222 0.48809 0
0.590234 0.488014 0
0.624491 0.488228 0
0.658381 0.488182 0
0.692271 0.488151 0
0.726162 0.488106 0
0.760052 0.488075 0
0.794079 0.488182 0
0.828092 0.488258 0
0.862119 0.488182 0
0.896086 0.488121 0
0.929976 0.48809 0
0.963867 0.488045 0
0.997635 0.488289 0
0 0.52192 0
0 0.521996 0
0 0.52195 0
0.0130007 0.522194 0
0.0469978 0.522118 0
0.0809949 0.522057 0
0.114885 0.522011 0
0.148775 0.521965 0
0.18294 0.52221 0
0.216815 0.522164 0
0.250706 0.522118 0
0.284596 0.522087 0
0.318608 0.522011 0
0.352621 0.521981 0
0.386755 0.522179 0
0.420645 0.522133 0
0.454536 0.522103 0
0.488426 0.522057 0
0.522316 0.522026 0
0.556283 0.522057 0
0.590494 0.522179 0
0.62446 0.522118 0
0.658351 0.522072 0
0.692241 0.522026 0
0.726131 0.521996 0
0.760159 0.522087 0
0.794186 0.522194 0
0.828077 0.522148 0
0.862104 0.522072 0
0.896071 0.522011 0
0.929961 0.521965 0
0.964019 0.522103 0
0.997681 0.522255 0
0 0.55581 0
0 0.556115 0
0 0.556115 0
0.0129702 0.556085 0
0.0469673 0.556008 0
0.0809644 0.555947 0
0.114855 0.555901 0
0.14902 0.55613 0
0.18291 0.5561 0
0.2168 0.556054 0
0.25069 0.556008 0
0.284581 0.555978 0
0.318593 0.555917 0
0.352834 0.556115 0
0.386725 0.556069 0
0.420615 0.556023 0
0.454505 0.555993 0
0.488396 0.555947 0
0.522347 0.555962 0
0.556451 0.556146 0
0.590463 0.556069 0
0.624445 0.556008 0
0.658335 0.555962 0
0.692226 0.555917 0
0.72639 0.556161 0
0.760281 0.556115 0
0.794156 0.556085 0
0.828046 0.556039 0
0.862074 0.555962 0
0.896147 0.556008 0
0.930205 0.55613 0
0.964096 0.5561 0
0.997665 0.556146 0
0 0.589975 0
0 0.590112 0
0 0.590082 0
0.0127718 0.590036 0
0.0467842 0.58996 0
0.080766 0.589899 0
0.114931 0.590127 0
0.148821 0.590097 0
0.182712 0.590051 0
0.216602 0.590005 0
0.250492 0.589975 0
0.284642 0.590188 0
0.318654 0.590127 0
0.352651 0.590066 0
0.386542 0.590036 0
0.420432 0.58999 0
0.454322 0.589944 0
0.488472 0.590173 0
0.522362 0.590143 0
0.556252 0.590097 0
0.590265 0.590021 0
0.624247 0.58996 0
0.658167 0.58996 0
0.692302 0.590158 0
0.726192 0.590112 0
0.760082 0.590082 0
0.793973 0.590036 0
0.827863 0.58999 0
0.861952 0.590005 0
0.896117 0.590127 0
0.930007 0.590097 0
0.963897 0.590051 0
0.997467 0.590097 0
0 0.623941 0
0 0.624018 0
0 0.623972 0
0.012726 0.623941 0
0.0469215 0.624048 0
0.0809949 0.624079 0
0.114885 0.624033 0
0.148775 0.623987 0
0.182666 0.623957 0
0.216556 0.623911 0
0.250675 0.624109 0
0.284611 0.624109 0
0.318608 0.624033 0
0.35259 0.623972 0
0.386496 0.623926 0
0.420371 0.62388 0
0.454536 0.624125 0
0.488426 0.624079 0
0.522316 0.624048 0
0.556207 0.624002 0
0.590219 0.623926 0
0.624201 0.623865 0
0.658366 0.624094 0
0.692256 0.624048 0
0.726146 0.624018 0
0.760037 0.623972 0
0.793912 0.623941 0
0.828077 0.62417 0
0.862104 0.624094 0
0.896071 0.624033 0
0.929961 0.623987 0
0.963851 0.623957 0
0.997467 0.624048 0
0 0.657832 0
0 0.657908 0
0 0.657862 0
0.0128634 0.657984 0
0.0469825 0.65803 0
0.0809796 0.657969 0
0.114855 0.657923 0
0.148745 0.657877 0
0.182635 0.657847 0
0.2168 0.658076 0
0.25069 0.65803 0
0.284581 0.658 0
0.318593 0.657923 0
0.352575 0.657862 0
0.386679 0.65803 0
0.42063 0.658045 0
0.45452 0.658015 0
0.488396 0.657969 0
0.522286 0.657923 0
0.556176 0.657893 0
0.590448 0.658076 0
0.624445 0.65803 0
0.658335 0.657984 0
0.692226 0.657938 0
0.726116 0.657908 0
0.760006 0.657862 0
0.794171 0.658091 0
0.828061 0.658061 0
0.862074 0.657984 0
0.896056 0.657923 0
0.929946 0.657877 0
0.963851 0.657862 0
0.997665 0.658167 0
0 0.691722 0
0 0.691875 0
0 0.692027 0
0.0129549 0.691981 0
0.046952 0.69192 0
0.0809491 0.691844 0
0.114839 0.691814 0
0.148867 0.691905 0
0.182895 0.692012 0
0.216785 0.691966 0
0.250675 0.69192 0
0.284566 0.69189 0
0.318563 0.691814 0
0.352743 0.691936 0
0.386725 0.691981 0
0.4206 0.691936 0
0.45449 0.691905 0
0.48838 0.691859 0
0.522271 0.691814 0
0.55639 0.692012 0
0.590448 0.691981 0
0.62443 0.69192 0
0.65832 0.691875 0
0.69221 0.691829 0
0.726101 0.691798 0
0.760266 0.692027 0
0.794141 0.691981 0
0.828031 0.691951 0
0.862058 0.691875 0
0.896025 0.691814 0
0.93019 0.692042 0
0.96408 0.691997 0
0.99765 0.692058 0
0 0.725673 0
0 0.725963 0
0 0.725917 0
0.0129244 0.725872 0
0.0469368 0.725811 0
0.0809339 0.725734 0
0.114931 0.725811 0
0.148974 0.725933 0
0.182864 0.725902 0
0.216754 0.725856 0
0.250645 0.725811 0
0.284535 0.72578 0
0.318807 0.725978 0
0.352804 0.725917 0
0.386694 0.725872 0
0.420584 0.725826 0
0.454475 0.725795 0
0.488518 0.725902 0
0.522515 0.725978 0
0.556405 0.725948 0
0.590417 0.725872 0
0.624399 0.725811 0
0.658289 0.725765 0
0.692393 0.725933 0
0.726345 0.725963 0
0.760235 0.725917 0
0.794125 0.725872 0
0.828016 0.725841 0
0.862028 0.725765 0
0.896254 0.725963 0
0.930159 0.725933 0
0.96405 0.725902 0
0.99762 0.725948 0
0 0.759777 0
0 0.759854 0
0 0.759808 0
0.0129091 0.759762 0
0.046952 0.759731 0
0.081178 0.759899 0
0.115068 0.759869 0
0.148959 0.759823 0
0.182849 0.759793 0
0.216724 0.759747 0
0.250706 0.759793 0
0.284779 0.759945 0
0.318791 0.759869 0
0.352773 0.759793 0
0.386664 0.759762 0
0.420554 0.759716 0
0.454582 0.759808 0
0.488609 0.759915 0
0.522499 0.759869 0
0.55639 0.759838 0
0.590402 0.759762 0
0.624384 0.759701 0
0.658457 0.759838 0
0.692424 0.759884 0
0.726314 0.759854 0
0.760204 0.759808 0
0.794095 0.759762 0
0.827985 0.759731 0
0.862287 0.75993 0
0.896254 0.759869 0
0.930144 0.759823 0
0.964034 0.759793 0
0.997604 0.759823 0
0 0.793652 0
0 0.793744 0
0 0.793698 0
0.0128939 0.793667 0
0.0471656 0.793866 0
0.0811627 0.79379 0
0.115038 0.793744 0
0.148928 0.793713 0
0.182818 0.793667 0
0.21677 0.793698 0
0.250874 0.793866 0
0.284764 0.793835 0
0.318776 0.793759 0
0.352758 0.793683 0
0.386648 0.793652 0
0.420813 0.793881 0
0.454704 0.793835 0
0.488579 0.793805 0
0.522469 0.793759 0
0.556359 0.793729 0
0.590478 0.793759 0
0.624628 0.793851 0
0.658518 0.79382 0
0.692409 0.793774 0
0.726299 0.793744 0
0.760189 0.793698 0
0.794232 0.79382 0
0.828244 0.793896 0
0.862257 0.79382 0
0.896223 0.793759 0
0.930114 0.793713 0
0.964004 0.793667 0
0.997787 0.793927 0
0 0.827543 0
0 0.827634 0
0 0.827848 0
0.013138 0.827817 0
0.0471351 0.827756 0
0.0811322 0.82768 0
0.115023 0.827634 0
0.148913 0.827604 0
0.183062 0.827832 0
