public/LUTS/Darken/Darken_10.cube
TITLE "Generated by Resolve"
LUT_3D_SIZE 5
0 0 0
0.205524 0 0
0.411978 0 0
0.61825 0 0
0.824491 0 0
0 0.205829 0
0.205936 0.205844 1.5259e-05
0.412406 0.205966 0.000137331
0.618677 0.20589 6.10361e-05
0.824842 0.206012 0.000198367
0.000122072 0.412192 0.000122072
0.206058 0.412207 0.000137331
0.412421 0.412222 0.00015259
0.618799 0.412253 0.000183108
0.824826 0.412238 0.000167849
9.15541e-05 0.618418 9.15541e-05
0.20618 0.618585 0.000259403
0.412451 0.618509 0.000183108
0.618921 0.618631 0.00030518
0.824948 0.618616 0.000289921
0.000167849 0.824735 0.000167849
0.206302 0.824948 0.000381476
0.412573 0.824872 0.00030518
0.619013 0.824979 0.000411994
0.825071 0.824994 0.000427253
0 0 0.206485
0.205524 0 0.206485
0.411994 0 0.206622
0.618265 0 0.206546
0.824353 0 0.206592
1.5259e-05 0.205844 0.206897
0.205951 0.205844 0.206912
0.412222 0.205783 0.206851
0.618692 0.20589 0.206958
0.824704 0.20589 0.206943
0 0.412009 0.206821
0.206073 0.412222 0.207034
0.412329 0.412146 0.206958
0.618814 0.412268 0.20708
0.824842 0.412253 0.207065
6.10361e-05 0.618372 0.206943
0.206195 0.618601 0.207156
0.412451 0.618509 0.20708
0.61883 0.618524 0.207095
0.824964 0.618631 0.207202
0.000183108 0.82475 0.207065
0.206165 0.824811 0.207126
0.412589 0.824887 0.207202
0.61886 0.824811 0.207126
0.825086 0.82501 0.207324
0 0 0.413779
0.205509 0 0.413779
0.41178 0 0.413703
0.61825 0 0.41384
0.824262 0 0.413825
0 0.205615 0.413993
0.205921 0.205829 0.414206
0.412192 0.205753 0.41413
0.618662 0.205875 0.414252
0.824689 0.205859 0.414237
0 0.411994 0.414115
0.206043 0.412192 0.414313
0.412314 0.412116 0.414252
0.618601 0.412055 0.414191
0.824811 0.412238 0.414359
4.57771e-05 0.618357 0.414237
0.205966 0.618372 0.414252
0.412436 0.618494 0.414374
0.618708 0.618418 0.414298
0.824933 0.618616 0.414481
0.000167849 0.824735 0.414359
0.206088 0.824735 0.414374
0.412573 0.824872 0.414496
0.61883 0.824781 0.41442
0.824857 0.824781 0.414405
0 0 0.620859
0.205478 0 0.621073
0.411749 0 0.620996
0.618189 0 0.621088
0.824247 0 0.621118
0 0.2056 0.621286
0.205814 0.205722 0.621408
0.412177 0.205737 0.621424
0.618448 0.205646 0.621347
0.824674 0.205844 0.62153
0 0.411963 0.621408
0.205829 0.411978 0.621424
0.412299 0.4121 0.621546
0.61857 0.412024 0.621469
0.824796 0.412222 0.621668
1.5259e-05 0.618341 0.62153
0.205951 0.618357 0.621546
0.412406 0.618463 0.621653
0.618692 0.618402 0.621592
0.824704 0.618387 0.621576
7.62951e-05 0.824643 0.621592
0.206073 0.82472 0.621668
0.412345 0.824643 0.621592
0.618814 0.824765 0.621714
0.824842 0.82475 0.621698
0 0 0.82768
0.205325 0 0.82771
0.411765 0 0.827817
0.618036 0 0.827726
0.824277 0 0.827924
0 0.205615 0.828092
0.205722 0.205615 0.828107
0.412192 0.205753 0.828229
0.618463 0.205676 0.828153
0.824643 0.205814 0.828305
0 0.411978 0.828214
0.205844 0.411994 0.828229
0.412222 0.412024 0.82826
0.618585 0.412039 0.828275
0.824613 0.412024 0.82826
0 0.618219 0.828199
0.205966 0.618372 0.828351
0.412238 0.618296 0.828275
0.618708 0.618418 0.828397
0.824735 0.618402 0.828382
0 0.824521 0.82826
0.206088 0.824735 0.828489
0.41236 0.824659 0.828397
0.618814 0.824781 0.828519
0.824445 0.824353 0.828092
