public/LUTS/Darken/Darken_11.cube
TITLE "Generated by Resolve"
LUT_3D_SIZE 33
0 0 0
0.0235904 0 0
0.0478828 0 0
0.0723888 0 0
0.0967727 0 0
0.121141 0 0
0.145449 0 0
0.169757 0 0
0.194064 0 0
0.21854 0 0
0.242847 0 0
0.267155 0 0
0.291539 0 0
0.315908 0 0
0.340261 0 0
0.364706 0 0
0.389013 0 0
0.413306 0 0
0.437613 0 0
0.461906 0 0
0.486503 0 0
0.510872 0 0
0.535164 0 0
0.559472 0 0
0.58378 0 0
0.608148 0 0
0.632578 0 0
0.65687 0 0
0.68127 0 0
0.705623 0 0
0.729931 0 0
0.754345 0 0
0.7785 0 0
0 0.0237888 0
0.0238499 0.0238346 0
0.0483558 0.0240024 9.15541e-05
0.0726482 0.0239719 6.10361e-05
0.0970321 0.0239261 1.5259e-05
0.121416 0.0238804 0
0.145708 0.0238499 0
0.170214 0.0240177 0.000106813
0.194507 0.0239872 7.62951e-05
0.218814 0.0239567 4.57771e-05
0.243107 0.0239261 1.5259e-05
0.267414 0.0238956 0
0.291798 0.0238499 0
0.316365 0.0240024 9.15541e-05
0.340673 0.0239719 6.10361e-05
0.364965 0.0239414 3.0518e-05
0.389273 0.0239109 0
0.413581 0.0238804 0
0.437903 0.0238956 0
0.462379 0.024033 0.000106813
0.486763 0.0239719 6.10361e-05
0.511131 0.0239261 1.5259e-05
0.535439 0.0238956 0
0.559731 0.0238651 0
0.5841 0.0239109 0
0.60853 0.0240024 9.15541e-05
0.632837 0.0239719 6.10361e-05
0.65713 0.0239567 3.0518e-05
0.681529 0.0238956 0
0.705898 0.0238499 0
0.730297 0.0239261 1.5259e-05
0.754696 0.0239872 7.62951e-05
0.778759 0.0240177 0.000106813
0 0.0482338 0
0.024033 0.0483406 0.000106813
0.0483253 0.0483101 7.62951e-05
0.0726329 0.0482795 4.57771e-05
0.0970169 0.0482338 0
0.121401 0.048188 0
0.145876 0.0483406 0.000106813
0.170184 0.0483253 9.15541e-05
0.194491 0.0482948 6.10361e-05
0.218799 0.0482643 3.0518e-05
0.243091 0.0482338 0
0.267399 0.0482032 0
0.291981 0.0483558 0.000122072
0.31635 0.0483101 7.62951e-05
0.340658 0.0482795 4.57771e-05
0.36495 0.048249 1.5259e-05
0.389258 0.0482185 0
0.413565 0.0482032 0
0.438056 0.0483558 0.000122072
0.462364 0.0483253 9.15541e-05
0.486748 0.0482795 4.57771e-05
0.511116 0.0482338 0
0.535409 0.0482032 0
0.559915 0.0483711 0.000137331
0.584222 0.0483406 0.000106813
0.608515 0.0483101 7.62951e-05
0.632822 0.0482795 4.57771e-05
0.657115 0.048249 1.5259e-05
0.681559 0.048249 1.5259e-05
0.706065 0.0483558 0.000122072
0.730373 0.0483253 9.15541e-05
0.754665 0.0482948 6.10361e-05
0.778744 0.0483253 9.15541e-05
3.0518e-05 0.0725872 3.0518e-05
0.0240177 0.0726329 9.15541e-05
0.0483101 0.0726177 6.10361e-05
0.0726177 0.0725872 3.0518e-05
0.0970016 0.0725261 0
0.121569 0.0726787 0.000122072
0.145876 0.0726482 9.15541e-05
0.170169 0.0726177 7.62951e-05
0.194476 0.0725872 4.57771e-05
0.218784 0.0725719 1.5259e-05
0.243244 0.072694 0.00015259
0.267567 0.0727092 0.00015259
0.291966 0.0726482 0.000106813
0.316335 0.0726024 6.10361e-05
0.340642 0.0725719 3.0518e-05
0.364935 0.0725414 0
0.389441 0.0727092 0.000167849
0.413733 0.0726787 0.000137331
0.438041 0.0726635 0.000106813
0.462333 0.0726329 7.62951e-05
0.486732 0.0725719 3.0518e-05
0.511101 0.0725261 0
0.535592 0.072694 0.00015259
0.559899 0.0726635 0.000122072
0.584192 0.0726329 9.15541e-05
0.608499 0.0726024 6.10361e-05
0.632807 0.0725872 3.0518e-05
0.65713 0.0725872 3.0518e-05
0.681697 0.072694 0.000137331
0.70605 0.0726482 0.000106813
0.730358 0.0726177 7.62951e-05
0.75465 0.0725872 4.57771e-05
0.778729 0.0726329 7.62951e-05
0 0.0969253 0
0.0239109 0.0969711 0
0.0482185 0.0969406 0
0.0726329 0.0970321 4.57771e-05
0.0970932 0.0970626 7.62951e-05
0.121477 0.0970169 3.0518e-05
0.145769 0.0969863 0
0.170077 0.0969558 0
0.194369 0.0969253 0
0.21883 0.0970474 6.10361e-05
0.243183 0.0970626 7.62951e-05
0.267475 0.0970321 4.57771e-05
0.291859 0.0969863 0
0.316228 0.0969406 0
0.340536 0.09691 0
0.365026 0.0970626 7.62951e-05
0.389334 0.0970474 6.10361e-05
0.413642 0.0970169 3.0518e-05
0.437934 0.0969863 0
0.462242 0.0969711 0
0.486625 0.09691 0
0.511193 0.0970626 7.62951e-05
0.5355 0.0970321 4.57771e-05
0.559792 0.0970016 1.5259e-05
0.5841 0.0969711 0
0.608392 0.0969406 0
0.632898 0.0971084 0.000122072
0.657206 0.0970779 0.000106813
0.68159 0.0970321 4.57771e-05
0.705959 0.0969863 0
0.730251 0.0969558 0
0.754574 0.0969406 0
0.77882 0.0971542 0.000167849
0 0.121248 0
0.0238346 0.121294 0
0.0482338 0.12137 0
0.0726329 0.121431 4.57771e-05
0.0970169 0.121386 0
0.121401 0.12134 0
0.145693 0.121309 0
0.170001 0.121279 0
0.194491 0.121447 6.10361e-05
0.218799 0.121416 3.0518e-05
0.243107 0.121386 0
0.267399 0.121355 0
0.291783 0.121309 0
0.316289 0.121386 0
0.340658 0.121431 4.57771e-05
0.364965 0.121401 1.5259e-05
0.389258 0.12137 0
0.413565 0.12134 0
0.437858 0.121324 0
0.462333 0.121447 6.10361e-05
0.486748 0.121431 4.57771e-05
0.511116 0.121386 0
0.535424 0.121355 0
0.559716 0.121324 0
0.584024 0.121294 0
0.608515 0.121462 7.62951e-05
0.632822 0.121431 4.57771e-05
0.65713 0.121416 3.0518e-05
0.681514 0.121355 0
0.705882 0.121309 0
0.73019 0.121279 0
0.754681 0.121447 6.10361e-05
0.778744 0.121477 9.15541e-05
0 0.145586 0
0.0240177 0.1458 9.15541e-05
0.0483253 0.145769 6.10361e-05
0.0726177 0.145739 3.0518e-05
0.0970016 0.145693 0
0.121386 0.145647 0
0.145754 0.145678 0
0.170184 0.145785 7.62951e-05
0.194476 0.145754 4.57771e-05
0.218784 0.145724 1.5259e-05
0.243091 0.145693 0
0.267384 0.145663 0
0.291875 0.145724 1.5259e-05
0.316335 0.145769 6.10361e-05
0.340642 0.145739 3.0518e-05
0.36495 0.145708 0
0.389242 0.145678 0
0.41355 0.145647 0
0.437995 0.145769 6.10361e-05
0.462348 0.145785 9.15541e-05
0.486732 0.145739 3.0518e-05
0.511101 0.145693 0
0.535409 0.145663 0
0.559701 0.145632 0
0.584207 0.1458 9.15541e-05
0.608499 0.145769 6.10361e-05
0.632807 0.145739 3.0518e-05
0.657115 0.145708 1.5259e-05
0.681498 0.145663 0
0.706035 0.145785 9.15541e-05
0.730358 0.145785 7.62951e-05
0.754665 0.145754 4.57771e-05
0.778729 0.145785 7.62951e-05
1.5259e-05 0.170047 1.5259e-05
0.0240024 0.170092 7.62951e-05
0.0483101 0.170077 4.57771e-05
0.0726024 0.170047 1.5259e-05
0.0969863 0.169986 0
0.121416 0.170001 0
0.145861 0.170108 9.15541e-05
0.170169 0.170077 6.10361e-05
0.194461 0.170047 3.0518e-05
0.218769 0.170016 0
0.243061 0.170001 0
0.267567 0.170169 0.000137331
0.291951 0.170108 9.15541e-05
0.31632 0.170062 4.57771e-05
0.340627 0.170031 1.5259e-05
0.36492 0.170001 0
0.389319 0.170062 4.57771e-05
0.413718 0.170138 0.000122072
0.438025 0.170123 9.15541e-05
0.462333 0.170092 6.10361e-05
0.486717 0.170031 1.5259e-05
0.511086 0.169986 0
0.535515 0.170092 6.10361e-05
0.559884 0.170123 0.000106813
0.584192 0.170092 7.62951e-05
0.608484 0.170062 4.57771e-05
0.632792 0.170047 1.5259e-05
0.657099 0.170016 0
0.681651 0.170123 9.15541e-05
0.70605 0.170108 9.15541e-05
0.730343 0.170077 6.10361e-05
0.75465 0.170047 3.0518e-05
0.778714 0.170092 6.10361e-05
0 0.194339 0
0.0239872 0.1944 6.10361e-05
0.0482948 0.194369 3.0518e-05
0.0725872 0.194339 0
0.0971695 0.194491 0.00015259
0.121538 0.194446 0.000106813
0.145846 0.194415 7.62951e-05
0.170153 0.194385 4.57771e-05
0.194446 0.194354 1.5259e-05
0.218784 0.194369 1.5259e-05
0.243244 0.194491 0.00015259
0.267552 0.194461 0.000122072
0.291936 0.194415 7.62951e-05
0.316304 0.194369 3.0518e-05
0.340612 0.194339 0
0.364981 0.194385 4.57771e-05
0.38941 0.194476 0.000137331
0.413703 0.194446 0.000106813
0.43801 0.194415 7.62951e-05
0.462318 0.194385 4.57771e-05
0.486702 0.194339 0
0.511177 0.1944 6.10361e-05
0.535561 0.194461 0.000122072
0.559869 0.19443 9.15541e-05
0.584176 0.1944 6.10361e-05
0.608469 0.194369 3.0518e-05
0.632776 0.194339 0
0.657267 0.194507 0.000167849
0.681666 0.194461 0.000106813
0.70602 0.194415 7.62951e-05
0.730327 0.194385 4.57771e-05
0.754635 0.194354 1.5259e-05
0.778836 0.194522 0.000183108
0 0.218647 0
0.0239719 0.218708 4.57771e-05
0.0482643 0.218677 1.5259e-05
0.0727703 0.218845 0.000183108
0.0971542 0.218784 0.000137331
0.121523 0.218738 9.15541e-05
0.14583 0.218708 6.10361e-05
0.170123 0.218692 3.0518e-05
0.194446 0.218677 1.5259e-05
0.218921 0.21883 0.000167849
0.243229 0.218799 0.000137331
0.267536 0.218769 0.000106813
0.29192 0.218708 6.10361e-05
0.316289 0.218662 1.5259e-05
0.34078 0.21883 0.000167849
0.365087 0.218799 0.00015259
0.389395 0.218784 0.000122072
0.413687 0.218753 9.15541e-05
0.437995 0.218723 6.10361e-05
0.462348 0.218753 9.15541e-05
0.486885 0.21883 0.000167849
0.511254 0.218784 0.000137331
0.535546 0.218769 0.000106813
0.559853 0.218723 7.62951e-05
0.584161 0.218708 4.57771e-05
0.608545 0.218769 0.000106813
0.632944 0.218845 0.000183108
0.657252 0.218814 0.00015259
0.681651 0.218753 9.15541e-05
0.706004 0.218708 6.10361e-05
0.730312 0.218692 3.0518e-05
0.754742 0.218784 0.000122072
0.778881 0.218891 0.000228885
0 0.242954 0
0.0241093 0.243168 0.000198367
0.0484474 0.243168 0.000198367
0.072755 0.243137 0.000167849
0.0971389 0.243091 0.000106813
0.121508 0.243046 6.10361e-05
0.145815 0.243015 3.0518e-05
0.170306 0.243183 0.000198367
0.194614 0.243153 0.000183108
0.218906 0.243122 0.00015259
0.243214 0.243091 0.000122072
0.267506 0.243061 9.15541e-05
0.291905 0.243015 4.57771e-05
0.316472 0.243168 0.000183108
0.340764 0.243137 0.00015259
0.365072 0.243107 0.000122072
0.38938 0.243076 0.000106813
0.413672 0.243046 7.62951e-05
0.43801 0.243061 7.62951e-05
0.46247 0.243198 0.000213626
0.48687 0.243137 0.00015259
0.511223 0.243091 0.000106813
0.535531 0.243061 9.15541e-05
0.559838 0.24303 4.57771e-05
0.584207 0.243076 9.15541e-05
0.608637 0.243168 0.000198367
0.632929 0.243137 0.000167849
0.657237 0.243122 0.000137331
0.681636 0.243061 7.62951e-05
0.705989 0.243015 3.0518e-05
0.730495 0.243183 0.000198367
0.754788 0.243153 0.000167849
0.778866 0.243183 0.000213626
0.000106813 0.267399 0.000106813
0.0241245 0.267506 0.000198367
0.0484321 0.267475 0.000183108
0.0727398 0.267445 0.00015259
0.0971237 0.267399 9.15541e-05
0.121492 0.267353 4.57771e-05
0.145983 0.267506 0.000198367
0.170291 0.267491 0.000183108
0.194598 0.26746 0.000167849
0.218891 0.26743 0.000137331
0.243198 0.267399 0.000106813
0.267491 0.267369 7.62951e-05
0.292073 0.267521 0.000213626
0.316457 0.267475 0.000167849
0.340749 0.267445 0.000137331
0.365057 0.267414 0.000106813
0.389349 0.267384 9.15541e-05
0.413855 0.267552 0.000244144
0.438148 0.267521 0.000228885
0.462455 0.267491 0.000198367
0.486839 0.267445 0.000137331
0.511208 0.267399 9.15541e-05
0.535531 0.267384 9.15541e-05
0.560006 0.267536 0.000228885
0.584314 0.267506 0.000198367
0.608621 0.267475 0.000183108
0.632914 0.267445 0.00015259
0.657221 0.267414 0.000122072
0.681666 0.267414 0.000122072
0.706172 0.267521 0.000213626
0.73048 0.267491 0.000183108
0.754772 0.26746 0.00015259
0.778851 0.267491 0.000198367
3.0518e-05 0.291783 3.0518e-05
0.0240177 0.291844 9.15541e-05
0.0483101 0.291814 6.10361e-05
0.0726177 0.291783 3.0518e-05
0.0971237 0.291875 0.000106813
0.121569 0.29189 0.000122072
0.145876 0.291859 9.15541e-05
0.170169 0.291829 7.62951e-05
0.194476 0.291798 4.57771e-05
0.218769 0.291768 1.5259e-05
0.243244 0.291905 0.00015259
0.267567 0.291905 0.00015259
0.291966 0.291859 9.15541e-05
0.316335 0.291814 4.57771e-05
0.340627 0.291783 1.5259e-05
0.364935 0.291752 0
0.389441 0.29192 0.000167849
0.413733 0.29189 0.000137331
0.438041 0.291859 0.000106813
0.462333 0.291829 7.62951e-05
0.486732 0.291783 1.5259e-05
0.511101 0.291737 0
0.535592 0.291905 0.00015259
0.559899 0.291875 0.000106813
0.584192 0.291844 9.15541e-05
0.608499 0.291814 6.10361e-05
0.632792 0.291783 3.0518e-05
0.65713 0.291798 3.0518e-05
0.681697 0.291905 0.000137331
0.70605 0.291859 9.15541e-05
0.730358 0.291829 7.62951e-05
0.75465 0.291798 4.57771e-05
0.778729 0.291829 7.62951e-05
0 0.316106 0
0.0239567 0.316167 3.0518e-05
0.0482643 0.316136 0
0.0726787 0.316213 9.15541e-05
0.0971389 0.316258 0.000122072
0.121523 0.316197 7.62951e-05
0.145815 0.316167 4.57771e-05
0.170123 0.316152 1.5259e-05
0.194415 0.316121 0
0.21886 0.316243 0.000106813
0.243214 0.316258 0.000122072
0.267521 0.316228 9.15541e-05
0.291905 0.316167 4.57771e-05
0.316274 0.316121 0
0.340581 0.316091 0
0.365072 0.316258 0.000137331
0.38938 0.316243 0.000106813
0.413672 0.316213 7.62951e-05
0.43798 0.316182 4.57771e-05
0.462287 0.316152 1.5259e-05
0.486854 0.316274 0.00015259
0.511238 0.316243 0.000122072
0.535531 0.316228 9.15541e-05
0.559838 0.316197 6.10361e-05
0.584146 0.316167 3.0518e-05
0.608438 0.316136 0
0.632944 0.316304 0.000167849
0.657237 0.316274 0.000137331
0.681636 0.316213 9.15541e-05
0.706004 0.316167 4.57771e-05
0.730297 0.316152 1.5259e-05
0.75462 0.316136 0
0.778866 0.31635 0.000213626
0 0.340414 0
0.0239414 0.340459 1.5259e-05
0.0484321 0.340627 0.000183108
0.0727398 0.340597 0.00015259
0.0971237 0.340551 0.000106813
0.121492 0.340505 6.10361e-05
0.1458 0.340475 3.0518e-05
0.170199 0.340536 9.15541e-05
0.194598 0.340612 0.000167849
0.218906 0.340581 0.000137331
0.243198 0.340551 0.000106813
0.267506 0.340536 7.62951e-05
0.29189 0.340475 3.0518e-05
0.316396 0.340566 0.000106813
0.340764 0.340597 0.00015259
0.365057 0.340566 0.000122072
0.389364 0.340536 9.15541e-05
0.413657 0.340505 6.10361e-05
0.437964 0.340475 3.0518e-05
0.462425 0.340612 0.000167849
0.486854 0.340597 0.00015259
0.511223 0.340551 0.000106813
0.535515 0.34052 7.62951e-05
0.559823 0.34049 4.57771e-05
0.584131 0.340459 1.5259e-05
0.608621 0.340627 0.000183108
0.632929 0.340597 0.00015259
0.657221 0.340581 0.000122072
0.68162 0.34052 7.62951e-05
0.705974 0.340475 3.0518e-05
0.730282 0.340444 0
0.754772 0.340612 0.000167849
0.778851 0.340642 0.000198367
0 0.364752 0
0.0241245 0.364965 0.000198367
0.0484169 0.364935 0.000167849
0.0727245 0.364904 0.000137331
0.0971084 0.364858 9.15541e-05
0.121477 0.364813 4.57771e-05
0.145861 0.364858 9.15541e-05
0.170275 0.36495 0.000183108
0.194583 0.36492 0.00015259
0.218875 0.364889 0.000122072
0.243183 0.364858 9.15541e-05
0.267491 0.364828 6.10361e-05
0.291981 0.364889 0.000122072
0.316442 0.364935 0.000167849
0.340734 0.364889 0.000122072
0.365042 0.364874 0.000106813
0.389349 0.364843 7.62951e-05
0.413642 0.364813 4.57771e-05
0.438148 0.364981 0.000213626
0.46244 0.36495 0.000183108
0.486839 0.364904 0.000137331
0.511208 0.364858 9.15541e-05
0.5355 0.364828 6.10361e-05
0.559945 0.364935 0.000167849
0.584298 0.364965 0.000198367
0.608606 0.364935 0.000167849
0.632914 0.364904 0.000137331
0.657206 0.364874 0.000106813
0.681605 0.364828 6.10361e-05
0.706142 0.36495 0.000183108
0.730465 0.36495 0.000183108
0.754757 0.36492 0.00015259
0.778836 0.36495 0.000183108
0.000122072 0.389212 0.000122072
0.0241093 0.389258 0.000183108
0.0484016 0.389242 0.00015259
0.0727092 0.389212 0.000122072
0.0970932 0.389151 7.62951e-05
0.12166 0.389303 0.000213626
0.145968 0.389273 0.000183108
0.17026 0.389242 0.00015259
0.194568 0.389212 0.000137331
0.21886 0.389181 0.000106813
0.243229 0.389212 0.000137331
0.267659 0.389334 0.000244144
0.292058 0.389273 0.000183108
0.316426 0.389227 0.000137331
0.340719 0.389197 0.000106813
0.365026 0.389166 7.62951e-05
0.389425 0.389242 0.00015259
0.413825 0.389303 0.000228885
0.438132 0.389288 0.000198367
0.462425 0.389258 0.000167849
0.486824 0.389197 0.000106813
0.511177 0.389151 6.10361e-05
0.535607 0.389258 0.000167849
0.559991 0.389288 0.000198367
0.584283 0.389258 0.000183108
0.608591 0.389242 0.00015259
0.632883 0.389212 0.000122072
0.657191 0.389181 9.15541e-05
0.681758 0.389288 0.000198367
0.706142 0.389273 0.000183108
0.730449 0.389242 0.00015259
0.754742 0.389212 0.000122072
0.77882 0.389258 0.000167849
0.000106813 0.413504 0.000106813
0.0240787 0.413565 0.000167849
0.0483864 0.413535 0.000137331
0.072694 0.41352 0.000106813
0.097261 0.413657 0.000244144
0.121645 0.413611 0.000198367
0.145937 0.413581 0.000167849
0.170245 0.41355 0.000137331
0.194553 0.41352 0.000122072
0.218891 0.413535 0.000122072
0.243351 0.413657 0.000259403
0.267643 0.413626 0.000228885
0.292027 0.413581 0.000167849
0.316411 0.413535 0.000122072
0.340703 0.413504 9.15541e-05
0.365087 0.41355 0.000137331
0.389502 0.413642 0.000228885
0.413809 0.413611 0.000198367
0.438102 0.413581 0.000183108
0.462409 0.41355 0.00015259
0.486809 0.413504 9.15541e-05
0.51136 0.413657 0.000244144
0.535668 0.413626 0.000213626
0.559976 0.413596 0.000183108
0.584268 0.413565 0.000167849
0.608576 0.413535 0.000137331
0.632975 0.413611 0.000213626
0.657374 0.413672 0.000274662
0.681773 0.413626 0.000213626
0.706127 0.413581 0.000167849
0.730434 0.41355 0.000137331
0.754726 0.41352 0.000106813
0.778943 0.413703 0.000289921
9.15541e-05 0.437812 9.15541e-05
0.0240635 0.437873 0.000137331
0.0483711 0.437842 0.000122072
0.0728618 0.43801 0.000289921
0.0972457 0.437949 0.000228885
0.12163 0.437903 0.000183108
0.145922 0.437873 0.00015259
0.17023 0.437842 0.000122072
0.194736 0.438025 0.000289921
0.219028 0.437995 0.000259403
0.243336 0.437964 0.000244144
0.267628 0.437934 0.000213626
0.292012 0.437873 0.00015259
0.316411 0.437858 0.000137331
0.340887 0.437995 0.000274662
0.365194 0.437964 0.000244144
0.389487 0.437949 0.000213626
0.413794 0.437919 0.000183108
0.438087 0.437888 0.000167849
0.462455 0.437919 0.000198367
0.486976 0.437995 0.000274662
0.511345 0.437949 0.000228885
0.535653 0.437919 0.000198367
0.559945 0.437888 0.000167849
0.584253 0.437873 0.000137331
0.608652 0.437934 0.000213626
0.633051 0.43801 0.000289921
0.657359 0.43798 0.000259403
0.681758 0.437919 0.000198367
0.706111 0.437873 0.00015259
0.730419 0.437858 0.000122072
0.754833 0.437949 0.000228885
0.778988 0.438056 0.000320439
7.62951e-05 0.462119 7.62951e-05
0.0242161 0.462333 0.000289921
0.0485542 0.462333 0.000289921
0.0728466 0.462303 0.000259403
0.0972305 0.462257 0.000213626
0.121614 0.462211 0.000167849
0.145907 0.462181 0.000137331
0.170413 0.462348 0.00030518
0.194705 0.462318 0.000274662
0.219013 0.462287 0.000244144
0.243305 0.462257 0.000213626
0.267613 0.462242 0.000198367
0.292012 0.462181 0.000137331
0.316564 0.462333 0.000289921
0.340871 0.462303 0.000259403
0.365164 0.462272 0.000228885
0.389471 0.462242 0.000198367
0.413779 0.462211 0.000167849
0.438117 0.462226 0.000183108
0.462577 0.462348 0.00030518
0.486961 0.462303 0.000259403
0.51133 0.462257 0.000213626
0.535637 0.462226 0.000183108
0.55993 0.462196 0.00015259
0.584436 0.462364 0.000320439
0.608728 0.462333 0.000289921
0.633036 0.462303 0.000259403
0.657343 0.462287 0.000244144
0.681727 0.462226 0.000183108
0.706172 0.462257 0.000213626
0.730587 0.462348 0.00030518
0.754894 0.462318 0.000274662
0.778958 0.462348 0.00030518
7.62951e-05 0.48661 7.62951e-05
0.0241093 0.486717 0.000183108
0.0484169 0.486686 0.00015259
0.0727092 0.486656 0.000122072
0.0970932 0.48661 7.62951e-05
0.121477 0.486564 3.0518e-05
0.145968 0.486732 0.000198367
0.170275 0.486702 0.000167849
0.194568 0.486671 0.000137331
0.218875 0.486641 0.000106813
0.243168 0.48661 7.62951e-05
0.267659 0.486778 0.000244144
0.292058 0.486732 0.000198367
0.316426 0.486686 0.00015259
0.340734 0.486656 0.000122072
0.365026 0.486625 9.15541e-05
0.389334 0.486595 6.10361e-05
0.413825 0.486763 0.000228885
0.438132 0.486732 0.000198367
0.46244 0.486702 0.000167849
0.486824 0.486656 0.000122072
0.511193 0.48661 7.62951e-05
0.535515 0.486595 6.10361e-05
0.559991 0.486748 0.000213626
0.584298 0.486717 0.000183108
0.608591 0.486686 0.00015259
0.632898 0.486656 0.000122072
0.657191 0.486625 9.15541e-05
0.681651 0.486641 0.000106813
0.706142 0.486732 0.000198367
0.730449 0.486702 0.000167849
0.754757 0.486671 0.000137331
0.77882 0.486702 0.000167849
9.15541e-05 0.510964 9.15541e-05
0.0240787 0.511025 0.00015259
0.0483711 0.510994 0.000122072
0.0726787 0.510964 9.15541e-05
0.0971847 0.511055 0.000167849
0.12163 0.51107 0.000183108
0.145937 0.51104 0.00015259
0.17023 0.511009 0.000137331
0.194537 0.510979 0.000106813
0.21883 0.510948 7.62951e-05
0.243305 0.511086 0.000213626
0.267643 0.511086 0.000213626
0.292027 0.51104 0.00015259
0.316396 0.510994 0.000106813
0.340703 0.510964 9.15541e-05
0.364996 0.510933 6.10361e-05
0.389502 0.511101 0.000228885
0.413794 0.51107 0.000198367
0.438102 0.51104 0.000167849
0.462394 0.511009 0.000137331
0.486793 0.510964 7.62951e-05
0.511162 0.510918 4.57771e-05
0.535653 0.511086 0.000213626
0.55996 0.511055 0.000167849
0.584253 0.511025 0.00015259
0.60856 0.510994 0.000122072
0.632853 0.510964 9.15541e-05
0.657359 0.511131 0.000259403
0.681758 0.511086 0.000198367
0.706111 0.51104 0.00015259
0.730419 0.511009 0.000137331
0.754711 0.510979 0.000106813
0.77882 0.511055 0.000167849
7.62951e-05 0.535271 7.62951e-05
0.0240635 0.535332 0.000137331
0.0483558 0.535302 0.000106813
0.0727703 0.535393 0.000183108
0.0972457 0.535409 0.000213626
0.121614 0.535363 0.000167849
0.145922 0.535332 0.000137331
0.170214 0.535317 0.000106813
0.194522 0.535286 9.15541e-05
0.219013 0.535454 0.000259403
0.24332 0.535424 0.000228885
0.267613 0.535393 0.000198367
0.292012 0.535332 0.000137331
0.316381 0.535286 9.15541e-05
0.340826 0.535409 0.000213626
0.365179 0.535424 0.000228885
0.389471 0.535409 0.000213626
0.413779 0.535378 0.000183108
0.438087 0.535348 0.00015259
0.462379 0.535317 0.000122072
0.486961 0.535454 0.000244144
0.51133 0.535409 0.000213626
0.535637 0.535393 0.000183108
0.559945 0.535348 0.00015259
0.584237 0.535332 0.000137331
0.608545 0.535302 0.000106813
0.633036 0.53547 0.000274662
0.657343 0.535439 0.000244144
0.681743 0.535378 0.000183108
0.706096 0.535332 0.000137331
0.730404 0.535317 0.000122072
0.754726 0.535302 0.000106813
0.778973 0.535515 0.000320439
6.10361e-05 0.559579 6.10361e-05
0.0241093 0.559686 0.000183108
0.0485389 0.559792 0.000289921
0.0728313 0.559762 0.000259403
0.0972152 0.559716 0.000198367
0.121599 0.55967 0.00015259
0.145907 0.55964 0.000122072
0.170306 0.559716 0.000198367
0.194705 0.559777 0.000259403
0.218997 0.559747 0.000228885
0.243305 0.559716 0.000213626
0.267597 0.559701 0.000183108
0.291997 0.55964 0.000122072
0.316487 0.559731 0.000213626
0.340856 0.559762 0.000244144
0.365164 0.559731 0.000213626
0.389456 0.559701 0.000198367
0.413764 0.55967 0.000167849
0.438071 0.55964 0.000137331
0.462531 0.559792 0.000274662
0.486946 0.559762 0.000244144
0.511315 0.559716 0.000198367
0.535622 0.559686 0.000167849
0.55993 0.559655 0.000137331
0.584222 0.559625 0.000122072
0.608728 0.559792 0.000289921
0.633021 0.559762 0.000259403
0.657328 0.559747 0.000228885
0.681727 0.559686 0.000167849
0.706081 0.55964 0.000122072
0.730587 0.559808 0.000289921
0.754879 0.559777 0.000259403
0.778958 0.559808 0.00030518
9.15541e-05 0.583917 9.15541e-05
0.0242161 0.584131 0.000289921
0.0485237 0.5841 0.000259403
0.0728161 0.58407 0.000228885
0.0972 0.584024 0.000183108
0.121584 0.583978 0.000137331
0.145968 0.584024 0.000183108
0.170382 0.584115 0.000274662
0.194675 0.584085 0.000244144
0.218982 0.584054 0.000213626
0.24329 0.584024 0.000183108
0.267582 0.583993 0.000167849
0.292165 0.584146 0.00030518
0.316533 0.5841 0.000259403
0.340841 0.58407 0.000228885
0.365148 0.584039 0.000198367
0.389441 0.584009 0.000167849
0.413855 0.584085 0.000259403
0.438239 0.584146 0.00030518
0.462547 0.584115 0.000289921
0.486931 0.58407 0.000228885
0.511299 0.584024 0.000183108
0.535607 0.583993 0.00015259
0.560052 0.5841 0.000274662
0.584405 0.584131 0.000289921
0.608713 0.5841 0.000259403
0.633005 0.58407 0.000228885
0.657313 0.584039 0.000213626
0.681697 0.583993 0.00015259
0.706249 0.584131 0.000289921
0.730556 0.584115 0.000274662
0.754864 0.584085 0.000244144
0.778927 0.584115 0.000274662
0.000228885 0.608377 0.000228885
0.0242008 0.608423 0.000274662
0.0485084 0.608408 0.000244144
0.0728008 0.608377 0.000213626
0.0972152 0.608347 0.000198367
0.121767 0.608469 0.000320439
0.146059 0.608438 0.000289921
0.170367 0.608408 0.000259403
0.194659 0.608377 0.000228885
0.218967 0.608347 0.000198367
0.243336 0.608392 0.000228885
0.267765 0.608499 0.000335698
0.292149 0.608438 0.000289921
0.316518 0.608392 0.000244144
0.340826 0.608362 0.000213626
0.365133 0.608331 0.000183108
0.389532 0.608408 0.000259403
0.413916 0.608469 0.000320439
0.438224 0.608454 0.000289921
0.462531 0.608423 0.000274662
0.486915 0.608362 0.000213626
0.511284 0.608316 0.000167849
0.535714 0.608423 0.000274662
0.560082 0.608454 0.00030518
0.58439 0.608423 0.000274662
0.608682 0.608408 0.000244144
0.63299 0.608377 0.000213626
0.657298 0.608347 0.000198367
0.68188 0.608484 0.000335698
0.706249 0.608438 0.000289921
