public/LUTS/Darken/Darken_05.cube
TITLE "Generated by Resolve"
LUT_3D_SIZE 5
0 0 0
0.18201 0 0
0.453864 0 0
0.72546 0 0
0.997009 0 0
0 0.182406 0
0.182544 0.182406 0
0.454414 0.182574 0
0.726024 0.182483 0
0.997497 0.18265 0
0 0.454139 0
0.182712 0.454154 0
0.454429 0.454185 0
0.726177 0.454215 0
0.997452 0.4542 0
0 0.725673 0
0.182864 0.725902 0
0.454475 0.725795 0
0.726345 0.725963 0
0.99762 0.725948 0
0 0.997345 0
0.183032 0.997635 0
0.454627 0.997528 0
0.726467 0.997665 0
0.997787 0.997681 0
0 0 0.183261
0.181994 0 0.183276
0.45388 0 0.183444
0.725475 0 0.183337
0.996841 0 0.183413
0 0.182422 0.183825
0.182559 0.182422 0.183825
0.454185 0.182345 0.183749
0.726024 0.182483 0.183886
0.997314 0.182483 0.183871
0 0.45388 0.183703
0.182712 0.45417 0.183993
0.454322 0.454063 0.183886
0.726192 0.454231 0.184054
0.997482 0.454215 0.184039
0 0.725628 0.183871
0.182879 0.725902 0.184161
0.454475 0.725811 0.184054
0.726207 0.725826 0.18407
0.997635 0.725963 0.184207
0 0.99736 0.184039
0.182834 0.997436 0.184115
0.454643 0.997543 0.184222
0.726253 0.997436 0.184115
0.997803 0.997696 0.184375
0 0 0.456214
0.181979 0 0.45623
0.453574 0 0.456123
0.72546 0 0.456291
0.996735 0 0.456275
0 0.182116 0.456489
0.182528 0.182406 0.456779
0.454139 0.1823 0.456672
0.726009 0.182467 0.45684
0.997284 0.182452 0.456825
0 0.453864 0.456657
0.182681 0.454124 0.456931
0.454292 0.454032 0.45684
0.725917 0.453956 0.456764
0.997452 0.454185 0.456992
0 0.725597 0.456825
0.182589 0.725612 0.45684
0.454459 0.72578 0.457008
0.726055 0.725673 0.456901
0.997604 0.725933 0.457145
0 0.997345 0.456992
0.182742 0.997345 0.457008
0.454627 0.997528 0.457176
0.726223 0.997421 0.457069
0.997497 0.997391 0.457038
0 0 0.728893
0.181949 0 0.729183
0.453559 0 0.729076
0.725368 0 0.729183
0.996704 0 0.729229
0 0.182086 0.729458
0.182376 0.182254 0.72961
0.454109 0.182269 0.729641
0.725704 0.182162 0.729534
0.997269 0.182422 0.729778
0 0.453834 0.72961
0.182391 0.453849 0.729625
0.454276 0.454017 0.729793
0.725872 0.45391 0.729686
0.997421 0.45417 0.729946
0 0.725582 0.729778
0.182559 0.725582 0.729793
0.454414 0.725734 0.729946
0.72604 0.725658 0.729854
0.997314 0.725628 0.729839
0 0.997223 0.729854
0.182727 0.99733 0.729961
0.454322 0.997223 0.729854
0.726207 0.997391 0.730022
0.997482 0.997375 0.730007
0 0 1
0.18175 0 1
0.453574 0 1
0.725185 0 1
0.996735 0 1
0 0.182116 1
0.182254 0.182132 1
0.454139 0.1823 1
0.725734 0.182193 1
0.997223 0.182391 1
0 0.453864 1
0.182422 0.453864 1
0.45417 0.45391 1
0.725902 0.453941 1
0.997177 0.453925 1
0 0.725414 1
0.182589 0.725612 1
0.454185 0.725505 1
0.72607 0.725673 1
0.997345 0.725658 1
0 0.99707 1
0.182757 0.99736 1
0.454353 0.997253 1
0.726207 0.997391 1
0.996963 0.996857 1
