public/LUTS/Darken/Darken_13.cube
TITLE "Generated by Resolve"
LUT_3D_SIZE 9
0 0 0
0.0660258 0 0
0.161425 0 0
0.256992 0 0
0.352575 0 0
0.448157 0 0
0.543542 0 0
0.639139 0 0
0.734478 0 0
0 0.0661631 0
0.0663462 0.0663005 0
0.16173 0.0661784 0
0.257313 0.0662242 0
0.352895 0.0663005 0
0.448295 0.0661631 0
0.543862 0.0662242 0
0.63946 0.0662699 0
0.734798 0.066392 0
0 0.1617 0
0.0664073 0.161837 0
0.161791 0.1617 0
0.257389 0.161761 0
0.352956 0.161822 0
0.448356 0.161685 0
0.543938 0.161746 0
0.639536 0.161807 0
0.734813 0.161868 0
0 0.257237 0
0.0663767 0.257313 0
0.161822 0.257252 0
0.257404 0.257313 0
0.352987 0.257374 0
0.448386 0.257237 0
0.543954 0.257298 0
0.639551 0.257359 0
0.734707 0.257282 0
0 0.352773 0
0.066331 0.352712 0
0.161913 0.352773 0
0.257496 0.352834 0
0.352972 0.352789 0
0.448478 0.352758 0
0.544045 0.352819 0
0.639612 0.35285 0
0.734798 0.352804 0
0 0.44828 0
0.066331 0.448264 0
0.161913 0.448325 0
0.257511 0.448386 0
0.352895 0.448264 0
0.448478 0.44831 0
0.54406 0.448371 0
0.639521 0.448295 0
0.734798 0.448371 0
0 0.543694 0
0.0664378 0.543786 0
0.16202 0.543847 0
0.257618 0.543908 0
0.353002 0.54377 0
0.448585 0.543832 0
0.544167 0.543893 0
0.639567 0.543755 0
0.734905 0.543877 0
0 0.6392 0
0.0664378 0.639353 0
0.16202 0.639414 0
0.25742 0.639277 0
0.352987 0.639338 0
0.448585 0.639384 0
0.544152 0.63946 0
0.639551 0.639323 0
0.73489 0.639445 0
0 0.734722 0
0.0665599 0.734859 0
0.162142 0.73492 0
0.257542 0.734783 0
0.353109 0.734844 0
0.448707 0.734905 0
0.544259 0.734936 0
0.639689 0.734829 0
0.735027 0.734951 0
0 0 0.0662547
0.066041 0 0.066392
0.161425 0 0.0662547
0.257023 0 0.0663157
0.35259 0 0.0663767
0.448035 0 0.0662852
0.543572 0 0.0663005
0.63917 0 0.0663615
0.734417 0 0.066392
0 0.0661936 0.0665751
0.0662699 0.0662394 0.0666209
0.161746 0.0661936 0.0665751
0.257343 0.0662547 0.0666361
0.352911 0.0663157 0.0666972
0.448325 0.0661784 0.0665599
0.543893 0.0662394 0.0666209
0.63949 0.0663005 0.0666819
0.734646 0.0662394 0.0666209
0 0.16173 0.0666361
0.0662394 0.161669 0.0665904
0.161822 0.16173 0.0666514
0.25742 0.161791 0.0667124
0.352987 0.161852 0.0667735
0.448386 0.161715 0.0666361
0.543954 0.161776 0.0666972
0.639551 0.161837 0.066743
0.734707 0.161761 0.0666819
0 0.257267 0.0666667
0.0662699 0.257221 0.0666209
0.161852 0.257282 0.0666667
0.257435 0.257343 0.0667277
0.352819 0.257206 0.0666056
0.448417 0.257267 0.0666514
0.543984 0.257328 0.0667124
0.639582 0.257374 0.0667735
0.734737 0.257313 0.0667124
0 0.352789 0.0667582
0.0663615 0.352743 0.0666972
0.161929 0.352804 0.0667582
0.257527 0.352865 0.0668193
0.352911 0.352728 0.0666819
0.448508 0.352789 0.066743
0.544076 0.35285 0.066804
0.639597 0.352819 0.0667887
0.734813 0.352834 0.066804
0 0.448264 0.0666667
0.0663615 0.448295 0.0667124
0.161944 0.448356 0.0667735
0.257511 0.448402 0.066804
0.352911 0.44828 0.0666972
0.448508 0.448341 0.0667582
0.544076 0.448402 0.0668193
0.63949 0.448264 0.0666819
0.734829 0.448386 0.066804
0 0.543679 0.0666819
0.0664683 0.543816 0.0668193
0.162051 0.543877 0.0668803
0.257511 0.543801 0.066804
0.353017 0.543801 0.066804
0.448615 0.543862 0.066865
0.544137 0.543862 0.066865
0.639597 0.543786 0.0667887
0.734936 0.543908 0.0669108
0 0.639231 0.0666667
0.0664683 0.639368 0.066804
0.162036 0.639429 0.066865
0.257435 0.639307 0.0667277
0.353017 0.639353 0.0667887
0.4486 0.639414 0.0668498
0.544015 0.639323 0.0667582
0.639582 0.639338 0.0667735
0.73492 0.639475 0.0668956
0 0.734737 0.0667887
0.0665904 0.73489 0.0669413
0.162173 0.734936 0.0669871
0.257572 0.734813 0.066865
0.35314 0.734874 0.0669261
0.448737 0.73492 0.0669718
0.544106 0.734798 0.0668498
0.639704 0.734844 0.0668956
0.735058 0.734981 0.0670329
0 0 0.162295
0.0659953 0 0.162402
0.16141 0 0.16231
0.257008 0 0.162371
0.352575 0 0.162432
0.44799 0 0.162295
0.543557 0 0.162356
0.639155 0 0.162417
0.734356 0 0.162402
0 0.0661784 0.162631
0.0662089 0.0661784 0.162631
0.16173 0.0661784 0.162631
0.257328 0.0662394 0.162692
0.352834 0.0662394 0.162676
0.44831 0.0661631 0.162615
0.543877 0.0662242 0.162676
0.639475 0.0662852 0.162737
0.734615 0.0662089 0.162661
0 0.161715 0.162692
0.0662242 0.161654 0.162646
0.161807 0.161715 0.162707
0.257404 0.161776 0.162753
0.352789 0.161654 0.162646
0.448371 0.1617 0.162692
0.543938 0.161761 0.162753
0.639429 0.161715 0.162692
0.734691 0.161746 0.162737
0 0.257145 0.1626
0.0662547 0.257206 0.162661
0.161837 0.257267 0.162722
0.25742 0.257328 0.162783
0.352804 0.257191 0.162661
0.448402 0.257252 0.162707
0.543969 0.257313 0.162768
0.639368 0.257176 0.162631
0.734722 0.257298 0.162768
0 0.35259 0.162615
0.0663462 0.352728 0.162753
0.161913 0.352789 0.162814
0.257511 0.35285 0.162875
0.352895 0.352712 0.162737
0.448493 0.352773 0.162799
0.54406 0.352834 0.16286
0.63946 0.352697 0.162722
0.734798 0.352819 0.162844
0 0.448142 0.162615
0.0663462 0.44828 0.162768
0.161929 0.448341 0.162829
0.257328 0.448203 0.162692
0.352895 0.448264 0.162753
0.448493 0.448325 0.162799
0.54406 0.448386 0.16286
0.639475 0.448249 0.162737
0.734813 0.448371 0.16286
0 0.543664 0.162737
0.066453 0.543801 0.162875
0.162036 0.543862 0.162936
0.257435 0.543725 0.162799
0.353002 0.543786 0.16286
0.4486 0.543847 0.162921
0.544076 0.543801 0.162875
0.639582 0.54377 0.162844
0.73492 0.543893 0.162966
0 0.639216 0.162722
0.066453 0.639353 0.16286
0.161975 0.639384 0.162875
0.25742 0.639292 0.162783
0.353002 0.639338 0.162844
0.448585 0.639399 0.162905
0.543969 0.639277 0.162768
0.639567 0.639323 0.162829
0.734905 0.63946 0.162951
0 0.734722 0.162844
0.0665751 0.734874 0.162982
0.162005 0.734783 0.162905
0.257557 0.734798 0.162921
0.353124 0.734859 0.162966
0.448646 0.734829 0.162951
0.544091 0.734783 0.162905
0.639689 0.734829 0.162951
0.735042 0.734966 0.163088
0 0 0.258167
0.0658427 0 0.258122
0.16141 0 0.258183
0.257008 0 0.258244
0.35256 0 0.258289
0.447974 0 0.258167
0.543557 0 0.258228
0.639155 0 0.258289
0.734295 0 0.258213
0 0.0661784 0.258503
0.0661631 0.0661173 0.258442
0.16173 0.0661784 0.258503
0.257328 0.0662394 0.258564
0.352712 0.0661021 0.258427
0.44831 0.0661631 0.258488
0.543877 0.0662242 0.258549
0.639429 0.0662394 0.258564
0.734615 0.0662089 0.258534
0 0.161654 0.258503
0.0662242 0.161654 0.258518
0.161807 0.161715 0.258579
0.257389 0.161776 0.258625
0.352773 0.161639 0.258503
0.448371 0.1617 0.258564
0.543938 0.161761 0.258625
0.639384 0.161654 0.258518
0.734691 0.161746 0.25861
0 0.257084 0.258427
0.0662547 0.257206 0.258534
0.161837 0.257267 0.258595
0.257328 0.257221 0.258564
0.352804 0.257191 0.258518
0.448402 0.257252 0.258579
0.543969 0.257313 0.25864
0.639368 0.257176 0.258503
0.734707 0.257298 0.258625
0 0.35259 0.258488
0.0663462 0.352728 0.258625
0.161913 0.352789 0.258686
0.257313 0.352651 0.258549
0.352895 0.352712 0.25861
0.448493 0.352773 0.258671
0.543923 0.352697 0.25861
0.63946 0.352697 0.258595
0.734798 0.352819 0.258717
0 0.448142 0.258488
0.0663462 0.44828 0.25864
0.161929 0.448341 0.258701
0.257328 0.448203 0.258564
0.352895 0.448264 0.258625
0.448493 0.448325 0.258671
0.543862 0.448188 0.258549
0.639475 0.448249 0.25861
0.734813 0.448371 0.258732
0 0.543648 0.25861
0.066453 0.543801 0.258747
0.162036 0.543862 0.258808
0.257435 0.543725 0.258671
0.353002 0.543786 0.258732
0.4486 0.543832 0.258793
0.543984 0.543709 0.258656
0.639582 0.54377 0.258717
0.73492 0.543893 0.258839
0 0.639216 0.258595
0.0664378 0.639353 0.258732
0.161837 0.639231 0.258595
0.25742 0.639277 0.258656
0.353002 0.639338 0.258717
0.448569 0.639384 0.258762
0.543969 0.639277 0.25864
0.639567 0.639323 0.258701
0.734905 0.639445 0.258824
0 0.734722 0.258717
0.0665751 0.734859 0.258854
0.161959 0.734737 0.258732
0.257542 0.734798 0.258793
0.353124 0.734844 0.258839
0.4486 0.734783 0.258778
0.544091 0.734783 0.258778
0.639689 0.734829 0.258824
0.734981 0.734905 0.2589
0 0 0.354223
0.0658274 0 0.354177
0.161395 0 0.354238
0.256992 0 0.354284
0.352377 0 0.354162
0.447959 0 0.354223
0.543542 0 0.354284
0.638956 0 0.354147
0.734279 0 0.354269
0 0.0659648 0.35436
0.0661479 0.0661021 0.354498
0.161715 0.0661631 0.354559
0.257313 0.0662242 0.354604
0.352697 0.0661021 0.354482
0.44828 0.0661479 0.354543
0.543862 0.0662089 0.354604
0.639261 0.0660716 0.354467
0.7346 0.0661936 0.354589
0 0.161501 0.354421
0.0662089 0.161639 0.354559
0.161791 0.1617 0.35462
0.257343 0.161715 0.35465
0.352758 0.161624 0.354543
0.448356 0.161685 0.354604
0.543923 0.161746 0.354665
0.639338 0.161608 0.354528
0.734676 0.16173 0.35465
0 0.257053 0.354452
0.0662394 0.257191 0.354589
0.161822 0.257252 0.35465
0.257206 0.257115 0.354513
0.352789 0.257176 0.354574
0.448386 0.257237 0.354635
0.543877 0.257221 0.35462
0.639353 0.25716 0.354559
0.734691 0.257282 0.354681
0 0.352575 0.354543
0.066331 0.352712 0.354681
0.161898 0.352758 0.354726
0.257298 0.352636 0.354604
0.35288 0.352697 0.354665
0.448478 0.352758 0.354726
0.543862 0.352636 0.354604
0.639445 0.352682 0.35465
0.734783 0.352804 0.354772
0 0.448127 0.354543
0.066331 0.448264 0.354681
0.161791 0.448203 0.354635
0.257313 0.448188 0.354604
0.35288 0.448249 0.354665
0.448478 0.44831 0.354726
0.543862 0.448173 0.354604
0.63946 0.448234 0.35465
0.734798 0.448356 0.354772
0 0.543648 0.35465
0.0664378 0.543786 0.354788
0.161822 0.543648 0.354665
0.25742 0.543709 0.354711
0.352987 0.54377 0.354772
0.448432 0.543664 0.354681
0.543969 0.543694 0.354711
0.639567 0.543755 0.354757
0.734905 0.543877 0.354879
0 0.6392 0.35465
0.0664225 0.639338 0.354788
0.161822 0.639216 0.35465
0.257404 0.639261 0.354711
0.352987 0.639323 0.354772
0.448386 0.6392 0.354635
0.543954 0.639261 0.354696
0.639551 0.639307 0.354757
0.73489 0.639429 0.354879
0 0.734707 0.354772
0.0665446 0.734844 0.354894
0.161944 0.734722 0.354772
0.257542 0.734783 0.354833
0.353109 0.734829 0.354894
0.448508 0.734707 0.354757
0.544076 0.734768 0.354818
0.639673 0.734813 0.354879
0.734829 0.734752 0.354803
0 0 0.449958
0.0658122 0 0.45005
0.161395 0 0.450111
0.256916 0 0.450095
0.352377 0 0.450034
0.447959 0 0.450095
0.543542 0 0.450156
0.638941 0 0.450019
0.734279 0 0.450141
0 0.0659648 0.450233
0.0661326 0.0661021 0.45037
0.161715 0.0661631 0.450431
0.257145 0.0660563 0.450309
0.352697 0.0660868 0.450355
0.44828 0.0661479 0.450416
0.543862 0.0662089 0.450477
0.639261 0.0660716 0.45034
0.7346 0.0661936 0.450462
0 0.161501 0.450294
0.0662089 0.161639 0.450431
0.161791 0.1617 0.450492
0.257191 0.161563 0.450355
0.352758 0.161624 0.450416
0.448356 0.161685 0.450477
0.54374 0.161547 0.450355
0.639338 0.161608 0.450401
0.734676 0.16173 0.450523
0 0.257038 0.450324
0.0662394 0.257191 0.450462
0.161822 0.257252 0.450523
0.257206 0.257115 0.450385
0.352789 0.257176 0.450446
0.448386 0.257221 0.450507
0.543755 0.257099 0.45037
0.639353 0.25716 0.450431
0.734691 0.257282 0.450553
0 0.35256 0.450416
0.0663157 0.352712 0.450553
0.161837 0.352712 0.450553
0.257298 0.352636 0.450477
0.35288 0.352697 0.450538
0.448463 0.352743 0.450599
0.543847 0.352621 0.450462
0.639445 0.352682 0.450523
0.734783 0.352804 0.450645
0 0.448127 0.450416
0.066331 0.448264 0.450553
0.161715 0.448127 0.450431
0.257298 0.448188 0.450477
0.35288 0.448249 0.450538
0.448386 0.448218 0.450507
0.543847 0.448173 0.450477
0.63946 0.448234 0.450523
0.734768 0.448325 0.450629
0 0.543633 0.450523
0.0664073 0.54374 0.450629
0.161822 0.543648 0.450538
0.25742 0.543709 0.450584
0.352987 0.54377 0.450645
0.448386 0.543633 0.450523
0.543969 0.543694 0.450584
0.639567 0.54374 0.450629
0.734768 0.54374 0.450629
0 0.6392 0.450523
0.0662852 0.6392 0.450507
0.161822 0.639216 0.450523
0.257404 0.639261 0.450584
0.352972 0.639323 0.450645
0.448386 0.639185 0.450507
0.543954 0.639246 0.450568
0.639551 0.639307 0.450629
0.734691 0.639246 0.450553
0 0.734707 0.450645
0.0663615 0.734661 0.450584
0.161944 0.734722 0.450645
0.257527 0.734768 0.450706
0.352926 0.734661 0.450584
0.448508 0.734707 0.450629
0.544076 0.734768 0.45069
0.639673 0.734813 0.450752
0.734829 0.734752 0.450675
0 0 0.545953
0.0657969 0 0.546105
0.161379 0 0.546151
0.256855 0 0.546105
0.352361 0 0.54609
0.447944 0 0.546136
0.543481 0 0.546166
0.638926 0 0.546059
0.734264 0 0.546197
0 0.0659495 0.546273
0.0661173 0.0660868 0.546426
0.1617 0.0661479 0.546487
0.257099 0.0660105 0.546349
0.352682 0.0660716 0.54641
0.448264 0.0661326 0.546456
0.543694 0.0660563 0.54638
0.639246 0.0660563 0.54638
0.734585 0.0661784 0.546517
0 0.161486 0.546349
0.0661936 0.161624 0.546487
0.161685 0.161593 0.546456
0.257176 0.161547 0.54641
0.352743 0.161608 0.546471
0.448341 0.161669 0.546532
0.543725 0.161532 0.546395
0.639307 0.161593 0.546456
0.734661 0.161715 0.546578
0 0.257023 0.54638
0.0662242 0.257176 0.546517
0.161608 0.257038 0.54638
0.257191 0.257099 0.546441
0.352773 0.25716 0.546502
0.448371 0.257206 0.546563
0.54374 0.257084 0.546426
0.639338 0.25713 0.546487
0.734676 0.257267 0.546609
0 0.352544 0.546456
0.0663005 0.352697 0.546609
0.1617 0.35256 0.546471
0.257282 0.352621 0.546532
0.352865 0.352682 0.546593
0.448264 0.352544 0.546456
0.543832 0.352605 0.546517
0.639429 0.352667 0.546578
0.734768 0.352789 0.5467
0 0.448112 0.546471
0.0663157 0.448249 0.546609
0.1617 0.448112 0.546471
0.257282 0.448173 0.546532
0.352865 0.448234 0.546593
0.448264 0.448096 0.546456
0.543832 0.448157 0.546517
0.639445 0.448218 0.546578
0.734707 0.448264 0.546624
0 0.543618 0.546578
0.0663462 0.543679 0.546639
0.161807 0.543633 0.546593
0.257404 0.543694 0.546639
0.352956 0.54374 0.546685
0.448371 0.543618 0.546563
0.543954 0.543679 0.546624
0.639551 0.543725 0.546685
0.734691 0.543664 0.546624
0 0.639185 0.546563
0.0662242 0.639139 0.546517
0.161807 0.6392 0.546578
0.257389 0.639246 0.546639
0.35285 0.6392 0.546578
0.448371 0.63917 0.546563
0.543938 0.639231 0.546624
0.63949 0.639246 0.546624
0.734676 0.639231 0.546609
0 0.73463 0.546639
0.0663462 0.734646 0.546639
0.161929 0.734707 0.5467
0.257511 0.734752 0.546761
0.352895 0.73463 0.546624
0.448493 0.734676 0.546685
0.54406 0.734752 0.546746
0.639506 0.734646 0.546654
0.734813 0.734737 0.546731
0 0 0.641825
0.0657969 0 0.641978
0.161379 0 0.642023
0.256779 0 0.641901
0.352346 0 0.641962
0.447944 0 0.642008
0.543328 0 0.641886
0.638926 0 0.641932
0.734264 0 0.642069
0 0.0659495 0.642145
0.0661173 0.0660868 0.642298
0.161669 0.0661173 0.642329
0.257099 0.0660105 0.642222
0.352682 0.0660716 0.642283
0.448264 0.0661326 0.642329
0.543648 0.0659953 0.642206
0.639246 0.0660563 0.642252
0.734585 0.0661784 0.64239
0 0.161486 0.642222
0.0661936 0.161624 0.642359
0.161639 0.161547 0.642283
0.257176 0.161547 0.642283
0.352743 0.161608 0.642344
0.44828 0.161593 0.642344
0.543709 0.161532 0.642267
0.639307 0.161593 0.642329
0.734661 0.161715 0.642451
0 0.257023 0.642252
0.0662242 0.257176 0.64239
0.161608 0.257038 0.642252
0.257191 0.257099 0.642313
0.352773 0.25716 0.642374
0.448188 0.257038 0.642252
0.54374 0.257084 0.642298
0.639338 0.25713 0.642359
0.734585 0.25716 0.642374
0 0.352544 0.642329
0.0661936 0.352575 0.642359
0.161685 0.35256 0.642344
0.257282 0.352621 0.642405
0.352865 0.352682 0.642466
0.448264 0.352544 0.642329
0.543832 0.352605 0.64239
0.639429 0.352651 0.642435
0.734569 0.35259 0.642374
0 0.448112 0.642344
0.0661173 0.448051 0.642283
0.1617 0.448112 0.642344
0.257282 0.448173 0.642405
0.352865 0.448234 0.642466
0.448264 0.448096 0.642329
0.543832 0.448157 0.64239
0.639429 0.448218 0.642451
0.734585 0.448142 0.64239
0 0.543618 0.642451
0.0662242 0.543572 0.642405
0.161807 0.543633 0.642466
0.257404 0.543679 0.642512
0.352773 0.543557 0.64239
0.448371 0.543618 0.642435
0.543938 0.543679 0.642496
0.639536 0.543725 0.642557
0.734691 0.543664 0.642496
0 0.639185 0.642435
0.0662242 0.639124 0.64239
0.161791 0.639185 0.642451
0.257389 0.639246 0.642512
0.352773 0.639124 0.642374
0.448356 0.63917 0.642435
0.543938 0.639231 0.642496
0.639445 0.6392 0.642451
0.734676 0.639231 0.642481
0 0.734585 0.642466
0.0663462 0.734646 0.642512
0.161929 0.734707 0.642573
0.257481 0.734722 0.642588
0.352895 0.73463 0.642496
0.448493 0.734676 0.642557
0.54406 0.734737 0.642618
0.639475 0.734615 0.642481
0.734813 0.734737 0.642603
0 0 0.737438
0.0658274 0 0.737575
0.161242 0 0.737469
0.256794 0 0.737499
0.352377 0 0.73756
0.447974 0 0.737621
0.543343 0 0.737484
0.638941 0 0.737545
0.734279 0 0.737667
0 0.0659648 0.737758
0.0661479 0.0661021 0.737896
0.161532 0.06598 0.737758
0.257115 0.066041 0.737819
0.352697 0.0660868 0.737881
0.44828 0.0661479 0.737942
0.543664 0.0660258 0.737804
0.639261 0.0660716 0.737865
0.7346 0.0662089 0.737987
0 0.161501 0.737819
0.0662089 0.161639 0.737972
0.161593 0.161501 0.737835
0.257191 0.161563 0.737896
0.352758 0.161624 0.737957
0.448157 0.161486 0.737819
0.54374 0.161547 0.737881
0.639338 0.161608 0.737926
0.73463 0.161685 0.738018
0 0.257053 0.73785
0.0661784 0.25713 0.737942
0.161624 0.257053 0.737865
0.257206 0.257115 0.737911
0.352789 0.257176 0.737987
0.448188 0.257038 0.737835
0.543755 0.257099 0.737911
0.639353 0.25716 0.737957
0.734554 0.25713 0.737942
0 0.352575 0.737942
0.0661631 0.35256 0.737926
0.161715 0.352575 0.737942
0.257298 0.352636 0.738003
0.352789 0.352605 0.737987
0.44828 0.35256 0.737926
0.543847 0.352621 0.737987
0.639445 0.352682 0.738048
0.7346 0.352605 0.737987
0 0.448127 0.737942
0.0661326 0.448081 0.737896
0.161715 0.448127 0.737957
0.257313 0.448188 0.738018
0.352697 0.448066 0.737881
0.44828 0.448112 0.737942
0.543862 0.448173 0.738003
0.639323 0.448112 0.737926
0.7346 0.448173 0.737987
0 0.543511 0.737926
0.0662547 0.543587 0.738003
0.161822 0.543648 0.738064
0.25742 0.543709 0.738125
0.352804 0.543572 0.737987
0.448386 0.543633 0.738048
0.543969 0.543694 0.738109
0.639368 0.543557 0.737972
0.734707 0.543679 0.738094
0 0.639002 0.73785
0.0662394 0.639155 0.737987
0.161822 0.639216 0.738048
0.257404 0.639261 0.738109
0.352789 0.639139 0.737987
0.448386 0.639185 0.738033
0.543954 0.639261 0.738094
0.639353 0.639124 0.737957
0.734691 0.639246 0.738079
0 0.734524 0.737972
0.0663615 0.734661 0.738125
0.161944 0.734722 0.738186
0.257343 0.734585 0.738048
0.352911 0.734646 0.738109
0.448508 0.734707 0.738155
0.54406 0.734752 0.738216
0.63949 0.73463 0.738079
0.734447 0.734371 0.737835
