public/LUTS/Darken/Darken_15.cube
TITLE "Generated by Resolve"
LUT_3D_SIZE 33
0 0 0
0 0 0
0 0 0
0.0106355 0 0
0.0336156 0 0
0.0565805 0 0
0.0794842 0 0
0.102388 0 0
0.125307 0 0
0.148379 0 0
0.171283 0 0
0.194186 0 0
0.217166 0 0
0.240131 0 0
0.263081 0 0
0.286122 0 0
0.309026 0 0
0.33193 0 0
0.354833 0 0
0.377737 0 0
0.400916 0 0
0.423865 0 0
0.446769 0 0
0.469673 0 0
0.492576 0 0
0.515557 0 0
0.538567 0 0
0.561471 0 0
0.584466 0 0
0.607416 0 0
0.63032 0 0
0.65333 0 0
0.676097 0 0
0 0 0
0 0 0
0 0 0
0.0108797 0 0
0.0338598 0 0
0.0568399 0 0
0.0797436 0 0
0.102831 0 0
0.125734 0 0
0.148638 0 0
0.171542 0 0
0.19443 0 0
0.217426 0 0
0.240574 0 0
0.263478 0 0
0.286381 0 0
0.309285 0 0
0.332174 0 0
0.355108 0 0
0.37818 0 0
0.40116 0 0
0.424125 0 0
0.447028 0 0
0.469932 0 0
0.492897 0 0
0.515923 0 0
0.538811 0 0
0.561715 0 0
0.58471 0 0
0.607675 0 0
0.630671 0 0
0.653666 0 0
0.676341 0 0
0 0 0
0 0 0
0 0 0
0.0108644 0 0
0.0338445 0 0
0.0568246 0 0
0.0798962 0 0
0.102815 0 0
0.125704 0 0
0.148608 0 0
0.171511 0 0
0.194415 0 0
0.217594 0 0
0.240558 0 0
0.263462 0 0
0.286366 0 0
0.30927 0 0
0.332174 0 0
0.355245 0 0
0.378149 0 0
0.401144 0 0
0.424109 0 0
0.447013 0 0
0.4701 0 0
0.493004 0 0
0.515892 0 0
0.538796 0 0
0.5617 0 0
0.584741 0 0
0.607843 0 0
0.630747 0 0
0.653635 0 0
0.676326 0 0
0 0.0108186 0
0 0.0108797 0
0 0.0108492 0
0.0108492 0.0108186 0
0.0338293 0.0107729 0
0.0569924 0.0109102 0
0.0798962 0.0108797 0
0.1028 0.0108644 0
0.125689 0.0108339 0
0.148592 0.0108034 0
0.171649 0.0109255 0
0.194583 0.0109407 0
0.217578 0.0108797 0
0.240543 0.0108492 0
0.263447 0.0108186 0
0.286351 0.0107881 0
0.309438 0.0109407 0
0.332326 0.0109255 0
0.35523 0.0108949 0
0.378134 0.0108644 0
0.401129 0.0108186 0
0.424094 0.0107729 0
0.447181 0.0109255 0
0.470085 0.0108949 0
0.492988 0.0108797 0
0.515877 0.0108492 0
0.538781 0.0108186 0
0.561715 0.0108186 0
0.584863 0.0109255 0
0.607828 0.0108797 0
0.630732 0.0108644 0
0.65362 0.0108339 0
0.67631 0.0108644 0
0 0.033753 0
0 0.033814 0
0 0.0337835 0
0.0108644 0.0338598 0
0.0339208 0.0338903 0
0.0569009 0.0338445 0
0.0798047 0.033814 0
0.102708 0.0337987 0
0.125597 0.0337682 0
0.148638 0.033875 0
0.171588 0.0338903 0
0.194491 0.033875 0
0.217472 0.033814 0
0.240452 0.0337835 0
0.263355 0.033753 0
0.286427 0.0338903 0
0.309346 0.033875 0
0.332235 0.0338445 0
0.355138 0.0338293 0
0.378042 0.0337987 0
0.401038 0.033753 0
0.424186 0.0338903 0
0.447089 0.0338598 0
0.469993 0.0338293 0
0.492897 0.033814 0
0.515785 0.0337835 0
0.538872 0.0339361 0
0.561776 0.0339208 0
0.584772 0.0338598 0
0.607736 0.033814 0
0.63064 0.0337987 0
0.653544 0.0337835 0
0.676402 0.0339818 0
0 0.0566873 0
0 0.056733 0
0 0.0567941 0
0.0108797 0.0568704 0
0.0338598 0.0568246 0
0.0568246 0.0567788 0
0.0797284 0.0567483 0
0.102632 0.0567178 0
0.125719 0.0568704 0
0.148623 0.0568551 0
0.171527 0.0568246 0
0.19443 0.0567941 0
0.217411 0.0567483 0
0.240497 0.0568246 0
0.263462 0.0568551 0
0.286366 0.0568246 0
0.30927 0.0568093 0
0.332174 0.0567788 0
0.355077 0.0567483 0
0.378119 0.0568704 0
0.401144 0.0568551 0
0.424109 0.0568093 0
0.447013 0.0567941 0
0.469917 0.0567636 0
0.492821 0.056733 0
0.515908 0.0568856 0
0.538811 0.0568704 0
0.561715 0.0568399 0
0.584695 0.0567788 0
0.60766 0.0567483 0
0.630564 0.0567178 0
0.653651 0.0568704 0
0.676341 0.0569009 0
0 0.0796216 0
0 0.0798199 0
0 0.0797894 0
0.0108644 0.0797742 0
0.0338445 0.0797131 0
0.0568093 0.0796826 0
0.0797894 0.0797131 0
0.1028 0.0798047 0
0.125704 0.0797742 0
0.148608 0.0797436 0
0.171511 0.0797284 0
0.194415 0.0796979 0
0.217502 0.0797436 0
0.240543 0.0797894 0
0.263447 0.0797589 0
0.286351 0.0797284 0
0.309255 0.0797131 0
0.332158 0.0796826 0
0.3552 0.0797894 0
0.378149 0.0798047 0
0.401129 0.0797589 0
0.424094 0.0797131 0
0.446998 0.0796979 0
0.469902 0.0796674 0
0.492988 0.0798199 0
0.515892 0.0797894 0
0.538796 0.0797742 0
0.5617 0.0797436 0
0.58468 0.0796826 0
0.607813 0.0798199 0
0.630732 0.0798047 0
0.653635 0.0797742 0
0.676326 0.0798047 0
0 0.102678 0
0 0.102724 0
0 0.102693 0
0.0108492 0.102663 0
0.0338293 0.102617 0
0.0568551 0.102632 0
0.079881 0.102739 0
0.102785 0.102708 0
0.125689 0.102678 0
0.148592 0.102647 0
0.171496 0.102632 0
0.194583 0.102785 0
0.217563 0.102739 0
0.240528 0.102693 0
0.263432 0.102663 0
0.286336 0.102632 0
0.309316 0.102693 0
0.332326 0.10277 0
0.35523 0.102739 0
0.378134 0.102708 0
0.401114 0.102663 0
0.424079 0.102617 0
0.447105 0.102708 0
0.470069 0.102754 0
0.492973 0.102724 0
0.515877 0.102693 0
0.538781 0.102663 0
0.561685 0.102647 0
0.584817 0.102739 0
0.607813 0.102739 0
0.630716 0.102708 0
0.65362 0.102678 0
0.67631 0.102708 0
0 0.125582 0
0 0.125628 0
0 0.125597 0
0.0108339 0.125582 0
0.0339971 0.125704 0
0.0569619 0.125673 0
0.0798657 0.125643 0
0.10277 0.125612 0
0.125673 0.125582 0
0.148608 0.125597 0
0.171664 0.125719 0
0.194568 0.125689 0
0.217548 0.125643 0
0.240513 0.125597 0
0.263416 0.125566 0
0.286381 0.125612 0
0.309407 0.125704 0
0.332311 0.125673 0
0.355215 0.125643 0
0.378119 0.125612 0
0.401099 0.125566 0
0.42417 0.125628 0
0.44715 0.125689 0
0.470054 0.125658 0
0.492958 0.125628 0
0.515862 0.125597 0
0.538766 0.125566 0
0.561852 0.125734 0
0.584833 0.125673 0
0.607797 0.125643 0
0.630701 0.125612 0
0.653605 0.125582 0
0.676417 0.12575 0
0 0.14847 0
0 0.148531 0
0 0.148501 0
0.0110018 0.148653 0
0.0339818 0.148608 0
0.0569467 0.148562 0
0.0798505 0.148547 0
0.102754 0.148516 0
0.125673 0.148501 0
0.148745 0.148638 0
0.171649 0.148623 0
0.194553 0.148592 0
0.217533 0.148547 0
0.240497 0.148501 0
0.263584 0.148653 0
0.286488 0.148623 0
0.309392 0.148608 0
0.332296 0.148577 0
0.3552 0.148547 0
0.378149 0.148577 0
0.401266 0.148653 0
0.424231 0.148608 0
0.447135 0.148592 0
0.470039 0.148562 0
0.492943 0.148531 0
0.515923 0.148592 0
0.538933 0.148653 0
0.561837 0.148638 0
0.584817 0.148577 0
0.607782 0.148547 0
0.630686 0.148516 0
0.653696 0.148608 0
0.676463 0.148699 0
0 0.171374 0
0 0.171588 0
0 0.171588 0
0.0109712 0.171557 0
0.0339513 0.171511 0
0.0569314 0.171466 0
0.0798352 0.171435 0
0.102922 0.171603 0
0.125826 0.171572 0
0.14873 0.171542 0
0.171633 0.171527 0
0.194522 0.171496 0
0.217517 0.17145 0
0.240665 0.171588 0
0.263569 0.171557 0
0.286473 0.171527 0
0.309377 0.171511 0
0.33228 0.171481 0
0.355215 0.171481 0
0.378271 0.171603 0
0.401251 0.171557 0
0.424216 0.171511 0
0.44712 0.171481 0
0.470024 0.171466 0
0.492988 0.171496 0
0.516014 0.171588 0
0.538918 0.171557 0
0.561822 0.171542 0
0.584802 0.171481 0
0.607767 0.17145 0
0.630854 0.171603 0
0.653758 0.171572 0
0.676432 0.171603 0
0 0.19443 0
0 0.194522 0
0 0.194491 0
0.010956 0.194461 0
0.0339513 0.194415 0
0.0569162 0.194369 0
0.0799878 0.194522 0
0.102907 0.194507 0
0.125811 0.194476 0
0.148714 0.194446 0
0.171618 0.19443 0
0.194507 0.1944 0
0.217685 0.194537 0
0.24065 0.194491 0
0.263554 0.194461 0
0.286458 0.19443 0
0.309361 0.1944 0
0.332448 0.194568 0
0.355352 0.194537 0
0.378256 0.194507 0
0.401236 0.194461 0
0.424201 0.194415 0
0.44712 0.1944 0
0.470192 0.194553 0
0.493095 0.194522 0
0.515999 0.194491 0
0.538903 0.194461 0
0.561807 0.194446 0
0.584833 0.19443 0
0.607935 0.194537 0
0.630838 0.194507 0
0.653742 0.194476 0
0.676417 0.194507 0
0 0.217411 0
0 0.217456 0
0 0.217441 0
0.0108492 0.217411 0
0.0339513 0.217487 0
0.0569924 0.217502 0
0.0798962 0.217472 0
0.1028 0.217441 0
0.125704 0.217426 0
0.148592 0.217395 0
0.171649 0.217517 0
0.194583 0.217517 0
0.217563 0.217472 0
0.240543 0.217426 0
0.263447 0.217395 0
0.286336 0.21738 0
0.309438 0.217533 0
0.332326 0.217502 0
0.35523 0.217472 0
0.378134 0.217456 0
0.401129 0.217395 0
0.424094 0.217365 0
0.447181 0.217517 0
0.470085 0.217487 0
0.492973 0.217456 0
0.515877 0.217441 0
0.538781 0.217411 0
0.561715 0.217411 0
0.584863 0.217517 0
0.607828 0.217472 0
0.630732 0.217441 0
0.65362 0.217411 0
0.67631 0.217456 0
0 0.24033 0
0 0.240375 0
0 0.24036 0
0.0109102 0.240436 0
0.0339666 0.240467 0
0.0569314 0.240421 0
0.0798352 0.240391 0
0.102739 0.24036 0
0.125643 0.24033 0
0.148684 0.240452 0
0.171633 0.240467 0
0.194537 0.240436 0
0.217517 0.240391 0
0.240482 0.240345 0
0.263386 0.240314 0
0.286473 0.240482 0
0.309377 0.240452 0
0.33228 0.240421 0
0.355184 0.240391 0
0.378088 0.240375 0
0.401236 0.240482 0
0.424216 0.240467 0
0.44712 0.240436 0
0.470024 0.240406 0
0.492927 0.240375 0
0.515831 0.24036 0
0.538918 0.240513 0
0.561822 0.240482 0
0.584802 0.240436 0
0.607767 0.240391 0
0.630671 0.24036 0
0.65359 0.240345 0
0.676448 0.240558 0
0 0.263233 0
0 0.263279 0
0 0.263447 0
0.0109712 0.263416 0
0.0339513 0.263371 0
0.0569162 0.263325 0
0.0798199 0.263294 0
0.102815 0.263355 0
0.125811 0.263416 0
0.148714 0.263401 0
0.171618 0.263371 0
0.194522 0.26334 0
0.217502 0.263294 0
0.240589 0.263371 0
0.263554 0.263401 0
0.286458 0.263371 0
0.309361 0.263355 0
0.332265 0.263325 0
0.355169 0.263294 0
0.378225 0.263432 0
0.401236 0.263401 0
0.424201 0.263355 0
0.447105 0.26334 0
0.470008 0.26331 0
0.492912 0.263279 0
0.515999 0.263447 0
0.538903 0.263416 0
0.561807 0.263386 0
0.584787 0.263325 0
0.607752 0.263294 0
0.630655 0.263264 0
0.653742 0.263416 0
0.676432 0.263447 0
0 0.286168 0
0 0.286366 0
0 0.286336 0
0.010956 0.28632 0
0.0339361 0.286259 0
0.0569009 0.286229 0
0.079881 0.286259 0
0.102892 0.286351 0
0.125795 0.28632 0
0.148699 0.28629 0
0.171603 0.286275 0
0.194507 0.286244 0
0.217594 0.286305 0
0.240635 0.286336 0
0.263539 0.286305 0
0.286442 0.286275 0
0.309346 0.286259 0
0.33225 0.286229 0
0.355337 0.286381 0
0.378241 0.286366 0
0.401221 0.286305 0
0.424186 0.286259 0
0.447089 0.286244 0
0.47013 0.286351 0
0.49308 0.286366 0
0.515984 0.286336 0
0.538888 0.28632 0
0.561791 0.28629 0
0.584787 0.286244 0
0.607904 0.286366 0
0.630823 0.286351 0
0.653727 0.28632 0
0.676417 0.286351 0
0 0.309224 0
0 0.30927 0
0 0.309239 0
0.0109407 0.309224 0
0.0339208 0.309163 0
0.0570687 0.309316 0
0.0799725 0.309285 0
0.102876 0.309255 0
0.12578 0.309224 0
0.148684 0.309194 0
0.171633 0.309224 0
0.194675 0.309331 0
0.217655 0.309285 0
0.24062 0.309239 0
0.263523 0.309209 0
0.286427 0.309178 0
0.309422 0.309239 0
0.332418 0.309316 0
0.355322 0.309285 0
0.378225 0.309255 0
0.401205 0.309209 0
0.42417 0.309163 0
0.447196 0.30927 0
0.470161 0.3093 0
0.493065 0.30927 0
0.515969 0.309239 0
0.538872 0.309224 0
0.561776 0.309194 0
0.584924 0.3093 0
0.607904 0.309285 0
0.630808 0.309255 0
0.653712 0.309224 0
0.676402 0.309255 0
0 0.332128 0
0 0.332174 0
0 0.332143 0
0.0109255 0.332128 0
0.0340887 0.33225 0
0.0570535 0.332219 0
0.0799573 0.332189 0
0.102861 0.332158 0
0.125765 0.332128 0
0.148699 0.332143 0
0.171756 0.332265 0
0.194659 0.332235 0
0.217639 0.332189 0
0.240604 0.332143 0
0.263508 0.332113 0
0.286488 0.332158 0
0.309499 0.33225 0
0.332403 0.332219 0
0.355306 0.332189 0
0.37821 0.332158 0
0.40119 0.332113 0
0.424338 0.33225 0
0.447242 0.332235 0
0.470146 0.332204 0
0.49305 0.332174 0
0.515953 0.332143 0
0.538949 0.332219 0
0.561944 0.33228 0
0.584939 0.332235 0
0.607889 0.332189 0
0.630793 0.332158 0
0.653696 0.332128 0
0.676524 0.332296 0
0 0.355016 0
0 0.355077 0
0 0.355047 0
0.0110933 0.3552 0
0.0340734 0.355154 0
0.0570382 0.355108 0
0.079942 0.355093 0
0.102846 0.355062 0
0.125933 0.355215 0
0.148836 0.355184 0
0.17174 0.355169 0
0.194644 0.355138 0
0.217624 0.355093 0
0.24062 0.355062 0
0.263676 0.3552 0
0.28658 0.355169 0
0.309483 0.355154 0
0.332387 0.355123 0
0.355291 0.355093 0
0.378241 0.355123 0
0.401358 0.3552 0
0.424323 0.355154 0
0.447227 0.355138 0
0.47013 0.355108 0
0.493034 0.355077 0
0.51603 0.355138 0
0.539025 0.3552 0
0.561929 0.355184 0
0.584924 0.355123 0
0.607874 0.355093 0
0.630777 0.355062 0
0.653803 0.355154 0
0.676555 0.355245 0
0 0.37792 0
0 0.378134 0
0 0.378134 0
0.0110781 0.378103 0
0.0340581 0.378058 0
0.057023 0.378012 0
0.0799268 0.377981 0
0.103014 0.378149 0
0.125917 0.378119 0
0.148821 0.378088 0
0.171725 0.378073 0
0.194629 0.378042 0
0.217609 0.377997 0
0.240757 0.378134 0
0.263661 0.378103 0
0.286564 0.378073 0
0.309468 0.378058 0
0.332372 0.378027 0
0.355306 0.378027 0
0.378363 0.378149 0
0.401343 0.378103 0
0.424308 0.378058 0
0.447211 0.378027 0
0.470115 0.378012 0
0.493202 0.378164 0
0.516106 0.378134 0
0.53901 0.378103 0
0.561913 0.378088 0
0.584909 0.378027 0
0.607919 0.378058 0
0.630945 0.378149 0
0.653849 0.378119 0
0.676539 0.378149 0
0 0.401022 0
0 0.401114 0
0 0.401083 0
0.0109407 0.401053 0
0.0339208 0.401007 0
0.0569009 0.400961 0
0.0799878 0.401129 0
0.102892 0.401099 0
0.12578 0.401068 0
0.148684 0.401038 0
0.171588 0.401022 0
0.194675 0.40116 0
0.217655 0.401129 0
0.240635 0.401083 0
0.263539 0.401053 0
0.286427 0.401022 0
0.309331 0.400992 0
0.332418 0.40116 0
0.355322 0.401129 0
0.378225 0.401099 0
0.401221 0.401053 0
0.42417 0.401007 0
0.447105 0.401007 0
0.470161 0.401144 0
0.493065 0.401114 0
0.515969 0.401083 0
0.538872 0.401053 0
0.561776 0.401038 0
0.584817 0.401038 0
0.607919 0.401129 0
0.630808 0.401099 0
0.653712 0.401068 0
0.676402 0.401099 0
0 0.423972 0
0 0.424018 0
0 0.424002 0
0.0109102 0.423972 0
0.0340124 0.424048 0
0.0570535 0.424063 0
0.079942 0.424033 0
0.102846 0.424002 0
0.12575 0.423987 0
0.148653 0.423957 0
0.17171 0.424079 0
0.194644 0.424079 0
0.217624 0.424033 0
0.240589 0.423987 0
0.263493 0.423957 0
0.286397 0.423941 0
0.309483 0.424094 0
0.332387 0.424063 0
0.355291 0.424033 0
0.378195 0.424018 0
0.401175 0.423957 0
0.424155 0.423926 0
0.447227 0.424079 0
0.47013 0.424048 0
0.493034 0.424018 0
0.515938 0.424002 0
0.538842 0.423972 0
0.561929 0.424125 0
0.584924 0.424079 0
0.607874 0.424033 0
0.630777 0.424002 0
0.653681 0.423972 0
0.676402 0.424048 0
0 0.446876 0
0 0.446921 0
0 0.446906 0
0.0110018 0.446983 0
0.0340581 0.447013 0
0.0570382 0.446967 0
0.0799268 0.446937 0
0.102831 0.446906 0
0.125734 0.446876 0
0.148821 0.447044 0
0.171725 0.447013 0
0.194629 0.446983 0
0.217609 0.446937 0
0.240574 0.446891 0
0.26363 0.447013 0
0.286564 0.447028 0
0.309468 0.446998 0
0.332372 0.446967 0
0.355276 0.446937 0
0.37818 0.446921 0
0.401343 0.447044 0
0.424308 0.447013 0
0.447211 0.446983 0
0.470115 0.446952 0
0.493019 0.446921 0
0.515923 0.446906 0
0.53901 0.447059 0
0.561913 0.447028 0
0.584909 0.446983 0
0.607858 0.446937 0
0.630762 0.446906 0
0.653681 0.446906 0
0.676539 0.447105 0
0 0.46978 0
0 0.469886 0
0 0.469993 0
0.0110628 0.469963 0
0.0340429 0.469917 0
0.057023 0.469871 0
0.0799115 0.469841 0
0.102907 0.469902 0
0.125902 0.469963 0
0.148806 0.469947 0
0.17171 0.469917 0
0.194614 0.469886 0
0.217594 0.469841 0
0.240696 0.469917 0
0.263661 0.469947 0
0.286549 0.469917 0
0.309453 0.469902 0
0.332357 0.469871 0
0.355261 0.469841 0
0.378317 0.469978 0
0.401343 0.469947 0
0.424292 0.469902 0
0.447196 0.469886 0
0.4701 0.469856 0
0.493004 0.469825 0
0.516091 0.469993 0
0.538994 0.469963 0
0.561898 0.469932 0
0.584894 0.469886 0
0.607843 0.469841 0
0.63093 0.469993 0
0.653834 0.469963 0
0.676524 0.469993 0
0 0.492714 0
0 0.492912 0
0 0.492897 0
0.0110475 0.492866 0
0.0340276 0.492821 0
0.0570077 0.492775 0
0.0799725 0.492821 0
0.102983 0.492897 0
0.125887 0.492866 0
0.148791 0.492851 0
0.171695 0.492821 0
0.194598 0.49279 0
0.217762 0.492927 0
0.240726 0.492882 0
0.26363 0.492851 0
0.286534 0.492821 0
0.309438 0.492805 0
0.332448 0.492882 0
0.355428 0.492927 0
0.378332 0.492912 0
0.401312 0.492851 0
0.424277 0.492805 0
0.447181 0.49279 0
0.470222 0.492897 0
0.493172 0.492912 0
0.516075 0.492897 0
0.538979 0.492866 0
0.561883 0.492836 0
0.584878 0.49279 0
0.608011 0.492912 0
0.630915 0.492897 0
0.653819 0.492866 0
0.676509 0.492897 0
0 0.51577 0
0 0.515816 0
0 0.515785 0
0.0110323 0.51577 0
0.0340429 0.51574 0
0.0571756 0.515862 0
0.0800641 0.515831 0
0.102968 0.515801 0
0.125872 0.51577 0
0.148775 0.51574 0
0.17174 0.515785 0
0.194766 0.515877 0
0.217746 0.515831 0
0.240711 0.515785 0
0.263615 0.515755 0
0.286519 0.515724 0
0.309514 0.515801 0
0.332509 0.515862 0
0.355413 0.515831 0
0.378317 0.515801 0
0.401297 0.515755 0
0.424262 0.515709 0
0.447288 0.515816 0
0.470253 0.515846 0
0.493156 0.515816 0
0.51606 0.515785 0
0.538964 0.51577 0
0.561868 0.51574 0
0.585046 0.515877 0
0.607996 0.515831 0
0.6309 0.515801 0
0.653803 0.51577 0
0.676493 0.515801 0
0 0.538674 0
0 0.53872 0
0 0.538689 0
0.0110323 0.538674 0
0.0341802 0.538796 0
0.0571603 0.538766 0
0.0800488 0.538735 0
0.102953 0.538705 0
0.125856 0.538674 0
0.148806 0.538689 0
0.171847 0.538811 0
0.194751 0.538781 0
0.217731 0.538735 0
0.240696 0.538689 0
0.263615 0.538659 0
0.286687 0.538811 0
0.30959 0.538796 0
0.332494 0.538766 0
0.355398 0.538735 0
0.378302 0.538705 0
0.401358 0.538735 0
0.42443 0.538796 0
0.447333 0.538781 0
0.470237 0.53875 0
0.493141 0.53872 0
0.516045 0.538689 0
0.539055 0.538766 0
0.562036 0.538827 0
0.585031 0.538781 0
0.60798 0.538735 0
0.630884 0.538705 0
0.653788 0.538674 0
0.676616 0.538842 0
0 0.561578 0
0 0.561624 0
0 0.561776 0
0.0111849 0.561761 0
0.034165 0.5617 0
0.0571298 0.561669 0
0.0800336 0.561639 0
0.102937 0.561608 0
0.126024 0.561761 0
