public/LUTS/Darken/Darken_15.cube
TITLE "Generated by Resolve"
LUT_3D_SIZE 9
0 0 0
0.0336156 0 0
0.125307 0 0
0.217166 0 0
0.309026 0 0
0.400916 0 0
0.492576 0 0
0.584466 0 0
0.676097 0 0
0 0.033753 0
0.0339208 0.0338903 0
0.125597 0.0337682 0
0.217472 0.033814 0
0.309346 0.033875 0
0.401038 0.033753 0
0.492897 0.033814 0
0.584772 0.0338598 0
0.676402 0.0339818 0
0 0.125582 0
0.0339971 0.125704 0
0.125673 0.125582 0
0.217548 0.125643 0
0.309407 0.125704 0
0.401099 0.125566 0
0.492958 0.125628 0
0.584833 0.125673 0
0.676417 0.12575 0
0 0.217411 0
0.0339513 0.217487 0
0.125704 0.217426 0
0.217563 0.217472 0
0.309438 0.217533 0
0.401129 0.217395 0
0.492973 0.217456 0
0.584863 0.217517 0
0.67631 0.217456 0
0 0.309224 0
0.0339208 0.309163 0
0.12578 0.309224 0
0.217655 0.309285 0
0.309422 0.309239 0
0.401205 0.309209 0
0.493065 0.30927 0
0.584924 0.3093 0
0.676402 0.309255 0
0 0.401022 0
0.0339208 0.401007 0
0.12578 0.401068 0
0.217655 0.401129 0
0.309331 0.400992 0
0.401221 0.401053 0
0.493065 0.401114 0
0.584817 0.401038 0
0.676402 0.401099 0
0 0.492714 0
0.0340276 0.492821 0
0.125887 0.492866 0
0.217762 0.492927 0
0.309438 0.492805 0
0.401312 0.492851 0
0.493172 0.492912 0
0.584878 0.49279 0
0.676509 0.492897 0
0 0.584527 0
0.0340124 0.584665 0
0.125887 0.584726 0
0.217578 0.584604 0
0.309438 0.584649 0
0.401312 0.584695 0
0.493172 0.584756 0
0.584863 0.584634 0
0.676493 0.584756 0
0 0.676326 0
0.0341344 0.676463 0
0.126009 0.676509 0
0.217685 0.676387 0
0.30956 0.676448 0
0.401434 0.676493 0
0.493263 0.676539 0
0.584985 0.676432 0
0.676616 0.676539 0
0 0 0.0338445
0.0336461 0 0.0339666
0.125322 0 0.0338445
0.217197 0 0.0339055
0.309056 0 0.0339666
0.400793 0 0.033875
0.492607 0 0.0338903
0.584482 0 0.0339513
0.676036 0 0.0339818
0 0.0337835 0.0341497
0.0338598 0.0338293 0.0341955
0.125628 0.0337835 0.0341497
0.217502 0.0338445 0.0342107
0.309361 0.0339055 0.0342718
0.401053 0.0337682 0.0341344
0.492912 0.0338293 0.0341955
0.584802 0.0338903 0.0342565
0.676249 0.0338293 0.0341955
0 0.125597 0.0342107
0.0338293 0.125551 0.034165
0.125689 0.125612 0.034226
0.217578 0.125658 0.0342718
0.309422 0.125719 0.0343328
0.401129 0.125597 0.0342107
0.492973 0.125658 0.0342565
0.584863 0.125704 0.0343175
0.67631 0.125643 0.0342565
0 0.217441 0.0342412
0.0338598 0.21738 0.0341955
0.125719 0.217441 0.0342412
0.217594 0.217502 0.0343023
0.30927 0.217365 0.0341802
0.401144 0.217426 0.034226
0.493004 0.217487 0.034287
0.584894 0.217533 0.0343481
0.676341 0.217472 0.034287
0 0.309239 0.0343175
0.0339361 0.309194 0.0342718
0.125811 0.309255 0.0343328
0.217685 0.309316 0.0343938
0.309361 0.309178 0.0342565
0.401236 0.309239 0.0343175
0.493095 0.3093 0.0343786
0.584894 0.30927 0.0343481
0.676417 0.309285 0.0343633
0 0.401007 0.0342412
0.0339513 0.401038 0.034287
0.125811 0.401099 0.0343328
0.21767 0.401129 0.0343786
0.309361 0.401022 0.0342718
0.401236 0.401083 0.0343175
0.493095 0.401144 0.0343786
0.584787 0.401007 0.0342565
0.676432 0.401129 0.0343633
0 0.492699 0.0342565
0.0340581 0.492836 0.0343786
0.125917 0.492897 0.0344396
0.21767 0.492836 0.0343786
0.309468 0.492821 0.0343633
0.401343 0.492882 0.0344244
0.493141 0.492882 0.0344396
0.584894 0.492805 0.0343481
0.676539 0.492927 0.0344701
0 0.584558 0.0342412
0.0340429 0.584695 0.0343786
0.125902 0.584741 0.0344244
0.217594 0.584619 0.0343023
0.309453 0.58468 0.0343633
0.401328 0.584726 0.0344091
0.493034 0.584634 0.0343175
0.584894 0.584649 0.0343481
0.676524 0.584772 0.0344701
0 0.676341 0.0343633
0.034165 0.676478 0.0345006
0.126024 0.676539 0.0345464
0.217716 0.676417 0.0344244
0.309575 0.676463 0.0344854
0.40145 0.676524 0.0345312
0.493126 0.676402 0.0344091
0.585016 0.676448 0.0344701
0.676646 0.67657 0.0345922
0 0 0.126162
0.0335851 0 0.126253
0.125307 0 0.126162
0.217182 0 0.126223
0.309041 0 0.126284
0.400732 0 0.126146
0.492592 0 0.126207
0.584482 0 0.126268
0.675975 0 0.126253
0 0.0337682 0.126467
0.0337987 0.0337682 0.126467
0.125612 0.0337835 0.126482
0.217487 0.0338293 0.126528
0.309285 0.0338293 0.126528
0.401038 0.033753 0.126467
0.492897 0.033814 0.126513
0.584787 0.033875 0.126574
0.676234 0.0337987 0.126513
0 0.125582 0.126528
0.033814 0.125536 0.126482
0.125673 0.125597 0.126543
0.217563 0.125643 0.126604
0.309239 0.125536 0.126482
0.401114 0.125582 0.126528
0.492958 0.125643 0.126589
0.584741 0.125582 0.126543
0.676295 0.125628 0.126574
0 0.217304 0.126452
0.0338445 0.217365 0.126513
0.125704 0.217426 0.126574
0.217578 0.217487 0.126619
0.309255 0.21735 0.126497
0.401129 0.217411 0.126543
0.492988 0.217472 0.126604
0.584695 0.217334 0.126482
0.676326 0.217456 0.126604
0 0.309041 0.126467
0.0339208 0.309178 0.126589
0.125795 0.309239 0.12665
0.21767 0.3093 0.126711
0.309346 0.309163 0.126574
0.401221 0.309224 0.126635
0.49308 0.309285 0.126696
0.584772 0.309148 0.126558
0.676402 0.30927 0.12668
0 0.400885 0.126467
0.0339361 0.401022 0.126604
0.125795 0.401083 0.126665
0.217487 0.400946 0.126528
0.309346 0.401007 0.126589
0.401221 0.401068 0.126635
0.49308 0.401129 0.126696
0.584787 0.400992 0.126574
0.676417 0.401114 0.126696
0 0.492683 0.126574
0.0340429 0.492821 0.126711
0.125902 0.492882 0.126757
0.217594 0.49276 0.126635
0.309453 0.492805 0.126696
0.401328 0.492866 0.126741
0.49308 0.492821 0.126711
0.584878 0.49279 0.12668
0.676524 0.492912 0.126787
0 0.584543 0.126558
0.0340276 0.58468 0.126696
0.125856 0.584695 0.126711
0.217578 0.584604 0.126619
0.309438 0.584665 0.12668
0.401312 0.58471 0.126741
0.492988 0.584588 0.126619
0.584878 0.584634 0.126665
0.676509 0.584756 0.126787
0 0.676326 0.12668
0.0341497 0.676463 0.126818
0.125872 0.676387 0.126726
0.2177 0.676402 0.126741
0.30956 0.676448 0.126802
0.401373 0.676432 0.126787
0.493111 0.676387 0.126741
0.585 0.676432 0.126787
0.676631 0.676555 0.126909
0 0 0.218311
0.0334325 0 0.21825
0.125307 0 0.218311
0.217182 0 0.218372
0.309026 0 0.218418
0.400732 0 0.218296
0.492592 0 0.218357
0.584466 0 0.218402
0.675914 0 0.218341
0 0.0337682 0.218616
0.033753 0.0337224 0.218555
0.125612 0.0337682 0.218616
0.217487 0.0338293 0.218677
0.309163 0.0337072 0.218555
0.401038 0.033753 0.218601
0.492897 0.033814 0.218662
0.584741 0.0338293 0.218677
0.676234 0.0337987 0.218647
0 0.125536 0.218616
0.033814 0.125536 0.218631
0.125673 0.125597 0.218692
0.217548 0.125643 0.218738
0.309224 0.125521 0.218616
0.401114 0.125582 0.218677
0.492958 0.125628 0.218723
0.584695 0.125536 0.218631
0.676295 0.125628 0.218723
0 0.217258 0.218555
0.0338445 0.217365 0.218647
0.125704 0.217426 0.218708
0.217487 0.217395 0.218677
0.309255 0.21735 0.218647
0.401129 0.217411 0.218692
0.492988 0.217472 0.218753
0.58468 0.217334 0.218631
0.676326 0.217456 0.218738
0 0.309041 0.218601
0.0339208 0.309178 0.218738
0.125795 0.309239 0.218799
0.217487 0.309102 0.218662
0.309346 0.309163 0.218723
0.401221 0.309224 0.218784
0.492943 0.309148 0.218708
0.584772 0.309148 0.218708
0.676402 0.30927 0.21883
0 0.400885 0.218616
0.0339361 0.401022 0.218738
0.125795 0.401083 0.218799
0.217487 0.400946 0.218677
0.309346 0.401007 0.218738
0.401221 0.401068 0.218784
0.492897 0.400931 0.218662
0.584772 0.400992 0.218708
0.676417 0.401114 0.21883
0 0.492683 0.218723
0.0340276 0.492821 0.218845
0.125902 0.492882 0.218906
0.217594 0.49276 0.218784
0.309453 0.492805 0.21883
0.401328 0.492866 0.218891
0.493004 0.492744 0.218769
0.584878 0.49279 0.218814
0.676524 0.492912 0.218936
0 0.584543 0.218708
0.0340276 0.584665 0.218845
0.125704 0.584543 0.218708
0.217578 0.584604 0.218769
0.309438 0.584665 0.21883
0.401297 0.584695 0.21886
0.492988 0.584588 0.218753
0.584878 0.584634 0.218814
0.676509 0.584756 0.218936
0 0.676326 0.21883
0.0341497 0.676463 0.218967
0.125826 0.676341 0.21883
0.2177 0.676402 0.218891
0.30956 0.676448 0.218952
0.401328 0.676387 0.218875
0.493111 0.676387 0.218875
0.585 0.676432 0.218936
0.67657 0.676509 0.218997
0 0 0.310628
0.0334325 0 0.310567
0.125292 0 0.310628
0.217166 0 0.310689
0.308843 0 0.310567
0.400717 0 0.310613
0.492576 0 0.310674
0.584283 0 0.310552
0.675898 0 0.310658
0 0.0335699 0.31075
0.0337377 0.0337072 0.310887
0.125597 0.0337682 0.310933
0.217472 0.033814 0.310994
0.309148 0.0336919 0.310872
0.401022 0.0337377 0.310918
0.492882 0.0337987 0.310979
0.584588 0.0336767 0.310857
0.676219 0.0337835 0.310964
0 0.125383 0.310811
0.0337987 0.125521 0.310948
0.125658 0.125582 0.311009
0.217502 0.125597 0.311025
0.309209 0.125505 0.310933
0.401099 0.125566 0.310994
0.492943 0.125628 0.31104
0.584649 0.12549 0.310918
0.67628 0.125612 0.31104
0 0.217227 0.310842
0.0338293 0.21735 0.310964
0.125689 0.217411 0.311025
0.21738 0.217273 0.310903
0.309239 0.217334 0.310964
0.401114 0.217395 0.311009
0.492912 0.21738 0.311009
0.58468 0.217319 0.310948
0.67631 0.217441 0.311055
0 0.309026 0.310918
0.0339055 0.309163 0.311055
0.125765 0.309209 0.311101
0.217456 0.309087 0.310979
0.309331 0.309148 0.31104
0.401205 0.309209 0.311101
0.492882 0.309102 0.310994
0.584756 0.309133 0.311025
0.676387 0.309255 0.311147
0 0.40087 0.310933
0.0339208 0.401007 0.311055
0.125673 0.400946 0.311009
0.217472 0.400931 0.310994
0.309331 0.400992 0.311055
0.401205 0.401053 0.311101
0.492882 0.400916 0.310979
0.584756 0.400977 0.31104
0.676402 0.401099 0.311147
0 0.492668 0.31104
0.0340124 0.492805 0.311162
0.125704 0.492683 0.31104
0.217578 0.492729 0.311101
0.309438 0.49279 0.311147
0.40116 0.492699 0.311055
0.492988 0.492729 0.311086
0.584863 0.492775 0.311131
0.676493 0.492897 0.311254
0 0.584527 0.311025
0.0340124 0.584649 0.311162
0.125689 0.584527 0.311025
0.217563 0.584588 0.311086
0.309422 0.584649 0.311147
0.401114 0.584512 0.311009
0.492973 0.584573 0.31107
0.584863 0.584619 0.311131
0.676493 0.584741 0.311238
0 0.67631 0.311147
0.0341192 0.676448 0.311269
0.125811 0.676326 0.311147
0.217685 0.676387 0.311208
0.309545 0.676432 0.311269
0.401236 0.67631 0.311131
0.493095 0.676371 0.311192
0.584985 0.676417 0.311254
0.676432 0.676356 0.311177
0 0 0.40264
0.0334173 0 0.402716
0.125292 0 0.402777
0.217105 0 0.402762
0.308843 0 0.402701
0.400717 0 0.402762
0.492576 0 0.402823
0.584268 0 0.402686
0.675898 0 0.402808
0 0.0335699 0.402884
0.0337377 0.0337072 0.403021
0.125597 0.033753 0.403082
0.217304 0.0336461 0.402975
0.309148 0.0336919 0.403006
0.401022 0.0337377 0.403067
0.492882 0.0337987 0.403128
0.584573 0.0336767 0.402991
0.676219 0.0337835 0.403113
0 0.125383 0.40296
0.0337987 0.125521 0.403098
0.125658 0.125582 0.403143
0.21735 0.125444 0.403021
0.309209 0.125505 0.403082
0.401083 0.125551 0.403128
0.49276 0.125429 0.403006
0.584649 0.12549 0.403067
0.67628 0.125612 0.403174
0 0.217212 0.402975
0.0338293 0.21735 0.403113
0.125689 0.217411 0.403174
0.21738 0.217273 0.403052
0.309239 0.217334 0.403098
0.401114 0.217395 0.403159
0.49279 0.217273 0.403037
0.584665 0.217319 0.403082
0.67631 0.217441 0.403204
0 0.309026 0.403067
0.0339055 0.309163 0.403204
0.125719 0.309163 0.403204
0.217456 0.309087 0.403128
0.309316 0.309148 0.403189
0.401205 0.309209 0.403235
0.492866 0.309071 0.403113
0.584756 0.309133 0.403174
0.676387 0.309255 0.403296
0 0.40087 0.403067
0.0339208 0.401007 0.403204
0.125597 0.400885 0.403082
0.217472 0.400931 0.403128
0.309331 0.400992 0.403189
0.401114 0.400961 0.403159
0.492882 0.400916 0.403128
0.584756 0.400977 0.403174
0.676371 0.401068 0.403265
0 0.492668 0.403174
0.0339818 0.492775 0.403281
0.125704 0.492683 0.403189
0.217578 0.492729 0.403235
0.309438 0.49279 0.403296
0.401129 0.492668 0.403174
0.492988 0.492729 0.403235
0.584863 0.492775 0.403281
0.676371 0.492775 0.403281
0 0.584527 0.403174
0.033875 0.584512 0.403159
0.125689 0.584527 0.403174
0.217563 0.584588 0.403235
0.309422 0.584634 0.403296
0.401114 0.584512 0.403159
0.492973 0.584573 0.40322
0.584863 0.584619 0.403265
0.67631 0.584558 0.403204
0 0.67631 0.403296
0.0339513 0.676265 0.403235
0.125811 0.676326 0.403296
0.217685 0.676371 0.403357
0.309377 0.676265 0.403235
0.401236 0.67631 0.403281
0.493095 0.676371 0.403342
0.584985 0.676417 0.403388
0.676432 0.676356 0.403326
0 0 0.494896
0.0334173 0 0.495033
0.125277 0 0.495094
0.217044 0 0.495048
0.308827 0 0.495018
0.400702 0 0.495079
0.492515 0 0.495094
0.584253 0 0.495003
0.675883 0 0.495125
0 0.0335546 0.495216
0.0337224 0.0336919 0.495338
0.125582 0.0337377 0.495399
0.217273 0.0336156 0.495277
0.309133 0.0336767 0.495338
0.401007 0.0337224 0.495384
0.492729 0.0336461 0.495308
0.584558 0.0336461 0.495308
0.676204 0.0337682 0.49543
0 0.125368 0.495277
0.0337835 0.125505 0.495415
0.125566 0.125475 0.495384
0.217334 0.125429 0.495338
0.309194 0.12549 0.495399
0.401068 0.125536 0.495445
0.492744 0.125414 0.495323
0.584634 0.125475 0.495384
0.676265 0.125597 0.495506
0 0.217197 0.495308
0.033814 0.217334 0.49543
0.12549 0.217212 0.495308
0.217365 0.217258 0.495369
0.309224 0.217319 0.49543
0.401099 0.21738 0.495476
0.492775 0.217258 0.495354
0.584649 0.217304 0.495399
0.676295 0.217426 0.495521
0 0.30901 0.495384
0.0338903 0.309148 0.495521
0.125582 0.309026 0.495399
0.217441 0.309071 0.495445
0.309316 0.309133 0.495506
0.401007 0.308995 0.495384
0.492851 0.309071 0.495445
0.584741 0.309117 0.495491
0.676371 0.309239 0.495613
0 0.400854 0.495399
0.0339055 0.400992 0.495521
0.125582 0.40087 0.495399
0.217456 0.400916 0.49546
0.309316 0.400977 0.495521
0.401007 0.400839 0.495384
0.492866 0.4009 0.495445
0.584741 0.400961 0.495491
0.67631 0.401007 0.495552
0 0.492653 0.495491
0.0339208 0.492714 0.495552
0.125689 0.492668 0.495506
0.217563 0.492714 0.495552
0.309407 0.49276 0.495613
0.401114 0.492653 0.495491
0.492973 0.492714 0.495552
0.584848 0.49276 0.495598
0.676295 0.492699 0.495537
0 0.584497 0.495491
0.033814 0.584451 0.49543
0.125673 0.584512 0.495491
0.217548 0.584573 0.495552
0.3093 0.584512 0.495491
0.401099 0.584497 0.495476
0.492958 0.584558 0.495537
0.584787 0.584558 0.495552
0.676295 0.584543 0.495521
0 0.676234 0.495552
0.0339361 0.676249 0.495552
0.125795 0.67631 0.495613
0.21767 0.676356 0.495674
0.309346 0.676234 0.495552
0.401221 0.676295 0.495598
0.49308 0.676356 0.495659
0.584817 0.676249 0.495567
0.676417 0.676341 0.495644
0 0 0.587045
0.033402 0 0.587182
0.125277 0 0.587243
0.216968 0 0.587106
0.308827 0 0.587167
0.400702 0 0.587228
0.492378 0 0.587106
0.584253 0 0.587152
0.675883 0 0.587274
0 0.0335546 0.58735
0.0337224 0.0336919 0.587488
0.125551 0.0337072 0.587518
0.217273 0.0336156 0.587427
0.309133 0.0336767 0.587472
0.401007 0.0337224 0.587533
0.492683 0.0336004 0.587411
0.584558 0.0336461 0.587457
0.676204 0.0337682 0.587579
0 0.125368 0.587427
0.0337835 0.125505 0.587564
0.125521 0.125429 0.587488
0.217334 0.125429 0.587488
0.309194 0.12549 0.587549
0.401007 0.125475 0.587533
0.492744 0.125414 0.587472
0.584634 0.125475 0.587518
0.676265 0.125597 0.58764
0 0.217197 0.587442
0.033814 0.217334 0.587579
0.12549 0.217212 0.587457
0.217365 0.217258 0.587503
0.309224 0.217319 0.587564
0.400931 0.217212 0.587457
0.492775 0.217258 0.587503
0.584649 0.217304 0.587549
0.676188 0.217334 0.587579
0 0.30901 0.587533
0.0337835 0.309041 0.587564
0.125566 0.30901 0.587533
0.217441 0.309071 0.587594
0.3093 0.309133 0.587655
0.401007 0.308995 0.587518
0.492851 0.309056 0.587579
0.584741 0.309117 0.58764
0.676188 0.309056 0.587579
0 0.400854 0.587533
0.0337072 0.400809 0.587488
0.125582 0.400854 0.587549
0.217456 0.400916 0.587594
0.309316 0.400977 0.587655
0.401007 0.400839 0.587533
0.492866 0.4009 0.587594
0.584741 0.400961 0.58764
0.676188 0.400885 0.587579
0 0.492653 0.58764
0.033814 0.492607 0.587594
0.125689 0.492668 0.587655
0.217563 0.492714 0.587701
0.309239 0.492592 0.587579
0.401114 0.492653 0.58764
0.492973 0.492714 0.587701
0.584848 0.49276 0.587747
0.676295 0.492699 0.587686
0 0.584497 0.587625
0.033814 0.584451 0.587579
0.125673 0.584512 0.58764
0.217548 0.584573 0.587701
0.309224 0.584436 0.587564
0.401099 0.584497 0.587625
0.492958 0.584558 0.587686
0.584741 0.584512 0.58764
0.676295 0.584543 0.587671
0 0.676188 0.587655
0.0339361 0.676249 0.587701
0.125795 0.67631 0.587762
0.217639 0.676326 0.587777
0.309346 0.676234 0.587686
0.401221 0.676295 0.587747
0.49308 0.676356 0.587808
0.584772 0.676219 0.587671
0.676417 0.676341 0.587793
0 0 0.678935
0.0334325 0 0.679072
0.125124 0 0.678965
0.216983 0 0.678996
0.308843 0 0.679057
0.400717 0 0.679118
0.492393 0 0.678981
0.584268 0 0.679042
0.675914 0 0.679164
0 0.0335699 0.67924
0.0337377 0.0337072 0.679377
0.125414 0.0335699 0.679255
0.217288 0.0336309 0.679316
0.309148 0.0336919 0.679362
0.401022 0.0337377 0.679423
0.492699 0.0336156 0.679301
0.584588 0.0336767 0.679347
0.676219 0.0337987 0.679469
0 0.125383 0.679316
0.0337987 0.125521 0.679454
0.125475 0.125399 0.679316
0.21735 0.125444 0.679377
0.309209 0.125505 0.679438
0.400916 0.125383 0.679301
0.49276 0.125444 0.679362
0.584649 0.12549 0.679408
0.676234 0.125566 0.6795
0 0.217212 0.679332
0.0337835 0.217304 0.679423
0.125505 0.217227 0.679347
0.21738 0.217288 0.679393
0.309239 0.21735 0.679454
0.400931 0.217212 0.679332
0.49279 0.217273 0.679393
0.584665 0.217319 0.679438
0.676158 0.217304 0.679423
0 0.309026 0.679423
0.033753 0.30901 0.679408
0.125582 0.309041 0.679423
0.217472 0.309087 0.679484
0.309239 0.309071 0.679454
0.401022 0.309026 0.679408
0.492882 0.309087 0.679469
0.584756 0.309133 0.67953
0.676204 0.309071 0.679469
0 0.40087 0.679423
0.0337377 0.400824 0.679377
0.125597 0.400885 0.679438
0.217472 0.400931 0.679484
0.309148 0.400809 0.679362
0.401022 0.400854 0.679423
0.492882 0.400931 0.679484
0.584649 0.400854 0.679408
0.676219 0.400916 0.679469
0 0.492546 0.679408
0.0338293 0.492622 0.679484
0.125704 0.492683 0.679545
0.217578 0.492729 0.679591
0.309255 0.492607 0.679469
0.401129 0.492668 0.67953
0.492988 0.492729 0.679591
0.58468 0.492592 0.679454
0.67631 0.492714 0.679576
0 0.584329 0.679332
0.0338293 0.584466 0.679469
0.125689 0.584527 0.67953
0.217563 0.584588 0.679591
0.309239 0.584466 0.679454
0.401114 0.584512 0.679515
0.492973 0.584573 0.679576
0.584665 0.584436 0.679438
0.67631 0.584558 0.679561
0 0.676127 0.679454
0.0339513 0.676265 0.679591
0.125811 0.676326 0.679652
0.217502 0.676188 0.679515
0.309361 0.676249 0.679576
0.401236 0.67631 0.679637
0.49308 0.676356 0.679683
0.584787 0.676234 0.679561
0.676066 0.67599 0.679316
