public/LUTS/Darken/Darken_11.cube
TITLE "Generated by Resolve"
LUT_3D_SIZE 9
0 0 0
0.0967727 0 0
0.194064 0 0
0.291539 0 0
0.389013 0 0
0.486503 0 0
0.58378 0 0
0.68127 0 0
0.7785 0 0
0 0.0969253 0
0.0970932 0.0970626 7.62951e-05
0.194369 0.0969253 0
0.291859 0.0969863 0
0.389334 0.0970474 6.10361e-05
0.486625 0.09691 0
0.5841 0.0969711 0
0.68159 0.0970321 4.57771e-05
0.77882 0.0971542 0.000167849
0 0.194339 0
0.0971695 0.194491 0.00015259
0.194446 0.194354 1.5259e-05
0.291936 0.194415 7.62951e-05
0.38941 0.194476 0.000137331
0.486702 0.194339 0
0.584176 0.1944 6.10361e-05
0.681666 0.194461 0.000106813
0.778836 0.194522 0.000183108
3.0518e-05 0.291783 3.0518e-05
0.0971237 0.291875 0.000106813
0.194476 0.291798 4.57771e-05
0.291966 0.291859 9.15541e-05
0.389441 0.29192 0.000167849
0.486732 0.291783 1.5259e-05
0.584192 0.291844 9.15541e-05
0.681697 0.291905 0.000137331
0.778729 0.291829 7.62951e-05
0.000122072 0.389212 0.000122072
0.0970932 0.389151 7.62951e-05
0.194568 0.389212 0.000137331
0.292058 0.389273 0.000183108
0.389425 0.389242 0.00015259
0.486824 0.389197 0.000106813
0.584283 0.389258 0.000183108
0.681758 0.389288 0.000198367
0.77882 0.389258 0.000167849
7.62951e-05 0.48661 7.62951e-05
0.0970932 0.48661 7.62951e-05
0.194568 0.486671 0.000137331
0.292058 0.486732 0.000198367
0.389334 0.486595 6.10361e-05
0.486824 0.486656 0.000122072
0.584298 0.486717 0.000183108
0.681651 0.486641 0.000106813
0.77882 0.486702 0.000167849
9.15541e-05 0.583917 9.15541e-05
0.0972 0.584024 0.000183108
0.194675 0.584085 0.000244144
0.292165 0.584146 0.00030518
0.389441 0.584009 0.000167849
0.486931 0.58407 0.000228885
0.584405 0.584131 0.000289921
0.681697 0.583993 0.00015259
0.778927 0.584115 0.000274662
3.0518e-05 0.681331 3.0518e-05
0.0972 0.681483 0.000167849
0.194675 0.681544 0.000244144
0.291966 0.681407 0.000106813
0.389441 0.681468 0.000167849
0.486931 0.681514 0.000213626
0.58439 0.68159 0.000289921
0.681697 0.681453 0.000137331
0.778927 0.681575 0.000274662
0.000167849 0.778744 0.000167849
0.097322 0.778881 0.00030518
0.194797 0.778943 0.000366217
0.292088 0.778805 0.000228885
0.389563 0.778866 0.000289921
0.487053 0.778927 0.000350958
0.584497 0.778958 0.000381476
0.681819 0.778851 0.000274662
0.779049 0.778973 0.000396735
0 0 0.0970016
0.096788 0 0.0971542
0.19408 0 0.0970169
0.291569 0 0.0970779
0.389029 0 0.0971389
0.486366 0 0.0970321
0.583795 0 0.0970626
0.6813 0 0.0971237
0.778439 0 0.0971542
0 0.0969406 0.0973373
0.0970321 0.0970016 0.0973831
0.1944 0.0969558 0.0973373
0.29189 0.0970169 0.0973983
0.389364 0.0970779 0.0974594
0.486656 0.0969406 0.097322
0.584131 0.0970016 0.0973831
0.68162 0.0970626 0.0974441
0.778668 0.0969863 0.0973831
3.0518e-05 0.194369 0.0973983
0.0970016 0.194324 0.0973526
0.194476 0.194385 0.0974136
0.291966 0.194446 0.0974746
0.389425 0.194507 0.0975357
0.486732 0.194369 0.0973983
0.584192 0.19443 0.0974594
0.681697 0.194476 0.0975204
0.778729 0.194415 0.0974441
6.10361e-05 0.291814 0.0974289
0.0970321 0.291768 0.0973831
0.194507 0.291829 0.0974441
0.291981 0.29189 0.0975052
0.389258 0.291752 0.0973678
0.486763 0.291814 0.0974136
0.584222 0.291875 0.0974899
0.681712 0.29192 0.0975357
0.778759 0.291859 0.0974746
0.00015259 0.389242 0.0975204
0.0971084 0.389181 0.0974746
0.194583 0.389242 0.0975357
0.292073 0.389303 0.0975814
0.389349 0.389166 0.0974594
0.486839 0.389227 0.0975052
0.584314 0.389288 0.0975814
0.681727 0.389273 0.0975509
0.778851 0.389273 0.0975662
6.10361e-05 0.486595 0.0974289
0.0971237 0.486641 0.0974746
0.194598 0.486702 0.0975357
0.292058 0.486732 0.0975814
0.389364 0.486625 0.0974594
0.486854 0.486686 0.0975204
0.584314 0.486748 0.0975814
0.68162 0.48661 0.0974441
0.778851 0.486732 0.0975662
7.62951e-05 0.583902 0.0974441
0.0972305 0.584054 0.0975814
0.194705 0.5841 0.0976425
0.292073 0.584039 0.0975814
0.389471 0.584039 0.0975662
0.486961 0.584085 0.0976272
0.584375 0.5841 0.0976425
0.681727 0.584009 0.0975509
0.778958 0.584146 0.097673
6.10361e-05 0.681361 0.0974289
0.0972152 0.681514 0.0975814
0.19469 0.681559 0.0976272
0.291981 0.681422 0.0975052
0.389456 0.681483 0.0975662
0.486946 0.681544 0.097612
0.584253 0.681453 0.0975204
0.681712 0.681468 0.0975357
0.778958 0.681605 0.097673
0.000183108 0.778759 0.0975662
0.0973526 0.778912 0.0977035
0.194827 0.778973 0.0977646
0.292119 0.778836 0.0976272
0.389593 0.778897 0.0976883
0.487083 0.778958 0.0977493
0.58436 0.77882 0.097612
0.681849 0.778881 0.097673
0.77908 0.779004 0.0977951
0 0 0.194965
0.0967422 0 0.195071
0.194064 0 0.19498
0.291554 0 0.195026
0.389013 0 0.195102
0.48632 0 0.194965
0.58378 0 0.195026
0.681285 0 0.195071
0.778378 0 0.195071
0 0.0969253 0.1953
0.0969711 0.0969253 0.195285
0.194385 0.0969406 0.1953
0.291875 0.0970016 0.195361
0.389273 0.0969863 0.195346
0.486641 0.0969253 0.195285
0.584115 0.0969863 0.195346
0.681605 0.0970474 0.195407
0.778637 0.0969711 0.195331
1.5259e-05 0.194354 0.195361
0.0969863 0.194308 0.195315
0.194461 0.194369 0.195377
0.291951 0.19443 0.195438
0.389242 0.194308 0.195315
0.486717 0.194354 0.195361
0.584176 0.194415 0.195422
0.681575 0.194354 0.195361
0.778714 0.1944 0.195407
0 0.291676 0.19527
0.0970016 0.291752 0.195331
0.194491 0.291814 0.195392
0.291966 0.291875 0.195453
0.389242 0.291737 0.195315
0.486748 0.291798 0.195377
0.584207 0.291859 0.195438
0.681514 0.291722 0.1953
0.778744 0.291844 0.195438
0 0.389029 0.195285
0.0970932 0.389166 0.195422
0.194568 0.389227 0.195483
0.292058 0.389288 0.195544
0.389334 0.389151 0.195407
0.486824 0.389212 0.195468
0.584298 0.389273 0.195529
0.68159 0.389136 0.195392
0.778836 0.389258 0.195529
0 0.486473 0.195285
0.0971084 0.486625 0.195438
0.194583 0.486686 0.195499
0.291875 0.486549 0.195361
0.389349 0.48661 0.195422
0.486839 0.486671 0.195483
0.584298 0.486732 0.195544
0.681605 0.48658 0.195407
0.778836 0.486717 0.195529
6.10361e-05 0.583886 0.195407
0.0972152 0.584039 0.195544
0.19469 0.584085 0.195605
0.291981 0.583963 0.195468
0.389456 0.584009 0.195529
0.486946 0.58407 0.19559
0.584314 0.584039 0.195544
0.681712 0.583993 0.195514
0.778943 0.584131 0.195636
4.57771e-05 0.681346 0.195392
0.0972 0.681498 0.195529
0.194644 0.681514 0.195544
0.291966 0.681407 0.195453
0.389441 0.681468 0.195514
0.486931 0.681529 0.195575
0.584207 0.681407 0.195453
0.681697 0.681453 0.195499
0.778943 0.68159 0.195636
0.000167849 0.778744 0.195514
0.0973373 0.778897 0.195666
0.194659 0.778805 0.195575
0.292103 0.77882 0.19559
0.389578 0.778881 0.195651
0.486992 0.778851 0.195621
0.584344 0.778805 0.195575
0.681834 0.778866 0.195636
0.779065 0.778988 0.195758
0 0 0.292744
0.0965896 0 0.292683
0.194064 0 0.292744
0.291539 0 0.292805
0.388998 0 0.292851
0.486305 0 0.292729
0.58378 0 0.29279
0.681285 0 0.292851
0.778317 0 0.292775
0 0.0969253 0.293065
0.09691 0.0968795 0.293019
0.194385 0.0969406 0.29308
0.291875 0.0970016 0.293126
0.389151 0.0968643 0.293004
0.486641 0.0969253 0.293065
0.584115 0.0969863 0.293126
0.681559 0.0969863 0.293126
0.778637 0.0969711 0.293111
0 0.194293 0.29308
0.0969863 0.194308 0.29308
0.194461 0.194369 0.293141
0.291936 0.194415 0.293202
0.389212 0.194293 0.293065
0.486717 0.194354 0.293126
0.584176 0.194415 0.293187
0.681514 0.194308 0.293095
0.778714 0.1944 0.293172
0 0.29163 0.293004
0.0970016 0.291752 0.293111
0.194476 0.291814 0.293172
0.291875 0.291768 0.293141
0.389242 0.291737 0.293095
0.486732 0.291798 0.293156
0.584207 0.291859 0.293217
0.681498 0.291722 0.29308
0.778729 0.291844 0.293202
0 0.389029 0.293065
0.0970932 0.389166 0.293202
0.194568 0.389227 0.293263
0.291859 0.38909 0.293126
0.389334 0.389151 0.293187
0.486824 0.389212 0.293248
0.584161 0.389136 0.293172
0.68159 0.389136 0.293172
0.77882 0.389258 0.293294
0 0.486473 0.293065
0.0971084 0.48661 0.293202
0.194583 0.486686 0.293263
0.291875 0.486549 0.293126
0.389349 0.48661 0.293187
0.486839 0.486656 0.293248
0.5841 0.486534 0.293126
0.681605 0.48658 0.293172
0.778836 0.486717 0.293309
4.57771e-05 0.583886 0.293172
0.0972152 0.584024 0.293324
0.19469 0.584085 0.293385
0.291981 0.583947 0.293248
0.389456 0.584009 0.293309
0.486946 0.58407 0.29337
0.584222 0.583932 0.293233
0.681712 0.583993 0.293294
0.778943 0.584131 0.293416
4.57771e-05 0.681346 0.293172
0.0972 0.681483 0.293309
0.194476 0.681346 0.293172
0.291966 0.681407 0.293233
0.389441 0.681468 0.293294
0.486915 0.681514 0.293324
0.584207 0.681392 0.293217
0.681697 0.681453 0.293278
0.778927 0.68159 0.2934
0.000167849 0.778744 0.293294
0.0973373 0.778897 0.293446
0.194614 0.778759 0.293309
0.292103 0.77882 0.29337
0.389578 0.778881 0.293416
0.486931 0.778805 0.293355
0.584329 0.778805 0.293355
0.681834 0.778866 0.2934
0.779004 0.778927 0.293477
0 0 0.390692
0.0965744 0 0.390646
0.194049 0 0.390707
0.291524 0 0.390768
0.3888 0 0.390631
0.48629 0 0.390692
0.583764 0 0.390753
0.681071 0 0.390616
0.778302 0 0.390738
0 0.0967117 0.390829
0.0968948 0.0968643 0.390967
0.194369 0.0969253 0.391028
0.291859 0.0969863 0.391089
0.389136 0.096849 0.390951
0.486625 0.0968948 0.391012
0.5841 0.0969711 0.391073
0.681392 0.0968338 0.390936
0.778622 0.0969558 0.391058
0 0.194141 0.39089
0.0969711 0.194293 0.391043
0.194446 0.194354 0.391104
0.29189 0.194369 0.391119
0.389197 0.194278 0.391028
0.486702 0.194339 0.391089
0.584161 0.1944 0.39115
0.681468 0.194263 0.391012
0.778698 0.194385 0.391135
0 0.291585 0.390921
0.0969863 0.291737 0.391073
0.194461 0.291798 0.391135
0.291752 0.291661 0.390997
0.389227 0.291722 0.391058
0.486717 0.291783 0.391119
0.584115 0.291768 0.391104
0.681483 0.291707 0.391043
0.778714 0.291829 0.391165
0 0.389013 0.391012
0.0970779 0.389151 0.391165
0.194553 0.389197 0.391211
0.291844 0.389075 0.391073
0.389319 0.389136 0.39115
0.486809 0.389197 0.391211
0.5841 0.389075 0.391089
0.681575 0.38912 0.391119
0.778805 0.389242 0.391257
0 0.486458 0.391028
0.0970932 0.486595 0.391165
0.194446 0.486549 0.391104
0.291859 0.486519 0.391089
0.389334 0.486595 0.39115
0.486824 0.486641 0.391211
0.584085 0.486519 0.391073
0.68159 0.486564 0.391135
0.77882 0.486702 0.391257
3.0518e-05 0.583871 0.391135
0.0972 0.584009 0.391272
0.194476 0.583886 0.391135
0.291966 0.583932 0.391196
0.389441 0.583993 0.391257
0.486778 0.583902 0.391165
0.584207 0.583917 0.39118
0.681697 0.583978 0.391241
0.778927 0.5841 0.391363
3.0518e-05 0.681331 0.391119
0.0971847 0.681468 0.391257
0.194461 0.681331 0.391135
0.291951 0.681392 0.391196
0.389425 0.681453 0.391257
0.486717 0.681315 0.391119
0.584192 0.681376 0.39118
0.681682 0.681437 0.391226
0.778912 0.681559 0.391363
0.00015259 0.778729 0.391257
0.0973068 0.778866 0.391379
0.194598 0.778744 0.391257
0.292088 0.778805 0.391318
0.389563 0.778866 0.391379
0.486854 0.778729 0.391241
0.584314 0.77879 0.391302
0.681819 0.778851 0.391363
0.778851 0.778775 0.391287
0 0 0.488334
0.0965591 0 0.488426
0.194034 0 0.488472
0.291463 0 0.488472
0.3888 0 0.488411
0.48629 0 0.488457
0.583764 0 0.488533
0.681056 0 0.48838
0.778302 0 0.488518
0 0.0967117 0.488609
0.0968948 0.0968643 0.488746
0.194369 0.0969253 0.488807
0.291676 0.0968032 0.488701
0.389136 0.096849 0.488731
0.486625 0.0968948 0.488792
0.584085 0.0969711 0.488853
0.681392 0.0968338 0.488716
0.778622 0.0969558 0.488838
0 0.194141 0.48867
0.0969558 0.194278 0.488823
0.194446 0.194354 0.488884
0.291722 0.194202 0.488746
0.389197 0.194278 0.488807
0.486686 0.194324 0.488853
0.583963 0.194202 0.488731
0.681468 0.194247 0.488792
0.778698 0.194385 0.488914
0 0.291585 0.488701
0.0969863 0.291722 0.488838
0.194461 0.291798 0.488899
0.291752 0.291646 0.488762
0.389227 0.291722 0.488823
0.486717 0.291768 0.488884
0.583993 0.291646 0.488762
0.681483 0.291691 0.488807
0.778714 0.291829 0.488945
0 0.388998 0.488792
0.0970779 0.389151 0.48893
0.194491 0.389151 0.48893
0.291844 0.389075 0.488853
0.389319 0.389136 0.488914
0.486809 0.389197 0.488975
0.584085 0.389059 0.488838
0.681575 0.38912 0.488899
0.778805 0.389242 0.489021
0 0.486458 0.488792
0.0970932 0.486595 0.488945
0.194369 0.486473 0.488807
0.291859 0.486519 0.488869
0.389319 0.486595 0.48893
0.486717 0.486549 0.488884
0.584085 0.486519 0.488853
0.68159 0.486564 0.488914
0.77879 0.486671 0.489006
3.0518e-05 0.583871 0.488899
0.0971542 0.583978 0.489006
0.194476 0.583871 0.488914
0.291966 0.583932 0.488975
0.389441 0.583993 0.489036
0.486732 0.583856 0.488899
0.584192 0.583917 0.48896
0.681697 0.583978 0.489021
0.77879 0.583978 0.489006
3.0518e-05 0.681331 0.488899
0.0970474 0.681331 0.488899
0.194461 0.681331 0.488899
0.291951 0.681392 0.48896
0.389425 0.681453 0.489021
0.486717 0.681315 0.488884
0.584192 0.681376 0.488945
0.681682 0.681437 0.489006
0.778714 0.681361 0.488945
0.00015259 0.778729 0.489021
0.0971237 0.778683 0.488975
0.194598 0.778744 0.489036
0.292088 0.77879 0.489097
0.38938 0.778683 0.488975
0.486854 0.778729 0.489021
0.584314 0.77879 0.489082
0.681819 0.778836 0.489143
0.778851 0.778775 0.489067
0 0 0.586236
0.0965438 0 0.586374
0.194018 0 0.586435
0.291402 0 0.586389
0.388785 0 0.586374
0.486275 0 0.586419
0.583703 0 0.58645
0.681041 0 0.586343
0.778286 0 0.58648
0 0.0966964 0.586557
0.0968795 0.096849 0.586709
0.194354 0.09691 0.58677
0.291646 0.0967727 0.586633
0.38912 0.0968338 0.586694
0.48661 0.0968795 0.586755
0.583932 0.0968032 0.586664
0.681376 0.0968032 0.586679
0.778607 0.0969406 0.586801
0 0.194125 0.586633
0.0969406 0.194263 0.58677
0.194339 0.194247 0.586755
0.291707 0.194186 0.586694
0.389181 0.194263 0.58677
0.486671 0.194308 0.586816
0.583947 0.194186 0.586694
0.681437 0.194232 0.58674
0.778683 0.194369 0.586877
0 0.291569 0.586664
0.0969711 0.291707 0.586801
0.194247 0.291585 0.586664
0.291737 0.29163 0.586725
0.389212 0.291707 0.586786
0.486702 0.291752 0.586847
0.583978 0.29163 0.586709
0.681468 0.291676 0.58677
0.778698 0.291814 0.586892
0 0.388983 0.586755
0.0970626 0.389136 0.586892
0.194339 0.388998 0.586755
0.291829 0.389059 0.586816
0.389303 0.38912 0.586877
0.486595 0.388983 0.58674
0.58407 0.389044 0.586801
0.681559 0.389105 0.586862
0.77879 0.389227 0.586984
0 0.486442 0.586755
0.0970626 0.48658 0.586892
0.194354 0.486458 0.58677
0.291844 0.486503 0.586816
0.389303 0.486564 0.586892
0.48661 0.486427 0.58674
0.58407 0.486503 0.586816
0.681575 0.486549 0.586862
0.778729 0.48661 0.586923
1.5259e-05 0.583856 0.586862
0.0970932 0.583917 0.586923
0.194461 0.583856 0.586877
0.291951 0.583917 0.586938
0.38941 0.583963 0.586984
0.486717 0.583841 0.586862
0.584176 0.583902 0.586923
0.681682 0.583963 0.586984
0.778714 0.583886 0.586908
0 0.681315 0.586862
0.0969711 0.681254 0.586801
0.194446 0.681315 0.586862
0.291936 0.681376 0.586923
0.389288 0.681315 0.586862
0.486702 0.6813 0.586847
0.584176 0.681361 0.586908
0.68162 0.681376 0.586923
0.778698 0.681346 0.586892
7.62951e-05 0.778653 0.586923
0.0971084 0.778668 0.586938
0.194583 0.778729 0.586999
0.292073 0.778775 0.587045
0.389349 0.778653 0.586923
0.486839 0.778698 0.586969
0.584298 0.778775 0.587045
0.681636 0.778668 0.586938
0.778836 0.778759 0.58703
0 0 0.684016
0.0965438 0 0.684153
0.194018 0 0.684215
0.29131 0 0.684077
0.388785 0 0.684138
0.486275 0 0.684199
0.583551 0 0.684062
0.681041 0 0.684123
0.778271 0 0.684245
0 0.0966964 0.684337
0.0968795 0.096849 0.684474
0.194324 0.0968795 0.684504
0.291646 0.0967575 0.684398
0.38912 0.0968338 0.684474
0.48661 0.0968795 0.68452
0.583871 0.0967575 0.684398
0.681376 0.0968032 0.684443
0.778607 0.0969406 0.684581
0 0.194125 0.684413
0.0969406 0.194263 0.68455
0.194278 0.194186 0.684474
0.291707 0.194186 0.684474
0.389181 0.194263 0.684535
0.48661 0.194247 0.684535
0.583947 0.194186 0.684459
0.681437 0.194232 0.68452
0.778668 0.194369 0.684642
0 0.291569 0.684428
0.0969711 0.291707 0.684581
0.194247 0.291569 0.684443
0.291737 0.29163 0.684504
0.389212 0.291707 0.684565
0.486534 0.291585 0.684443
0.583978 0.29163 0.684489
0.681468 0.291676 0.68455
0.778607 0.291707 0.684565
0 0.388983 0.68452
0.0969558 0.389013 0.68455
0.194339 0.388998 0.684535
0.291829 0.389059 0.684596
0.389303 0.38912 0.684657
0.486595 0.388983 0.68452
0.58407 0.389044 0.684581
0.681559 0.38909 0.684627
0.778592 0.389029 0.684565
0 0.486442 0.684535
0.0968795 0.486381 0.684474
0.194354 0.486458 0.684535
0.291829 0.486503 0.684596
0.389303 0.486564 0.684657
0.486595 0.486427 0.68452
0.58407 0.486488 0.684581
0.681559 0.486549 0.684642
0.778607 0.486488 0.684565
1.5259e-05 0.583856 0.684642
0.0969863 0.583795 0.684581
0.194461 0.583856 0.684657
0.291951 0.583917 0.684703
0.389227 0.58378 0.684581
0.486717 0.583841 0.684627
0.584176 0.583902 0.684703
0.681682 0.583963 0.684749
0.778714 0.583886 0.684688
0 0.681315 0.684627
0.0969711 0.681254 0.684581
0.194446 0.681315 0.684642
0.291936 0.681376 0.684703
0.389212 0.681239 0.684565
0.486702 0.6813 0.684627
0.584176 0.681361 0.684688
0.681575 0.681331 0.684642
0.778698 0.681346 0.684672
3.0518e-05 0.778607 0.684657
0.0971084 0.778653 0.684703
0.194583 0.778729 0.684764
0.292027 0.778744 0.684794
0.389349 0.778653 0.684688
0.486839 0.778698 0.684749
0.584298 0.778775 0.68481
0.681605 0.778622 0.684672
0.778836 0.778759 0.68481
0 0 0.781506
0.0965744 0 0.781659
0.193881 0 0.781552
0.291341 0 0.781582
0.3888 0 0.781643
0.486305 0 0.781704
0.583566 0 0.781567
0.681071 0 0.781628
0.778302 0 0.78175
0 0.0967117 0.781842
0.0968948 0.0968643 0.781979
0.194171 0.0967269 0.781842
0.291661 0.096788 0.781903
0.389136 0.096849 0.781964
0.486625 0.0968948 0.782025
0.583902 0.0967727 0.781903
0.681392 0.0968338 0.781949
0.778622 0.0969558 0.782086
0 0.194141 0.781918
0.0969711 0.194293 0.782055
0.194247 0.194156 0.781918
0.291737 0.194217 0.781979
0.389197 0.194278 0.78204
0.486503 0.194141 0.781903
0.583963 0.194202 0.781964
0.681468 0.194247 0.782025
0.778653 0.194339 0.782101
0 0.291585 0.781933
0.0969406 0.291676 0.782025
0.194278 0.2916 0.781949
0.291752 0.291661 0.78201
0.389227 0.291722 0.782071
0.486519 0.291585 0.781933
0.583993 0.291646 0.781994
0.681483 0.291691 0.78204
0.778576 0.291676 0.782025
0 0.389013 0.782025
0.0969253 0.388983 0.78201
0.194354 0.389013 0.78204
0.291844 0.389075 0.782101
0.389227 0.389044 0.782071
0.48661 0.388998 0.782025
0.584085 0.389059 0.782086
0.681575 0.38912 0.782132
0.778622 0.389044 0.782071
0 0.486458 0.78204
0.0968948 0.486412 0.781979
0.194369 0.486473 0.78204
0.291859 0.486534 0.782101
0.389136 0.486397 0.781964
0.486625 0.486458 0.782025
0.584085 0.486519 0.782086
0.681453 0.486442 0.78201
0.778622 0.486503 0.782071
0 0.583734 0.78201
0.0970016 0.583825 0.782086
0.194476 0.583871 0.782147
0.291966 0.583932 0.782208
0.389242 0.58381 0.782086
0.486732 0.583856 0.782132
0.584207 0.583932 0.782193
0.681498 0.58378 0.782055
0.778729 0.583917 0.782193
0 0.681132 0.781933
0.0969863 0.68127 0.782086
0.194461 0.681331 0.782147
0.291951 0.681392 0.782208
0.389227 0.68127 0.782071
0.486717 0.681315 0.782116
0.584192 0.681392 0.782193
0.681483 0.681239 0.78204
0.778729 0.681376 0.782177
0 0.778531 0.782071
0.0971237 0.778683 0.782208
0.194598 0.778744 0.782269
0.29189 0.778607 0.782132
0.389364 0.778668 0.782193
0.486854 0.778729 0.782254
0.584314 0.778775 0.7823
0.68162 0.778653 0.782177
0.778454 0.778378 0.781918
