public/LUTS/Darken/Darken_09.cube
TITLE "Generated by Resolve"
LUT_3D_SIZE 33
0 0 0
0.0265507 0 0
0.0538949 0 0
0.0814679 0 0
0.108919 0 0
0.136355 0 0
0.163699 0 0
0.191058 0 0
0.218418 0 0
0.245975 0 0
0.273335 0 0
0.300679 0 0
0.32813 0 0
0.355566 0 0
0.382971 0 0
0.410483 0 0
0.437842 0 0
0.465187 0 0
0.492546 0 0
0.51989 0 0
0.54757 0 0
0.57499 0 0
0.602335 0 0
0.629694 0 0
0.657053 0 0
0.684489 0 0
0.711971 0 0
0.73933 0 0
0.766781 0 0
0.794202 0 0
0.821546 0 0
0.849042 0 0
0.876219 0 0
0 0.0267643 0
0.0268406 0.0268254 0
0.0544137 0.0270237 0.000106813
0.0817731 0.0269932 7.62951e-05
0.109209 0.0269322 1.5259e-05
0.136645 0.0268711 0
0.164004 0.0268406 0
0.191577 0.027039 0.000122072
0.218921 0.0269932 9.15541e-05
0.246281 0.0269627 6.10361e-05
0.273625 0.0269322 1.5259e-05
0.300984 0.0269017 0
0.328435 0.0268406 0
0.356085 0.0270085 0.000106813
0.383429 0.026978 6.10361e-05
0.410788 0.0269474 3.0518e-05
0.438132 0.0269169 0
0.465492 0.0268864 0
0.492882 0.0268864 0
0.520409 0.027039 0.000122072
0.54786 0.026978 6.10361e-05
0.575296 0.0269322 1.5259e-05
0.60264 0.0269017 0
0.629999 0.0268559 0
0.65742 0.0269017 0
0.684916 0.0270237 0.000106813
0.712276 0.0269932 7.62951e-05
0.73962 0.0269627 4.57771e-05
0.767071 0.0268864 0
0.794491 0.0268406 0
0.821973 0.0269322 1.5259e-05
0.849424 0.0269932 9.15541e-05
0.876509 0.027039 0.000122072
0 0.0542916 0
0.027039 0.0544137 0.000122072
0.0543984 0.0543679 9.15541e-05
0.0817426 0.0543374 4.57771e-05
0.109194 0.0542916 0
0.136629 0.0542306 0
0.164187 0.0543984 0.000106813
0.191546 0.0543832 9.15541e-05
0.218906 0.0543526 6.10361e-05
0.24625 0.0543221 3.0518e-05
0.27361 0.0542916 0
0.300954 0.0542611 0
0.328634 0.0544137 0.000137331
0.356054 0.0543679 7.62951e-05
0.383413 0.0543374 4.57771e-05
0.410758 0.0543069 1.5259e-05
0.438117 0.0542763 0
0.465492 0.0542611 0
0.493034 0.0544289 0.000137331
0.520394 0.0543984 0.000106813
0.547845 0.0543374 4.57771e-05
0.575265 0.0542763 0
0.602625 0.0542458 0
0.630198 0.0544442 0.00015259
0.657542 0.0543984 0.000122072
0.684901 0.0543679 7.62951e-05
0.712245 0.0543374 4.57771e-05
0.739605 0.0543069 1.5259e-05
0.767117 0.0543069 1.5259e-05
0.794705 0.0544137 0.000137331
0.822049 0.0543832 0.000106813
0.849393 0.0543526 6.10361e-05
0.876493 0.0543984 0.000106813
3.0518e-05 0.0816968 3.0518e-05
0.0270237 0.0817578 0.000106813
0.0543832 0.0817273 7.62951e-05
0.0817273 0.0816968 3.0518e-05
0.109178 0.0816358 0
0.136828 0.0818036 0.00015259
0.164187 0.0817731 0.000106813
0.191531 0.0817426 7.62951e-05
0.218891 0.0816968 4.57771e-05
0.246235 0.0816663 1.5259e-05
0.273777 0.0818189 0.000167849
0.301167 0.0818341 0.000167849
0.328603 0.0817731 0.000106813
0.356039 0.0817121 6.10361e-05
0.383398 0.0816815 3.0518e-05
0.410742 0.081651 0
0.438315 0.0818494 0.000183108
0.465675 0.0818036 0.00015259
0.493019 0.0817731 0.000122072
0.520378 0.0817426 9.15541e-05
0.547829 0.0816815 3.0518e-05
0.57525 0.0816358 0
0.602823 0.0818189 0.000167849
0.630182 0.0817884 0.000137331
0.657526 0.0817578 0.000106813
0.684871 0.0817273 6.10361e-05
0.71223 0.0816968 3.0518e-05
0.73962 0.0816968 4.57771e-05
0.767254 0.0818189 0.000167849
0.794675 0.0817731 0.000106813
0.822034 0.0817426 7.62951e-05
0.849378 0.0817121 4.57771e-05
0.876478 0.0817426 9.15541e-05
0 0.109087 0
0.0269169 0.109148 0
0.0542763 0.109117 0
0.0817426 0.109209 4.57771e-05
0.109285 0.109239 9.15541e-05
0.136721 0.109194 3.0518e-05
0.164065 0.109163 0
0.191424 0.109133 0
0.218769 0.109087 0
0.246296 0.109224 6.10361e-05
0.273701 0.109255 9.15541e-05
0.301045 0.109224 6.10361e-05
0.328496 0.109163 0
0.355932 0.109102 0
0.383276 0.109071 0
0.410834 0.109239 9.15541e-05
0.438209 0.109239 7.62951e-05
0.465553 0.109194 4.57771e-05
0.492912 0.109163 1.5259e-05
0.520256 0.109133 0
0.547707 0.109071 0
0.575357 0.109239 9.15541e-05
0.602716 0.109209 6.10361e-05
0.63006 0.109178 1.5259e-05
0.65742 0.109148 0
0.684764 0.109117 0
0.712337 0.1093 0.000137331
0.739696 0.10927 0.000106813
0.767147 0.109209 4.57771e-05
0.794568 0.109163 0
0.821927 0.109133 0
0.849287 0.109102 0
0.876585 0.109346 0.000198367
0 0.136461 0
0.0268254 0.136522 0
0.0542916 0.136599 0
0.0817578 0.136675 6.10361e-05
0.109194 0.136629 0
0.136629 0.136568 0
0.163989 0.136538 0
0.191333 0.136507 0
0.218906 0.13669 7.62951e-05
0.246265 0.13666 4.57771e-05
0.27361 0.136629 1.5259e-05
0.300969 0.136599 0
0.32842 0.136538 0
0.355978 0.136629 0
0.383413 0.136675 4.57771e-05
0.410773 0.136645 1.5259e-05
0.438117 0.136614 0
0.465476 0.136584 0
0.492821 0.136538 0
0.520363 0.13669 7.62951e-05
0.547845 0.136675 4.57771e-05
0.57528 0.136629 0
0.602625 0.136599 0
0.629984 0.136553 0
0.657328 0.136522 0
0.684901 0.136706 9.15541e-05
0.712261 0.136675 6.10361e-05
0.739605 0.136645 3.0518e-05
0.767056 0.136584 0
0.794476 0.136538 0
0.821836 0.136507 0
0.849409 0.13669 7.62951e-05
0.876493 0.136736 0.000106813
0 0.163851 0
0.027039 0.164096 0.000106813
0.0543832 0.164065 7.62951e-05
0.0817426 0.164034 4.57771e-05
0.109178 0.163973 0
0.136614 0.163928 0
0.16405 0.163973 0
0.191546 0.16408 9.15541e-05
0.218891 0.16405 6.10361e-05
0.24625 0.164019 1.5259e-05
0.273594 0.163989 0
0.300938 0.163943 0
0.328511 0.164019 1.5259e-05
0.356039 0.164065 6.10361e-05
0.383398 0.164019 3.0518e-05
0.410758 0.163989 0
0.438102 0.163958 0
0.465446 0.163928 0
0.492973 0.164065 6.10361e-05
0.520378 0.16408 9.15541e-05
0.547829 0.164019 3.0518e-05
0.57525 0.163973 0
0.602609 0.163943 0
0.629953 0.163912 0
0.657526 0.164096 0.000106813
0.684886 0.164065 7.62951e-05
0.71223 0.164034 4.57771e-05
0.73959 0.164004 1.5259e-05
0.76704 0.163943 0
0.794659 0.16408 9.15541e-05
0.822034 0.16408 9.15541e-05
0.849393 0.16405 4.57771e-05
0.876478 0.16408 9.15541e-05
3.0518e-05 0.191394 3.0518e-05
0.0270237 0.191455 9.15541e-05
0.0543679 0.191424 6.10361e-05
0.0817121 0.191379 1.5259e-05
0.109163 0.191333 0
0.13666 0.191333 0
0.164172 0.191455 0.000106813
0.191516 0.191424 6.10361e-05
0.218875 0.191394 3.0518e-05
0.24622 0.191363 0
0.273579 0.191333 0
0.301152 0.191516 0.00015259
0.328603 0.19147 0.000106813
0.356023 0.191409 4.57771e-05
0.383383 0.191379 1.5259e-05
0.410727 0.191348 0
0.438193 0.191409 4.57771e-05
0.46566 0.191501 0.000137331
0.493004 0.19147 0.000106813
0.520363 0.19144 7.62951e-05
0.547814 0.191379 1.5259e-05
0.575235 0.191333 0
0.602731 0.19144 7.62951e-05
0.630167 0.191485 0.000122072
0.657511 0.191455 9.15541e-05
0.684871 0.191409 6.10361e-05
0.712215 0.191379 1.5259e-05
0.739574 0.191348 0
0.767208 0.19147 0.000106813
0.794675 0.191455 0.000106813
0.822019 0.191424 7.62951e-05
0.849363 0.191394 3.0518e-05
0.876463 0.19144 7.62951e-05
0 0.218738 0
0.0269932 0.218799 6.10361e-05
0.0543526 0.218769 3.0518e-05
0.0816968 0.218738 0
0.109361 0.218906 0.000167849
0.136797 0.218845 0.000106813
0.164157 0.218814 7.62951e-05
0.191501 0.218784 4.57771e-05
0.21886 0.218753 1.5259e-05
0.24625 0.218753 3.0518e-05
0.273777 0.218906 0.000167849
0.301122 0.218875 0.000137331
0.328573 0.218814 7.62951e-05
0.356008 0.218769 3.0518e-05
0.383352 0.218723 0
0.410788 0.218784 4.57771e-05
0.438285 0.218891 0.00015259
0.465629 0.21886 0.000122072
0.492988 0.21883 9.15541e-05
0.520348 0.218799 6.10361e-05
0.547799 0.218723 0
0.575341 0.218799 6.10361e-05
0.602792 0.218875 0.000137331
0.630137 0.21883 9.15541e-05
0.657496 0.218799 6.10361e-05
0.68484 0.218769 3.0518e-05
0.7122 0.218738 0
0.739773 0.218921 0.000198367
0.767224 0.21886 0.000122072
0.794644 0.218814 7.62951e-05
0.822003 0.218784 4.57771e-05
0.849348 0.218753 1.5259e-05
0.8766 0.218952 0.000213626
0 0.246098 0
0.026978 0.246159 4.57771e-05
0.0543374 0.246128 1.5259e-05
0.0818952 0.246311 0.000198367
0.109346 0.24625 0.00015259
0.136782 0.246204 9.15541e-05
0.164126 0.246159 6.10361e-05
0.191485 0.246128 3.0518e-05
0.21886 0.246128 1.5259e-05
0.246403 0.246296 0.000183108
0.273762 0.246265 0.00015259
0.301106 0.24622 0.000122072
0.328557 0.246174 6.10361e-05
0.355993 0.246113 1.5259e-05
0.383566 0.246296 0.000198367
0.41091 0.246265 0.000167849
0.43827 0.246235 0.000137331
0.465614 0.246204 0.000106813
0.492973 0.246174 7.62951e-05
0.520378 0.246204 9.15541e-05
0.547997 0.246296 0.000198367
0.575418 0.24625 0.00015259
0.602777 0.24622 0.000122072
0.630121 0.246189 7.62951e-05
0.657481 0.246159 4.57771e-05
0.684932 0.24622 0.000122072
0.712398 0.246311 0.000198367
0.739757 0.246281 0.000167849
0.767208 0.24622 0.000106813
0.794629 0.246174 6.10361e-05
0.821988 0.246143 3.0518e-05
0.84947 0.246235 0.000137331
0.876646 0.246357 0.000259403
0 0.273442 0
0.0271458 0.273701 0.000213626
0.0545357 0.273701 0.000213626
0.0818799 0.273671 0.000183108
0.109331 0.27361 0.000122072
0.136767 0.273548 7.62951e-05
0.164111 0.273518 4.57771e-05
0.191684 0.273716 0.000228885
0.219043 0.273671 0.000198367
0.246387 0.27364 0.000167849
0.273747 0.27361 0.000137331
0.301091 0.273579 9.15541e-05
0.328542 0.273518 4.57771e-05
0.356191 0.273686 0.000213626
0.383536 0.273655 0.000183108
0.410895 0.273625 0.000137331
0.438254 0.273594 0.000106813
0.465599 0.273564 7.62951e-05
0.492988 0.273564 9.15541e-05
0.520516 0.273716 0.000244144
0.547967 0.273655 0.000183108
0.575402 0.27361 0.000122072
0.602747 0.273579 9.15541e-05
0.630106 0.273533 6.10361e-05
0.657542 0.273594 0.000106813
0.685023 0.273701 0.000213626
0.712383 0.273655 0.000183108
0.739727 0.273625 0.00015259
0.767193 0.273564 9.15541e-05
0.794614 0.273518 4.57771e-05
0.822187 0.273716 0.000228885
0.849531 0.273671 0.000198367
0.876631 0.273716 0.000228885
0.000122072 0.300969 0.000122072
0.0271611 0.301076 0.000228885
0.0545052 0.301045 0.000198367
0.0818647 0.301015 0.000167849
0.1093 0.300954 0.000106813
0.136751 0.300908 6.10361e-05
0.164294 0.301076 0.000228885
0.191669 0.30106 0.000213626
0.219013 0.30103 0.000183108
0.246372 0.300999 0.00015259
0.273716 0.300969 0.000122072
0.301076 0.300923 7.62951e-05
0.32874 0.301091 0.000244144
0.356176 0.301045 0.000198367
0.38352 0.300999 0.00015259
0.41088 0.300969 0.000122072
0.438224 0.300938 9.15541e-05
0.465797 0.301137 0.000274662
0.493156 0.301106 0.000244144
0.5205 0.301076 0.000213626
0.547951 0.300999 0.00015259
0.575387 0.300954 0.000106813
0.602747 0.300938 9.15541e-05
0.630304 0.301106 0.000259403
0.657664 0.301076 0.000228885
0.685008 0.301045 0.000198367
0.712367 0.301015 0.000167849
0.739712 0.300984 0.000137331
0.767224 0.300984 0.000137331
0.794812 0.301091 0.000244144
0.822171 0.30106 0.000213626
0.849515 0.30103 0.000183108
0.8766 0.30106 0.000213626
3.0518e-05 0.32842 3.0518e-05
0.0270237 0.328481 9.15541e-05
0.0543832 0.32845 6.10361e-05
0.0817273 0.32842 3.0518e-05
0.109316 0.328496 0.000122072
0.136828 0.328527 0.000137331
0.164187 0.328496 0.000106813
0.191531 0.328466 7.62951e-05
0.218891 0.328435 4.57771e-05
0.246235 0.328389 1.5259e-05
0.273777 0.328542 0.000167849
0.301152 0.328542 0.000167849
0.328603 0.328496 0.000106813
0.356039 0.328435 6.10361e-05
0.383383 0.328405 3.0518e-05
0.410742 0.328374 0
0.438315 0.328557 0.000183108
0.46566 0.328527 0.00015259
0.493019 0.328496 0.000122072
0.520363 0.328466 9.15541e-05
0.547829 0.328405 3.0518e-05
0.57525 0.328359 0
0.602823 0.328542 0.000167849
0.630167 0.328511 0.000122072
0.657526 0.328481 9.15541e-05
0.684871 0.32845 6.10361e-05
0.71223 0.32842 3.0518e-05
0.73962 0.32842 4.57771e-05
0.767254 0.328542 0.00015259
0.794675 0.328496 0.000106813
0.822034 0.328466 7.62951e-05
0.849378 0.32842 4.57771e-05
0.876478 0.328466 7.62951e-05
0 0.355779 0
0.0269627 0.35584 3.0518e-05
0.0543221 0.35581 0
0.0817884 0.355917 9.15541e-05
0.109331 0.355947 0.000137331
0.136767 0.355886 7.62951e-05
0.164111 0.355856 4.57771e-05
0.19147 0.355825 1.5259e-05
0.21883 0.355795 0
0.246342 0.355932 0.000122072
0.273747 0.355947 0.000137331
0.301091 0.355917 0.000106813
0.328542 0.355856 4.57771e-05
0.355978 0.35581 0
0.383322 0.355779 0
0.410895 0.355962 0.00015259
0.438254 0.355932 0.000122072
0.465599 0.355901 9.15541e-05
0.492958 0.355871 6.10361e-05
0.520302 0.35584 3.0518e-05
0.547967 0.355978 0.000167849
0.575402 0.355947 0.000137331
0.602762 0.355917 0.000106813
0.630106 0.355886 6.10361e-05
0.657465 0.35584 3.0518e-05
0.68481 0.35581 0
0.712383 0.356008 0.000183108
0.739742 0.355978 0.00015259
0.767193 0.355901 9.15541e-05
0.794614 0.355856 4.57771e-05
0.821973 0.355825 1.5259e-05
0.849332 0.35581 0
0.876631 0.356054 0.000244144
0 0.383139 0
0.0269474 0.3832 1.5259e-05
0.0545205 0.383383 0.000213626
0.0818647 0.383352 0.000167849
0.109316 0.383307 0.000122072
0.136751 0.383246 6.10361e-05
0.164096 0.383215 3.0518e-05
0.191562 0.383291 0.000106813
0.219028 0.383368 0.000183108
0.246372 0.383337 0.00015259
0.273732 0.383307 0.000122072
0.301076 0.383276 9.15541e-05
0.328527 0.383215 3.0518e-05
0.3561 0.383307 0.000122072
0.383536 0.383352 0.000167849
0.41088 0.383322 0.000137331
0.438239 0.383291 0.000106813
0.465583 0.383246 6.10361e-05
0.492943 0.383215 3.0518e-05
0.52047 0.383368 0.000183108
0.547967 0.383352 0.000167849
0.575387 0.383291 0.000106813
0.602747 0.383261 7.62951e-05
0.630091 0.38323 4.57771e-05
0.65745 0.3832 1.5259e-05
0.685023 0.383383 0.000213626
0.712367 0.383352 0.000167849
0.739727 0.383322 0.000137331
0.767178 0.383261 7.62951e-05
0.794598 0.383215 3.0518e-05
0.821942 0.383185 0
0.849515 0.383368 0.000183108
0.876616 0.383413 0.000228885
0 0.410529 0
0.0271458 0.410773 0.000213626
0.0545052 0.410742 0.000183108
0.0818494 0.410712 0.00015259
0.1093 0.410651 9.15541e-05
0.136736 0.41059 4.57771e-05
0.164172 0.410651 9.15541e-05
0.191653 0.410758 0.000198367
0.219013 0.410727 0.000167849
0.246357 0.410681 0.000137331
0.273716 0.410651 0.000106813
0.30106 0.41062 7.62951e-05
0.328634 0.410697 0.000137331
0.356161 0.410727 0.000183108
0.383505 0.410697 0.00015259
0.410864 0.410666 0.000122072
0.438224 0.410636 7.62951e-05
0.465568 0.410605 4.57771e-05
0.493141 0.410788 0.000244144
0.520485 0.410758 0.000213626
0.547951 0.410697 0.00015259
0.575372 0.410651 9.15541e-05
0.602716 0.41062 6.10361e-05
0.630243 0.410742 0.000198367
0.657649 0.410773 0.000213626
0.684993 0.410742 0.000183108
0.712352 0.410712 0.00015259
0.739696 0.410681 0.000122072
0.767163 0.41062 6.10361e-05
0.794781 0.410773 0.000213626
0.822156 0.410758 0.000198367
0.8495 0.410712 0.000167849
0.8766 0.410758 0.000198367
0.000137331 0.438056 0.000137331
0.0271305 0.438132 0.000198367
0.0544747 0.438102 0.000167849
0.0818341 0.438056 0.000137331
0.10927 0.43801 7.62951e-05
0.136934 0.438178 0.000244144
0.164279 0.438132 0.000213626
0.191638 0.438102 0.000183108
0.218982 0.438071 0.00015259
0.246342 0.438041 0.000106813
0.273747 0.438071 0.00015259
0.301259 0.438193 0.000274662
0.32871 0.438132 0.000213626
0.356146 0.438087 0.00015259
0.38349 0.438056 0.000122072
0.410849 0.438025 9.15541e-05
0.4383 0.438087 0.000167849
0.465766 0.438178 0.000244144
0.493126 0.438148 0.000213626
0.52047 0.438117 0.000183108
0.547921 0.438056 0.000122072
0.575341 0.437995 7.62951e-05
0.602838 0.438117 0.000183108
0.630274 0.438163 0.000228885
0.657633 0.438132 0.000198367
0.684977 0.438102 0.000167849
0.712322 0.438056 0.000137331
0.739681 0.438025 0.000106813
0.76733 0.438148 0.000228885
0.794781 0.438132 0.000213626
0.822126 0.438102 0.000183108
0.849485 0.438071 0.00015259
0.87657 0.438117 0.000183108
0.000122072 0.465415 0.000122072
0.0271153 0.465476 0.000183108
0.0544594 0.465446 0.00015259
0.0818189 0.465415 0.000122072
0.109483 0.465583 0.000274662
0.136919 0.465522 0.000228885
0.164263 0.465492 0.000198367
0.191623 0.465461 0.000167849
0.218967 0.465431 0.000137331
0.246372 0.465446 0.000137331
0.273899 0.465583 0.000289921
0.301244 0.465553 0.000259403
0.328695 0.465492 0.000198367
0.356115 0.465446 0.000137331
0.383474 0.4654 0.000106813
0.41091 0.465461 0.000167849
0.438392 0.465568 0.000259403
0.465751 0.465522 0.000228885
0.493095 0.465492 0.000198367
0.520455 0.465461 0.000167849
0.547906 0.4654 0.000106813
0.575555 0.465568 0.000274662
0.602899 0.465537 0.000244144
0.630259 0.465507 0.000213626
0.657603 0.465476 0.000183108
0.684962 0.465446 0.00015259
0.712428 0.465537 0.000244144
0.739879 0.465599 0.00030518
0.767346 0.465537 0.000244144
0.794766 0.465492 0.000198367
0.82211 0.465461 0.000167849
0.84947 0.465431 0.000122072
0.876722 0.465629 0.000335698
0.000106813 0.49276 0.000106813
0.0270848 0.492836 0.000167849
0.0544442 0.492805 0.000137331
0.0820172 0.492988 0.000320439
0.109453 0.492927 0.000259403
0.136889 0.492882 0.000213626
0.164248 0.492836 0.000167849
0.191592 0.492805 0.000137331
0.219165 0.493004 0.000335698
0.246525 0.492958 0.00030518
0.273869 0.492927 0.000274662
0.301228 0.492897 0.000228885
0.328679 0.492836 0.000183108
0.35613 0.492821 0.00015259
0.383673 0.492973 0.00030518
0.411032 0.492943 0.000274662
0.438376 0.492912 0.000244144
0.465736 0.492882 0.000213626
0.49308 0.492851 0.000183108
0.5205 0.492882 0.000213626
0.548104 0.492973 0.00030518
0.57554 0.492927 0.000259403
0.602884 0.492897 0.000228885
0.630243 0.492866 0.000198367
0.657588 0.492836 0.000167849
0.685054 0.492897 0.000228885
0.71252 0.492988 0.000320439
0.739864 0.492958 0.000289921
0.76733 0.492897 0.000228885
0.794736 0.492836 0.000167849
0.822095 0.492805 0.000137331
0.849592 0.492912 0.000259403
0.876753 0.493034 0.000366217
7.62951e-05 0.520119 7.62951e-05
0.0272679 0.520378 0.000335698
0.0546426 0.520378 0.000335698
0.0819867 0.520333 0.000289921
0.109438 0.520287 0.000244144
0.136873 0.520226 0.000183108
0.164218 0.520195 0.00015259
0.191806 0.520378 0.000335698
0.21915 0.520348 0.00030518
0.246494 0.520317 0.000274662
0.273854 0.520287 0.000244144
0.301213 0.520256 0.000213626
0.328664 0.520195 0.000167849
0.356298 0.520363 0.000320439
0.383658 0.520333 0.000289921
0.411002 0.520302 0.000259403
0.438361 0.520272 0.000228885
0.465705 0.520226 0.000198367
0.493111 0.520241 0.000213626
0.520638 0.520394 0.000350958
0.548089 0.520333 0.000289921
0.575509 0.520272 0.000244144
0.602869 0.520241 0.000213626
0.630213 0.520211 0.000167849
0.657786 0.520409 0.000366217
0.685145 0.520378 0.000335698
0.712489 0.520333 0.000289921
0.739849 0.520302 0.000259403
0.7673 0.520241 0.000213626
0.794797 0.520272 0.000228885
0.822293 0.520378 0.000350958
0.849638 0.520348 0.00030518
0.876738 0.520394 0.000350958
9.15541e-05 0.547692 9.15541e-05
0.0271305 0.547814 0.000198367
0.05449 0.547784 0.000167849
0.0818341 0.547738 0.000137331
0.109285 0.547692 9.15541e-05
0.136721 0.547631 3.0518e-05
0.164294 0.547814 0.000213626
0.191638 0.547784 0.000183108
0.218997 0.547753 0.00015259
0.246342 0.547723 0.000122072
0.273701 0.547692 9.15541e-05
0.301259 0.547875 0.000259403
0.32871 0.547829 0.000213626
0.356146 0.547768 0.000167849
0.383505 0.547738 0.000137331
0.410849 0.547707 0.000106813
0.438209 0.547677 7.62951e-05
0.465766 0.54786 0.000259403
0.493126 0.547829 0.000228885
0.520485 0.547799 0.000198367
0.547936 0.547738 0.000137331
0.575357 0.547692 7.62951e-05
0.602731 0.547677 7.62951e-05
0.630274 0.547845 0.000244144
0.657633 0.547814 0.000198367
0.684993 0.547784 0.000167849
0.712337 0.547738 0.000137331
0.739681 0.547707 0.000106813
0.767208 0.547723 0.000106813
0.794781 0.547814 0.000213626
0.822141 0.547784 0.000183108
0.849485 0.547753 0.00015259
0.876585 0.547799 0.000198367
0.000106813 0.575113 0.000106813
0.0271 0.575174 0.000167849
0.0544442 0.575143 0.000137331
0.0818036 0.575097 0.000106813
0.109392 0.575204 0.000198367
0.136904 0.575219 0.000213626
0.164248 0.575189 0.000183108
0.191608 0.575143 0.00015259
0.218952 0.575113 0.000122072
0.246311 0.575082 7.62951e-05
0.273854 0.57525 0.000244144
0.301228 0.57525 0.000244144
0.328679 0.575189 0.000183108
0.3561 0.575128 0.000122072
0.383459 0.575097 9.15541e-05
0.410819 0.575067 6.10361e-05
0.438392 0.57525 0.000244144
0.465736 0.575219 0.000213626
0.49308 0.575189 0.000183108
0.520439 0.575158 0.00015259
0.54789 0.575097 9.15541e-05
0.575326 0.575051 4.57771e-05
0.602884 0.575235 0.000228885
0.630243 0.575204 0.000198367
0.657588 0.575174 0.000167849
0.684947 0.575143 0.000137331
0.712291 0.575097 0.000106813
0.739864 0.575296 0.000289921
0.76733 0.575235 0.000228885
0.794751 0.575189 0.000183108
0.822095 0.575158 0.00015259
0.849454 0.575113 0.000106813
0.876585 0.575204 0.000198367
9.15541e-05 0.602457 9.15541e-05
0.0270695 0.602518 0.00015259
0.0544289 0.602487 0.000122072
0.0819104 0.602594 0.000213626
0.109438 0.602625 0.000244144
0.136889 0.602564 0.000198367
0.164233 0.602533 0.00015259
0.191577 0.602502 0.000122072
0.218936 0.602472 9.15541e-05
0.246509 0.602655 0.000289921
0.273854 0.602625 0.000259403
0.301213 0.602594 0.000228885
0.328664 0.602533 0.000167849
0.356085 0.602487 0.000106813
0.383612 0.602625 0.000244144
0.411017 0.60264 0.000259403
0.438361 0.602609 0.000228885
0.465721 0.602579 0.000198367
0.493065 0.602548 0.000167849
0.520424 0.602518 0.000137331
0.548074 0.602655 0.000289921
0.575525 0.602625 0.000244144
0.602869 0.602594 0.000213626
0.630228 0.602548 0.000183108
0.657572 0.602518 0.00015259
0.684932 0.602487 0.000122072
0.712505 0.60267 0.00030518
0.739849 0.60264 0.000274662
0.767315 0.602594 0.000213626
0.79472 0.602533 0.00015259
0.82208 0.602502 0.000122072
0.849454 0.602487 0.000122072
0.876738 0.602731 0.000350958
6.10361e-05 0.629816 6.10361e-05
0.0271305 0.629938 0.000198367
0.0546273 0.63006 0.000320439
0.0819867 0.63003 0.000289921
0.109422 0.629969 0.000228885
0.136858 0.629923 0.000183108
0.164218 0.629892 0.000137331
0.191669 0.629969 0.000213626
0.219135 0.630045 0.00030518
0.246494 0.630014 0.000259403
0.273838 0.629984 0.000228885
0.301198 0.629953 0.000198367
0.328634 0.629892 0.000137331
0.356222 0.629984 0.000244144
0.383642 0.63003 0.000274662
0.411002 0.629984 0.000244144
0.438346 0.629953 0.000213626
0.465705 0.629923 0.000183108
0.49305 0.629892 0.00015259
0.520592 0.630045 0.00030518
0.548074 0.630014 0.000274662
0.575494 0.629969 0.000228885
0.602853 0.629938 0.000198367
0.630198 0.629908 0.000167849
0.657557 0.629877 0.000137331
0.68513 0.63006 0.000320439
0.712474 0.63003 0.000289921
0.739834 0.629999 0.000259403
0.7673 0.629938 0.000198367
0.794705 0.629892 0.000137331
0.822278 0.630076 0.000335698
0.849638 0.630045 0.000289921
0.876722 0.630076 0.000335698
9.15541e-05 0.657221 9.15541e-05
0.0272526 0.65745 0.000335698
0.054612 0.65742 0.00030518
0.0819562 0.657389 0.000259403
0.109407 0.657328 0.000213626
0.136843 0.657267 0.00015259
0.164279 0.657328 0.000213626
0.19176 0.657435 0.00030518
0.21912 0.657404 0.000274662
0.246464 0.657359 0.000244144
0.273823 0.657328 0.000213626
0.301167 0.657298 0.000183108
0.328847 0.657465 0.000350958
0.356268 0.657404 0.000289921
0.383627 0.657374 0.000259403
0.410971 0.657343 0.000228885
0.438331 0.657313 0.000198367
0.465812 0.657404 0.000289921
0.493248 0.657465 0.000350958
0.520607 0.657435 0.000320439
0.548058 0.657374 0.000259403
0.575479 0.657328 0.000213626
0.602838 0.657298 0.000183108
0.63035 0.65742 0.00030518
0.657755 0.65745 0.000335698
0.685115 0.65742 0.00030518
0.712459 0.657389 0.000259403
0.739818 0.657359 0.000228885
0.767269 0.657298 0.000167849
0.794903 0.65745 0.000335698
0.822263 0.657435 0.00030518
0.849622 0.657404 0.000274662
0.876707 0.657435 0.000320439
0.000244144 0.684733 0.000244144
0.0272374 0.684794 0.00030518
0.0545968 0.684764 0.000274662
0.0819409 0.684733 0.000244144
0.109422 0.684703 0.000213626
0.137041 0.68484 0.000350958
0.164401 0.68481 0.000320439
0.191745 0.684779 0.000289921
0.219104 0.684749 0.000259403
0.246448 0.684718 0.000228885
0.273869 0.684749 0.000259403
0.301381 0.684871 0.000381476
0.328817 0.68481 0.000320439
0.356252 0.684764 0.000274662
0.383612 0.684733 0.000244144
0.410956 0.684688 0.000213626
0.438422 0.684779 0.000289921
0.465873 0.684855 0.000366217
0.493233 0.684825 0.000335698
0.520592 0.684794 0.00030518
0.548043 0.684733 0.000244144
0.575463 0.684672 0.000183108
0.60296 0.684794 0.00030518
0.630381 0.684825 0.000335698
0.65774 0.684794 0.00030518
0.6851 0.684764 0.000274662
0.712444 0.684733 0.000244144
0.739788 0.684703 0.000213626
0.767468 0.684871 0.000381476
0.794888 0.68481 0.000320439
0.822248 0.684779 0.000289921
0.849592 0.684749 0.000259403
