public/LUTS/Darken/Darken_14.cube
TITLE "Generated by Resolve"
LUT_3D_SIZE 33
0 0 0
0 0 0
0 0 0
0.0113222 0 0
0.0362554 0 0
0.0611887 0 0
0.0860456 0 0
0.110887 0 0
0.13576 0 0
0.1608 0 0
0.185641 0 0
0.210498 0 0
0.235431 0 0
0.260349 0 0
0.285267 0 0
0.310262 0 0
0.335103 0 0
0.35996 0 0
0.384817 0 0
0.409659 0 0
0.434806 0 0
0.459724 0 0
0.484581 0 0
0.509438 0 0
0.534279 0 0
0.559213 0 0
0.584192 0 0
0.609033 0 0
0.633982 0 0
0.6589 0 0
0.683757 0 0
0.708721 0 0
0.733425 0 0
0 0 0
0 0 0
0 0 0
0.0115969 0 0
0.0365301 0 0
0.0614633 0 0
0.086305 0 0
0.11136 0 0
0.136217 0 0
0.161059 0 0
0.185916 0 0
0.210758 0 0
0.235706 0 0
0.260822 0 0
0.285679 0 0
0.310536 0 0
0.335378 0 0
0.360235 0 0
0.385122 0 0
0.410132 0 0
0.43508 0 0
0.459998 0 0
0.484855 0 0
0.509697 0 0
0.53463 0 0
0.559609 0 0
0.584451 0 0
0.609308 0 0
0.634256 0 0
0.659175 0 0
0.684123 0 0
0.709072 0 0
0.733684 0 0
0 0 0
0 0 0
0 0 0
0.0115816 0 0
0.0365148 0 0
0.0614481 0 0
0.0864729 0 0
0.111345 0 0
0.136187 0 0
0.161044 0 0
0.185901 0 0
0.210742 0 0
0.235889 0 0
0.260807 0 0
0.285664 0 0
0.310506 0 0
0.335363 0 0
0.360235 0 0
0.38526 0 0
0.410117 0 0
0.435065 0 0
0.459983 0 0
0.484825 0 0
0.50988 0 0
0.534737 0 0
0.559579 0 0
0.584436 0 0
0.609293 0 0
0.634287 0 0
0.659342 0 0
0.684199 0 0
0.709056 0 0
0.733669 0 0
0 0.0115206 0
0 0.0115816 0
0 0.0115511 0
0.0115663 0.0115206 0
0.0364996 0.0114748 0
0.0616312 0.0116274 0
0.0864729 0.0115969 0
0.11133 0.0115663 0
0.136172 0.0115358 0
0.161028 0.0115053 0
0.186038 0.0116426 0
0.210925 0.0116426 0
0.235874 0.0115969 0
0.260792 0.0115511 0
0.285649 0.0115206 0
0.310491 0.01149 0
0.335546 0.0116579 0
0.360403 0.0116274 0
0.385245 0.0115969 0
0.410101 0.0115663 0
0.43505 0.0115206 0
0.459968 0.0114748 0
0.485008 0.0116426 0
0.509865 0.0116121 0
0.534722 0.0115816 0
0.559564 0.0115511 0
0.584421 0.0115206 0
0.609308 0.0115358 0
0.634424 0.0116426 0
0.659327 0.0115969 0
0.684184 0.0115663 0
0.709041 0.0115358 0
0.733654 0.0115663 0
0 0.036408 0
0 0.0364691 0
0 0.0364385 0
0.0115663 0.0365148 0
0.0365911 0.0365606 0
0.0615244 0.0365148 0
0.0863661 0.0364843 0
0.111223 0.0364538 0
0.13608 0.0364233 0
0.161074 0.0365454 0
0.185977 0.0365606 0
0.210834 0.0365301 0
0.235767 0.0364843 0
0.260685 0.0364385 0
0.285542 0.036408 0
0.310582 0.0365606 0
0.335454 0.0365454 0
0.360296 0.0365148 0
0.385153 0.0364843 0
0.409995 0.0364538 0
0.434943 0.036408 0
0.46006 0.0365606 0
0.484916 0.0365301 0
0.509773 0.0364996 0
0.534615 0.0364691 0
0.559472 0.0364385 0
0.584527 0.0366064 0
0.609369 0.0365759 0
0.634318 0.0365301 0
0.659236 0.0364843 0
0.684077 0.0364538 0
0.708949 0.0364385 0
0.733745 0.0366522 0
0 0.0612955 0
0 0.0613413 0
0 0.0614176 0
0.0115816 0.0614786 0
0.0365148 0.0614328 0
0.0614481 0.061387 0
0.0862898 0.0613565 0
0.111147 0.061326 0
0.136202 0.0614939 0
0.161044 0.0614633 0
0.185901 0.0614328 0
0.210758 0.0614023 0
0.235691 0.0613565 0
0.260746 0.0614328 0
0.285664 0.0614786 0
0.310521 0.0614481 0
0.335378 0.0614176 0
0.36022 0.061387 0
0.385077 0.0613565 0
0.410086 0.0614939 0
0.435065 0.0614786 0
0.459983 0.0614328 0
0.48484 0.0614023 0
0.509682 0.0613718 0
0.534539 0.0613413 0
0.559594 0.0615091 0
0.584436 0.0614786 0
0.609293 0.0614633 0
0.634241 0.0614023 0
0.659159 0.0613565 0
0.684001 0.061326 0
0.709056 0.0614939 0
0.733669 0.0615396 0
0 0.086183 0
0 0.0863966 0
0 0.0863661 0
0.0115663 0.0863355 0
0.0364996 0.0862898 0
0.0614328 0.086244 0
0.0863508 0.0862745 0
0.11133 0.0863813 0
0.136187 0.0863508 0
0.161028 0.0863203 0
0.185885 0.0862898 0
0.210727 0.0862593 0
0.235782 0.0863203 0
0.260792 0.0863661 0
0.285649 0.0863355 0
0.310506 0.086305 0
0.335348 0.0862745 0
0.360204 0.086244 0
0.385199 0.0863661 0
0.410101 0.0863813 0
0.43505 0.0863355 0
0.459968 0.0862898 0
0.484825 0.0862593 0
0.509667 0.0862287 0
0.534722 0.0863966 0
0.559579 0.0863661 0
0.584421 0.0863355 0
0.609277 0.086305 0
0.634226 0.0862593 0
0.659312 0.0863813 0
0.684184 0.0863813 0
0.709041 0.0863508 0
0.733654 0.0863813 0
0 0.111192 0
0 0.111254 0
0 0.111223 0
0.0115511 0.111192 0
0.0364843 0.111131 0
0.0614786 0.111147 0
0.0864576 0.111254 0
0.111315 0.111223 0
0.136172 0.111208 0
0.161013 0.111177 0
0.18587 0.111147 0
0.210925 0.111315 0
0.235859 0.111254 0
0.260777 0.111208 0
0.285634 0.111177 0
0.310491 0.111147 0
0.335424 0.111223 0
0.360388 0.111299 0
0.385245 0.111269 0
0.410086 0.111238 0
0.435035 0.111177 0
0.459953 0.111131 0
0.484932 0.111238 0
0.50985 0.111284 0
0.534707 0.111254 0
0.559564 0.111223 0
0.584405 0.111192 0
0.609262 0.111162 0
0.634379 0.111269 0
0.659327 0.111254 0
0.684169 0.111238 0
0.709026 0.111192 0
0.733639 0.111238 0
0 0.136049 0
0 0.136095 0
0 0.13608 0
0.0115358 0.136049 0
0.0366674 0.136187 0
0.0616007 0.136141 0
0.0864424 0.13611 0
0.111299 0.13608 0
0.136156 0.136049 0
0.161044 0.136065 0
0.186053 0.136202 0
0.210895 0.136172 0
0.235843 0.13611 0
0.260761 0.136065 0
0.285618 0.136034 0
0.310536 0.13608 0
0.335515 0.136172 0
0.360372 0.136141 0
0.385214 0.136126 0
0.410071 0.136095 0
0.435019 0.136034 0
0.460044 0.136095 0
0.484993 0.136156 0
0.509834 0.136126 0
0.534691 0.136095 0
0.559533 0.136065 0
0.58439 0.136034 0
0.609445 0.136217 0
0.634394 0.136156 0
0.659297 0.13611 0
0.684153 0.13608 0
0.70901 0.136049 0
0.733761 0.136233 0
0 0.160891 0
0 0.160952 0
0 0.160922 0
0.0117189 0.161089 0
0.0366522 0.161044 0
0.0615854 0.160998 0
0.0864271 0.160967 0
0.111284 0.160937 0
0.136156 0.160922 0
0.161181 0.161074 0
0.186038 0.161044 0
0.21088 0.161013 0
0.235828 0.160967 0
0.260746 0.160922 0
0.285801 0.161089 0
0.310643 0.161059 0
0.3355 0.161028 0
0.360357 0.160998 0
0.385199 0.160967 0
0.410117 0.160998 0
0.435203 0.161089 0
0.460121 0.161044 0
0.484962 0.161013 0
0.509819 0.160983 0
0.534676 0.160952 0
0.559609 0.161013 0
0.584573 0.161089 0
0.60943 0.161059 0
0.634379 0.161013 0
0.659281 0.160967 0
0.684138 0.160937 0
0.709117 0.161028 0
0.733806 0.161135 0
0 0.185748 0
0 0.185977 0
0 0.185977 0
0.0116884 0.185946 0
0.0366369 0.185901 0
0.0615549 0.18584 0
0.0864118 0.185809 0
0.111467 0.185992 0
0.136309 0.185962 0
0.161166 0.185931 0
0.186023 0.185901 0
0.210864 0.18587 0
0.235813 0.185824 0
0.260929 0.185977 0
0.285786 0.185931 0
0.310628 0.185916 0
0.335485 0.185885 0
0.360327 0.185855 0
0.385229 0.185855 0
0.410239 0.185992 0
0.435187 0.185931 0
0.460105 0.185885 0
0.484947 0.18587 0
0.509804 0.18584 0
0.534722 0.185885 0
0.559701 0.185977 0
0.584558 0.185946 0
0.609415 0.185916 0
0.634348 0.185855 0
0.659266 0.185809 0
0.684321 0.185992 0
0.709163 0.185962 0
0.733791 0.185992 0
0 0.210758 0
0 0.210849 0
0 0.210834 0
0.0116732 0.210803 0
0.0366217 0.210742 0
0.0615396 0.210697 0
0.0865797 0.210849 0
0.111452 0.210834 0
0.136294 0.210803 0
0.161151 0.210773 0
0.185992 0.210758 0
0.210849 0.210727 0
0.235996 0.210864 0
0.260914 0.210819 0
0.285756 0.210788 0
0.310613 0.210758 0
0.33547 0.210727 0
0.360525 0.21091 0
0.385367 0.21088 0
0.410224 0.210849 0
0.435157 0.210788 0
0.460075 0.210742 0
0.484947 0.210727 0
0.509987 0.21088 0
0.534844 0.210849 0
0.559686 0.210834 0
0.584543 0.210803 0
0.6094 0.210773 0
0.634394 0.210773 0
0.659449 0.210864 0
0.684306 0.210834 0
0.709148 0.210803 0
0.733776 0.210849 0
0 0.235691 0
0 0.235752 0
0 0.235721 0
0.0115511 0.235691 0
0.0366217 0.235767 0
0.0616159 0.235798 0
0.0864729 0.235767 0
0.11133 0.235737 0
0.136172 0.235706 0
0.161028 0.235676 0
0.186053 0.235813 0
0.210925 0.235813 0
0.235874 0.235767 0
0.260792 0.235721 0
0.285649 0.235676 0
0.310491 0.23566 0
0.335546 0.235828 0
0.360403 0.235798 0
0.385245 0.235767 0
0.410101 0.235737 0
0.435035 0.235691 0
0.459968 0.235645 0
0.485008 0.235813 0
0.509865 0.235782 0
0.534722 0.235752 0
0.559564 0.235721 0
0.584421 0.235691 0
0.609308 0.235706 0
0.634424 0.235813 0
0.659327 0.235767 0
0.684184 0.235737 0
0.709026 0.235706 0
0.733654 0.235737 0
0 0.260563 0
0 0.260624 0
0 0.260594 0
0.0116121 0.26067 0
0.0366369 0.2607 0
0.0615702 0.260655 0
0.0864118 0.260624 0
0.111269 0.260594 0
0.136126 0.260578 0
0.16112 0.260685 0
0.186023 0.260716 0
0.210864 0.260685 0
0.235813 0.260624 0
0.260731 0.260578 0
0.285588 0.260548 0
0.310643 0.260716 0
0.335485 0.2607 0
0.360342 0.26067 0
0.385199 0.260639 0
0.41004 0.260609 0
0.435172 0.260731 0
0.460105 0.2607 0
0.484962 0.260685 0
0.509804 0.260639 0
0.534661 0.260624 0
0.559518 0.260594 0
0.584558 0.260761 0
0.609415 0.260731 0
0.634363 0.26067 0
0.659281 0.260624 0
0.684123 0.260594 0
0.708995 0.260594 0
0.733791 0.260807 0
0 0.285405 0
0 0.285466 0
0 0.285649 0
0.0116884 0.285603 0
0.0366217 0.285557 0
0.0615549 0.285512 0
0.0863966 0.285481 0
0.111345 0.285542 0
0.136309 0.285618 0
0.161151 0.285588 0
0.186007 0.285557 0
0.210864 0.285542 0
0.235798 0.285481 0
0.260853 0.285573 0
0.285771 0.285603 0
0.310628 0.285573 0
0.33547 0.285542 0
0.360327 0.285512 0
0.385168 0.285481 0
0.410193 0.285634 0
0.435172 0.285603 0
0.46009 0.285557 0
0.484947 0.285527 0
0.509789 0.285496 0
0.534646 0.285466 0
0.559701 0.285649 0
0.584543 0.285603 0
0.6094 0.285588 0
0.634348 0.285527 0
0.659251 0.285481 0
0.684108 0.285451 0
0.709163 0.285618 0
0.733776 0.285649 0
0 0.310307 0
0 0.310521 0
0 0.310491 0
0.0116732 0.31046 0
0.0366064 0.310414 0
0.0615396 0.310369 0
0.0864576 0.310414 0
0.111437 0.310506 0
0.136294 0.310475 0
0.161135 0.310445 0
0.185992 0.310414 0
0.210834 0.310384 0
0.235889 0.310445 0
0.260899 0.310491 0
0.285756 0.31046 0
0.310597 0.31043 0
0.335454 0.310399 0
0.360311 0.310369 0
0.385367 0.310536 0
0.410208 0.310506 0
0.435157 0.31046 0
0.460075 0.310414 0
0.484916 0.310384 0
0.509926 0.310491 0
0.534829 0.310521 0
0.559686 0.310491 0
0.584527 0.31046 0
0.609384 0.31043 0
0.634333 0.310384 0
0.659419 0.310521 0
0.684291 0.310506 0
0.709148 0.310475 0
0.733761 0.310506 0
0 0.335317 0
0 0.335378 0
0 0.335348 0
0.0116426 0.335317 0
0.0365911 0.335256 0
0.0617075 0.335409 0
0.0865644 0.335378 0
0.111421 0.335363 0
0.136263 0.335332 0
0.16112 0.335302 0
0.186023 0.335332 0
0.211017 0.335439 0
0.235966 0.335378 0
0.260884 0.335332 0
0.28574 0.335302 0
0.310582 0.335271 0
0.335531 0.335348 0
0.360494 0.335424 0
0.385336 0.335393 0
0.410193 0.335363 0
0.435142 0.335302 0
0.46006 0.335256 0
0.485039 0.335363 0
0.509957 0.335409 0
0.534813 0.335378 0
0.559655 0.335348 0
0.584512 0.335317 0
0.609369 0.335286 0
0.634485 0.335393 0
0.659419 0.335378 0
0.684276 0.335363 0
0.709117 0.335332 0
0.733745 0.335363 0
0 0.360174 0
0 0.36022 0
0 0.360189 0
0.0116426 0.360174 0
0.0367742 0.360311 0
0.0616922 0.360265 0
0.0865492 0.360235 0
0.111406 0.360204 0
0.136248 0.360174 0
0.161151 0.360189 0
0.18616 0.360327 0
0.211002 0.360296 0
0.23595 0.360235 0
0.260868 0.360189 0
0.28571 0.360159 0
0.310643 0.360204 0
0.335622 0.360296 0
0.360479 0.360265 0
0.385321 0.36025 0
0.410178 0.36022 0
0.435111 0.360159 0
0.460243 0.360311 0
0.485084 0.360281 0
0.509941 0.36025 0
0.534798 0.36022 0
0.55964 0.360189 0
0.584604 0.360281 0
0.609552 0.360342 0
0.634501 0.360281 0
0.659403 0.360235 0
0.68426 0.360204 0
0.709102 0.360174 0
0.733867 0.360357 0
0 0.385016 0
0 0.385077 0
0 0.385046 0
0.0118105 0.385214 0
0.036759 0.385168 0
0.061677 0.385122 0
0.0865339 0.385092 0
0.111376 0.385061 0
0.136431 0.385229 0
0.161288 0.385199 0
0.186145 0.385168 0
0.210986 0.385138 0
0.23592 0.385092 0
0.260868 0.385061 0
0.285908 0.385214 0
0.31075 0.385183 0
0.335607 0.385153 0
0.360449 0.385122 0
0.385306 0.385092 0
0.410224 0.385122 0
0.435309 0.385214 0
0.460227 0.385168 0
0.485069 0.385138 0
0.509926 0.385107 0
0.534783 0.385077 0
0.559716 0.385138 0
0.58468 0.385214 0
0.609537 0.385183 0
0.634485 0.385138 0
0.659388 0.385092 0
0.684245 0.385061 0
0.709224 0.385153 0
0.733913 0.38526 0
0 0.409873 0
0 0.410101 0
0 0.410101 0
0.0117952 0.410071 0
0.0367285 0.410025 0
0.0616617 0.409964 0
0.0865187 0.409934 0
0.111559 0.410117 0
0.136416 0.410086 0
0.161273 0.410056 0
0.186114 0.410025 0
0.210971 0.409995 0
0.23592 0.409949 0
0.261036 0.410101 0
0.285878 0.410056 0
0.310735 0.41004 0
0.335592 0.41001 0
0.360433 0.409979 0
0.385336 0.409995 0
0.410346 0.410117 0
0.435279 0.410056 0
0.460197 0.41001 0
0.485054 0.409995 0
0.509911 0.409964 0
0.534951 0.410132 0
0.559808 0.410101 0
0.584665 0.410071 0
0.609506 0.41004 0
0.634455 0.409995 0
0.659449 0.41001 0
0.684428 0.410117 0
0.70927 0.410086 0
0.733898 0.410117 0
0 0.434928 0
0 0.435035 0
0 0.435004 0
0.0116579 0.434974 0
0.0365911 0.434928 0
0.0615244 0.434867 0
0.0865644 0.435035 0
0.111421 0.435019 0
0.136278 0.434989 0
0.16112 0.434958 0
0.185977 0.434928 0
0.211017 0.43508 0
0.235966 0.43505 0
0.260884 0.434989 0
0.28574 0.434974 0
0.310597 0.434943 0
0.335439 0.434913 0
0.360494 0.43508 0
0.385351 0.43505 0
0.410193 0.435019 0
0.435142 0.434958 0
0.46006 0.434913 0
0.484932 0.434913 0
0.509957 0.435065 0
0.534813 0.435035 0
0.55967 0.435004 0
0.584512 0.434974 0
0.609369 0.434943 0
0.634379 0.434943 0
0.659434 0.435035 0
0.684276 0.435019 0
0.709133 0.434989 0
0.733745 0.435019 0
0 0.459831 0
0 0.459892 0
0 0.459861 0
0.0116121 0.459831 0
0.0366979 0.459922 0
0.0616922 0.459937 0
0.0865339 0.459907 0
0.111391 0.459876 0
0.136233 0.459846 0
0.161089 0.459815 0
0.186114 0.459953 0
0.210986 0.459953 0
0.235935 0.459907 0
0.260853 0.459861 0
0.28571 0.459831 0
0.310552 0.4598 0
0.335607 0.459968 0
0.360464 0.459937 0
0.385306 0.459907 0
0.410163 0.459876 0
0.435111 0.459831 0
0.460029 0.459785 0
0.485069 0.459953 0
0.509926 0.459922 0
0.534783 0.459892 0
0.559625 0.459861 0
0.584482 0.459831 0
0.609537 0.459998 0
0.634485 0.459953 0
0.659388 0.459907 0
0.684245 0.459876 0
0.709102 0.459846 0
0.733745 0.459922 0
0 0.484688 0
0 0.484749 0
0 0.484718 0
0.0117189 0.48481 0
0.0367437 0.484825 0
0.0616617 0.484779 0
0.0865187 0.484749 0
0.111376 0.484718 0
0.136217 0.484703 0
0.161273 0.484871 0
0.18613 0.48484 0
0.210971 0.48481 0
0.23592 0.484749 0
0.260838 0.484703 0
0.285847 0.484825 0
0.310735 0.48484 0
0.335592 0.484825 0
0.360449 0.484794 0
0.38529 0.484764 0
0.410147 0.484733 0
0.435279 0.484871 0
0.460212 0.484825 0
0.485054 0.484794 0
0.509911 0.484764 0
0.534768 0.484749 0
0.559609 0.484718 0
0.584665 0.484886 0
0.609522 0.484855 0
0.63447 0.484794 0
0.659373 0.484749 0
0.68423 0.484718 0
0.709102 0.484718 0
0.733898 0.484932 0
0 0.509529 0
0 0.509651 0
0 0.509758 0
0.01178 0.509728 0
0.0367285 0.509682 0
0.0616465 0.509636 0
0.0865034 0.509606 0
0.111452 0.509682 0
0.1364 0.509743 0
0.161257 0.509712 0
0.186114 0.509682 0
0.210956 0.509667 0
0.235904 0.509606 0
0.26096 0.509697 0
0.285878 0.509728 0
0.310719 0.509697 0
0.335576 0.509667 0
0.360418 0.509636 0
0.385275 0.509606 0
0.4103 0.509758 0
0.435279 0.509728 0
0.460197 0.509682 0
0.485039 0.509651 0
0.509896 0.509621 0
0.534752 0.50959 0
0.559792 0.509758 0
0.584649 0.509728 0
0.609506 0.509712 0
0.634455 0.509651 0
0.659358 0.509606 0
0.684413 0.509773 0
0.70927 0.509743 0
0.733883 0.509773 0
0 0.534432 0
0 0.534646 0
0 0.534615 0
0.0117647 0.534585 0
0.0366979 0.534539 0
0.0616312 0.534493 0
0.0865644 0.534539 0
0.111528 0.53463 0
0.136385 0.5346 0
0.161242 0.534569 0
0.186084 0.534539 0
0.210941 0.534508 0
0.236072 0.534661 0
0.261006 0.534615 0
0.285863 0.534585 0
0.310704 0.534554 0
0.335561 0.534524 0
0.360525 0.534615 0
0.385458 0.534661 0
0.410315 0.53463 0
0.435248 0.534585 0
0.460166 0.534539 0
0.485023 0.534508 0
0.510033 0.53463 0
0.534936 0.534646 0
0.559777 0.534615 0
0.584634 0.534585 0
0.609476 0.534554 0
0.634424 0.534508 0
0.659525 0.534646 0
0.684398 0.53463 0
0.709239 0.5346 0
0.733867 0.53463 0
0 0.559442 0
0 0.559503 0
0 0.559472 0
0.0117494 0.559442 0
0.0367132 0.559411 0
0.0618143 0.559533 0
0.0866712 0.559503 0
0.111513 0.559487 0
0.13637 0.559457 0
0.161227 0.559426 0
0.18613 0.559457 0
0.211124 0.559564 0
0.236057 0.559503 0
0.26099 0.559457 0
0.285847 0.559426 0
0.310689 0.559396 0
0.335637 0.559472 0
0.360586 0.559548 0
0.385443 0.559518 0
0.4103 0.559487 0
0.435233 0.559426 0
0.460151 0.55938 0
0.485145 0.559487 0
0.510063 0.559533 0
0.534905 0.559503 0
0.559762 0.559472 0
0.584619 0.559442 0
0.609461 0.559411 0
0.634623 0.559564 0
0.659525 0.559503 0
0.684382 0.559487 0
0.709224 0.559457 0
0.733852 0.559487 0
0 0.584298 0
0 0.584344 0
0 0.584314 0
0.0117494 0.584298 0
0.0368658 0.584436 0
0.061799 0.58439 0
0.086656 0.58436 0
0.111498 0.584329 0
0.136355 0.584298 0
0.161257 0.584314 0
0.186252 0.584451 0
0.211109 0.584421 0
0.236042 0.58436 0
0.260975 0.584314 0
0.285817 0.584283 0
0.310872 0.584451 0
0.335729 0.584421 0
0.360571 0.58439 0
0.385428 0.58436 0
0.410285 0.584344 0
0.435294 0.58436 0
0.460334 0.584436 0
0.485191 0.584405 0
0.510048 0.584375 0
0.53489 0.584344 0
0.559747 0.584314 0
0.58471 0.584405 0
0.609644 0.584466 0
0.634592 0.584405 0
0.65951 0.58436 0
0.684367 0.584329 0
0.709209 0.584298 0
0.733974 0.584482 0
0 0.60914 0
0 0.609201 0
0 0.609369 0
0.0119173 0.609339 0
0.0368505 0.609293 0
0.0617838 0.609247 0
0.0866255 0.609216 0
0.111482 0.609186 0
0.136538 0.609354 0
