public/LUTS/Darken/Darken_04.cube
TITLE "Generated by Resolve"
LUT_3D_SIZE 33
0 0 0
0 0 0
0 0 0
0.0293584 0 0
0.0628061 0 0
0.0962234 0 0
0.129549 0 0
0.162875 0 0
0.196216 0 0
0.229786 0 0
0.263111 0 0
0.296422 0 0
0.32987 0 0
0.363287 0 0
0.396674 0 0
0.430198 0 0
0.463523 0 0
0.496849 0 0
0.530175 0 0
0.563485 0 0
0.597208 0 0
0.630625 0 0
0.663935 0 0
0.697261 0 0
0.730587 0 0
0.764019 0 0
0.797498 0 0
0.830823 0 0
0.864271 0 0
0.897688 0 0
0.931014 0 0
0.964492 0 0
0.997604 0 0
0 0 0
0 0 0
0 0 0
0.0297246 0 0
0.0631571 0 0
0.0965896 0 0
0.129915 0 0
0.1635 0 0
0.196826 0 0
0.230152 0 0
0.263478 0 0
0.296788 0 0
0.330236 0 0
0.363912 0 0
0.397238 0 0
0.430564 0 0
0.46389 0 0
0.497215 0 0
0.530571 0 0
0.564126 0 0
0.597574 0 0
0.630976 0 0
0.664302 0 0
0.697627 0 0
0.731044 0 0
0.764538 0 0
0.797864 0 0
0.831189 0 0
0.864637 0 0
0.898039 0 0
0.931517 0 0
0.96495 0 0
0.997971 0 0
0 0 0
0 0 0
0 0 0
0.0297093 0 0
0.0631418 0 0
0.0965591 0 0
0.130129 0 0
0.163485 0 0
0.196796 0 0
0.230121 0 0
0.263447 0 0
0.296757 0 0
0.33048 0 0
0.363897 0 0
0.397223 0 0
0.430533 0 0
0.463859 0 0
0.4972 0 0
0.53077 0 0
0.564095 0 0
0.597543 0 0
0.630961 0 0
0.664286 0 0
0.697871 0 0
0.731197 0 0
0.764523 0 0
0.797833 0 0
0.831159 0 0
0.864683 0 0
0.898283 0 0
0.931609 0 0
0.964935 0 0
0.99794 0 0
0 0.029633 0
0 0.0297093 0
0 0.0296788 0
0.0296788 0.029633 0
0.0631113 0.029572 0
0.0968185 0.0297704 0
0.130129 0.0297246 0
0.163455 0.0296941 0
0.19678 0.0296483 0
0.230106 0.0296025 0
0.263645 0.0297856 0
0.297017 0.0298009 0
0.330449 0.0297246 0
0.363867 0.0296635 0
0.397192 0.0296178 0
0.430518 0.0295872 0
0.464118 0.0298161 0
0.497429 0.0297704 0
0.530755 0.0297398 0
0.56408 0.0296941 0
0.597528 0.0296178 0
0.63093 0.0295567 0
0.66453 0.0298009 0
0.697856 0.0297551 0
0.731182 0.0297093 0
0.764492 0.0296788 0
0.797818 0.029633 0
0.831189 0.029633 0
0.864866 0.0297856 0
0.898268 0.0297246 0
0.931594 0.0296941 0
0.964904 0.0296483 0
0.997925 0.0296941 0
0 0.0630045 0
0 0.0630808 0
0 0.0630503 0
0.0296941 0.0631571 0
0.0632486 0.0632029 0
0.0966812 0.0631418 0
0.129992 0.0630961 0
0.163317 0.0630503 0
0.196643 0.0630198 0
0.230167 0.0631723 0
0.263554 0.0632029 0
0.29688 0.0631723 0
0.330312 0.0630961 0
0.363729 0.063035 0
0.397055 0.0629892 0
0.430625 0.0632029 0
0.463981 0.0631876 0
0.497292 0.0631418 0
0.530617 0.0631113 0
0.563943 0.0630655 0
0.597391 0.0629892 0
0.631067 0.0632029 0
0.664393 0.0631571 0
0.697719 0.0631266 0
0.731044 0.0630808 0
0.764355 0.063035 0
0.797955 0.0632639 0
0.831281 0.0632334 0
0.864729 0.0631571 0
0.898131 0.0630961 0
0.931456 0.0630655 0
0.964797 0.063035 0
0.998047 0.0633249 0
0 0.0963607 0
0 0.096437 0
0 0.0965286 0
0.0297093 0.0966201 0
0.0631418 0.0965591 0
0.0965744 0.0964981 0
0.129885 0.0964523 0
0.16321 0.0964065 0
0.196811 0.0966506 0
0.230121 0.0966049 0
0.263447 0.0965591 0
0.296773 0.0965286 0
0.33022 0.0964523 0
0.363806 0.0965591 0
0.397223 0.0966201 0
0.430549 0.0965744 0
0.463874 0.0965438 0
0.497185 0.0964981 0
0.53051 0.0964675 0
0.564065 0.0966354 0
0.597559 0.0966201 0
0.630961 0.0965591 0
0.664286 0.0965133 0
0.697612 0.0964675 0
0.730938 0.096437 0
0.764523 0.0966659 0
0.797848 0.0966201 0
0.831174 0.0965896 0
0.864622 0.0965133 0
0.898024 0.0964523 0
0.93135 0.0964065 0
0.964935 0.0966354 0
0.997955 0.0966812 0
0 0.129732 0
0 0.130022 0
0 0.129992 0
0.0296941 0.129946 0
0.0631266 0.129885 0
0.0965438 0.129809 0
0.129976 0.12987 0
0.16347 0.130007 0
0.19678 0.129961 0
0.230106 0.129931 0
0.263432 0.129885 0
0.296757 0.129839 0
0.330343 0.129931 0
0.363882 0.129976 0
0.397208 0.129946 0
0.430533 0.1299 0
0.463844 0.12987 0
0.497169 0.129824 0
0.530694 0.129976 0
0.56408 0.130022 0
0.597528 0.129946 0
0.630945 0.129885 0
0.664271 0.129839 0
0.697581 0.129793 0
0.731182 0.130022 0
0.764508 0.129992 0
0.797833 0.129946 0
0.831144 0.129915 0
0.864607 0.129839 0
0.898253 0.130022 0
0.931594 0.130007 0
0.96492 0.129961 0
0.997925 0.130007 0
0 0.163272 0
0 0.163348 0
0 0.163317 0
0.0296635 0.163272 0
0.0630961 0.16321 0
0.0966049 0.16321 0
0.130114 0.163363 0
0.163439 0.163333 0
0.196765 0.163287 0
0.230091 0.163241 0
0.263401 0.16321 0
0.297002 0.163439 0
0.330434 0.163363 0
0.363851 0.163302 0
0.397177 0.163256 0
0.430503 0.163226 0
0.463951 0.163302 0
0.497414 0.163409 0
0.530739 0.163378 0
0.564065 0.163333 0
0.597513 0.163256 0
0.630915 0.163195 0
0.664408 0.163333 0
0.697841 0.163394 0
0.731167 0.163348 0
0.764477 0.163302 0
0.797803 0.163272 0
0.831128 0.163241 0
0.86479 0.163378 0
0.898253 0.163363 0
0.931579 0.163333 0
0.964889 0.163287 0
0.997909 0.163333 0
0 0.196597 0
0 0.196674 0
0 0.196643 0
0.0296483 0.196597 0
0.0633402 0.196796 0
0.0967727 0.196735 0
0.130098 0.196689 0
0.163409 0.196658 0
0.196735 0.196612 0
0.230106 0.196628 0
0.263645 0.196796 0
0.296971 0.196765 0
0.330419 0.196689 0
0.363836 0.196628 0
0.397162 0.196582 0
0.430579 0.196643 0
0.464073 0.19678 0
0.497398 0.196735 0
0.530709 0.196704 0
0.564034 0.196658 0
0.597482 0.196582 0
0.631037 0.196674 0
0.664485 0.19675 0
0.69781 0.196719 0
0.731136 0.196674 0
0.764462 0.196628 0
0.797772 0.196597 0
0.831373 0.196826 0
0.86482 0.19675 0
0.898222 0.196689 0
0.931548 0.196658 0
0.964874 0.196612 0
0.998077 0.196857 0
0 0.229923 0
0 0.229999 0
0 0.229953 0
0.0298924 0.230182 0
0.0633249 0.230121 0
0.0967575 0.23006 0
0.130068 0.230015 0
0.163394 0.229969 0
0.19675 0.229969 0
0.230304 0.230167 0
0.26363 0.230121 0
0.296956 0.230091 0
0.330388 0.230015 0
0.363806 0.229953 0
0.397406 0.230182 0
0.430732 0.230137 0
0.464057 0.230106 0
0.497368 0.23006 0
0.530694 0.230015 0
0.564095 0.23006 0
0.597726 0.230182 0
0.631144 0.230121 0
0.664469 0.230076 0
0.697795 0.23003 0
0.731106 0.229999 0
0.764553 0.230076 0
0.798032 0.230182 0
0.831342 0.230152 0
0.864805 0.230076 0
0.898207 0.230015 0
0.931533 0.229969 0
0.965026 0.230106 0
0.998123 0.230243 0
0 0.263249 0
0 0.263554 0
0 0.263554 0
0.0298619 0.263508 0
0.0632944 0.263447 0
0.0967269 0.263371 0
0.130037 0.26334 0
0.163638 0.263569 0
0.196963 0.263523 0
0.230274 0.263493 0
0.2636 0.263447 0
0.296925 0.263401 0
0.330373 0.26334 0
0.36405 0.263539 0
0.397375 0.263508 0
0.430701 0.263462 0
0.464027 0.263432 0
0.497337 0.263386 0
0.530724 0.263401 0
0.564263 0.263584 0
0.597711 0.263508 0
0.631113 0.263447 0
0.664439 0.263401 0
0.697765 0.263355 0
0.731182 0.263416 0
0.764675 0.263554 0
0.798001 0.263508 0
0.831327 0.263478 0
0.864775 0.263401 0
0.898177 0.26334 0
0.931777 0.263569 0
0.965087 0.263523 0
0.998108 0.263569 0
0 0.296773 0
0 0.29691 0
0 0.29688 0
0.0298466 0.296834 0
0.0632792 0.296773 0
0.0966964 0.296696 0
0.130282 0.29691 0
0.163622 0.296895 0
0.196933 0.296849 0
0.230259 0.296803 0
0.263584 0.296773 0
0.29691 0.296727 0
0.330617 0.296925 0
0.364034 0.296864 0
0.39736 0.296818 0
0.430686 0.296788 0
0.463996 0.296742 0
0.497597 0.296971 0
0.530922 0.296941 0
0.564233 0.296895 0
0.597681 0.296818 0
0.631098 0.296757 0
0.664439 0.296742 0
0.698009 0.296956 0
0.731334 0.29691 0
0.76466 0.29688 0
0.797986 0.296834 0
0.831296 0.296803 0
0.86482 0.296788 0
0.898421 0.296925 0
0.931746 0.296895 0
0.965072 0.296849 0
0.998077 0.296895 0
0 0.33022 0
0 0.330297 0
0 0.330251 0
0.0296788 0.33022 0
0.0632944 0.330327 0
0.0968032 0.330343 0
0.130129 0.330312 0
0.163455 0.330266 0
0.19678 0.330236 0
0.230091 0.33019 0
0.263645 0.330373 0
0.297002 0.330373 0
0.330449 0.330312 0
0.363867 0.330251 0
0.397192 0.330205 0
0.430518 0.330159 0
0.464103 0.330404 0
0.497429 0.330358 0
0.530755 0.330312 0
0.56408 0.330282 0
0.597513 0.330205 0
0.63093 0.330144 0
0.66453 0.330373 0
0.697841 0.330327 0
0.731167 0.330297 0
0.764492 0.330251 0
0.797818 0.33022 0
0.831189 0.33022 0
0.864851 0.330373 0
0.898268 0.330312 0
0.931594 0.330266 0
0.964904 0.33022 0
0.997909 0.330282 0
0 0.363561 0
0 0.363638 0
0 0.363607 0
0.0297551 0.363714 0
0.0633097 0.36376 0
0.0967269 0.363699 0
0.130053 0.363653 0
0.163378 0.363607 0
0.196704 0.363577 0
0.230228 0.363745 0
0.263615 0.36376 0
0.296925 0.363729 0
0.330373 0.363653 0
0.36379 0.363592 0
0.397116 0.363546 0
0.430701 0.363775 0
0.464027 0.363745 0
0.497353 0.363699 0
0.530678 0.363668 0
0.564004 0.363622 0
0.597696 0.36379 0
0.631128 0.36376 0
0.664454 0.363714 0
0.697765 0.363668 0
0.73109 0.363638 0
0.764416 0.363607 0
0.798001 0.363821 0
0.831327 0.36379 0
0.864775 0.363714 0
0.898192 0.363653 0
0.931517 0.363607 0
0.964858 0.363592 0
0.998108 0.363882 0
0 0.396887 0
0 0.396963 0
0 0.397192 0
0.0298466 0.397147 0
0.0632792 0.397086 0
0.0967117 0.397009 0
0.130037 0.396979 0
0.163485 0.39707 0
0.196948 0.397162 0
0.230274 0.397131 0
0.263584 0.397086 0
0.29691 0.397055 0
0.330358 0.396979 0
0.363943 0.397086 0
0.39736 0.397147 0
0.430686 0.397101 0
0.464012 0.39707 0
0.497337 0.397024 0
0.530648 0.396979 0
0.564202 0.397177 0
0.597696 0.397147 0
0.631098 0.397086 0
0.664424 0.39704 0
0.697749 0.396994 0
0.731075 0.396963 0
0.76466 0.397192 0
0.797986 0.397147 0
0.831312 0.397116 0
0.864759 0.39704 0
0.898161 0.396979 0
0.931487 0.396933 0
0.965072 0.397162 0
0.998093 0.397208 0
0 0.430259 0
0 0.430549 0
0 0.430518 0
0.0298314 0.430472 0
0.0632639 0.430411 0
0.0966812 0.430335 0
0.130114 0.430396 0
0.163607 0.430533 0
0.196918 0.430488 0
0.230243 0.430442 0
0.263569 0.430411 0
0.296895 0.430365 0
0.33048 0.430457 0
0.364019 0.430503 0
0.397345 0.430457 0
0.430671 0.430426 0
0.463981 0.430381 0
0.497307 0.43035 0
0.530907 0.430579 0
0.564218 0.430533 0
0.597665 0.430457 0
0.631083 0.430396 0
0.664408 0.430365 0
0.697932 0.430518 0
0.731319 0.430549 0
0.764645 0.430518 0
0.797971 0.430472 0
0.831281 0.430442 0
0.864744 0.430365 0
0.89839 0.430549 0
0.931731 0.430533 0
0.965057 0.430488 0
0.998062 0.430533 0
0 0.463798 0
0 0.463874 0
0 0.463844 0
0.0298009 0.463798 0
0.0632334 0.463722 0
0.0969253 0.463935 0
0.130251 0.46389 0
0.163577 0.463859 0
0.196902 0.463813 0
0.230213 0.463767 0
0.263615 0.463813 0
0.297139 0.463966 0
0.330571 0.46389 0
0.363989 0.463828 0
0.397314 0.463783 0
0.43064 0.463752 0
0.464088 0.463844 0
0.497551 0.463935 0
0.530877 0.463905 0
0.564202 0.463859 0
0.59765 0.463783 0
0.631052 0.463722 0
0.664561 0.463859 0
0.697978 0.46392 0
0.731289 0.463874 0
0.764614 0.463844 0
0.79794 0.463798 0
0.831266 0.463752 0
0.864942 0.463905 0
0.89839 0.46389 0
0.931716 0.463859 0
0.965026 0.463813 0
0.998047 0.463859 0
0 0.497124 0
0 0.4972 0
0 0.497154 0
0.0297856 0.497124 0
0.0634775 0.497322 0
0.09691 0.497261 0
0.130236 0.497215 0
0.163561 0.497169 0
0.196872 0.497139 0
0.230259 0.497154 0
0.263798 0.497322 0
0.297108 0.497292 0
0.330556 0.497215 0
0.363973 0.497154 0
0.397299 0.497108 0
0.430716 0.497169 0
0.46421 0.497307 0
0.497536 0.497261 0
0.530846 0.497215 0
0.564172 0.497185 0
0.59762 0.497108 0
0.631296 0.497322 0
0.664622 0.497276 0
0.697948 0.49723 0
0.731273 0.4972 0
0.764599 0.497154 0
0.798062 0.497261 0
0.83151 0.497353 0
0.864958 0.497276 0
0.89836 0.497215 0
0.931685 0.497169 0
0.965011 0.497139 0
0.998215 0.497383 0
0 0.530449 0
0 0.530526 0
0 0.53048 0
0.0300298 0.530709 0
0.0634623 0.530648 0
0.0968948 0.530571 0
0.130205 0.530541 0
0.163531 0.530495 0
0.197131 0.530724 0
0.230442 0.530694 0
0.263767 0.530648 0
0.297093 0.530617 0
0.330526 0.530541 0
0.363973 0.53051 0
0.397543 0.530694 0
0.430869 0.530663 0
0.464195 0.530632 0
0.497505 0.530587 0
0.530831 0.530541 0
0.564233 0.530587 0
0.597864 0.530709 0
0.631281 0.530632 0
0.664607 0.530602 0
0.697932 0.530556 0
0.731258 0.530526 0
0.764706 0.530617 0
0.798169 0.530709 0
0.831495 0.530678 0
0.864942 0.530602 0
0.898344 0.530541 0
0.93167 0.530495 0
0.965164 0.530632 0
0.99826 0.53077 0
0 0.563775 0
0 0.56408 0
0 0.56408 0
0.0299992 0.564034 0
0.0634318 0.563973 0
0.0968643 0.563897 0
0.13019 0.563867 0
0.163775 0.564095 0
0.197101 0.56405 0
0.230426 0.564004 0
0.263737 0.563973 0
0.297063 0.563943 0
0.33051 0.563867 0
0.364187 0.564065 0
0.397513 0.564019 0
0.430838 0.563989 0
0.464164 0.563943 0
0.49749 0.563912 0
0.530861 0.563928 0
0.564401 0.564095 0
0.597848 0.564019 0
0.631251 0.563958 0
0.664576 0.563928 0
0.697902 0.563882 0
0.731502 0.564111 0
0.764813 0.56408 0
0.798138 0.564034 0
0.831464 0.564004 0
0.864912 0.563928 0
0.898421 0.563958 0
0.931914 0.564095 0
0.965225 0.56405 0
0.998245 0.564095 0
0 0.597375 0
0 0.597498 0
0 0.597467 0
0.0298161 0.597421 0
0.0632486 0.59736 0
0.0966659 0.597299 0
0.130266 0.597513 0
0.163592 0.597482 0
0.196902 0.597436 0
0.230228 0.597406 0
0.263554 0.59736 0
0.297124 0.597574 0
0.330587 0.597528 0
0.364004 0.597452 0
0.39733 0.597421 0
0.43064 0.597375 0
0.463966 0.597345 0
0.497566 0.597574 0
0.530877 0.597528 0
0.564202 0.597498 0
0.59765 0.597421 0
0.631067 0.59736 0
0.664424 0.597345 0
0.697978 0.597543 0
0.731304 0.597498 0
0.76463 0.597467 0
0.79794 0.597421 0
0.831266 0.597391 0
0.864805 0.597391 0
0.89839 0.597513 0
0.931716 0.597482 0
0.965042 0.597436 0
0.998047 0.597482 0
0 0.630762 0
0 0.630838 0
0 0.630808 0
0.0297551 0.630762 0
0.063386 0.630869 0
0.0968948 0.6309 0
0.130205 0.630854 0
0.163531 0.630808 0
0.196857 0.630777 0
0.230182 0.630732 0
0.263737 0.63093 0
0.297093 0.63093 0
0.330541 0.630854 0
0.363958 0.630793 0
0.397284 0.630747 0
0.430594 0.630716 0
0.464195 0.630945 0
0.497505 0.6309 0
0.530831 0.630869 0
0.564157 0.630823 0
0.597604 0.630747 0
0.631022 0.630701 0
0.664607 0.630915 0
0.697932 0.630869 0
0.731258 0.630838 0
0.764584 0.630793 0
0.797894 0.630762 0
0.831495 0.630991 0
0.864942 0.630915 0
0.898344 0.630854 0
0.93167 0.630808 0
0.964996 0.630777 0
0.998047 0.630869 0
0 0.664088 0
0 0.664164 0
0 0.664118 0
0.0298924 0.66424 0
0.063447 0.664286 0
0.0968643 0.66421 0
0.13019 0.664179 0
0.163516 0.664134 0
0.196841 0.664103 0
0.230426 0.664332 0
0.263752 0.664286 0
0.297078 0.664256 0
0.33051 0.664179 0
0.363928 0.664118 0
0.397467 0.664286 0
0.430854 0.664302 0
0.464164 0.664271 0
0.49749 0.664225 0
0.530816 0.664179 0
0.564141 0.664149 0
0.597833 0.664332 0
0.631266 0.664286 0
0.664591 0.66424 0
0.697902 0.664195 0
0.731228 0.664164 0
0.764553 0.664118 0
0.798138 0.664347 0
0.831464 0.664317 0
0.864927 0.66424 0
0.898329 0.664179 0
0.931655 0.664134 0
0.964996 0.664118 0
0.998245 0.664408 0
0 0.697414 0
0 0.697566 0
0 0.697719 0
0.029984 0.697673 0
0.0634165 0.697612 0
0.096849 0.697536 0
0.130175 0.69749 0
0.163622 0.697597 0
0.197086 0.697688 0
0.230411 0.697643 0
0.263722 0.697612 0
0.297047 0.697566 0
0.330495 0.697505 0
0.364096 0.697612 0
0.397498 0.697673 0
0.430823 0.697627 0
0.464149 0.697581 0
0.497475 0.697551 0
0.530785 0.697505 0
0.56434 0.697704 0
0.597833 0.697658 0
0.631235 0.697597 0
0.664561 0.697566 0
0.697887 0.69752 0
0.731212 0.69749 0
0.764797 0.697719 0
0.798123 0.697673 0
0.831449 0.697643 0
0.864897 0.697566 0
0.898299 0.697505 0
0.931899 0.697734 0
0.965209 0.697688 0
0.99823 0.697734 0
0 0.7308 0
0 0.731075 0
0 0.731044 0
0.0299535 0.730999 0
0.0634012 0.730922 0
0.0968185 0.730861 0
0.130251 0.730938 0
0.163729 0.73106 0
0.197055 0.731014 0
0.230381 0.730968 0
0.263706 0.730938 0
0.297032 0.730892 0
0.330739 0.73109 0
0.364157 0.731029 0
0.397482 0.730983 0
0.430793 0.730953 0
0.464118 0.730907 0
0.497597 0.731029 0
0.531029 0.731106 0
0.564355 0.73106 0
0.597803 0.730983 0
0.63122 0.730922 0
0.664546 0.730892 0
0.69807 0.731044 0
0.731456 0.731075 0
0.764782 0.731044 0
0.798093 0.730999 0
0.831418 0.730953 0
0.864881 0.730892 0
0.898528 0.731075 0
0.931868 0.73106 0
0.965194 0.731014 0
0.998199 0.73106 0
0 0.764324 0
0 0.764401 0
0 0.764355 0
0.0299382 0.764324 0
0.0634165 0.764294 0
0.0970626 0.764462 0
0.130388 0.764416 0
0.163714 0.76437 0
0.19704 0.76434 0
0.23035 0.764294 0
0.263767 0.76434 0
0.297276 0.764492 0
0.330709 0.764416 0
0.364126 0.764355 0
0.397452 0.764309 0
0.430777 0.764279 0
0.46424 0.76437 0
0.497688 0.764462 0
0.531014 0.764416 0
0.56434 0.764385 0
0.597787 0.764309 0
0.631189 0.764248 0
0.664698 0.764385 0
0.698116 0.764431 0
0.731426 0.764401 0
0.764752 0.764355 0
0.798077 0.764324 0
0.831403 0.764279 0
0.865125 0.764477 0
0.898528 0.764416 0
0.931853 0.76437 0
0.965179 0.76434 0
0.998184 0.764385 0
0 0.79765 0
0 0.797726 0
0 0.797681 0
0.0299229 0.79765 0
0.0636149 0.797848 0
0.0970474 0.797772 0
0.130373 0.797742 0
0.163699 0.797696 0
0.197009 0.797665 0
0.230396 0.797681 0
0.263935 0.797848 0
0.297246 0.797818 0
0.330694 0.797742 0
0.364111 0.797681 0
0.397436 0.797635 0
0.431022 0.797864 0
0.464347 0.797833 0
0.497673 0.797787 0
0.530999 0.797742 0
0.564309 0.797711 0
0.597864 0.797742 0
0.631434 0.797833 0
0.664759 0.797803 0
0.698085 0.797757 0
0.731411 0.797726 0
0.764736 0.797681 0
0.798215 0.797803 0
0.831647 0.797879 0
0.865095 0.797803 0
0.898497 0.797742 0
0.931823 0.797696 0
0.965148 0.797665 0
0.998352 0.797909 0
0 0.830976 0
0 0.831052 0
0 0.831266 0
0.0301518 0.831235 0
0.0635996 0.831174 0
0.0970169 0.831098 0
0.130343 0.831067 0
0.163668 0.831022 0
0.197253 0.83125 0
