public/LUTS/Darken/Darken_12.cube
TITLE "Generated by Resolve"
LUT_3D_SIZE 33
0 0 0
0.0222782 0 0
0.045243 0 0
0.0683757 0 0
0.0914168 0 0
0.114443 0 0
0.137392 0 0
0.160342 0 0
0.183322 0 0
0.206439 0 0
0.229404 0 0
0.252354 0 0
0.275395 0 0
0.298421 0 0
0.321416 0 0
0.344518 0 0
0.367468 0 0
0.390417 0 0
0.413382 0 0
0.436332 0 0
0.459556 0 0
0.482582 0 0
0.505531 0 0
0.528496 0 0
0.551446 0 0
0.574472 0 0
0.597543 0 0
0.620493 0 0
0.643534 0 0
0.66656 0 0
0.689509 0 0
0.712581 0 0
0.735393 0 0
0 0.0224613 0
0.0225376 0.0225223 0
0.0456703 0.0226749 9.15541e-05
0.0686198 0.0226444 6.10361e-05
0.0916609 0.0225986 1.5259e-05
0.114687 0.0225528 0
0.137636 0.0225223 0
0.160784 0.0226902 0.000106813
0.183734 0.0226596 7.62951e-05
0.206699 0.0226291 4.57771e-05
0.229648 0.0226139 1.5259e-05
0.252598 0.0225834 0
0.275639 0.0225376 0
0.298848 0.0226749 9.15541e-05
0.321798 0.0226444 6.10361e-05
0.344762 0.0226139 3.0518e-05
0.367712 0.0225986 0
0.390677 0.0225681 0
0.413657 0.0225681 0
0.436774 0.0226902 0.000106813
0.459815 0.0226444 6.10361e-05
0.482826 0.0225986 1.5259e-05
0.505776 0.0225681 0
0.52874 0.0225528 0
0.551766 0.0225834 0
0.574838 0.0226749 9.15541e-05
0.597787 0.0226444 6.10361e-05
0.620752 0.0226291 3.0518e-05
0.643793 0.0225681 0
0.666804 0.0225223 0
0.68986 0.0225986 1.5259e-05
0.712902 0.0226596 7.62951e-05
0.735637 0.0226902 0.000106813
0 0.0455634 0
0.0227054 0.045655 0.000106813
0.045655 0.0456397 7.62951e-05
0.0686046 0.0456092 4.57771e-05
0.0916457 0.0455634 0
0.114672 0.0455177 0
0.137789 0.045655 9.15541e-05
0.160769 0.0456397 7.62951e-05
0.183719 0.0456092 6.10361e-05
0.206683 0.045594 3.0518e-05
0.229633 0.0455634 0
0.252583 0.0455329 0
0.275807 0.0456703 0.000106813
0.298833 0.0456245 6.10361e-05
0.321782 0.045594 3.0518e-05
0.344747 0.0455787 1.5259e-05
0.367697 0.0455482 0
0.390677 0.0455329 0
0.413794 0.0456855 0.000122072
0.436759 0.045655 9.15541e-05
0.459785 0.045594 3.0518e-05
0.482811 0.0455634 0
0.50576 0.0455329 0
0.528908 0.0456855 0.000122072
0.551858 0.045655 0.000106813
0.574823 0.0456397 7.62951e-05
0.597772 0.0456092 4.57771e-05
0.620737 0.0455787 1.5259e-05
0.643824 0.0455787 1.5259e-05
0.666972 0.0456703 0.000106813
0.689921 0.0456397 7.62951e-05
0.712886 0.0456245 6.10361e-05
0.735622 0.045655 9.15541e-05
3.0518e-05 0.0685588 3.0518e-05
0.0226902 0.0686198 9.15541e-05
0.0456397 0.0685893 6.10361e-05
0.0685893 0.0685588 3.0518e-05
0.0916304 0.068513 0
0.114839 0.0686503 0.000122072
0.137789 0.0686198 9.15541e-05
0.160754 0.0686046 6.10361e-05
0.183703 0.068574 4.57771e-05
0.206668 0.0685435 1.5259e-05
0.22977 0.0686656 0.000137331
0.25275 0.0686809 0.000137331
0.275792 0.0686351 9.15541e-05
0.298817 0.0685893 4.57771e-05
0.321767 0.0685588 1.5259e-05
0.344732 0.0685283 0
0.367864 0.0686961 0.00015259
0.390829 0.0686656 0.000122072
0.413779 0.0686351 0.000106813
0.436744 0.0686046 7.62951e-05
0.45977 0.0685588 1.5259e-05
0.482795 0.068513 0
0.505928 0.0686656 0.000137331
0.528893 0.0686503 0.000106813
0.551843 0.0686198 9.15541e-05
0.574807 0.0685893 6.10361e-05
0.597757 0.0685588 3.0518e-05
0.620752 0.068574 3.0518e-05
0.643946 0.0686656 0.000137331
0.666957 0.0686351 9.15541e-05
0.689906 0.0686046 6.10361e-05
0.712871 0.068574 4.57771e-05
0.735607 0.0686046 7.62951e-05
0 0.0915541 0
0.0225834 0.0915999 0
0.0455482 0.0915847 0
0.0686046 0.0916457 4.57771e-05
0.091722 0.0916915 7.62951e-05
0.114748 0.0916457 3.0518e-05
0.137697 0.0916152 0
0.160662 0.0915847 0
0.183612 0.0915541 0
0.206699 0.0916762 6.10361e-05
0.229709 0.0916915 7.62951e-05
0.252659 0.0916609 4.57771e-05
0.2757 0.0916152 0
0.298726 0.0915694 0
0.321675 0.0915389 0
0.344808 0.0916915 7.62951e-05
0.367773 0.0916762 6.10361e-05
0.390738 0.0916457 3.0518e-05
0.413687 0.0916152 0
0.436637 0.0915999 0
0.459678 0.0915389 0
0.482887 0.0916915 7.62951e-05
0.505837 0.0916609 4.57771e-05
0.528801 0.0916304 1.5259e-05
0.551751 0.0915999 0
0.574701 0.0915694 0
0.597848 0.0917372 0.000122072
0.620813 0.0917067 9.15541e-05
0.643854 0.0916609 4.57771e-05
0.666865 0.0916152 0
0.689815 0.0915847 0
0.712779 0.0915694 0
0.735698 0.091783 0.000167849
0 0.114534 0
0.0225223 0.11458 0
0.0455634 0.114641 0
0.0686198 0.114717 4.57771e-05
0.0916457 0.114672 0
0.114672 0.114626 0
0.137636 0.114595 0
0.160586 0.114565 0
0.183734 0.114733 6.10361e-05
0.206683 0.114702 3.0518e-05
0.229633 0.114672 0
0.252598 0.114641 0
0.275624 0.114595 0
0.298772 0.114672 0
0.321798 0.114702 4.57771e-05
0.344747 0.114687 1.5259e-05
0.367712 0.114656 0
0.390661 0.114626 0
0.413611 0.114595 0
0.436728 0.114717 6.10361e-05
0.4598 0.114702 4.57771e-05
0.482811 0.114672 0
0.505776 0.114641 0
0.528725 0.114611 0
0.55169 0.11458 0
0.574823 0.114733 7.62951e-05
0.597772 0.114717 4.57771e-05
0.620737 0.114687 3.0518e-05
0.643778 0.114641 0
0.666789 0.114595 0
0.689754 0.114565 0
0.712886 0.114717 6.10361e-05
0.735622 0.114763 9.15541e-05
0 0.137514 0
0.0226902 0.137728 9.15541e-05
0.0456397 0.137697 6.10361e-05
0.0686046 0.137667 3.0518e-05
0.0916304 0.137621 0
0.114656 0.137575 0
0.137682 0.137621 0
0.160754 0.137713 7.62951e-05
0.183719 0.137682 4.57771e-05
0.206668 0.137652 1.5259e-05
0.229618 0.137621 0
0.252583 0.137591 0
0.275715 0.137652 1.5259e-05
0.298817 0.137697 6.10361e-05
0.321782 0.137667 3.0518e-05
0.344732 0.137636 0
0.367697 0.137606 0
0.390646 0.137575 0
0.413733 0.137697 6.10361e-05
0.436744 0.137713 7.62951e-05
0.459785 0.137667 3.0518e-05
0.482795 0.137621 0
0.50576 0.137591 0
0.52871 0.13756 0
0.551858 0.137728 9.15541e-05
0.574807 0.137697 6.10361e-05
0.597757 0.137667 3.0518e-05
0.620722 0.137636 1.5259e-05
0.643763 0.137591 0
0.666941 0.137713 7.62951e-05
0.689921 0.137713 7.62951e-05
0.712871 0.137682 4.57771e-05
0.735607 0.137713 7.62951e-05
1.5259e-05 0.160632 1.5259e-05
0.0226749 0.160678 7.62951e-05
0.0456245 0.160647 4.57771e-05
0.0685893 0.160632 1.5259e-05
0.0916152 0.160571 0
0.114702 0.160586 0
0.137789 0.160693 7.62951e-05
0.160739 0.160662 6.10361e-05
0.183703 0.160632 3.0518e-05
0.206653 0.160601 0
0.229603 0.160586 0
0.25275 0.160739 0.000137331
0.275792 0.160693 9.15541e-05
0.298802 0.160647 4.57771e-05
0.321767 0.160616 1.5259e-05
0.344717 0.160586 0
0.367758 0.160647 4.57771e-05
0.390814 0.160723 0.000122072
0.413764 0.160693 9.15541e-05
0.436728 0.160678 6.10361e-05
0.45977 0.160616 1.5259e-05
0.48278 0.160571 0
0.505852 0.160662 6.10361e-05
0.528878 0.160708 0.000106813
0.551843 0.160678 7.62951e-05
0.574792 0.160647 4.57771e-05
0.597742 0.160632 1.5259e-05
0.620706 0.160601 0
0.6439 0.160693 9.15541e-05
0.666941 0.160693 9.15541e-05
0.689906 0.160662 6.10361e-05
0.712856 0.160632 3.0518e-05
0.735592 0.160662 6.10361e-05
0 0.183581 0
0.0226596 0.183642 6.10361e-05
0.0456092 0.183612 3.0518e-05
0.068574 0.183581 0
0.091783 0.183719 0.000137331
0.114809 0.183673 9.15541e-05
0.137774 0.183642 6.10361e-05
0.160723 0.183627 4.57771e-05
0.183673 0.183597 1.5259e-05
0.206668 0.183597 1.5259e-05
0.22977 0.183719 0.000137331
0.252735 0.183688 0.000122072
0.275761 0.183642 6.10361e-05
0.298787 0.183597 3.0518e-05
0.321752 0.183581 0
0.344762 0.183612 3.0518e-05
0.367849 0.183703 0.000122072
0.390799 0.183673 9.15541e-05
0.413748 0.183658 7.62951e-05
0.436713 0.183627 4.57771e-05
0.459754 0.183581 0
0.482872 0.183627 6.10361e-05
0.505913 0.183688 0.000106813
0.528862 0.183658 7.62951e-05
0.551827 0.183642 6.10361e-05
0.574777 0.183612 3.0518e-05
0.597726 0.183581 0
0.620874 0.183734 0.000167849
0.643915 0.183688 0.000106813
0.666926 0.183642 6.10361e-05
0.689891 0.183627 4.57771e-05
0.71284 0.183597 1.5259e-05
0.735714 0.183749 0.000183108
0 0.206546 0
0.0226444 0.206592 4.57771e-05
0.045594 0.206561 1.5259e-05
0.0687419 0.206729 0.000167849
0.0917678 0.206668 0.000122072
0.114794 0.206638 7.62951e-05
0.137758 0.206607 4.57771e-05
0.160708 0.206577 3.0518e-05
0.183688 0.206561 1.5259e-05
0.206806 0.206699 0.00015259
0.229755 0.206683 0.000122072
0.25272 0.206653 0.000106813
0.275746 0.206607 4.57771e-05
0.298772 0.206561 1.5259e-05
0.32192 0.206714 0.000167849
0.344869 0.206683 0.000137331
0.367834 0.206668 0.000106813
0.390784 0.206638 9.15541e-05
0.413733 0.206607 6.10361e-05
0.436744 0.206638 7.62951e-05
0.459922 0.206714 0.000167849
0.482933 0.206668 0.000122072
0.505898 0.206653 9.15541e-05
0.528847 0.206622 6.10361e-05
0.551812 0.206592 4.57771e-05
0.574838 0.206653 9.15541e-05
0.597894 0.206729 0.000167849
0.620859 0.206699 0.00015259
0.6439 0.206638 9.15541e-05
0.666911 0.206607 4.57771e-05
0.689876 0.206577 3.0518e-05
0.712947 0.206668 0.000106813
0.735744 0.20676 0.000213626
0 0.229496 0
0.0227817 0.229709 0.000183108
0.0457618 0.229709 0.000183108
0.0687266 0.229679 0.00015259
0.0917525 0.229633 0.000106813
0.114778 0.229587 6.10361e-05
0.137728 0.229557 3.0518e-05
0.160876 0.229725 0.000198367
0.183841 0.229694 0.000167849
0.20679 0.229664 0.000137331
0.22974 0.229633 0.000106813
0.252705 0.229603 7.62951e-05
0.275731 0.229557 3.0518e-05
0.298939 0.229694 0.000183108
0.321904 0.229679 0.00015259
0.344854 0.229648 0.000122072
0.367803 0.229618 9.15541e-05
0.390768 0.229587 6.10361e-05
0.413748 0.229603 7.62951e-05
0.436866 0.229725 0.000198367
0.459907 0.229679 0.00015259
0.482918 0.229633 0.000106813
0.505882 0.229603 7.62951e-05
0.528832 0.229572 4.57771e-05
0.551858 0.229618 9.15541e-05
0.574929 0.229709 0.000183108
0.597879 0.229679 0.00015259
0.620844 0.229648 0.000122072
0.643885 0.229603 7.62951e-05
0.666896 0.229557 3.0518e-05
0.690044 0.229725 0.000198367
0.712993 0.229694 0.000167849
0.735729 0.229725 0.000198367
9.15541e-05 0.252598 9.15541e-05
0.022797 0.252689 0.000198367
0.0457465 0.252659 0.000167849
0.0687114 0.252628 0.000137331
0.0917372 0.252583 9.15541e-05
0.114763 0.252537 4.57771e-05
0.137896 0.252689 0.000198367
0.160861 0.252674 0.000183108
0.183825 0.252644 0.00015259
0.206775 0.252613 0.000122072
0.229725 0.252598 9.15541e-05
0.252689 0.252567 6.10361e-05
0.275898 0.252705 0.000198367
0.298924 0.252659 0.000167849
0.321889 0.252628 0.000137331
0.344839 0.252598 0.000106813
0.367788 0.252583 7.62951e-05
0.390936 0.252735 0.000244144
0.413886 0.252705 0.000213626
0.436851 0.252674 0.000183108
0.459892 0.252628 0.000137331
0.482902 0.252583 9.15541e-05
0.505882 0.252583 7.62951e-05
0.529 0.25272 0.000213626
0.551965 0.252689 0.000198367
0.574914 0.252659 0.000167849
0.597864 0.252628 0.000137331
0.620829 0.252613 0.000106813
0.643915 0.252598 0.000106813
0.667063 0.252705 0.000198367
0.690028 0.252674 0.000183108
0.712978 0.252644 0.00015259
0.735714 0.252674 0.000183108
3.0518e-05 0.275639 3.0518e-05
0.0226749 0.275685 7.62951e-05
0.0456397 0.275654 6.10361e-05
0.0685893 0.275624 3.0518e-05
0.0917525 0.2757 0.000106813
0.114839 0.275715 0.000122072
0.137789 0.2757 9.15541e-05
0.160754 0.275669 6.10361e-05
0.183703 0.275639 4.57771e-05
0.206653 0.275608 1.5259e-05
0.22977 0.275746 0.000137331
0.25275 0.275746 0.000137331
0.275792 0.2757 9.15541e-05
0.298817 0.275654 4.57771e-05
0.321767 0.275624 1.5259e-05
0.344732 0.275593 0
0.367864 0.275761 0.00015259
0.390829 0.275731 0.000122072
0.413779 0.2757 9.15541e-05
0.436728 0.275669 7.62951e-05
0.45977 0.275624 1.5259e-05
0.482795 0.275578 0
0.505928 0.275746 0.000137331
0.528893 0.275715 0.000106813
0.551843 0.275685 7.62951e-05
0.574807 0.275654 6.10361e-05
0.597757 0.275624 3.0518e-05
0.620752 0.275639 3.0518e-05
0.643946 0.275731 0.000137331
0.666957 0.2757 9.15541e-05
0.689906 0.275669 6.10361e-05
0.712871 0.275639 3.0518e-05
0.735607 0.275669 7.62951e-05
0 0.298604 0
0.0226291 0.29865 3.0518e-05
0.0455787 0.298634 0
0.0686503 0.298711 7.62951e-05
0.0917525 0.298741 0.000106813
0.114794 0.298695 6.10361e-05
0.137743 0.298665 4.57771e-05
0.160693 0.298634 1.5259e-05
0.183658 0.298619 0
0.206744 0.298726 9.15541e-05
0.229755 0.298741 0.000122072
0.252705 0.298711 9.15541e-05
0.275746 0.298665 4.57771e-05
0.298756 0.298619 0
0.321721 0.298589 0
0.344854 0.298756 0.000122072
0.367819 0.298726 0.000106813
0.390768 0.298695 7.62951e-05
0.413733 0.298665 4.57771e-05
0.436683 0.29865 1.5259e-05
0.459892 0.298756 0.000137331
0.482918 0.298741 0.000106813
0.505882 0.298711 9.15541e-05
0.528832 0.29868 6.10361e-05
0.551797 0.29865 3.0518e-05
0.574746 0.298634 0
0.597894 0.298787 0.00015259
0.620844 0.298756 0.000137331
0.643885 0.298711 7.62951e-05
0.666896 0.298665 4.57771e-05
0.68986 0.298634 1.5259e-05
0.712825 0.298619 0
0.735729 0.298833 0.000198367
0 0.321553 0
0.0226139 0.321614 1.5259e-05
0.0457618 0.321767 0.000167849
0.0687114 0.321736 0.000137331
0.0917372 0.321691 9.15541e-05
0.114778 0.321645 4.57771e-05
0.137728 0.321614 3.0518e-05
0.160769 0.321675 9.15541e-05
0.183825 0.321752 0.00015259
0.206775 0.321721 0.000122072
0.22974 0.321691 0.000106813
0.252689 0.321675 7.62951e-05
0.275731 0.321614 3.0518e-05
0.298863 0.321706 0.000106813
0.321889 0.321736 0.000137331
0.344839 0.321706 0.000106813
0.367803 0.321675 9.15541e-05
0.390753 0.32166 6.10361e-05
0.413718 0.32163 3.0518e-05
0.43682 0.321752 0.00015259
0.459892 0.321736 0.000137331
0.482902 0.321691 9.15541e-05
0.505867 0.32166 7.62951e-05
0.528817 0.32163 4.57771e-05
0.551781 0.321614 1.5259e-05
0.574914 0.321767 0.000167849
0.597879 0.321736 0.000137331
0.620829 0.321721 0.000122072
0.64387 0.32166 6.10361e-05
0.66688 0.321614 3.0518e-05
0.689845 0.321599 0
0.712978 0.321752 0.00015259
0.735714 0.321782 0.000183108
0 0.344549 0
0.0227817 0.344747 0.000183108
0.0457465 0.344732 0.00015259
0.0686961 0.344701 0.000122072
0.091722 0.344656 7.62951e-05
0.114763 0.34461 3.0518e-05
0.137789 0.344656 7.62951e-05
0.160845 0.344732 0.000167849
0.18381 0.344717 0.000137331
0.20676 0.344686 0.000106813
0.229725 0.344656 9.15541e-05
0.252674 0.344625 6.10361e-05
0.275822 0.344686 0.000122072
0.298909 0.344717 0.00015259
0.321874 0.344686 0.000122072
0.344823 0.344671 9.15541e-05
0.367788 0.34464 7.62951e-05
0.390738 0.34461 4.57771e-05
0.413886 0.344762 0.000198367
0.436835 0.344747 0.000167849
0.459876 0.344686 0.000122072
0.482887 0.34464 7.62951e-05
0.505852 0.344625 6.10361e-05
0.528939 0.344732 0.000167849
0.551949 0.344747 0.000183108
0.574899 0.344732 0.00015259
0.597864 0.344701 0.000122072
0.620813 0.344671 0.000106813
0.643854 0.344625 4.57771e-05
0.667048 0.344747 0.000183108
0.690013 0.344732 0.000167849
0.712963 0.344701 0.000137331
0.735698 0.344732 0.000167849
0.000122072 0.367651 0.000122072
0.0227665 0.367712 0.000167849
0.045716 0.367681 0.000137331
0.0686809 0.367651 0.000106813
0.0917067 0.367605 6.10361e-05
0.114931 0.367742 0.000198367
0.137881 0.367712 0.000183108
0.16083 0.367697 0.00015259
0.183795 0.367666 0.000122072
0.206744 0.367636 9.15541e-05
0.229755 0.367666 0.000122072
0.252842 0.367773 0.000228885
0.275883 0.367712 0.000183108
0.298894 0.367681 0.000137331
0.321859 0.367651 0.000106813
0.344808 0.36762 7.62951e-05
0.367849 0.367681 0.000137331
0.390906 0.367758 0.000213626
0.41387 0.367727 0.000183108
0.43682 0.367697 0.00015259
0.459861 0.367651 0.000106813
0.482872 0.367605 6.10361e-05
0.505959 0.367697 0.00015259
0.528969 0.367727 0.000198367
0.551934 0.367712 0.000167849
0.574884 0.367681 0.000137331
0.597833 0.367651 0.000106813
0.620798 0.36762 9.15541e-05
0.643992 0.367727 0.000183108
0.667033 0.367712 0.000183108
0.689998 0.367697 0.00015259
0.712947 0.367666 0.000122072
0.735683 0.367697 0.00015259
0.000106813 0.390616 0.000106813
0.0227512 0.390661 0.00015259
0.045716 0.390631 0.000122072
0.0686656 0.390616 0.000106813
0.0918746 0.390753 0.000228885
0.114916 0.390707 0.000183108
0.137865 0.390677 0.000167849
0.160815 0.390646 0.000137331
0.18378 0.390616 0.000106813
0.206775 0.390631 0.000122072
0.229877 0.390753 0.000244144
0.252827 0.390723 0.000213626
0.275868 0.390677 0.000167849
0.298878 0.390631 0.000122072
0.321843 0.3906 9.15541e-05
0.344869 0.390646 0.000137331
0.367941 0.390738 0.000228885
0.39089 0.390707 0.000198367
0.413855 0.390677 0.000167849
0.436805 0.390661 0.000137331
0.459846 0.3906 9.15541e-05
0.48304 0.390738 0.000228885
0.506004 0.390723 0.000213626
0.528954 0.390692 0.000183108
0.551919 0.390661 0.00015259
0.574868 0.390631 0.000122072
0.597925 0.390707 0.000198367
0.620966 0.390768 0.000259403
0.644007 0.390723 0.000198367
0.667018 0.390677 0.000167849
0.689982 0.390646 0.000137331
0.712932 0.390616 0.000106813
0.735805 0.390784 0.000274662
9.15541e-05 0.413565 9.15541e-05
0.0227359 0.413626 0.000137331
0.0457008 0.413596 0.000106813
0.0688334 0.413748 0.000259403
0.0918593 0.413703 0.000213626
0.1149 0.413657 0.000167849
0.13785 0.413626 0.00015259
0.1608 0.413596 0.000122072
0.183948 0.413764 0.000274662
0.206897 0.413733 0.000244144
0.229862 0.413703 0.000228885
0.252811 0.413687 0.000198367
0.275853 0.413626 0.00015259
0.298894 0.413611 0.000122072
0.322011 0.413748 0.000259403
0.344961 0.413718 0.000228885
0.367926 0.413687 0.000213626
0.390875 0.413657 0.000183108
0.41384 0.413642 0.00015259
0.436851 0.413657 0.000183108
0.460014 0.413748 0.000259403
0.483024 0.413703 0.000213626
0.505989 0.413672 0.000198367
0.528939 0.413642 0.000167849
0.551904 0.413626 0.000137331
0.574945 0.413687 0.000198367
0.598001 0.413748 0.000259403
0.620951 0.413718 0.000244144
0.643992 0.413672 0.000183108
0.667002 0.413626 0.00015259
0.689967 0.413611 0.000122072
0.713039 0.413703 0.000213626
0.735851 0.413794 0.00030518
6.10361e-05 0.43653 6.10361e-05
0.0228733 0.436744 0.000274662
0.0458686 0.436728 0.000274662
0.0688182 0.436713 0.000244144
0.0918441 0.436652 0.000198367
0.11487 0.436622 0.00015259
0.137835 0.436591 0.000122072
0.160967 0.436744 0.000289921
0.183932 0.436713 0.000259403
0.206882 0.436683 0.000228885
0.229831 0.436667 0.000213626
0.252796 0.436637 0.000183108
0.275837 0.436591 0.000137331
0.299031 0.436728 0.000274662
0.321996 0.436698 0.000244144
0.344945 0.436667 0.000213626
0.36791 0.436652 0.000183108
0.39086 0.436622 0.000167849
0.413855 0.436637 0.000167849
0.436957 0.436759 0.000289921
0.459998 0.436698 0.000244144
0.483009 0.436652 0.000198367
0.505974 0.436637 0.000167849
0.528923 0.436606 0.00015259
0.552071 0.436759 0.00030518
0.575021 0.436728 0.000274662
0.597986 0.436713 0.000244144
0.620935 0.436683 0.000228885
0.643977 0.436637 0.000167849
0.667063 0.436652 0.000198367
0.690135 0.436744 0.000289921
0.713085 0.436713 0.000259403
0.735821 0.436744 0.000289921
7.62951e-05 0.459663 7.62951e-05
0.0227665 0.45977 0.000167849
0.0457313 0.459739 0.00015259
0.0686809 0.459709 0.000122072
0.091722 0.459663 7.62951e-05
0.114748 0.459617 3.0518e-05
0.137881 0.45977 0.000183108
0.160845 0.459754 0.00015259
0.183795 0.459724 0.000137331
0.206744 0.459693 0.000106813
0.229709 0.459663 7.62951e-05
0.252842 0.459815 0.000228885
0.275883 0.45977 0.000183108
0.298909 0.459724 0.000137331
0.321859 0.459709 0.000106813
0.344823 0.459678 9.15541e-05
0.367773 0.459648 6.10361e-05
0.390906 0.4598 0.000213626
0.41387 0.459785 0.000183108
0.43682 0.459754 0.000167849
0.459861 0.459709 0.000106813
0.482887 0.459663 7.62951e-05
0.505852 0.459648 6.10361e-05
0.528984 0.459785 0.000198367
0.551934 0.45977 0.000167849
0.574899 0.459739 0.00015259
0.597848 0.459709 0.000122072
0.620798 0.459678 9.15541e-05
0.6439 0.459678 9.15541e-05
0.667048 0.45977 0.000183108
0.689998 0.459754 0.00015259
0.712947 0.459724 0.000122072
0.735698 0.459754 0.000167849
9.15541e-05 0.482673 9.15541e-05
0.0227359 0.482719 0.000137331
0.0457008 0.482704 0.000106813
0.0686503 0.482673 9.15541e-05
0.0918135 0.48275 0.000167849
0.1149 0.482765 0.000183108
0.13785 0.482734 0.00015259
0.1608 0.482704 0.000122072
0.183764 0.482689 9.15541e-05
0.206714 0.482658 6.10361e-05
0.229831 0.482795 0.000198367
0.252811 0.482795 0.000198367
0.275853 0.482734 0.00015259
0.298878 0.482689 0.000106813
0.321828 0.482673 7.62951e-05
0.344778 0.482643 4.57771e-05
0.367926 0.482795 0.000213626
0.390875 0.482765 0.000183108
0.41384 0.48275 0.00015259
0.43679 0.482719 0.000137331
0.459831 0.482658 7.62951e-05
0.482856 0.482628 4.57771e-05
0.505989 0.48278 0.000198367
0.528954 0.48275 0.000167849
0.551904 0.482719 0.000137331
0.574853 0.482704 0.000106813
0.597818 0.482673 9.15541e-05
0.620951 0.482826 0.000244144
0.644007 0.48278 0.000198367
0.667018 0.482734 0.00015259
0.689967 0.482704 0.000122072
0.712917 0.482689 9.15541e-05
0.735698 0.48275 0.000167849
7.62951e-05 0.505623 7.62951e-05
0.0227207 0.505684 0.000122072
0.0456855 0.505653 9.15541e-05
0.0687419 0.505745 0.000183108
0.0918593 0.50576 0.000213626
0.114885 0.505714 0.000167849
0.137835 0.505699 0.000137331
0.160784 0.505669 0.000106813
0.183749 0.505638 7.62951e-05
0.206882 0.505791 0.000244144
0.229847 0.505776 0.000213626
0.252796 0.505745 0.000183108
0.275837 0.505699 0.000137331
0.298863 0.505653 9.15541e-05
0.32195 0.50576 0.000198367
0.344961 0.505776 0.000228885
0.36791 0.50576 0.000198367
0.39086 0.50573 0.000167849
0.413825 0.505699 0.000137331
0.436774 0.505669 0.000122072
0.459998 0.505791 0.000244144
0.483024 0.50576 0.000198367
0.505974 0.505745 0.000183108
0.528939 0.505714 0.00015259
0.551888 0.505684 0.000122072
0.574838 0.505653 9.15541e-05
0.597986 0.505806 0.000259403
0.620935 0.505791 0.000228885
0.643992 0.50573 0.000183108
0.667002 0.505699 0.000137331
0.689952 0.505669 0.000106813
0.712932 0.505653 9.15541e-05
0.735836 0.505852 0.000289921
6.10361e-05 0.528588 6.10361e-05
0.0227665 0.528695 0.000167849
0.0458534 0.528801 0.000274662
0.0688029 0.528771 0.000244144
0.0918441 0.528725 0.000198367
0.11487 0.528679 0.00015259
0.137819 0.528649 0.000122072
0.160876 0.52871 0.000183108
0.183917 0.528786 0.000259403
0.206867 0.528756 0.000228885
0.229831 0.528725 0.000198367
0.252781 0.528695 0.000167849
0.275822 0.528649 0.000122072
0.29897 0.528725 0.000198367
0.321981 0.528771 0.000228885
0.344945 0.52874 0.000213626
0.367895 0.52871 0.000183108
0.390845 0.528679 0.00015259
0.413809 0.528649 0.000122072
0.436927 0.528786 0.000259403
0.459983 0.528756 0.000228885
0.483009 0.528725 0.000183108
0.505959 0.528695 0.000167849
0.528923 0.528664 0.000137331
0.551873 0.528634 0.000106813
0.575021 0.528801 0.000274662
0.597971 0.528771 0.000244144
0.62092 0.52874 0.000213626
0.643977 0.528695 0.000167849
0.666987 0.528649 0.000122072
0.69012 0.528801 0.000274662
0.713069 0.528786 0.000244144
0.735821 0.528817 0.000274662
7.62951e-05 0.551583 7.62951e-05
0.0228733 0.551781 0.000274662
0.0458381 0.551751 0.000244144
0.0687877 0.55172 0.000228885
0.0918288 0.551675 0.000167849
0.114855 0.551629 0.000137331
0.137881 0.551675 0.000183108
0.160937 0.551766 0.000259403
0.183902 0.551736 0.000228885
0.206851 0.551705 0.000198367
0.229816 0.55169 0.000183108
0.252766 0.551659 0.00015259
0.27599 0.551797 0.000289921
0.299016 0.551751 0.000244144
0.321965 0.55172 0.000213626
0.344915 0.55169 0.000183108
0.36788 0.551659 0.000167849
0.390936 0.551751 0.000244144
0.413977 0.551797 0.000289921
0.436927 0.551766 0.000274662
0.459968 0.55172 0.000213626
0.482994 0.551675 0.000167849
0.505943 0.551644 0.00015259
0.529046 0.551766 0.000259403
0.552041 0.551781 0.000274662
0.57499 0.551751 0.000244144
0.597955 0.55172 0.000228885
0.620905 0.551705 0.000198367
0.643946 0.551644 0.00015259
0.66714 0.551781 0.000274662
0.690105 0.551766 0.000259403
0.713069 0.551736 0.000228885
0.735805 0.551766 0.000259403
0.000213626 0.574685 0.000213626
0.022858 0.574731 0.000259403
0.0458228 0.574716 0.000228885
0.0687724 0.574685 0.000213626
0.0918288 0.574655 0.000183108
0.115023 0.574777 0.00030518
0.137972 0.574746 0.000274662
0.160937 0.574716 0.000244144
0.183886 0.574701 0.000213626
0.206836 0.57467 0.000183108
0.229847 0.574701 0.000228885
0.252934 0.574792 0.000320439
0.275975 0.574746 0.000274662
0.299001 0.574701 0.000228885
0.32195 0.57467 0.000198367
0.3449 0.574655 0.000167849
0.367956 0.574716 0.000244144
0.390997 0.574777 0.00030518
0.413962 0.574746 0.000274662
0.436912 0.574731 0.000259403
0.459953 0.57467 0.000198367
0.482979 0.574639 0.00015259
0.50605 0.574731 0.000259403
0.529076 0.574762 0.000289921
0.552026 0.574731 0.000259403
0.574975 0.574716 0.000228885
0.59794 0.574685 0.000213626
0.62089 0.574655 0.000183108
0.644129 0.574792 0.000320439
0.66714 0.574746 0.000274662
