public/LUTS/Darken/Darken_08.cube
TITLE "Generated by Resolve"
LUT_3D_SIZE 9
0 0 0
0.114275 0 0
0.229175 0 0
0.344274 0 0
0.459373 0 0
0.574502 0 0
0.689372 0 0
0.804501 0 0
0.919326 0 0
0 0.114458 0
0.114656 0.114626 9.15541e-05
0.229541 0.114458 0
0.344656 0.114534 0
0.45977 0.114611 7.62951e-05
0.574655 0.114443 0
0.689769 0.114519 0
0.804898 0.11458 4.57771e-05
0.919722 0.114733 0.000198367
0 0.229496 0
0.114748 0.229679 0.000167849
0.229618 0.229511 1.5259e-05
0.344747 0.229587 9.15541e-05
0.459846 0.229664 0.00015259
0.574746 0.229496 0
0.689845 0.229572 7.62951e-05
0.804974 0.229633 0.000137331
0.919738 0.229725 0.000213626
3.0518e-05 0.344579 3.0518e-05
0.114702 0.344671 0.000122072
0.229648 0.344579 4.57771e-05
0.344778 0.344656 0.000122072
0.459876 0.344732 0.000198367
0.574777 0.344564 3.0518e-05
0.689876 0.34464 0.000106813
0.805005 0.344701 0.000167849
0.9196 0.344625 9.15541e-05
0.000137331 0.459617 0.000137331
0.114656 0.459556 7.62951e-05
0.229755 0.459632 0.00015259
0.344884 0.459693 0.000228885
0.459861 0.459648 0.000183108
0.574884 0.459602 0.000137331
0.689982 0.459678 0.000213626
0.805081 0.459709 0.000244144
0.919707 0.459663 0.000198367
9.15541e-05 0.574639 9.15541e-05
0.114656 0.574639 9.15541e-05
0.22977 0.574716 0.000167849
0.344884 0.574777 0.000228885
0.45977 0.574624 7.62951e-05
0.574884 0.574685 0.000137331
0.689998 0.574762 0.000213626
0.804959 0.57467 0.000122072
0.919707 0.574746 0.000198367
0.000106813 0.689555 0.000106813
0.114794 0.689662 0.000213626
0.229892 0.689738 0.000289921
0.345022 0.689815 0.000366217
0.459892 0.689647 0.000198367
0.575021 0.689723 0.000274662
0.69012 0.689799 0.000350958
0.80502 0.689632 0.000183108
0.919844 0.689784 0.000335698
3.0518e-05 0.804593 3.0518e-05
0.114778 0.804761 0.000213626
0.229892 0.804837 0.000274662
0.344793 0.804669 0.000122072
0.459876 0.804746 0.000198367
0.575006 0.804807 0.000259403
0.690105 0.804883 0.000335698
0.805005 0.804715 0.000167849
0.919829 0.804868 0.000320439
0.000183108 0.919615 0.000183108
0.114931 0.919783 0.000366217
0.230045 0.91986 0.000427253
0.34493 0.919692 0.000274662
0.460029 0.919768 0.000350958
0.575158 0.919829 0.000411994
0.690227 0.919875 0.000457771
0.805158 0.919738 0.000320439
0.919982 0.91989 0.00047303
0 0 0.114549
0.114305 0 0.114717
0.229191 0 0.114565
0.344305 0 0.114626
0.459403 0 0.114702
0.57435 0 0.114595
0.689403 0 0.114611
0.804547 0 0.114687
0.919249 0 0.114733
0 0.114488 0.114946
0.11458 0.114534 0.114992
0.229572 0.114488 0.114946
0.344701 0.114565 0.115023
0.4598 0.114641 0.115099
0.574701 0.114473 0.114931
0.689799 0.114549 0.115007
0.804929 0.114611 0.115068
0.919524 0.114534 0.114992
4.57771e-05 0.229541 0.115023
0.114549 0.22948 0.114961
0.229648 0.229541 0.115038
0.344778 0.229618 0.115099
0.459876 0.229694 0.115175
0.574777 0.229526 0.115007
0.689876 0.229603 0.115084
0.805005 0.229664 0.11516
0.9196 0.229587 0.115068
7.62951e-05 0.34461 0.115053
0.11458 0.344549 0.114992
0.229679 0.34461 0.115068
0.344808 0.344686 0.115129
0.459678 0.344533 0.114977
0.574807 0.344594 0.115038
0.689906 0.344671 0.115114
0.805035 0.344732 0.11519
0.919631 0.344656 0.115099
0.000183108 0.459648 0.11516
0.114687 0.459586 0.115099
0.229786 0.459663 0.115175
0.344915 0.459724 0.115236
0.459785 0.459571 0.115084
0.574914 0.459632 0.115145
0.690013 0.459709 0.115221
0.805051 0.459678 0.11519
0.919738 0.459693 0.115206
7.62951e-05 0.574624 0.115068
0.114687 0.57467 0.115114
0.229801 0.574746 0.115175
0.3449 0.574792 0.115221
0.4598 0.574655 0.115084
0.574929 0.574716 0.11516
0.690028 0.574792 0.115236
0.804929 0.574624 0.115068
0.919738 0.574777 0.115221
7.62951e-05 0.689525 0.115068
0.114824 0.689708 0.115236
0.229923 0.689769 0.115312
0.3449 0.689693 0.115236
0.459922 0.689677 0.115221
0.575051 0.689754 0.115282
0.690089 0.689754 0.115297
0.805051 0.689662 0.11519
0.919875 0.689815 0.115343
7.62951e-05 0.804623 0.115053
0.114809 0.804791 0.115221
0.229923 0.804868 0.115297
0.344808 0.8047 0.115129
0.459907 0.804776 0.115206
0.575036 0.804837 0.115282
0.689952 0.80473 0.11516
0.805035 0.804746 0.11519
0.91986 0.804898 0.115343
0.000228885 0.919646 0.115206
0.114961 0.919814 0.115373
0.230076 0.91989 0.11545
0.344961 0.919722 0.115282
0.46006 0.919799 0.115358
0.575189 0.91986 0.115434
0.690059 0.919707 0.115267
0.805188 0.919768 0.115343
0.920012 0.919921 0.115496
0 0 0.230228
0.114244 0 0.230365
0.22916 0 0.230243
0.344289 0 0.230304
0.459388 0 0.230381
0.574289 0 0.230228
0.689387 0 0.230304
0.804517 0 0.230365
0.919188 0 0.23035
0 0.114473 0.230625
0.114504 0.114458 0.230625
0.229557 0.114473 0.230625
0.344671 0.114549 0.230701
0.459693 0.114534 0.230686
0.57467 0.114458 0.23061
0.689769 0.114534 0.230686
0.804913 0.114595 0.230747
0.919493 0.114519 0.230671
1.5259e-05 0.229511 0.230701
0.114519 0.22945 0.23064
0.229633 0.229526 0.230716
0.344762 0.229603 0.230777
0.459648 0.22945 0.23064
0.574762 0.229511 0.230701
0.68986 0.229572 0.230762
0.804868 0.229511 0.230701
0.919585 0.229572 0.230762
0 0.344442 0.230594
0.114549 0.344518 0.230671
0.229664 0.344594 0.230747
0.344793 0.344671 0.230823
0.459663 0.344503 0.230655
0.574792 0.344579 0.230732
0.689891 0.344656 0.230793
0.804791 0.344488 0.23064
0.919615 0.34464 0.230793
0 0.459403 0.23061
0.114656 0.459571 0.230777
0.22977 0.459632 0.230854
0.3449 0.459709 0.230915
0.45977 0.459556 0.230762
0.574899 0.459617 0.230838
0.689998 0.459693 0.2309
0.804898 0.459525 0.230747
0.919722 0.459678 0.2309
0 0.574487 0.230625
0.114672 0.574655 0.230793
0.229786 0.574716 0.230854
0.344671 0.574563 0.230701
0.45977 0.574624 0.230762
0.574899 0.574701 0.230838
0.689998 0.574777 0.230915
0.804898 0.574609 0.230747
0.919722 0.574762 0.2309
6.10361e-05 0.689509 0.230747
0.114809 0.689677 0.230915
0.229908 0.689754 0.230991
0.344808 0.689586 0.230823
0.459907 0.689662 0.2309
0.575036 0.689738 0.230976
0.690013 0.689677 0.230915
0.805035 0.689647 0.230884
0.91986 0.689799 0.231037
4.57771e-05 0.804608 0.230732
0.114794 0.804776 0.2309
0.229847 0.804791 0.23093
0.344793 0.804685 0.230808
0.459892 0.804746 0.230884
0.575021 0.804822 0.230961
0.689891 0.804669 0.230808
0.80502 0.80473 0.230869
0.919844 0.804883 0.231022
0.000198367 0.919631 0.230884
0.114946 0.919799 0.231052
0.229877 0.919692 0.230945
0.344945 0.919707 0.230976
0.460044 0.919768 0.231037
0.575082 0.919753 0.231022
0.690044 0.919692 0.230961
0.805173 0.919753 0.231022
0.919997 0.919905 0.231174
0 0 0.345693
0.114061 0 0.345632
0.22916 0 0.345708
0.344289 0 0.345769
0.459373 0 0.34583
0.574289 0 0.345678
0.689387 0 0.345754
0.804517 0 0.34583
0.919112 0 0.345739
0 0.114458 0.34609
0.114443 0.114397 0.346014
0.229557 0.114473 0.34609
0.344671 0.114534 0.346166
0.459541 0.114382 0.345998
0.57467 0.114458 0.346075
0.689769 0.114534 0.346151
0.804852 0.114534 0.346151
0.919493 0.114504 0.346136
0 0.22945 0.34609
0.114519 0.22945 0.346105
0.229633 0.229526 0.346181
0.344747 0.229587 0.346242
0.459632 0.229435 0.34609
0.574762 0.229511 0.346151
0.68986 0.229572 0.346227
0.804807 0.229465 0.346105
0.91957 0.229557 0.346212
0 0.344396 0.345998
0.114549 0.344518 0.346136
0.229664 0.344594 0.346212
0.344671 0.344549 0.346166
0.459663 0.344503 0.34612
0.574792 0.344579 0.346181
0.689891 0.344656 0.346258
0.804791 0.344488 0.34609
0.9196 0.34464 0.346242
0 0.459403 0.346075
0.114656 0.459571 0.346242
0.22977 0.459632 0.346319
0.344671 0.45948 0.346151
0.45977 0.459556 0.346227
0.574899 0.459617 0.346288
0.68983 0.459541 0.346212
0.804898 0.459525 0.346197
0.919707 0.459678 0.346349
0 0.574472 0.346075
0.114672 0.574639 0.346242
0.229786 0.574716 0.346319
0.344671 0.574563 0.346166
0.45977 0.574624 0.346227
0.574899 0.574701 0.346303
0.689769 0.574548 0.346136
0.804898 0.574609 0.346212
0.919722 0.574762 0.346365
6.10361e-05 0.689509 0.346212
0.114794 0.689677 0.34638
0.229908 0.689754 0.346456
0.344808 0.689586 0.346288
0.459907 0.689662 0.346365
0.575036 0.689738 0.346426
0.689891 0.68957 0.346273
0.805035 0.689647 0.346334
0.91986 0.689799 0.346487
4.57771e-05 0.804593 0.346197
0.114778 0.804761 0.346365
0.229664 0.804608 0.346212
0.344793 0.804685 0.346273
0.459892 0.804746 0.346349
0.57499 0.804791 0.346395
0.689891 0.804669 0.346258
0.80502 0.80473 0.346334
0.919844 0.804883 0.346487
0.000198367 0.919615 0.346349
0.114946 0.919799 0.346517
0.229816 0.919631 0.346365
0.344945 0.919707 0.346426
0.460044 0.919768 0.346502
0.575021 0.919692 0.346426
0.690044 0.919692 0.34641
0.805173 0.919753 0.346487
0.919921 0.919844 0.346563
0 0 0.461372
0.114031 0 0.461311
0.229145 0 0.461387
0.344274 0 0.461448
0.459144 0 0.461295
0.574273 0 0.461357
0.689372 0 0.461433
0.804273 0 0.46128
0.919081 0 0.461418
0 0.114214 0.461524
0.114427 0.114382 0.461692
0.229526 0.114458 0.461769
0.344656 0.114519 0.461845
0.459525 0.114366 0.461677
0.574655 0.114427 0.461753
0.689754 0.114504 0.46183
0.804654 0.114351 0.461662
0.919478 0.114488 0.461814
0 0.229267 0.461616
0.114504 0.229435 0.461784
0.229618 0.229511 0.46186
0.344686 0.229526 0.461875
0.459617 0.229419 0.461769
0.574746 0.22948 0.46183
0.68983 0.229557 0.461906
0.804746 0.229389 0.461738
0.919554 0.229541 0.461891
0 0.344335 0.461646
0.114534 0.344503 0.461814
0.229648 0.344579 0.461891
0.344533 0.344411 0.461723
0.459648 0.344488 0.461799
0.574777 0.344564 0.46186
0.689784 0.344549 0.461845
0.804776 0.344472 0.461769
0.919585 0.34461 0.461921
0 0.459373 0.461753
0.114641 0.459541 0.461921
0.22974 0.459602 0.461982
0.34464 0.459449 0.46183
0.459754 0.459525 0.461906
0.574884 0.459602 0.461967
0.689769 0.459464 0.46183
0.804883 0.45951 0.461875
0.919692 0.459663 0.462028
0 0.574456 0.461753
0.114656 0.574624 0.461921
0.229618 0.574563 0.46186
0.344656 0.574533 0.46183
0.459754 0.574609 0.461906
0.574884 0.574685 0.461982
0.689754 0.574517 0.461814
0.804883 0.574594 0.461891
0.919707 0.574731 0.462043
4.57771e-05 0.689494 0.461891
0.114778 0.689662 0.462058
0.229664 0.689494 0.461891
0.344778 0.68957 0.461967
0.459892 0.689647 0.462043
0.574823 0.689525 0.461921
0.689876 0.689555 0.461952
0.80502 0.689616 0.462013
0.919829 0.689769 0.462165
3.0518e-05 0.804578 0.461875
0.114763 0.804746 0.462043
0.229648 0.804593 0.461891
0.344778 0.804654 0.461952
0.459876 0.80473 0.462028
0.574777 0.804578 0.46186
0.68986 0.804639 0.461936
0.805005 0.804715 0.462013
0.919814 0.804852 0.46215
0.000183108 0.9196 0.462028
0.114916 0.919768 0.462181
0.229801 0.919615 0.462043
0.34493 0.919676 0.462104
0.460029 0.919753 0.462181
0.574929 0.9196 0.462013
0.690028 0.919661 0.462089
0.805158 0.919738 0.462165
0.919738 0.919646 0.462074
0 0 0.576669
0.114031 0 0.576776
0.229145 0 0.576837
0.344182 0 0.576837
0.459144 0 0.576761
0.574258 0 0.576822
0.689372 0 0.576898
0.804273 0 0.57673
0.919081 0 0.576883
0 0.114214 0.576989
0.114427 0.114382 0.577157
0.229526 0.114458 0.577234
0.344442 0.114321 0.577096
0.459525 0.114366 0.577142
0.574655 0.114427 0.577203
0.689754 0.114504 0.577279
0.804654 0.114336 0.577127
0.919478 0.114488 0.577264
0 0.229267 0.577066
0.114504 0.229435 0.577249
0.229618 0.229511 0.57731
0.344503 0.229343 0.577157
0.459602 0.229419 0.577234
0.574731 0.22948 0.577295
0.689601 0.229328 0.577142
0.80473 0.229389 0.577203
0.919554 0.229541 0.577356
0 0.344335 0.577096
0.114534 0.344503 0.577279
0.229648 0.344579 0.57734
0.344533 0.344411 0.577188
0.459648 0.344488 0.577264
0.574762 0.344549 0.577325
0.689632 0.344396 0.577173
0.804776 0.344472 0.577234
0.919585 0.34461 0.577386
0 0.459373 0.577203
0.114641 0.459541 0.577386
0.229679 0.459541 0.577386
0.34464 0.459449 0.577295
0.459739 0.459525 0.577371
0.574868 0.459602 0.577432
0.689738 0.459434 0.577279
0.804883 0.45951 0.57734
0.919692 0.459663 0.577493
0 0.574456 0.577218
0.114641 0.574624 0.577386
0.229526 0.574472 0.577234
0.344656 0.574533 0.577295
0.459754 0.574609 0.577371
0.574762 0.574563 0.577325
0.689754 0.574517 0.577279
0.804883 0.574594 0.577356
0.919676 0.574701 0.577462
4.57771e-05 0.689494 0.57734
0.114733 0.689616 0.577478
0.229664 0.689494 0.577356
0.344778 0.68957 0.577432
0.459892 0.689647 0.577508
0.574777 0.689479 0.57734
0.689876 0.689555 0.577417
0.80502 0.689616 0.577478
0.919676 0.689616 0.577478
3.0518e-05 0.804578 0.57734
0.114595 0.804578 0.57734
0.229648 0.804593 0.57734
0.344762 0.804654 0.577417
0.459876 0.80473 0.577493
0.574762 0.804562 0.577325
0.68986 0.804639 0.577401
0.805005 0.804715 0.577462
0.919585 0.804623 0.577386
0.000183108 0.9196 0.577493
0.114687 0.919539 0.577432
0.229801 0.919615 0.577493
0.344915 0.919676 0.577569
0.459815 0.919539 0.577432
0.574929 0.919585 0.577478
0.690013 0.919661 0.577554
0.805158 0.919738 0.577615
0.919738 0.919646 0.577539
0 0 0.692287
0.114015 0 0.692454
0.229129 0 0.692531
0.344106 0 0.692454
0.459129 0 0.692439
0.574243 0 0.6925
0.689296 0 0.692531
0.804242 0 0.692409
0.919066 0 0.692561
0 0.114199 0.692668
0.114397 0.114366 0.692836
0.229511 0.114443 0.692912
0.344396 0.114275 0.692744
0.45951 0.114351 0.692821
0.574639 0.114412 0.692897
0.689555 0.114305 0.69279
0.804639 0.114321 0.692805
0.919448 0.114473 0.692958
0 0.229236 0.69276
0.114488 0.229419 0.692927
0.229496 0.229374 0.692897
0.344488 0.229328 0.692836
0.459586 0.229404 0.692912
0.574716 0.229465 0.692973
0.689586 0.229313 0.692821
0.804715 0.229374 0.692882
0.919539 0.229526 0.693034
0 0.34432 0.69279
0.114519 0.344488 0.692958
0.229389 0.34432 0.69279
0.344518 0.344396 0.692866
0.459617 0.344472 0.692943
0.574746 0.344533 0.693004
0.689616 0.344381 0.692851
0.804746 0.344442 0.692912
0.91957 0.344594 0.693065
0 0.459358 0.692897
0.114626 0.459525 0.693065
0.229496 0.459373 0.692897
0.344625 0.459434 0.692973
0.459724 0.45951 0.693049
0.574624 0.459342 0.692882
0.689723 0.459419 0.692958
0.804852 0.459495 0.693019
0.919676 0.459632 0.693172
0 0.574441 0.692897
0.114626 0.574609 0.693065
0.229511 0.574456 0.692912
0.344625 0.574517 0.692973
0.459739 0.574594 0.693049
0.574624 0.574426 0.692882
0.689723 0.574502 0.692958
0.804868 0.574563 0.693034
0.9196 0.574639 0.693095
1.5259e-05 0.689464 0.693034
0.114656 0.68954 0.693095
0.229633 0.689479 0.693034
0.344762 0.689555 0.693111
0.459846 0.689601 0.693172
0.574762 0.689464 0.693019
0.68986 0.68954 0.693095
0.80499 0.689601 0.693156
0.919585 0.689525 0.69308
1.5259e-05 0.804562 0.693019
0.114519 0.804501 0.692958
0.229633 0.804578 0.693034
0.344747 0.804639 0.693095
0.459709 0.804562 0.693034
0.574746 0.804547 0.693004
0.689845 0.804623 0.69308
0.804929 0.804639 0.693095
0.91957 0.804608 0.693065
9.15541e-05 0.919509 0.693095
0.114672 0.919524 0.693111
0.229786 0.9196 0.693187
0.3449 0.919661 0.693248
0.45977 0.919509 0.693095
0.574899 0.91957 0.693156
0.689998 0.919646 0.693233
0.804944 0.919524 0.693111
0.919722 0.919631 0.693217
0 0 0.807752
0.114015 0 0.807919
0.229114 0 0.80798
0.344015 0 0.807828
0.459113 0 0.807904
0.574243 0 0.807965
0.689113 0 0.807813
0.804242 0 0.807874
0.919066 0 0.808026
0 0.114183 0.808133
0.114397 0.114366 0.808301
0.22948 0.114397 0.808331
0.344396 0.114275 0.808209
0.45951 0.114351 0.808286
0.574624 0.114412 0.808347
0.689494 0.11426 0.808194
0.804639 0.114321 0.808255
0.919448 0.114473 0.808408
0 0.229236 0.808209
0.114488 0.229404 0.808392
0.229435 0.229328 0.808301
0.344488 0.229328 0.808301
0.459586 0.229389 0.808377
0.574639 0.229389 0.808362
0.689586 0.229313 0.808286
0.804715 0.229374 0.808347
0.919539 0.229526 0.808499
0 0.34432 0.80824
0.114519 0.344488 0.808423
0.229389 0.34432 0.808255
0.344518 0.344396 0.808331
0.459617 0.344472 0.808408
0.574548 0.344335 0.808255
0.689616 0.344381 0.808316
0.804746 0.344442 0.808377
0.919448 0.344472 0.808408
0 0.459358 0.808347
0.114488 0.459388 0.808392
0.229496 0.459358 0.808362
0.344625 0.459434 0.808438
0.459724 0.45951 0.808515
0.574624 0.459342 0.808347
0.689723 0.459419 0.808423
0.804852 0.45948 0.808484
0.919448 0.459403 0.808408
0 0.574441 0.808362
0.114397 0.57438 0.808301
0.229511 0.574441 0.808377
0.344625 0.574517 0.808438
0.459739 0.574594 0.808515
0.574624 0.574426 0.808347
0.689723 0.574502 0.808423
0.804852 0.574563 0.808484
0.919448 0.574487 0.808408
1.5259e-05 0.689464 0.808484
0.114534 0.689403 0.808423
0.229633 0.689479 0.808499
0.344762 0.68954 0.808576
0.459632 0.689387 0.808408
0.574762 0.689464 0.808484
0.68986 0.68954 0.80856
0.80499 0.689601 0.808621
0.919585 0.689525 0.808545
0 0.804562 0.808484
0.114519 0.804501 0.808423
0.229633 0.804562 0.808484
0.344747 0.804639 0.80856
0.459617 0.804486 0.808408
0.574746 0.804547 0.808469
0.689845 0.804623 0.808545
0.804868 0.804578 0.808499
0.91957 0.804608 0.80853
3.0518e-05 0.919448 0.808499
0.114672 0.919524 0.808576
0.229786 0.919585 0.808637
0.344854 0.919615 0.808667
0.45977 0.919509 0.80856
0.574899 0.91957 0.808621
0.689998 0.919646 0.808698
0.804898 0.919478 0.80853
0.919722 0.919631 0.808682
0 0 0.922881
0.114031 0 0.923064
0.228946 0 0.922927
0.344045 0 0.922972
0.459144 0 0.923033
0.574273 0 0.92311
0.689128 0 0.922957
0.804273 0 0.923018
0.919097 0 0.923171
0 0.114214 0.923278
0.114427 0.114382 0.923445
0.229297 0.114229 0.923278
0.344427 0.11429 0.923354
0.459525 0.114366 0.92343
0.574655 0.114427 0.923491
0.689525 0.114275 0.923339
0.804654 0.114336 0.9234
0.919478 0.114488 0.923552
0 0.229267 0.923354
0.114504 0.229435 0.923522
0.229389 0.229267 0.923369
0.344503 0.229343 0.92343
0.459602 0.229419 0.923506
0.574502 0.229252 0.923339
0.689601 0.229328 0.923415
0.80473 0.229389 0.923491
0.919509 0.229496 0.923583
0 0.344335 0.923384
0.114473 0.344442 0.923491
0.229419 0.34435 0.9234
0.344533 0.344411 0.923461
0.459648 0.344488 0.923537
0.574533 0.34432 0.923369
0.689632 0.344396 0.923461
0.804776 0.344472 0.923522
0.919417 0.344442 0.923491
0 0.459373 0.923491
0.114458 0.459358 0.923476
0.229526 0.459388 0.923506
0.34464 0.459464 0.923568
0.459648 0.459419 0.923537
0.574639 0.459373 0.923476
0.689738 0.459449 0.923568
0.804883 0.45951 0.923629
0.919463 0.459434 0.923537
0 0.574456 0.923506
0.114427 0.574395 0.923445
0.229526 0.574472 0.923506
0.344656 0.574533 0.923583
0.459525 0.57438 0.92343
0.574655 0.574441 0.923491
0.689754 0.574517 0.923568
0.80473 0.574441 0.923476
0.919478 0.574502 0.923552
0 0.689326 0.923476
0.114549 0.689433 0.923568
0.229664 0.689494 0.923644
0.344778 0.68957 0.923705
0.459663 0.689418 0.923552
0.574777 0.689479 0.923629
0.689876 0.689555 0.923705
0.804776 0.689387 0.923537
0.9196 0.68954 0.92369
0 0.804349 0.923384
0.114534 0.804517 0.923552
0.229648 0.804593 0.923629
0.344762 0.804654 0.923705
0.459648 0.804501 0.923537
0.574777 0.804562 0.923613
0.689876 0.804639 0.92369
0.804776 0.804471 0.923522
0.919585 0.804623 0.923674
0 0.919371 0.923537
0.114687 0.919539 0.923705
0.229801 0.919615 0.923781
0.344686 0.919448 0.923613
0.4598 0.919524 0.92369
0.574929 0.919585 0.923766
0.690013 0.919646 0.923827
0.804929 0.919509 0.923674
0.91928 0.919188 0.923354
