public/LUTS/Color Gain/Color Gain_08.cube
TITLE "Generated by Resolve"
LUT_3D_SIZE 9
0 0 0
0.203983 0 0
0.40798 0 0
0.611978 0 0
0.815991 0 0
1 0 0
1 0 0
1 0 0
1 0 0
0 0.154986 0
0.133989 0.133989 0
0.337987 0.112978 0
0.541985 0.0919814 0
0.745998 0.070985 0
0.949996 0.0499733 0
1 0.0289769 0
1 0.00798047 0
1 0 0
0 0.309987 0
0.0639811 0.288991 0
0.267994 0.267979 0
0.471992 0.246983 0
0.67599 0.225986 0
0.880003 0.20499 0
1 0.183978 0
1 0.162982 0
1 0.141985 0
0 0.464988 0
0 0.443992 0
0.197986 0.422995 0
0.401984 0.401984 0
0.605997 0.380987 0
0.809995 0.359991 0
1 0.338979 0
1 0.317983 0
1 0.296986 0
0 0.619989 0
0 0.598993 0
0.127993 0.577996 0
0.331991 0.556985 0
0.535988 0.535988 0
0.740001 0.514992 0
0.943999 0.49398 0
1 0.472984 0
1 0.451987 0
0 0.77499 0
0 0.753994 0
0.0579843 0.732998 0
0.261982 0.711986 0
0.465995 0.69099 0
0.669993 0.669993 0
0.873991 0.648981 0
1 0.627985 0
1 0.606989 0
0 0.929992 0
0 0.908995 0
0 0.887999 0
0.191989 0.867002 0
0.395987 0.845991 0
0.6 0.824994 0
0.803998 0.803998 0
1 0.782986 0
1 0.76199 0
0 1 0
0 1 0
0 1 0
0.121981 1 0
0.325994 1 0
0.529992 0.979995 0
0.733989 0.958999 0
0.938003 0.937987 0
1 0.916991 0
0 1 0
0 1 0
0 1 0
0.0519875 1 0
0.255985 1 0
0.459983 1 0
0.663996 1 0
0.867994 1 0
1 1 0
0 0 0.215976
0.19498 0 0.19498
0.398978 0 0.173983
0.602991 0 0.152972
0.806989 0 0.131975
1 0 0.110979
1 0 0.0899825
1 0 0.0689708
1 0 0.0479744
0 0.145983 0.145983
0.124987 0.124987 0.124987
0.328984 0.10399 0.10399
0.532998 0.0829786 0.0829786
0.736996 0.0619821 0.0619821
0.940993 0.0409857 0.0409857
1 0.0199741 0.0199893
1 0 0
1 0 0
0 0.300984 0.0759899
0.0549783 0.279988 0.0549783
0.258991 0.258991 0.0339818
0.462989 0.23798 0.0129854
0.667002 0.216983 0
0.871 0.195987 0
1 0.174975 0
1 0.153979 0
1 0.132982 0
0 0.455985 0.00598154
0 0.434989 0
0.188983 0.413993 0
0.392996 0.392996 0
0.596994 0.371984 0
0.800992 0.350988 0
1 0.329992 0
1 0.30898 0
1 0.287984 0
0 0.610986 0
0 0.58999 0
0.11899 0.568994 0
0.322988 0.547997 0
0.526986 0.526986 0
0.730999 0.505989 0
0.934997 0.484993 0
1 0.463981 0
1 0.442985 0
0 0.766003 0
0 0.744991 0
0.0489815 0.723995 0
0.252995 0.702998 0
0.456992 0.681987 0
0.66099 0.66099 0
0.865003 0.639994 0
1 0.618982 0
1 0.597986 0
0 0.921004 0
0 0.899992 0
0 0.878996 0
0.182986 0.858 0
0.386984 0.836988 0
0.590997 0.815991 0
0.794995 0.794995 0
0.998993 0.773999 0
1 0.752987 0
0 1 0
0 1 0
0 1 0
0.112993 1 0
0.316991 0.992004 0
0.520989 0.970993 0
0.725002 0.949996 0
0.929 0.929 0
1 0.907988 0
0 1 0
0 1 0
0 1 0
0.0429847 1 0
0.246983 1 0
0.450996 1 0
0.654994 1 0
0.858991 1 0
1 1 0
0 0 0.431983
0.185977 0 0.410986
0.389975 0 0.38999
0.593988 0 0.368978
0.797986 0 0.347982
1 0 0.326986
1 0 0.305974
1 0 0.284977
1 0 0.263981
0 0.13698 0.36199
0.115984 0.115984 0.340993
0.319997 0.0949874 0.319997
0.523995 0.073991 0.298985
0.727993 0.0529793 0.277989
0.932006 0.0319829 0.256992
1 0.0109865 0.235981
1 0 0.214984
1 0 0.193988
0 0.291981 0.291981
0.0459907 0.270985 0.270985
0.249989 0.249989 0.249989
0.453986 0.228992 0.228992
0.658 0.20798 0.20798
0.861997 0.186984 0.186984
1 0.165988 0.165988
1 0.144976 0.144991
1 0.12398 0.12398
0 0.446998 0.221988
0 0.425986 0.200992
0.17998 0.40499 0.17998
0.383993 0.383993 0.158984
0.587991 0.362982 0.137987
0.792004 0.341985 0.116991
0.996002 0.320989 0.0959793
1 0.299977 0.0749828
1 0.278981 0.0539864
0 0.601999 0.15198
0 0.580987 0.130983
0.109987 0.559991 0.109987
0.313985 0.538994 0.0889906
0.517998 0.517998 0.0679789
0.721996 0.496986 0.0469825
0.925994 0.47599 0.0259861
1 0.454994 0.0049897
1 0.433982 0
0 0.757 0.0819867
0 0.736004 0.0609903
0.0399786 0.714992 0.0399786
0.243992 0.693996 0.0189822
0.44799 0.672999 0
0.651987 0.651987 0
0.856001 0.630991 0
1 0.609995 0
1 0.588983 0
0 0.912001 0.0119783
0 0.891005 0
0 0.869993 0
0.173983 0.848997 0
0.377997 0.828 0
0.581994 0.806989 0
0.785992 0.785992 0
0.990005 0.764996 0
1 0.743984 0
0 1 0
0 1 0
0 1 0
0.10399 1 0
0.307988 0.983001 0
0.511986 0.96199 0
0.715999 0.940993 0
0.919997 0.919997 0
1 0.899001 0
0 1 0
0 1 0
0 1 0
0.0339818 1 0
0.237995 1 0
0.441993 1 0
0.645991 1 0
0.850004 1 0
1 1 0
0 0 0.64799
0.176974 0 0.626993
0.380987 0 0.605982
0.584985 0 0.584985
0.788983 0 0.563989
0.992996 0 0.542992
1 0 0.521981
1 0 0.500984
1 0 0.479988
0 0.127993 0.577996
0.106981 0.106981 0.557
0.310994 0.0859846 0.535988
0.514992 0.0649882 0.514992
0.71899 0.0439918 0.493996
0.923003 0.0229801 0.472999
1 0.00198367 0.451987
1 0 0.430991
1 0 0.409995
0 0.282994 0.507988
0.0369879 0.261997 0.486992
0.240986 0.240986 0.465995
0.444999 0.219989 0.444999
0.648997 0.198993 0.423987
0.852995 0.177981 0.402991
1 0.156985 0.381994
1 0.135988 0.360983
1 0.114977 0.339986
0 0.437995 0.437995
0 0.416999 0.416999
0.170993 0.395987 0.395987
0.37499 0.37499 0.37499
0.578988 0.353994 0.353994
0.783001 0.332982 0.332982
0.986999 0.311986 0.311986
1 0.29099 0.29099
1 0.269978 0.269993
0 0.592996 0.367987
0 0.572 0.34699
0.100984 0.550988 0.325994
0.304982 0.529992 0.304982
0.508995 0.508995 0.283986
0.712993 0.487984 0.262989
0.917006 0.466987 0.241993
1 0.445991 0.220981
1 0.424979 0.199985
0 0.747997 0.297993
0 0.727001 0.276982
0.0309911 0.705989 0.255985
0.234989 0.684993 0.234989
0.438987 0.663996 0.213993
0.643 0.643 0.192981
0.846998 0.621988 0.171984
1 0.600992 0.150988
1 0.579995 0.129992
0 0.902998 0.227985
0 0.882002 0.206989
0 0.861006 0.185992
0.164981 0.839994 0.164981
0.368994 0.818998 0.143984
0.572992 0.798001 0.122988
0.776989 0.776989 0.101991
0.981003 0.755993 0.0809796
1 0.734997 0.0599832
0 1 0.157977
0 1 0.13698
0 1 0.115984
0.0949874 0.994995 0.0949874
0.298985 0.973999 0.073991
0.502998 0.953002 0.0529793
0.706996 0.931991 0.0319829
0.910994 0.910994 0.0109865
1 0.889998 0
0 1 0.0879835
0 1 0.0669871
0 1 0.0459907
0.024979 1 0.024979
0.228992 1 0.0039826
0.43299 1 0
0.636988 1 0
0.841001 1 0
1 1 0
0 0 0.863996
0.167971 0 0.842985
0.371984 0 0.821988
0.575982 0 0.800992
0.779995 0 0.779995
0.983993 0 0.758984
1 0 0.737987
1 0 0.716991
1 0 0.695994
0 0.11899 0.794003
0.0979934 0.0979934 0.772992
0.301991 0.0769818 0.751995
0.505989 0.0559854 0.730999
0.710002 0.0349889 0.710002
0.914 0.0139773 0.688991
1 0 0.667994
1 0 0.646998
1 0 0.626001
0 0.273991 0.723995
0.027985 0.252995 0.702998
0.231983 0.231983 0.682002
0.435996 0.210986 0.66099
0.639994 0.18999 0.639994
0.843992 0.168994 0.618997
1 0.147982 0.598001
1 0.126986 0.576989
1 0.105989 0.555993
0 0.428992 0.653986
0 0.407996 0.63299
0.16199 0.386999 0.611994
0.365988 0.365988 0.590997
0.570001 0.344991 0.570001
0.773999 0.323995 0.548989
0.977996 0.302983 0.527993
1 0.281987 0.506996
1 0.26099 0.485985
0 0.583993 0.583993
0 0.562997 0.562997
0.0919814 0.542 0.542
0.295995 0.520989 0.520989
0.499992 0.499992 0.499992
0.70399 0.478996 0.478996
0.908003 0.457984 0.457984
1 0.436988 0.436988
1 0.415991 0.415991
0 0.738994 0.513985
0 0.717998 0.492988
0.0219883 0.697002 0.471992
0.225986 0.67599 0.450996
0.429984 0.654994 0.429984
0.633997 0.633997 0.408988
0.837995 0.612985 0.387991
1 0.591989 0.366995
1 0.570993 0.345983
0 0.893996 0.443992
0 0.872999 0.422995
0 0.852003 0.401984
0.155993 0.830991 0.380987
0.359991 0.809995 0.359991
0.563989 0.788998 0.338994
0.768002 0.768002 0.317983
0.972 0.74699 0.296986
1 0.725994 0.27599
0 1 0.373983
0 1 0.352987
0 1 0.331991
0.0859846 0.986007 0.310994
0.289982 0.964996 0.289982
0.493996 0.943999 0.268986
0.697993 0.923003 0.24799
0.901991 0.901991 0.226993
1 0.880995 0.205982
0 1 0.30399
0 1 0.282994
0 1 0.261982
0.0159915 1 0.240986
0.219989 1 0.219989
0.423987 1 0.198993
0.628 1 0.177981
0.831998 1 0.156985
1 1 0.135988
0 0 1
0.158984 0 1
0.362982 0 1
0.566979 0 1
0.770993 0 0.995987
0.97499 0 0.97499
1 0 0.953994
1 0 0.932998
1 0 0.911986
0 0.109987 1
0.0889906 0.0889906 0.988998
0.292988 0.0679942 0.968002
0.496986 0.0469825 0.947005
0.700999 0.0259861 0.925994
0.904997 0.0049897 0.904997
1 0 0.884001
1 0 0.863005
1 0 0.841993
0 0.264988 0.940002
0.0189822 0.243992 0.919005
0.222995 0.222995 0.897993
0.426993 0.201984 0.876997
0.630991 0.180987 0.856001
0.835004 0.159991 0.835004
1 0.138979 0.813993
1 0.117983 0.792996
1 0.0969863 0.772
0 0.419989 0.869993
0 0.398993 0.848997
0.152987 0.377997 0.828
0.356985 0.356985 0.807004
0.560998 0.335988 0.785992
0.764996 0.314992 0.764996
0.968994 0.293996 0.743999
1 0.272984 0.723003
1 0.251987 0.701991
0 0.57499 0.8
0 0.553994 0.779004
0.0829786 0.532998 0.757992
0.286992 0.512001 0.736996
0.49099 0.49099 0.715999
0.695003 0.469993 0.695003
0.899001 0.448997 0.673991
1 0.427985 0.652995
1 0.406989 0.631998
0 0.729992 0.729992
0 0.708995 0.708995
0.0129854 0.687999 0.687999
0.216983 0.667002 0.667002
0.420996 0.645991 0.645991
0.624994 0.624994 0.624994
0.828992 0.603998 0.603998
1 0.582986 0.582986
1 0.56199 0.56199
0 0.885008 0.659998
0 0.863996 0.639002
0 0.843 0.61799
0.14699 0.822003 0.596994
0.350988 0.800992 0.575998
0.554986 0.779995 0.554986
0.758999 0.758999 0.533989
0.962997 0.737987 0.512993
1 0.716991 0.491997
0 1 0.58999
0 1 0.568994
0 0.998001 0.547997
0.0769818 0.977005 0.526986
0.280995 0.955993 0.505989
0.484993 0.934997 0.484993
0.688991 0.914 0.463996
0.893004 0.893004 0.442985
1 0.871992 0.421988
0 1 0.519997
0 1 0.498985
0 1 0.477989
0.00698863 1 0.456992
0.210986 1 0.435996
0.414984 1 0.414984
0.618997 1 0.393988
0.822995 1 0.372992
1 1 0.351995
0 0 1
0.149981 0 1
0.353979 0 1
0.557992 0 1
0.76199 0 1
0.965988 0 1
1 0 1
1 0 1
1 0 1
0 0.100984 1
0.0799878 0.0799878 1
0.283986 0.0589914 1
0.487999 0.037995 1
0.691997 0.0169833 1
0.895994 0 1
1 0 1
1 0 1
1 0 1
0 0.255985 1
0.0099794 0.234989 1
0.213993 0.213993 1
0.41799 0.192996 1
0.621988 0.171984 1
0.826001 0.150988 1
1 0.129992 1
1 0.10898 1
1 0.0879835 0.988006
0 0.410986 1
0 0.38999 1
0.143984 0.368994 1
0.347997 0.347997 1
0.551995 0.326986 1
0.755993 0.305989 0.981003
0.960006 0.284993 0.960006
1 0.263981 0.938994
1 0.242985 0.917998
0 0.566003 1
0 0.544991 0.994995
0.073991 0.523995 0.973999
0.277989 0.502998 0.953002
0.481987 0.481987 0.932006
0.686 0.46099 0.910994
0.889998 0.439994 0.889998
1 0.418982 0.869001
1 0.397986 0.848005
0 0.721004 0.945998
0 0.700008 0.925002
0.0039826 0.678996 0.904005
0.20798 0.658 0.882994
0.411994 0.637003 0.861997
0.615991 0.615991 0.841001
0.820005 0.594995 0.820005
1 0.573999 0.798993
1 0.552987 0.777996
0 0.876005 0.87599
0 0.855009 0.854994
0 0.833997 0.833997
0.137987 0.813001 0.813001
0.341985 0.792004 0.792004
0.545998 0.770993 0.770993
0.749996 0.749996 0.749996
0.953994 0.729 0.729
1 0.707988 0.707988
0 1 0.805997
0 1 0.785
0 0.988998 0.764004
0.0679789 0.968002 0.742992
0.271992 0.947005 0.721996
0.47599 0.925994 0.700999
0.679988 0.904997 0.679988
0.884001 0.884001 0.658991
1 0.862989 0.637995
0 1 0.735988
0 1 0.714992
0 1 0.693996
0 1 0.672999
0.201984 1 0.651987
0.405997 1 0.630991
0.609995 1 0.609995
0.813993 1 0.588998
1 1 0.567987
0 0 1
0.140978 0 1
0.344976 0 1
0.548989 0 1
0.752987 0 1
0.956985 0 1
1 0 1
1 0 1
1 0 1
0 0.0919966 1
0.070985 0.070985 1
0.274983 0.0499886 1
0.478996 0.0289921 1
0.682994 0.00798047 1
0.886992 0 1
1 0 1
1 0 1
1 0 1
0 0.246998 1
0.000991836 0.225986 1
0.20499 0.20499 1
0.408988 0.183993 1
0.613001 0.162997 1
0.816999 0.141985 1
1 0.120989 1
1 0.0999924 1
1 0.0789807 1
0 0.401999 1
0 0.381003 1
0.134981 0.359991 1
0.338994 0.338994 1
0.542992 0.317998 1
0.74699 0.296986 1
0.951003 0.27599 1
1 0.254994 1
1 0.233982 1
0 0.557 1
0 0.536004 1
0.0649882 0.514992 1
0.268986 0.493996 1
0.472999 0.472999 1
0.676997 0.451987 1
0.880995 0.430991 1
1 0.409995 1
1 0.388983 1
0 0.712001 1
0 0.691005 1
0 0.669993 1
0.198993 0.648997 1
0.402991 0.628 1
0.606989 0.606989 1
0.811002 0.585992 1
1 0.564996 1
1 0.543999 0.994003
0 0.867002 1
0 0.846006 1
0 0.824994 1
0.128985 0.803998 1
0.332982 0.783001 1
0.536995 0.762005 0.986999
0.740993 0.740993 0.966003
0.945006 0.719997 0.945006
1 0.699001 0.923995
0 1 1
0 1 1
0 0.980011 0.979995
0.0589914 0.958999 0.958999
0.262989 0.938003 0.938003
0.466987 0.917006 0.917006
0.671 0.895994 0.895994
0.874998 0.874998 0.874998
1 0.854002 0.854002
0 1 0.951995
0 1 0.930999
0 1 0.910002
0 1 0.889006
0.192981 1 0.867994
0.396994 1 0.846998
0.600992 1 0.826001
0.80499 1 0.80499
1 1 0.783993
0 0 1
0.131975 0 1
0.335988 0 1
0.539986 0 1
0.743984 0 1
0.947997 0 1
1 0 1
1 0 1
1 0 1
0 0.0829938 1
0.0619821 0.0619974 1
0.265995 0.0409857 1
0.469993 0.0199893 1
0.673991 0 1
0.878004 0 1
1 0 1
1 0 1
1 0 1
0 0.237995 1
0 0.216999 1
0.195987 0.195987 1
0.399985 0.17499 1
0.603998 0.153994 1
0.807996 0.132982 1
1 0.111986 1
1 0.0909895 1
1 0.0699779 1
0 0.392996 1
0 0.372 1
0.125994 0.350988 1
0.329992 0.329992 1
0.533989 0.308995 1
0.738003 0.287999 1
0.942 0.266987 1
1 0.245991 1
1 0.224994 1
0 0.547997 1
0 0.527001 1
0.0559854 0.506004 1
0.259983 0.484993 1
0.463996 0.463996 1
0.667994 0.443 1
0.871992 0.421988 1
1 0.400992 1
1 0.379995 1
0 0.702998 1
0 0.682002 1
0 0.661006 1
0.18999 0.639994 1
0.393988 0.618997 1
0.598001 0.598001 1
0.801999 0.576989 1
1 0.555993 1
1 0.534997 1
0 0.858 1
0 0.837003 1
0 0.816007 1
0.119982 0.794995 1
0.323995 0.773999 1
0.527993 0.753002 1
0.731991 0.731991 1
0.936004 0.710994 1
1 0.689998 1
0 1 1
0 0.992004 1
0 0.971008 1
0.0499886 0.949996 1
0.253986 0.929 1
0.457984 0.908003 1
0.661997 0.887007 1
0.865995 0.865995 1
1 0.844999 1
0 1 1
0 1 1
0 1 1
0 1 1
0.183993 1 1
0.387991 1 1
0.591989 1 1
0.796002 1 1
1 1 1
