public/LUTS/Color Gain/Color Gain_09.cube
TITLE "Generated by Resolve"
LUT_3D_SIZE 33
0 0 0
0.0534371 0 0
0.10692 0 0
0.160388 0 0
0.213855 0 0
0.267323 0 0
0.32079 0 0
0.374258 0 0
0.427726 0 0
0.481193 0 0
0.534676 0 0
0.588144 0 0
0.641611 0 0
0.695079 0 0
0.748547 0 0
0.802014 0 0
0.855482 0 0
0.908949 0 0
0.962432 0 0
1 0 0
1 0 0
1 0 0
1 0 0
1 0 0
1 0 0
1 0 0
1 0 0
1 0 0
1 0 0
1 0 0
1 0 0
1 0 0
1 0 0
0 0.0396735 0
0.0337682 0.0337682 0
0.0872358 0.027863 0
0.140703 0.0219577 0
0.194171 0.0160525 0
0.247639 0.010132 0
0.301106 0.00422675 0
0.354589 0 0
0.408057 0 0
0.461524 0 0
0.514992 0 0
0.56846 0 0
0.621927 0 0
0.675395 0 0
0.728862 0 0
0.782345 0 0
0.835813 0 0
0.889281 0 0
0.942748 0 0
0.996216 0 0
1 0 0
1 0 0
1 0 0
1 0 0
1 0 0
1 0 0
1 0 0
1 0 0
1 0 0
1 0 0
1 0 0
1 0 0
1 0 0
0 0.0793622 0
0.0140841 0.0734569 0
0.0675517 0.0675517 0
0.121019 0.0616465 0
0.174487 0.0557259 0
0.227955 0.0498207 0
0.281422 0.0439155 0
0.33489 0.0380102 0
0.388357 0.032105 0
0.44184 0.0261997 0
0.495308 0.0202945 0
0.548775 0.0143893 0
0.602243 0.00848402 0
0.655711 0.00257877 0
0.709178 0 0
0.762646 0 0
0.816114 0 0
0.869596 0 0
0.923064 0 0
0.976532 0 0
1 0 0
1 0 0
1 0 0
1 0 0
1 0 0
1 0 0
1 0 0
1 0 0
1 0 0
1 0 0
1 0 0
1 0 0
1 0 0
0 0.119051 0
0 0.113146 0
0.0478523 0.10724 0
0.101335 0.101335 0
0.154803 0.0954147 0
0.20827 0.0895094 0
0.261738 0.0836042 0
0.315206 0.0776989 0
0.368673 0.0717937 0
0.422141 0.0658885 0
0.475608 0.0599832 0
0.529091 0.054078 0
0.582559 0.0481727 0
0.636027 0.0422675 0
0.689494 0.0363622 0
0.742962 0.0304417 0
0.796429 0.0245365 0
0.849897 0.0186313 0
0.90338 0.012726 0
0.956847 0.00682078 0
1 0.000915541 0
1 0 0
1 0 0
1 0 0
1 0 0
1 0 0
1 0 0
1 0 0
1 0 0
1 0 0
1 0 0
1 0 0
1 0 0
0 0.15874 0
0 0.152834 0
0.0281682 0.146929 0
0.0816358 0.141024 0
0.135103 0.135103 0
0.188586 0.129198 0
0.242054 0.123293 0
0.295521 0.117388 0
0.348989 0.111482 0
0.402457 0.105577 0
0.455924 0.0996719 0
0.509392 0.0937667 0
0.562875 0.0878614 0
0.616342 0.0819562 0
0.66981 0.076051 0
0.723278 0.0701305 0
0.776745 0.0642252 0
0.830213 0.05832 0
0.88368 0.0524147 0
0.937148 0.0465095 0
0.990631 0.0406043 0
1 0.034699 0
1 0.0287938 0
1 0.0228885 0
1 0.0169833 0
1 0.0110781 0
1 0.00515755 0
1 0 0
1 0 0
1 0 0
1 0 0
1 0 0
1 0 0
0 0.198428 0
0 0.192523 0
0.00848402 0.186618 0
0.0619516 0.180697 0
0.115419 0.174792 0
0.168887 0.168887 0
0.222354 0.162982 0
0.275837 0.157076 0
0.329305 0.151171 0
0.382773 0.145266 0
0.43624 0.139361 0
0.489708 0.133455 0
0.543175 0.12755 0
0.596643 0.121645 0
0.650126 0.115724 0
0.703593 0.109819 0
0.757061 0.103914 0
0.810529 0.0980087 0
0.863996 0.0921035 0
0.917464 0.0861982 0
0.970932 0.080293 0
1 0.0743877 0
1 0.0684825 0
1 0.0625772 0
1 0.056672 0
1 0.0507668 0
1 0.0448463 0
1 0.038941 0
1 0.0330358 0
1 0.0271305 0
1 0.0212253 0
1 0.0153201 0
1 0.00941482 0
0 0.238117 0
0 0.232212 0
0 0.226307 0
0.0422675 0.220386 0
0.0957351 0.214481 0
0.149203 0.208576 0
0.20267 0.20267 0
0.256138 0.196765 0
0.309621 0.19086 0
0.363088 0.184955 0
0.416556 0.179049 0
0.470024 0.173144 0
0.523491 0.167239 0
0.576959 0.161334 0
0.630426 0.155413 0
0.683894 0.149508 0
0.737377 0.143603 0
0.790845 0.137697 0
0.844312 0.131792 0
0.89778 0.125887 0
0.951247 0.119982 0
1 0.114076 0
1 0.108171 0
1 0.102266 0
1 0.0963607 0
1 0.0904402 0
1 0.084535 0
1 0.0786297 0
1 0.0727245 0
1 0.0668193 0
1 0.060914 0
1 0.0550088 0
1 0.0491035 0
0 0.27779 0
0 0.271901 0
0 0.26598 0
0.0225834 0.260075 0
0.076051 0.25417 0
0.129519 0.248264 0
0.182986 0.242359 0
0.236454 0.236454 0
0.289921 0.230549 0
0.343389 0.224643 0
0.396872 0.218738 0
0.45034 0.212833 0
0.503807 0.206928 0
0.557275 0.201022 0
0.610742 0.195102 0
0.66421 0.189197 0
0.717678 0.183291 0
0.771145 0.177386 0
0.824628 0.171481 0
0.878096 0.165576 0
0.931563 0.15967 0
0.985031 0.153765 0
1 0.14786 0
1 0.141955 0
1 0.136049 0
1 0.130129 0
1 0.124224 0
1 0.118318 0
1 0.112413 0
1 0.106508 0
1 0.100603 0
1 0.0946975 0
1 0.0887922 0
0 0.317479 0
0 0.311589 0
0 0.305669 0
0.00288396 0.299763 0
0.0563668 0.293858 0
0.109834 0.287953 0
0.163302 0.282048 0
0.21677 0.276143 0
0.270237 0.270237 0
0.323705 0.264332 0
0.377172 0.258427 0
0.43064 0.252522 0
0.484123 0.246616 0
0.537591 0.240696 0
0.591058 0.234791 0
0.644526 0.228885 0
0.697993 0.22298 0
0.751461 0.217075 0
0.804929 0.21117 0
0.858396 0.205264 0
0.911879 0.199359 0
0.965347 0.193454 0
1 0.187549 0
1 0.181643 0
1 0.175723 0
1 0.169818 0
1 0.163912 0
1 0.158007 0
1 0.152102 0
1 0.146197 0
1 0.140291 0
1 0.134386 0
1 0.128481 0
0 0.357168 0
0 0.351263 0
0 0.345357 0
0 0.339452 0
0.0366674 0.333547 0
0.090135 0.327642 0
0.143618 0.321736 0
0.197086 0.315831 0
0.250553 0.309926 0
0.304021 0.304021 0
0.357488 0.298116 0
0.410956 0.29221 0
0.464424 0.286305 0
0.517891 0.280385 0
0.571374 0.274479 0
0.624842 0.268574 0
0.678309 0.262669 0
0.731777 0.256764 0
0.785245 0.250858 0
0.838712 0.244953 0
0.89218 0.239048 0
0.945647 0.233143 0
0.99913 0.227237 0
1 0.221332 0
1 0.215412 0
1 0.209506 0
1 0.203601 0
1 0.197696 0
1 0.191791 0
1 0.185885 0
1 0.17998 0
1 0.174075 0
1 0.16817 0
0 0.396857 0
0 0.390951 0
0 0.385046 0
0 0.379141 0
0.0169833 0.373236 0
0.0704509 0.36733 0
0.123919 0.361425 0
0.177386 0.35552 0
0.230869 0.349615 0
0.284337 0.343709 0
0.337804 0.337804 0
0.391272 0.331899 0
0.444739 0.325978 0
0.498207 0.320073 0
0.551675 0.314168 0
0.605142 0.308263 0
0.658625 0.302358 0
0.712093 0.296452 0
0.76556 0.290547 0
0.819028 0.284642 0
0.872496 0.278737 0
0.925963 0.272831 0
0.979431 0.266926 0
1 0.261021 0
1 0.2551 0
1 0.249195 0
1 0.24329 0
1 0.237385 0
1 0.231479 0
1 0.225574 0
1 0.219669 0
1 0.213764 0
1 0.207858 0
0 0.436545 0
0 0.43064 0
0 0.424735 0
0 0.41883 0
0 0.412924 0
0.0507668 0.407019 0
0.104234 0.401114 0
0.157702 0.395209 0
0.21117 0.389303 0
0.264637 0.383398 0
0.31812 0.377493 0
0.371588 0.371588 0
0.425055 0.365667 0
0.478523 0.359762 0
0.531991 0.353857 0
0.585458 0.347951 0
0.638926 0.342046 0
0.692393 0.336141 0
0.745876 0.330236 0
0.799344 0.324331 0
0.852811 0.318425 0
0.906279 0.31252 0
0.959747 0.306615 0
1 0.300694 0
1 0.294789 0
1 0.288884 0
1 0.282979 0
1 0.277073 0
1 0.271168 0
1 0.265263 0
1 0.259358 0
1 0.253452 0
1 0.247547 0
0 0.476234 0
0 0.470329 0
0 0.464424 0
0 0.458518 0
0 0.452613 0
0.0310826 0.446708 0
0.0845502 0.440803 0
0.138018 0.434897 0
0.191485 0.428992 0
0.244953 0.423087 0
0.298421 0.417182 0
0.351888 0.411261 0
0.405371 0.405356 0
0.458839 0.399451 0
0.512306 0.393545 0
0.565774 0.38764 0
0.619242 0.381735 0
0.672709 0.37583 0
0.726177 0.369924 0
0.779644 0.364019 0
0.833127 0.358114 0
0.886595 0.352209 0
0.940063 0.346303 0
0.99353 0.340383 0
1 0.334478 0
1 0.328573 0
1 0.322667 0
1 0.316762 0
1 0.310857 0
1 0.304952 0
1 0.299046 0
1 0.293141 0
1 0.287236 0
0 0.515923 0
0 0.510018 0
0 0.504112 0
0 0.498207 0
0 0.492302 0
0.0113832 0.486397 0
0.0648661 0.480491 0
0.118334 0.474586 0
0.171801 0.468681 0
0.225269 0.462776 0
0.278737 0.45687 0
0.332204 0.45095 0
0.385672 0.445045 0
0.439139 0.439139 0
0.492622 0.433234 0
0.54609 0.427329 0
0.599557 0.421424 0
0.653025 0.415518 0
0.706493 0.409613 0
0.75996 0.403708 0
0.813428 0.397803 0
0.866896 0.391897 0
0.920378 0.385977 0
0.973846 0.380072 0
1 0.374166 0
1 0.368261 0
1 0.362356 0
1 0.356451 0
1 0.350545 0
1 0.34464 0
1 0.338735 0
1 0.33283 0
1 0.326925 0
0 0.555611 0
0 0.549706 0
0 0.543801 0
0 0.537896 0
0 0.531991 0
0 0.526085 0
0.0451667 0.52018 0
0.0986343 0.514275 0
0.152117 0.50837 0
0.205585 0.502464 0
0.259052 0.496559 0
0.31252 0.490639 0
0.365988 0.484733 0
0.419455 0.478828 0
0.472923 0.472923 0
0.52639 0.467018 0
0.579873 0.461112 0
0.633341 0.455207 0
0.686809 0.449302 0
0.740276 0.443397 0
0.793744 0.437491 0
0.847211 0.431586 0
0.900679 0.425666 0
0.954162 0.41976 0
1 0.413855 0
1 0.40795 0
1 0.402045 0
1 0.396139 0
1 0.390234 0
1 0.384329 0
1 0.378424 0
1 0.372519 0
1 0.366613 0
0 0.5953 0
0 0.589395 0
0 0.58349 0
0 0.577585 0
0 0.571679 0
0 0.565774 0
0.0254826 0.559869 0
0.0789502 0.553964 0
0.132418 0.548058 0
0.185885 0.542153 0
0.239368 0.536233 0
0.292836 0.530327 0
0.346303 0.524422 0
0.399771 0.518517 0
0.453239 0.512612 0
0.506706 0.506706 0
0.560174 0.500801 0
0.613657 0.494896 0
0.667124 0.488991 0
0.720592 0.483085 0
0.77406 0.47718 0
0.827527 0.47126 0
0.880995 0.465354 0
0.934462 0.459449 0
0.98793 0.453544 0
1 0.447639 0
1 0.441733 0
1 0.435828 0
1 0.429923 0
1 0.424018 0
1 0.418112 0
1 0.412207 0
1 0.406302 0
0 0.634989 0
0 0.629084 0
0 0.623178 0
0 0.617273 0
0 0.611368 0
0 0.605463 0
0.00579843 0.599557 0
0.059266 0.593652 0
0.112734 0.587747 0
0.166201 0.581842 0
0.219669 0.575921 0
0.273136 0.570016 0
0.326619 0.564111 0
0.380087 0.558206 0
0.433555 0.5523 0
0.487022 0.546395 0
0.54049 0.54049 0
0.593957 0.534585 0
0.647425 0.528679 0
0.700908 0.522774 0
0.754376 0.516869 0
0.807843 0.510948 0
0.861311 0.505043 0
0.914778 0.499138 0
0.968246 0.493233 0
1 0.487327 0
1 0.481422 0
1 0.475517 0
1 0.469612 0
1 0.463706 0
1 0.457801 0
1 0.451896 0
1 0.445975 0
0 0.674678 0
0 0.668772 0
0 0.662867 0
0 0.656962 0
0 0.651057 0
0 0.645151 0
0 0.639246 0
0.0395819 0.633341 0
0.0930495 0.627436 0
0.146517 0.621515 0
0.199985 0.61561 0
0.253452 0.609705 0
0.30692 0.6038 0
0.360403 0.597894 0
0.41387 0.591989 0
0.467338 0.586084 0
0.520806 0.580179 0
0.574273 0.574273 0
0.627741 0.568368 0
0.681208 0.562463 0
0.734676 0.556558 0
0.788159 0.550637 0
0.841627 0.544732 0
0.895094 0.538827 0
0.948562 0.532921 0
1 0.527016 0
1 0.521111 0
1 0.515206 0
1 0.5093 0
1 0.503395 0
1 0.49749 0
1 0.491585 0
1 0.485664 0
0 0.714366 0
0 0.708461 0
0 0.702556 0
0 0.696651 0
0 0.690745 0
0 0.68484 0
0 0.678935 0
0.0198978 0.67303 0
0.0733654 0.667124 0
0.126833 0.661204 0
0.180301 0.655299 0
0.233768 0.649393 0
0.287236 0.643488 0
0.340703 0.637583 0
0.394171 0.631678 0
0.447654 0.625772 0
0.501122 0.619867 0
0.554589 0.613962 0
0.608057 0.608057 0
0.661524 0.602152 0
0.714992 0.596231 0
0.76846 0.590326 0
0.821927 0.584421 0
0.87541 0.578515 0
0.928878 0.57261 0
0.982345 0.566705 0
1 0.5608 0
1 0.554894 0
1 0.548989 0
1 0.543084 0
1 0.537179 0
1 0.531273 0
1 0.525353 0
0 0.754055 0
0 0.74815 0
0 0.742245 0
0 0.736339 0
0 0.730434 0
0 0.724529 0
0 0.718624 0
0.000198367 0.712718 0
0.053666 0.706798 0
0.107149 0.700893 0
0.160616 0.694987 0
0.214084 0.689082 0
0.267552 0.683177 0
0.321019 0.677272 0
0.374487 0.671366 0
0.427955 0.665461 0
0.481422 0.659556 0
0.534905 0.653651 0
0.588373 0.647745 0
0.64184 0.64184 0
0.695308 0.63592 0
0.748775 0.630014 0
0.802243 0.624109 0
0.855711 0.618204 0
0.909178 0.612299 0
0.962661 0.606394 0
1 0.600488 0
1 0.594583 0
1 0.588678 0
1 0.582773 0
1 0.576867 0
1 0.570947 0
1 0.565042 0
0 0.793744 0
0 0.787839 0
0 0.781933 0
0 0.776028 0
0 0.770123 0
0 0.764218 0
0 0.758312 0
0 0.752407 0
0.0339818 0.746487 0
0.0874495 0.740581 0
0.140917 0.734676 0
0.1944 0.728771 0
0.247868 0.722866 0
0.301335 0.71696 0
0.354803 0.711055 0
0.40827 0.70515 0
0.461738 0.699245 0
0.515206 0.693339 0
0.568673 0.687434 0
0.622156 0.681514 0
0.675624 0.675608 0
0.729091 0.669703 0
0.782559 0.663798 0
0.836027 0.657893 0
0.889494 0.651987 0
0.942962 0.646082 0
0.996429 0.640177 0
1 0.634272 0
1 0.628367 0
1 0.622461 0
1 0.616556 0
1 0.610636 0
1 0.60473 0
0 0.833432 0
0 0.827527 0
0 0.821622 0
0 0.815717 0
0 0.809812 0
0 0.803906 0
0 0.798001 0
0 0.792096 0
0.0142977 0.786175 0
0.0677653 0.78027 0
0.121233 0.774365 0
0.174701 0.76846 0
0.228168 0.762554 0
0.281651 0.756649 0
0.335119 0.750744 0
0.388586 0.744839 0
0.442054 0.738933 0
0.495521 0.733028 0
0.548989 0.727123 0
0.602457 0.721202 0
0.655924 0.715297 0
0.709407 0.709392 0
0.762875 0.703487 0
0.816342 0.697581 0
0.86981 0.691676 0
0.923278 0.685771 0
0.976745 0.679866 0
1 0.673961 0
1 0.668055 0
1 0.66215 0
1 0.656229 0
1 0.650324 0
1 0.644419 0
0 0.873121 0
0 0.867216 0
0 0.861311 0
0 0.855406 0
0 0.8495 0
0 0.843595 0
0 0.83769 0
0 0.831769 0
0 0.825864 0
0.0480812 0.819959 0
0.101549 0.814054 0
0.155016 0.808148 0
0.208484 0.802243 0
0.261952 0.796338 0
0.315419 0.790433 0
0.368902 0.784527 0
0.42237 0.778622 0
0.475837 0.772717 0
0.529305 0.766796 0
0.582773 0.760891 0
0.63624 0.754986 0
0.689708 0.749081 0
0.743175 0.743175 0
0.796658 0.73727 0
0.850126 0.731365 0
0.903593 0.72546 0
0.957061 0.719554 0
1 0.713649 0
1 0.707744 0
1 0.701839 0
1 0.695918 0
1 0.690013 0
1 0.684108 0
0 0.91281 0
0 0.906905 0
0 0.900999 0
0 0.895094 0
0 0.889189 0
0 0.883284 0
0 0.877379 0
0 0.871458 0
0 0.865553 0
0.028397 0.859648 0
0.0818647 0.853742 0
0.135332 0.847837 0
0.1888 0.841932 0
0.242267 0.836027 0
0.295735 0.830121 0
0.349203 0.824216 0
0.40267 0.818311 0
0.456153 0.812406 0
0.509621 0.806485 0
0.563088 0.80058 0
0.616556 0.794675 0
0.670024 0.788769 0
0.723491 0.782864 0
0.776959 0.776959 0
0.830427 0.771054 0
0.883909 0.765148 0
0.937377 0.759243 0
0.990845 0.753338 0
1 0.747433 0
1 0.741512 0
1 0.735607 0
1 0.729702 0
1 0.723796 0
0 0.952499 0
0 0.946593 0
0 0.940688 0
0 0.934783 0
0 0.928878 0
0 0.922972 0
0 0.917052 0
0 0.911147 0
0 0.905241 0
0.00869764 0.899336 0
0.0621653 0.893431 0
0.115648 0.887526 0
0.169116 0.881621 0
0.222583 0.875715 0
0.276051 0.86981 0
0.329519 0.863905 0
0.382986 0.858 0
0.436454 0.852094 0
0.489921 0.846174 0
0.543404 0.840269 0
0.596872 0.834363 0
0.650339 0.828458 0
0.703807 0.822553 0
0.757275 0.816648 0
0.810742 0.810742 0
0.86421 0.804837 0
0.917678 0.798932 0
0.97116 0.793027 0
1 0.787121 0
1 0.781201 0
1 0.775296 0
1 0.76939 0
1 0.763485 0
0 0.992187 0
0 0.986282 0
0 0.980377 0
0 0.974472 0
0 0.968566 0
0 0.962661 0
0 0.956741 0
0 0.950835 0
0 0.94493 0
0 0.939025 0
0.0424811 0.93312 0
0.0959487 0.927214 0
0.149416 0.921309 0
0.202899 0.915404 0
0.256367 0.909499 0
0.309834 0.903593 0
0.363302 0.897688 0
0.41677 0.891768 0
0.470237 0.885863 0
0.523705 0.879957 0
0.577173 0.874052 0
0.630655 0.868147 0
0.684123 0.862242 0
0.737591 0.856336 0
0.791058 0.850431 0
0.844526 0.844526 0
0.897993 0.838621 0
0.951461 0.832715 0
1 0.826795 0
1 0.82089 0
1 0.814984 0
1 0.809079 0
1 0.803174 0
0 1 0
0 1 0
0 1 0
0 1 0
0 1 0
0 1 0
0 0.996429 0
0 0.990524 0
0 0.984619 0
0 0.978714 0
0.022797 0.972808 0
0.0762646 0.966903 0
0.129732 0.960998 0
0.1832 0.955093 0
0.236667 0.949187 0
0.29015 0.943282 0
0.343618 0.937377 0
0.397086 0.931456 0
0.450553 0.925551 0
0.504021 0.919646 0
0.557488 0.913741 0
0.610956 0.907835 0
0.664424 0.90193 0
0.717906 0.896025 0
0.771374 0.89012 0
0.824842 0.884215 0
0.878309 0.878309 0
0.931777 0.872404 0
0.985245 0.866484 0
1 0.860578 0
1 0.854673 0
1 0.848768 0
1 0.842863 0
0 1 0
0 1 0
0 1 0
0 1 0
0 1 0
0 1 0
0 1 0
0 1 0
0 1 0
