public/LUTS/Color Gain/Color Gain_01.cube
TITLE "Generated by Resolve"
LUT_3D_SIZE 9
0 0 0
0.134859 0 0
0.269734 0 0
0.404608 0 0
0.539498 0 0
0.674372 0 0
0.809247 0 0
0.944121 0 0
1 0 0
0 0.12874 0
0.126116 0.126116 0
0.26099 0.123491 0
0.395865 0.120867 0
0.530739 0.118227 0
0.665614 0.115602 0
0.800504 0.112978 0
0.935378 0.110353 0
1 0.107729 0
0 0.257496 0
0.117357 0.254856 0
0.252232 0.252232 0
0.387121 0.249607 0
0.521996 0.246983 0
0.65687 0.244358 0
0.791745 0.241733 0
0.926619 0.239109 0
1 0.236484 0
0 0.386236 0
0.108614 0.383612 0
0.243488 0.380987 0
0.378363 0.378363 0
0.513237 0.375738 0
0.648127 0.373114 0
0.783001 0.370489 0
0.917876 0.367864 0
1 0.36524 0
0 0.514992 0
0.099855 0.512367 0
0.234745 0.509743 0
0.369619 0.507118 0
0.504494 0.504494 0
0.639368 0.501869 0
0.774243 0.499245 0
0.909117 0.49662 0
1 0.49398 0
0 0.643748 0
0.0911116 0.641123 0
0.225986 0.638498 0
0.360861 0.635874 0
0.495735 0.633249 0
0.630625 0.63061 0
0.765499 0.627985 0
0.900374 0.62536 0
1 0.622736 0
0 0.772503 0
0.0823682 0.769879 0
0.217243 0.767239 0
0.352117 0.764614 0
0.486992 0.76199 0
0.621866 0.759365 0
0.756741 0.756741 0
0.89163 0.754116 0
1 0.751492 0
0 0.901244 0
0.0736095 0.898619 0
0.208484 0.895994 0
0.343359 0.89337 0
0.478248 0.890745 0
0.613123 0.888121 0
0.747997 0.885496 0
0.882872 0.882872 0
1 0.880247 0
0 1 0
0.0648661 1 0
0.199741 1 0
0.334615 1 0
0.46949 1 0
0.604364 1 0
0.739239 1 0
0.874128 1 0
1 1 0
0 0 0.136355
0.13373 0 0.13373
0.26862 0 0.131106
0.403494 0 0.128481
0.538369 0 0.125856
0.673243 0 0.123232
0.808118 0 0.120607
0.942992 0 0.117983
1 0 0.115358
0 0.127611 0.127611
0.124987 0.124987 0.124987
0.259861 0.122362 0.122362
0.394736 0.119738 0.119738
0.529625 0.117113 0.117113
0.6645 0.114488 0.114488
0.799374 0.111864 0.111864
0.934249 0.109239 0.109239
1 0.106615 0.106615
0 0.256367 0.118868
0.116243 0.253742 0.116243
0.251118 0.251118 0.113619
0.385992 0.248493 0.110979
0.520867 0.245869 0.108354
0.655741 0.243229 0.10573
0.790616 0.240604 0.103105
0.925505 0.23798 0.100481
1 0.235355 0.0978561
0 0.385122 0.110109
0.107485 0.382498 0.107485
0.242359 0.379858 0.10486
0.377234 0.377234 0.102235
0.512123 0.374609 0.0996109
0.646998 0.371984 0.0969863
0.781872 0.36936 0.0943618
0.916747 0.366735 0.0917372
1 0.364111 0.0891127
0 0.513863 0.101366
0.0987411 0.511238 0.0987411
0.233616 0.508614 0.0961166
0.36849 0.505989 0.093492
0.503365 0.503365 0.0908675
0.638239 0.50074 0.0882277
0.773129 0.498116 0.0856031
0.908003 0.495491 0.0829786
1 0.492866 0.080354
0 0.642618 0.092607
0.0899825 0.639994 0.0899825
0.224857 0.637369 0.0873579
0.359747 0.634745 0.0847334
0.494621 0.63212 0.0821088
0.629496 0.629496 0.0794842
0.76437 0.626871 0.0768597
0.899245 0.624247 0.0742351
1 0.621622 0.0716106
0 0.771374 0.0838636
0.081239 0.76875 0.081239
0.216114 0.766125 0.0786145
0.350988 0.7635 0.0759899
0.485863 0.760876 0.0733654
0.620737 0.758251 0.0707408
0.755627 0.755611 0.068101
0.890501 0.752987 0.0654765
1 0.750362 0.0628519
0 0.90013 0.0751049
0.0724804 0.897505 0.0724804
0.20737 0.894881 0.0698558
0.342245 0.892241 0.0672313
0.477119 0.889616 0.0646067
0.611994 0.886992 0.0619821
0.746868 0.884367 0.0593576
0.881743 0.881743 0.056733
1 0.879118 0.0541085
0 1 0.0663615
0.0637369 1 0.0637369
0.198611 1 0.0611124
0.333486 1 0.0584878
0.46836 1 0.0558633
0.60325 1 0.0532387
0.738125 1 0.0506142
0.872999 1 0.0479896
1 1 0.0453651
0 0 0.27274
0.132616 0 0.270115
0.267491 0 0.267491
0.402365 0 0.264866
0.53724 0 0.262242
0.672114 0 0.259617
0.806989 0 0.256992
0.941878 0 0.254368
1 0 0.251743
0 0.126482 0.263996
0.123857 0.123857 0.261372
0.258732 0.121233 0.258732
0.393622 0.118608 0.256107
0.528496 0.115984 0.253483
0.663371 0.113359 0.250858
0.798245 0.110735 0.248234
0.93312 0.10811 0.245609
1 0.105486 0.242985
0 0.255238 0.255238
0.115114 0.252613 0.252613
0.249989 0.249989 0.249989
0.384863 0.247364 0.247364
0.519738 0.244739 0.244739
0.654627 0.242115 0.242115
0.789502 0.23949 0.23949
0.924376 0.236866 0.236866
1 0.234241 0.234241
0 0.383993 0.246494
0.106355 0.381369 0.24387
0.241245 0.378744 0.241245
0.37612 0.37612 0.238621
0.510994 0.373495 0.235981
0.645869 0.370871 0.233356
0.780743 0.368231 0.230732
0.915618 0.365606 0.228107
1 0.362982 0.225483
0 0.512749 0.237736
0.097612 0.510124 0.235111
0.232486 0.5075 0.232486
0.367361 0.50486 0.229862
0.502235 0.502235 0.227237
0.637125 0.499611 0.224613
0.772 0.496986 0.221988
0.906874 0.494362 0.219364
1 0.491737 0.216739
0 0.641489 0.228992
0.0888685 0.638865 0.226368
0.223743 0.63624 0.223743
0.358618 0.633616 0.221118
0.493492 0.630991 0.218494
0.628367 0.628367 0.215869
0.763241 0.625742 0.21323
0.898131 0.623117 0.210605
1 0.620493 0.20798
0 0.770245 0.220233
0.0801099 0.76762 0.217609
0.214984 0.764996 0.214984
0.349859 0.762371 0.21236
0.484749 0.759747 0.209735
0.619623 0.757122 0.207111
0.754498 0.754498 0.204486
0.889372 0.751873 0.201862
1 0.749249 0.199237
0 0.899001 0.21149
0.0713664 0.896376 0.208865
0.206241 0.893751 0.206241
0.341115 0.891127 0.203616
0.47599 0.888502 0.200992
0.610864 0.885878 0.198367
0.745739 0.883253 0.195743
0.880629 0.880613 0.193118
1 0.877989 0.190478
0 1 0.202731
0.0626078 1 0.200107
0.197482 1 0.197482
0.332372 1 0.194858
0.467247 1 0.192233
0.602121 1 0.189609
0.736996 1 0.186984
0.87187 1 0.18436
1 1 0.181735
0 0 0.40911
0.131487 0 0.406485
0.266361 0 0.403861
0.401236 0 0.401236
0.53611 0 0.398611
0.671 0 0.395987
0.805875 0 0.393362
0.940749 0 0.390738
1 0 0.388113
0 0.125368 0.400366
0.122744 0.122744 0.397742
0.257618 0.120119 0.395117
0.392493 0.117479 0.392493
0.527367 0.114855 0.389868
0.662242 0.11223 0.387243
0.797116 0.109606 0.384619
0.932006 0.106981 0.381994
1 0.104356 0.37937
0 0.254108 0.391623
0.113985 0.251484 0.388998
0.248859 0.248859 0.386374
0.383734 0.246235 0.383734
0.518624 0.24361 0.381109
0.653498 0.240986 0.378485
0.788373 0.238361 0.37586
0.923247 0.235737 0.373236
1 0.233112 0.370611
0 0.382864 0.382864
0.105241 0.38024 0.38024
0.240116 0.377615 0.377615
0.37499 0.37499 0.37499
0.509865 0.372366 0.372366
0.644739 0.369741 0.369741
0.779629 0.367117 0.367117
0.914504 0.364492 0.364492
1 0.361868 0.361868
0 0.51162 0.374121
0.0964828 0.508995 0.371496
0.231357 0.506371 0.368872
0.366247 0.503746 0.366247
0.501122 0.501122 0.363622
0.635996 0.498497 0.360983
0.770871 0.495872 0.358358
0.905745 0.493233 0.355734
1 0.490608 0.353109
0 0.640375 0.365362
0.0877394 0.637751 0.362737
0.222614 0.635126 0.360113
0.357488 0.632502 0.357488
0.492363 0.629862 0.354864
0.627237 0.627237 0.352239
0.762127 0.624613 0.349615
0.897002 0.621988 0.34699
1 0.619364 0.344366
0 0.769116 0.356619
0.0789807 0.766491 0.353994
0.21387 0.763867 0.35137
0.348745 0.761242 0.348745
0.483619 0.758618 0.34612
0.618494 0.755993 0.343496
0.753368 0.753368 0.340871
0.888243 0.750744 0.338231
1 0.748119 0.335607
0 0.897871 0.34786
0.0702373 0.895247 0.345235
0.205112 0.892622 0.342611
0.339986 0.889998 0.339986
0.474861 0.887373 0.337362
0.609751 0.884749 0.334737
0.744625 0.882124 0.332113
0.879499 0.879499 0.329488
1 0.876875 0.326863
0 1 0.339117
0.0614786 1 0.336492
0.196368 1 0.333867
0.331243 1 0.331243
0.466117 1 0.328618
0.600992 1 0.325994
0.735866 1 0.323369
0.870741 1 0.320745
1 1 0.31812
0 0 0.545495
0.130358 0 0.54287
0.265232 0 0.540246
0.400122 0 0.537621
0.534997 0 0.534997
0.669871 0 0.532372
0.804746 0 0.529747
0.93962 0 0.527123
1 0 0.524498
0 0.124239 0.536751
0.121614 0.121614 0.534127
0.256489 0.11899 0.531487
0.391363 0.116365 0.528862
0.526238 0.113741 0.526238
0.661112 0.111116 0.523613
0.796002 0.108492 0.520989
0.930877 0.105852 0.518364
1 0.103227 0.51574
0 0.252995 0.527993
0.112856 0.25037 0.525368
0.247745 0.247745 0.522744
0.38262 0.245121 0.520119
0.517494 0.242481 0.517494
0.652369 0.239857 0.51487
0.787243 0.237232 0.512245
0.922118 0.234607 0.509621
1 0.231983 0.506996
0 0.381735 0.519249
0.104112 0.37911 0.516625
0.238987 0.376486 0.514
0.373861 0.373861 0.511376
0.508736 0.371237 0.508736
0.643626 0.368612 0.506111
0.7785 0.365988 0.503487
0.913375 0.363363 0.500862
1 0.360739 0.498238
0 0.510491 0.510491
0.0953536 0.507866 0.507866
0.230243 0.505241 0.505241
0.365118 0.502617 0.502617
0.499992 0.499992 0.499992
0.634867 0.497368 0.497368
0.769741 0.494743 0.494743
0.904631 0.492119 0.492119
1 0.489494 0.489494
0 0.639246 0.501747
0.0866102 0.636622 0.499123
0.221485 0.633997 0.496498
0.356359 0.631373 0.493874
0.491249 0.628748 0.491249
0.626123 0.626123 0.488624
0.760998 0.623499 0.485985
0.895872 0.620874 0.48336
1 0.618235 0.480735
0 0.768002 0.492988
0.0778668 0.765377 0.490364
0.212741 0.762753 0.487739
0.347616 0.760128 0.485115
0.48249 0.757504 0.48249
0.617365 0.754864 0.479866
0.752239 0.752239 0.477241
0.887129 0.749615 0.474617
1 0.74699 0.471992
0 0.896757 0.484245
0.0691081 0.894133 0.481621
0.203983 0.891493 0.478996
0.338872 0.888869 0.476371
0.473747 0.886244 0.473747
0.608621 0.883619 0.471122
0.743496 0.880995 0.468498
0.87837 0.87837 0.465873
1 0.875746 0.463233
0 1 0.475486
0.0603647 1 0.472862
0.195239 1 0.470237
0.330114 1 0.467613
0.464988 1 0.464988
0.599863 1 0.462364
0.734752 1 0.459739
0.869627 1 0.457115
1 1 0.45449
0 0 0.681865
0.129229 0 0.67924
0.264118 0 0.676616
0.398993 0 0.673991
0.533867 0 0.671366
0.668742 0 0.668742
0.803616 0 0.666117
0.938491 0 0.663493
1 0 0.660868
0 0.12311 0.673121
0.120485 0.120485 0.670497
0.25536 0.117861 0.667872
0.390234 0.115236 0.665248
0.525124 0.112612 0.662623
0.659998 0.109987 0.659998
0.794873 0.107362 0.657374
0.929747 0.104738 0.654749
1 0.102113 0.652125
0 0.251865 0.664378
0.111742 0.249241 0.661753
0.246616 0.246616 0.659129
0.381491 0.243992 0.656489
0.516365 0.241367 0.653864
0.65124 0.238743 0.65124
0.786114 0.236118 0.648615
0.921004 0.233494 0.645991
1 0.230854 0.643366
0 0.380621 0.655619
0.102983 0.377997 0.652995
0.237858 0.375372 0.65037
0.372747 0.372747 0.647745
0.507622 0.370123 0.645121
0.642496 0.367483 0.642496
0.777371 0.364858 0.639872
0.912245 0.362234 0.637247
1 0.359609 0.634623
0 0.509377 0.646876
0.0942397 0.506752 0.644251
0.229114 0.504112 0.641627
0.363989 0.501488 0.639002
0.498863 0.498863 0.636378
0.633738 0.496239 0.633738
0.768627 0.493614 0.631113
0.903502 0.49099 0.628489
1 0.488365 0.625864
0 0.638117 0.638117
0.085481 0.635493 0.635493
0.220371 0.632868 0.632868
0.355245 0.630243 0.630243
0.49012 0.627619 0.627619
0.624994 0.624994 0.624994
0.759869 0.62237 0.62237
0.894743 0.619745 0.619745
1 0.617121 0.617121
0 0.766873 0.629374
0.0767376 0.764248 0.626749
0.211612 0.761624 0.624125
0.346487 0.758999 0.6215
0.481361 0.756374 0.618875
0.616251 0.75375 0.616251
0.751125 0.751125 0.613611
0.886 0.748501 0.610986
1 0.745876 0.608362
0 0.895628 0.620615
0.0679789 0.893004 0.61799
0.202869 0.890379 0.615366
0.337743 0.887755 0.612741
0.472618 0.88513 0.610117
0.607492 0.882506 0.607492
0.742367 0.879866 0.604868
0.877241 0.877241 0.602243
1 0.874617 0.599619
0 1 0.611872
0.0592355 1 0.609247
0.19411 1 0.606622
0.328984 1 0.603998
0.463874 1 0.601373
0.598749 1 0.598749
0.733623 1 0.596124
0.868498 1 0.5935
1 1 0.590875
0 0 0.81825
0.128115 0 0.815625
0.262989 0 0.813001
0.397864 0 0.810376
0.532738 0 0.807752
0.667613 0 0.805127
0.802502 0 0.802502
0.937377 0 0.799878
1 0 0.797253
0 0.121996 0.809506
0.119356 0.119371 0.806882
0.254246 0.116732 0.804242
0.38912 0.114107 0.801617
0.523995 0.111482 0.798993
0.658869 0.108858 0.796368
0.793744 0.106233 0.793744
0.928618 0.103609 0.791119
1 0.100984 0.788495
0 0.250736 0.800748
0.110613 0.248112 0.798123
0.245487 0.245487 0.795499
0.380362 0.242863 0.792874
0.515236 0.240238 0.790249
0.650126 0.237613 0.787625
0.785 0.234989 0.785
0.919875 0.232364 0.782376
1 0.22974 0.779751
0 0.379492 0.792004
0.101854 0.376867 0.78938
0.236744 0.374243 0.786755
0.371618 0.371618 0.784131
0.506493 0.368994 0.781491
0.641367 0.366369 0.778866
0.776242 0.363745 0.776242
0.911116 0.36112 0.773617
1 0.358495 0.770993
0 0.508247 0.783246
0.0931106 0.505623 0.780621
0.227985 0.502998 0.777996
0.36286 0.500374 0.775372
0.497749 0.497749 0.772747
0.632624 0.495125 0.770123
0.767498 0.492485 0.767498
0.902373 0.48986 0.764874
1 0.487236 0.762249
0 0.637003 0.774502
0.0843671 0.634379 0.771878
0.219242 0.631754 0.769253
0.354116 0.629114 0.766629
0.488991 0.62649 0.764004
0.623865 0.623865 0.761379
0.75874 0.621241 0.75874
0.893629 0.618616 0.756115
1 0.615991 0.753491
0 0.765743 0.765743
0.0756085 0.763119 0.763119
0.210483 0.760494 0.760494
0.345357 0.75787 0.75787
0.480247 0.755245 0.755245
0.615122 0.752621 0.752621
0.749996 0.749996 0.749996
0.884871 0.747372 0.747372
1 0.744747 0.744747
0 0.894499 0.757
0.066865 0.891875 0.754376
0.20174 0.88925 0.751751
0.336614 0.886625 0.749126
0.471489 0.884001 0.746502
0.606363 0.881376 0.743877
0.741253 0.878752 0.741253
0.876127 0.876127 0.738628
1 0.873503 0.735988
0 1 0.748241
0.0581064 1 0.745617
0.192981 1 0.742992
0.327871 1 0.740368
0.462745 1 0.737743
0.59762 1 0.735119
0.732494 1 0.732494
0.867369 1 0.72987
1 1 0.727245
0 0 0.95462
0.126986 0 0.951995
0.26186 0 0.949371
0.396735 0 0.946746
0.531624 0 0.944121
0.666499 0 0.941497
0.801373 0 0.938872
0.936248 0 0.936248
1 0 0.933623
0 0.120867 0.945876
0.118242 0.118242 0.943252
0.253117 0.115618 0.940627
0.387991 0.112993 0.938003
0.522866 0.110369 0.935378
0.65774 0.107744 0.932754
0.792615 0.105104 0.930129
0.927504 0.10248 0.927504
1 0.099855 0.92488
0 0.249622 0.937133
0.109483 0.246998 0.934508
0.244358 0.244373 0.931884
0.379248 0.241733 0.929244
0.514122 0.239109 0.926619
0.648997 0.236484 0.923995
0.783871 0.23386 0.92137
0.918746 0.231235 0.918746
1 0.228611 0.916121
0 0.378363 0.928374
0.10074 0.375738 0.92575
0.235615 0.373114 0.923125
0.370489 0.370489 0.920501
0.505364 0.367864 0.917876
0.640238 0.36524 0.915251
0.775128 0.362615 0.912627
0.910002 0.359991 0.910002
1 0.357366 0.907378
0 0.507118 0.919631
0.0919814 0.504494 0.917006
0.226856 0.501869 0.914382
0.361746 0.499245 0.911757
0.49662 0.49662 0.909133
0.631495 0.493996 0.906493
0.766369 0.491371 0.903868
0.901244 0.488746 0.901244
1 0.486122 0.898619
0 0.635874 0.910872
0.083238 0.633249 0.908248
0.218112 0.630625 0.905623
0.352987 0.628 0.902998
0.487861 0.625376 0.900374
0.622751 0.622751 0.897749
0.757626 0.620127 0.895125
0.8925 0.617487 0.8925
1 0.614862 0.889876
0 0.76463 0.902129
0.0744793 0.762005 0.899504
0.209369 0.75938 0.89688
0.344244 0.756756 0.894255
0.479118 0.754116 0.89163
0.613993 0.751492 0.889006
0.748867 0.748867 0.886366
0.883741 0.746242 0.883741
1 0.743618 0.881117
0 0.89337 0.89337
0.0657359 0.890745 0.890745
0.20061 0.888121 0.888121
0.335485 0.885496 0.885496
0.470359 0.882872 0.882872
0.605249 0.880247 0.880247
0.740124 0.877623 0.877623
0.874998 0.874998 0.874998
1 0.872374 0.872374
0 1 0.884627
0.0569924 1 0.882002
0.191867 1 0.879377
0.326741 1 0.876753
0.461616 1 0.874128
0.59649 1 0.871504
0.731365 1 0.868879
0.866255 1 0.866255
1 1 0.86363
0 0 1
0.125856 0 1
0.260731 0 1
0.395621 0 1
0.530495 0 1
0.66537 0 1
0.800244 0 1
0.935119 0 1
1 0 1
0 0.119738 1
0.117113 0.117113 1
0.251987 0.114488 1
0.386862 0.111864 1
0.521737 0.109239 1
0.656626 0.106615 1
0.791501 0.10399 1
0.926375 0.101366 1
1 0.0987411 1
0 0.248493 1
0.108354 0.245869 1
0.243244 0.243244 1
0.378119 0.24062 1
0.512993 0.237995 1
0.647868 0.23537 1
0.782742 0.232746 1
0.917617 0.230106 1
1 0.227481 1
0 0.377249 1
0.0996109 0.374624 1
0.234485 0.372 1
0.36936 0.369375 1
0.50425 0.366735 1
0.639124 0.364111 1
0.773999 0.361486 1
0.908873 0.358862 1
1 0.356237 1
0 0.505989 1
0.0908675 0.503365 1
0.225742 0.50074 1
0.360616 0.498116 1
0.495491 0.495491 1
0.630365 0.492866 1
0.76524 0.490242 1
0.90013 0.487617 1
1 0.484993 1
0 0.634745 1
0.0821088 0.63212 1
0.216983 0.629496 1
0.351858 0.626871 1
0.486748 0.624247 1
0.621622 0.621622 1
0.756497 0.618997 1
0.891371 0.616373 1
1 0.613748 1
0 0.7635 1
0.0733654 0.760876 1
0.20824 0.758251 1
0.343114 0.755627 1
0.477989 0.753002 1
0.612863 0.750378 1
0.747753 0.747753 1
0.882628 0.745129 1
1 0.742489 1
0 0.892256 1
0.0646067 0.889632 1
0.199481 0.887007 1
0.334371 0.884382 1
0.469245 0.881758 1
0.60412 0.879118 1
0.738994 0.876493 1
0.873869 0.873869 1
1 0.871244 1
0 1 1
0.0558633 1 1
0.190738 1 1
0.325612 1 1
0.460487 1 1
0.595361 1 1
0.730251 1 1
0.865125 1 1
1 1 1
