public/LUTS/Color Gain/Color Gain_05.cube
TITLE "Generated by Resolve"
LUT_3D_SIZE 33
0 0 0
0.0435798 0 0
0.0871748 0 0
0.130755 0 0
0.17435 0 0
0.217945 0 0
0.26154 0 0
0.305135 0 0
0.34873 0 0
0.392325 0 0
0.43592 0 0
0.479515 0 0
0.52311 0 0
0.566705 0 0
0.6103 0 0
0.653895 0 0
0.69749 0 0
0.741085 0 0
0.78468 0 0
0.828275 0 0
0.87187 0 0
0.915465 0 0
0.95906 0 0
1 0 0
1 0 0
1 0 0
1 0 0
1 0 0
1 0 0
1 0 0
1 0 0
1 0 0
1 0 0
0 0.0359197 0
0.032639 0.032639 0
0.0762341 0.0293584 0
0.119829 0.0260777 0
0.163424 0.022797 0
0.207019 0.0195163 0
0.250614 0.0162356 0
0.294209 0.0129549 0
0.337804 0.00967422 0
0.381399 0.00639353 0
0.424994 0.00311284 0
0.468589 0 0
0.512184 0 0
0.555779 0 0
0.599374 0 0
0.642969 0 0
0.686564 0 0
0.730144 0 0
0.773739 0 0
0.817334 0 0
0.860929 0 0
0.904524 0 0
0.948119 0 0
0.991714 0 0
1 0 0
1 0 0
1 0 0
1 0 0
1 0 0
1 0 0
1 0 0
1 0 0
1 0 0
0 0.0718547 0
0.0216983 0.068574 0
0.0652934 0.0652934 0
0.108888 0.0620127 0
0.152483 0.058732 0
0.196078 0.0554513 0
0.239673 0.0521706 0
0.283268 0.0488899 0
0.326863 0.0456092 0
0.370459 0.0423285 0
0.414054 0.0390478 0
0.457649 0.0357671 0
0.501244 0.0324865 0
0.544839 0.0292058 0
0.588434 0.0259251 0
0.632029 0.0226444 0
0.675624 0.0193637 0
0.719219 0.0160678 0
0.762814 0.0127871 0
0.806409 0.00950637 0
0.850004 0.00622568 0
0.893599 0.00294499 0
0.937179 0 0
0.980774 0 0
1 0 0
1 0 0
1 0 0
1 0 0
1 0 0
1 0 0
1 0 0
1 0 0
1 0 0
0 0.10779 0
0.0107729 0.104524 0
0.0543526 0.101228 0
0.0979477 0.0979477 0
0.141543 0.094667 0
0.185138 0.0913863 0
0.228733 0.0881056 0
0.272328 0.0848249 0
0.315923 0.0815442 0
0.359518 0.0782635 0
0.403113 0.0749828 0
0.446708 0.0717021 0
0.490303 0.0684215 0
0.533898 0.0651408 0
0.577493 0.0618601 0
0.621088 0.0585794 0
0.664683 0.0552987 0
0.708278 0.052018 0
0.751873 0.0487373 0
0.795468 0.0454566 0
0.839063 0.0421759 0
0.882658 0.03888 0
0.926253 0.0355993 0
0.969848 0.0323186 0
1 0.0290379 0
1 0.0257572 0
1 0.0224765 0
1 0.0191958 0
1 0.0159152 0
1 0.0126345 0
1 0.00935378 0
1 0.00607309 0
1 0.0027924 0
0 0.14374 0
0 0.140459 0
0.0434272 0.137179 0
0.0870222 0.133898 0
0.130617 0.130617 0
0.174212 0.127321 0
0.217807 0.124041 0
0.261387 0.12076 0
0.304982 0.117479 0
0.348577 0.114199 0
0.392172 0.110918 0
0.435767 0.107637 0
0.479362 0.104356 0
0.522957 0.101076 0
0.566552 0.0977951 0
0.610147 0.0945144 0
0.653742 0.0912337 0
0.697337 0.087953 0
0.740932 0.0846723 0
0.784527 0.0813916 0
0.828122 0.0781109 0
0.871717 0.0748302 0
0.915312 0.0715496 0
0.958907 0.0682689 0
1 0.0649729 0
1 0.0616922 0
1 0.0584115 0
1 0.0551308 0
1 0.0518502 0
1 0.0485695 0
1 0.0452888 0
1 0.0420081 0
1 0.0387274 0
0 0.179675 0
0 0.176394 0
0.0324865 0.173114 0
0.0760815 0.169833 0
0.119677 0.166552 0
0.163272 0.163272 0
0.206867 0.159991 0
0.250462 0.15671 0
0.294057 0.153429 0
0.337652 0.150134 0
0.381247 0.146853 0
0.424842 0.143572 0
0.468421 0.140291 0
0.512016 0.137011 0
0.555611 0.13373 0
0.599207 0.130449 0
0.642802 0.127169 0
0.686397 0.123888 0
0.729992 0.120607 0
0.773587 0.117327 0
0.817182 0.114046 0
0.860777 0.110765 0
0.904372 0.107485 0
0.947967 0.104204 0
0.991562 0.100923 0
1 0.0976425 0
1 0.0943618 0
1 0.0910811 0
1 0.0877852 0
1 0.0845045 0
1 0.0812238 0
1 0.0779431 0
1 0.0746624 0
0 0.21561 0
0 0.212329 0
0.0215457 0.209049 0
0.0651408 0.205768 0
0.108736 0.202487 0
0.152331 0.199207 0
0.195926 0.195926 0
0.239521 0.192645 0
0.283116 0.189364 0
0.326711 0.186084 0
0.370306 0.182803 0
0.413901 0.179522 0
0.457496 0.176242 0
0.501091 0.172946 0
0.544686 0.169665 0
0.588281 0.166384 0
0.631876 0.163104 0
0.675456 0.159823 0
0.719051 0.156542 0
0.762646 0.153262 0
0.806241 0.149981 0
0.849836 0.1467 0
0.893431 0.14342 0
0.937026 0.140139 0
0.980621 0.136858 0
1 0.133577 0
1 0.130297 0
1 0.127016 0
1 0.123735 0
1 0.120455 0
1 0.117174 0
1 0.113893 0
1 0.110597 0
0 0.251545 0
0 0.248264 0
0.010605 0.244984 0
0.0542 0.241703 0
0.0977951 0.238422 0
0.14139 0.235142 0
0.184985 0.231861 0
0.22858 0.22858 0
0.272175 0.225299 0
0.31577 0.222019 0
0.359365 0.218738 0
0.40296 0.215457 0
0.446555 0.212177 0
0.49015 0.208896 0
0.533745 0.205615 0
0.57734 0.202335 0
0.620935 0.199054 0
0.66453 0.195758 0
0.708125 0.192477 0
0.75172 0.189197 0
0.795316 0.185916 0
0.838911 0.182635 0
0.88249 0.179355 0
0.926085 0.176074 0
0.96968 0.172793 0
1 0.169512 0
1 0.166232 0
1 0.162951 0
1 0.15967 0
1 0.15639 0
1 0.153109 0
1 0.149828 0
1 0.146548 0
0 0.28748 0
0 0.284215 0
0 0.280919 0
0.0432593 0.277638 0
0.0868544 0.274357 0
0.130449 0.271077 0
0.174044 0.267796 0
0.217639 0.264515 0
0.261234 0.261234 0
0.304829 0.257954 0
0.348424 0.254673 0
0.39202 0.251392 0
0.435615 0.248112 0
0.47921 0.244831 0
0.522805 0.24155 0
0.5664 0.23827 0
0.609995 0.234989 0
0.65359 0.231708 0
0.697185 0.228428 0
0.74078 0.225147 0
0.784375 0.221866 0
0.82797 0.21857 0
0.871565 0.21529 0
0.91516 0.212009 0
0.958755 0.208728 0
1 0.205447 0
1 0.202167 0
1 0.198886 0
1 0.195605 0
1 0.192325 0
1 0.189044 0
1 0.185763 0
1 0.182483 0
0 0.32343 0
0 0.32015 0
0 0.316869 0
0.0323339 0.313588 0
0.0759289 0.310307 0
0.119524 0.307027 0
0.163119 0.303731 0
0.206699 0.30045 0
0.250294 0.297169 0
0.293889 0.293889 0
0.337484 0.290608 0
0.381079 0.287327 0
0.424674 0.284047 0
0.468269 0.280766 0
0.511864 0.277485 0
0.555459 0.274205 0
0.599054 0.270924 0
0.642649 0.267643 0
0.686244 0.264363 0
0.729839 0.261082 0
0.773434 0.257801 0
0.817029 0.25452 0
0.860624 0.25124 0
0.904219 0.247959 0
0.947814 0.244663 0
0.991409 0.241382 0
1 0.238102 0
1 0.234821 0
1 0.23154 0
1 0.22826 0
1 0.224979 0
1 0.221698 0
1 0.218418 0
0 0.359365 0
0 0.356085 0
0 0.352804 0
0.0213931 0.349523 0
0.0649882 0.346242 0
0.108583 0.342962 0
0.152178 0.339681 0
0.195773 0.3364 0
0.239368 0.33312 0
0.282963 0.329824 0
0.326558 0.326543 0
0.370153 0.323262 0
0.413733 0.319982 0
0.457328 0.316701 0
0.500923 0.31342 0
0.544518 0.31014 0
0.588113 0.306859 0
0.631708 0.303578 0
0.675303 0.300298 0
0.718898 0.297017 0
0.762493 0.293736 0
0.806088 0.290455 0
0.849683 0.287175 0
0.893278 0.283894 0
0.936873 0.280613 0
0.980468 0.277333 0
1 0.274052 0
1 0.270771 0
1 0.267475 0
1 0.264195 0
1 0.260914 0
1 0.257633 0
1 0.254353 0
0 0.3953 0
0 0.39202 0
0 0.388739 0
0.0104524 0.385458 0
0.0540475 0.382177 0
0.0976425 0.378897 0
0.141238 0.375616 0
0.184833 0.372335 0
0.228428 0.369055 0
0.272023 0.365774 0
0.315618 0.362493 0
0.359213 0.359213 0
0.402808 0.355932 0
0.446403 0.352636 0
0.489998 0.349355 0
0.533593 0.346075 0
0.577188 0.342794 0
0.620768 0.339513 0
0.664363 0.336233 0
0.707958 0.332952 0
0.751553 0.329671 0
0.795148 0.32639 0
0.838743 0.32311 0
0.882338 0.319829 0
0.925933 0.316548 0
0.969528 0.313268 0
1 0.309987 0
1 0.306706 0
1 0.303426 0
1 0.300145 0
1 0.296864 0
1 0.293584 0
1 0.290288 0
0 0.431235 0
0 0.427955 0
0 0.424674 0
0 0.421393 0
0.0431067 0.418112 0
0.0867018 0.414832 0
0.130297 0.411551 0
0.173892 0.40827 0
0.217487 0.40499 0
0.261082 0.401709 0
0.304677 0.398428 0
0.348272 0.395148 0
0.391867 0.391867 0
0.435462 0.388586 0
0.479057 0.385306 0
0.522652 0.382025 0
0.566247 0.378744 0
0.609842 0.375448 0
0.653437 0.372168 0
0.697032 0.368887 0
0.740627 0.365606 0
0.784222 0.362325 0
0.827802 0.359045 0
0.871397 0.355764 0
0.914992 0.352483 0
0.958587 0.349203 0
1 0.345922 0
1 0.342641 0
1 0.339361 0
1 0.33608 0
1 0.332799 0
1 0.329519 0
1 0.326238 0
0 0.46717 0
0 0.463905 0
0 0.460609 0
0 0.457328 0
0.032166 0.454047 0
0.075761 0.450767 0
0.119356 0.447486 0
0.162951 0.444205 0
0.206546 0.440925 0
0.250141 0.437644 0
0.293736 0.434363 0
0.337331 0.431083 0
0.380926 0.427802 0
0.424521 0.424521 0
0.468116 0.421241 0
0.511711 0.41796 0
0.555306 0.414679 0
0.598901 0.411399 0
0.642496 0.408118 0
0.686091 0.404837 0
0.729686 0.401556 0
0.773281 0.39826 0
0.816876 0.39498 0
0.860471 0.391699 0
0.904067 0.388418 0
0.947662 0.385138 0
0.991257 0.381857 0
1 0.378576 0
1 0.375296 0
1 0.372015 0
1 0.368734 0
1 0.365454 0
1 0.362173 0
0 0.50312 0
0 0.49984 0
0 0.496559 0
0 0.493278 0
0.0212406 0.489998 0
0.0648356 0.486717 0
0.108431 0.483421 0
0.15201 0.48014 0
0.195605 0.47686 0
0.2392 0.473579 0
0.282795 0.470298 0
0.32639 0.467018 0
0.369985 0.463737 0
0.413581 0.460456 0
0.457176 0.457176 0
0.500771 0.453895 0
0.544366 0.450614 0
0.587961 0.447333 0
0.631556 0.444053 0
0.675151 0.440772 0
0.718746 0.437491 0
0.762341 0.434211 0
0.805936 0.43093 0
0.849531 0.427649 0
0.893126 0.424369 0
0.936721 0.421073 0
0.980316 0.417792 0
1 0.414511 0
1 0.411231 0
1 0.40795 0
1 0.404669 0
1 0.401389 0
1 0.398108 0
0 0.539055 0
0 0.535775 0
0 0.532494 0
0 0.529213 0
0.0102998 0.525933 0
0.0538949 0.522652 0
0.0974899 0.519371 0
0.141085 0.516091 0
0.18468 0.51281 0
0.228275 0.509529 0
0.27187 0.506233 0
0.315465 0.502953 0
0.359045 0.499672 0
0.40264 0.496391 0
0.446235 0.493111 0
0.48983 0.48983 0
0.533425 0.486549 0
0.57702 0.483268 0
0.620615 0.479988 0
0.66421 0.476707 0
0.707805 0.473426 0
0.7514 0.470146 0
0.794995 0.466865 0
0.83859 0.463584 0
0.882185 0.460304 0
0.92578 0.457023 0
0.969375 0.453742 0
1 0.450462 0
1 0.447181 0
1 0.443885 0
1 0.440604 0
1 0.437324 0
1 0.434043 0
0 0.57499 0
0 0.57171 0
0 0.568429 0
0 0.565148 0
0 0.561868 0
0.0429541 0.558587 0
0.0865492 0.555306 0
0.130144 0.552026 0
0.173739 0.548745 0
0.217334 0.545464 0
0.260929 0.542184 0
0.304524 0.538903 0
0.348119 0.535622 0
0.391714 0.532326 0
0.435309 0.529046 0
0.478904 0.525765 0
0.522499 0.522484 0
0.566079 0.519203 0
0.609674 0.515923 0
0.653269 0.512642 0
0.696864 0.509361 0
0.740459 0.506081 0
0.784054 0.5028 0
0.827649 0.499519 0
0.871244 0.496239 0
0.914839 0.492958 0
0.958434 0.489677 0
1 0.486397 0
1 0.483116 0
1 0.479835 0
1 0.476555 0
1 0.473274 0
1 0.469978 0
0 0.610925 0
0 0.607645 0
0 0.604364 0
0 0.601083 0
0 0.597803 0
0.0320134 0.594522 0
0.0756085 0.591241 0
0.119203 0.587961 0
0.162799 0.58468 0
0.206394 0.581399 0
0.249989 0.578119 0
0.293584 0.574838 0
0.337179 0.571557 0
0.380774 0.568276 0
0.424369 0.564996 0
0.467964 0.561715 0
0.511559 0.558434 0
0.555154 0.555138 0
0.598749 0.551858 0
0.642344 0.548577 0
0.685939 0.545296 0
0.729534 0.542016 0
0.773114 0.538735 0
0.816709 0.535454 0
0.860304 0.532174 0
0.903899 0.528893 0
0.947494 0.525612 0
0.991089 0.522332 0
1 0.519051 0
1 0.51577 0
1 0.512489 0
1 0.509209 0
1 0.505928 0
0 0.64686 0
0 0.643595 0
0 0.640299 0
0 0.637018 0
0 0.633738 0
0.0210727 0.630457 0
0.0646677 0.627176 0
0.108263 0.623896 0
0.151858 0.620615 0
0.195453 0.617334 0
0.239048 0.614054 0
0.282643 0.610773 0
0.326238 0.607492 0
0.369833 0.604212 0
0.413428 0.600931 0
0.457023 0.59765 0
0.500618 0.594369 0
0.544213 0.591089 0
0.587808 0.587808 0
0.631403 0.584527 0
0.674998 0.581247 0
0.718593 0.577951 0
0.762188 0.57467 0
0.805783 0.571389 0
0.849378 0.568109 0
0.892973 0.564828 0
0.936568 0.561547 0
0.980148 0.558267 0
1 0.554986 0
1 0.551705 0
1 0.548424 0
1 0.545144 0
1 0.541863 0
0 0.682811 0
0 0.67953 0
0 0.676249 0
0 0.672969 0
0 0.669688 0
0.0101472 0.666407 0
0.0537423 0.663111 0
0.097322 0.659831 0
0.140917 0.65655 0
0.184512 0.653269 0
0.228107 0.649989 0
0.271702 0.646708 0
0.315297 0.643427 0
0.358892 0.640146 0
0.402487 0.636866 0
0.446082 0.633585 0
0.489677 0.630304 0
0.533272 0.627024 0
0.576867 0.623743 0
0.620462 0.620462 0
0.664057 0.617182 0
0.707652 0.613901 0
0.751247 0.61062 0
0.794842 0.60734 0
0.838437 0.604059 0
0.882033 0.600763 0
0.925628 0.597482 0
0.969223 0.594202 0
1 0.590921 0
1 0.58764 0
1 0.58436 0
1 0.581079 0
1 0.577798 0
0 0.718746 0
0 0.715465 0
0 0.712184 0
0 0.708904 0
0 0.705623 0
0 0.702342 0
0.0428016 0.699062 0
0.0863966 0.695781 0
0.129992 0.6925 0
0.173587 0.689219 0
0.217182 0.685924 0
0.260777 0.682643 0
0.304356 0.679362 0
0.347951 0.676081 0
0.391546 0.672801 0
0.435142 0.66952 0
0.478737 0.666239 0
0.522332 0.662959 0
0.565927 0.659678 0
0.609522 0.656397 0
0.653117 0.653117 0
0.696712 0.649836 0
0.740307 0.646555 0
0.783902 0.643275 0
0.827497 0.639994 0
0.871092 0.636713 0
0.914687 0.633433 0
0.958282 0.630152 0
1 0.626871 0
1 0.623575 0
1 0.620295 0
1 0.617014 0
1 0.613733 0
0 0.754681 0
0 0.7514 0
0 0.748119 0
0 0.744839 0
0 0.741558 0
0 0.738277 0
0.0318608 0.734997 0
0.0754559 0.731716 0
0.119051 0.728435 0
0.162646 0.725155 0
0.206241 0.721874 0
0.249836 0.718593 0
0.293431 0.715312 0
0.337026 0.712032 0
0.380621 0.708736 0
0.424216 0.705455 0
0.467811 0.702174 0
0.511391 0.698894 0
0.554986 0.695613 0
0.598581 0.692332 0
0.642176 0.689052 0
0.685771 0.685771 0
0.729366 0.68249 0
0.772961 0.67921 0
0.816556 0.675929 0
0.860151 0.672648 0
0.903746 0.669367 0
0.947341 0.666087 0
0.990936 0.662806 0
1 0.659525 0
1 0.656245 0
1 0.652964 0
1 0.649668 0
0 0.790616 0
0 0.787335 0
0 0.784054 0
0 0.780774 0
0 0.777493 0
0 0.774212 0
0.0209201 0.770932 0
0.0645151 0.767651 0
0.10811 0.76437 0
0.151705 0.76109 0
0.1953 0.757809 0
0.238895 0.754528 0
0.28249 0.751247 0
0.326085 0.747967 0
0.36968 0.744686 0
0.413275 0.741405 0
0.45687 0.738125 0
0.500465 0.734829 0
0.54406 0.731548 0
0.587655 0.728267 0
0.631251 0.724987 0
0.674846 0.721706 0
0.718425 0.718425 0
0.76202 0.715145 0
0.805615 0.711864 0
0.84921 0.708583 0
0.892805 0.705303 0
0.9364 0.702022 0
0.979995 0.698741 0
1 0.69546 0
1 0.69218 0
1 0.688899 0
1 0.685618 0
0 0.826551 0
0 0.823285 0
0 0.819989 0
0 0.816709 0
0 0.813428 0
0 0.810147 0
0.0099794 0.806867 0
0.0535744 0.803586 0
0.0971695 0.800305 0
0.140764 0.797024 0
0.18436 0.793744 0
0.227955 0.790463 0
0.27155 0.787182 0
0.315145 0.783902 0
0.35874 0.780621 0
0.402335 0.77734 0
0.44593 0.77406 0
0.489525 0.770779 0
0.53312 0.767498 0
0.576715 0.764218 0
0.62031 0.760937 0
0.663905 0.757641 0
0.7075 0.75436 0
0.751095 0.75108 0
0.79469 0.747799 0
0.838285 0.744518 0
0.88188 0.741238 0
0.92546 0.737957 0
0.969055 0.734676 0
1 0.731395 0
1 0.728115 0
1 0.724834 0
1 0.721553 0
0 0.862501 0
0 0.85922 0
0 0.85594 0
0 0.852659 0
0 0.849378 0
0 0.846098 0
0 0.842802 0
0.0426337 0.839521 0
0.0862287 0.83624 0
0.129824 0.832959 0
0.173419 0.829679 0
0.217014 0.826398 0
0.260609 0.823117 0
0.304204 0.819837 0
0.347799 0.816556 0
0.391394 0.813275 0
0.434989 0.809995 0
0.478584 0.806714 0
0.522179 0.803433 0
0.565774 0.800153 0
0.609369 0.796872 0
0.652964 0.793591 0
0.696559 0.790311 0
0.740154 0.78703 0
0.783749 0.783749 0
0.827344 0.780453 0
0.870939 0.777173 0
0.914534 0.773892 0
0.958129 0.770611 0
1 0.76733 0
1 0.76405 0
1 0.760769 0
1 0.757488 0
0 0.898436 0
0 0.895155 0
0 0.891875 0
0 0.888594 0
0 0.885313 0
0 0.882033 0
0 0.878752 0
0.0317082 0.875471 0
0.0753033 0.87219 0
0.118898 0.86891 0
0.162493 0.865614 0
0.206088 0.862333 0
0.249668 0.859052 0
0.293263 0.855772 0
0.336858 0.852491 0
0.380453 0.84921 0
0.424048 0.84593 0
0.467643 0.842649 0
0.511238 0.839368 0
0.554833 0.836088 0
0.598428 0.832807 0
0.642023 0.829526 0
0.685618 0.826246 0
0.729213 0.822965 0
0.772808 0.819684 0
0.816403 0.816403 0
0.859998 0.813123 0
0.903593 0.809842 0
0.947188 0.806561 0
0.990784 0.803265 0
1 0.799985 0
1 0.796704 0
1 0.793423 0
0 0.934371 0
0 0.93109 0
0 0.92781 0
0 0.924529 0
0 0.921248 0
0 0.917967 0
0 0.914687 0
0.0207675 0.911406 0
0.0643626 0.908125 0
0.107958 0.904845 0
0.151553 0.901564 0
0.195148 0.898283 0
0.238743 0.895003 0
0.282338 0.891722 0
0.325933 0.888426 0
0.369528 0.885145 0
0.413123 0.881865 0
0.456703 0.878584 0
0.500298 0.875303 0
0.543893 0.872023 0
0.587488 0.868742 0
0.631083 0.865461 0
0.674678 0.862181 0
0.718273 0.8589 0
0.761868 0.855619 0
0.805463 0.852338 0
0.849058 0.849058 0
0.892653 0.845777 0
0.936248 0.842496 0
0.979843 0.839216 0
1 0.835935 0
1 0.832654 0
1 0.829374 0
0 0.970306 0
0 0.967025 0
0 0.963745 0
0 0.960464 0
0 0.957183 0
0 0.953902 0
0 0.950622 0
0.00982681 0.947341 0
0.0534218 0.94406 0
