public/LUTS/Color Gain/Color Gain_04.cube
TITLE "Generated by Resolve"
LUT_3D_SIZE 5
0 0 0
0.328984 0 0
0.657984 0 0
0.986999 0 0
1 0 0
0 0.279988 0
0.258991 0.258991 0
0.587991 0.23798 0
0.916991 0.216983 0
1 0.195987 0
0 0.559991 0
0.188983 0.538994 0
0.517998 0.517983 0
0.846998 0.496986 0
1 0.47599 0
0 0.839994 0
0.11899 0.818998 0
0.44799 0.798001 0
0.776989 0.776989 0
1 0.755993 0
0 1 0
0.0489815 1 0
0.377997 1 0
0.706996 1 0
1 1 0
0 0 0.340978
0.319982 0 0.319982
0.648997 0 0.298985
0.977996 0 0.277989
1 0 0.256977
0 0.270985 0.270985
0.249989 0.249989 0.249989
0.578988 0.228992 0.228992
0.908003 0.20798 0.20798
1 0.186984 0.186984
0 0.550988 0.200992
0.17998 0.529992 0.17998
0.508995 0.508995 0.158984
0.837995 0.487984 0.137987
1 0.466987 0.116991
0 0.830991 0.130983
0.109987 0.809995 0.109987
0.438987 0.788998 0.0889906
0.768002 0.767987 0.0679789
1 0.74699 0.0469825
0 1 0.0609751
0.0399786 1 0.0399786
0.368994 1 0.0189822
0.697993 1 0
1 1 0
0 0 0.681987
0.310979 0 0.66099
0.639994 0 0.639994
0.968994 0 0.618997
1 0 0.597986
0 0.261997 0.611994
0.240986 0.240986 0.590997
0.570001 0.219989 0.570001
0.899001 0.198993 0.548989
1 0.177981 0.527993
0 0.542 0.541985
0.170993 0.520989 0.520989
0.499992 0.499992 0.499992
0.828992 0.478996 0.478996
1 0.457984 0.457984
0 0.822003 0.471992
0.100984 0.800992 0.450996
0.429984 0.779995 0.429984
0.758999 0.758999 0.408988
1 0.737987 0.387991
0 1 0.401984
0.0309911 1 0.380987
0.359991 1 0.359991
0.688991 1 0.338994
1 1 0.317983
0 0 1
0.301991 0 1
0.630991 0 0.981003
0.959991 0 0.959991
1 0 0.938994
0 0.252995 0.953002
0.231983 0.231998 0.932006
0.560998 0.210986 0.910994
0.889998 0.18999 0.889998
1 0.168978 0.869001
0 0.532998 0.882994
0.16199 0.512001 0.861997
0.49099 0.49099 0.841001
0.820005 0.469993 0.820005
1 0.448997 0.798993
0 0.813001 0.813001
0.0919814 0.792004 0.792004
0.420996 0.770993 0.770993
0.749996 0.749996 0.749996
1 0.729 0.729
0 1 0.742992
0.0219883 1 0.721996
0.350988 1 0.700999
0.679988 1 0.679988
1 1 0.658991
0 0 1
0.292988 0 1
0.621988 0 1
0.950988 0 1
1 0 1
0 0.243992 1
0.222995 0.222995 1
0.551995 0.201984 1
0.880995 0.180987 1
1 0.159991 1
0 0.523995 1
0.152987 0.502998 1
0.481987 0.482002 1
0.811002 0.46099 1
1 0.439994 1
0 0.803998 1
0.0829786 0.783001 1
0.411994 0.762005 1
0.740993 0.740993 1
1 0.719997 1
0 1 1
0.0129854 1 1
0.341985 1 1
0.671 1 1
1 1 1
