public/LUTS/Color Gain/Color Gain_09.cube
TITLE "Generated by Resolve"
LUT_3D_SIZE 9
0 0 0
0.213855 0 0
0.427726 0 0
0.641611 0 0
0.855482 0 0
1 0 0
1 0 0
1 0 0
1 0 0
0 0.15874 0
0.135103 0.135103 0
0.348989 0.111482 0
0.562875 0.0878614 0
0.776745 0.0642252 0
0.990631 0.0406043 0
1 0.0169833 0
1 0 0
1 0 0
0 0.317479 0
0.0563668 0.293858 0
0.270237 0.270237 0
0.484123 0.246616 0
0.697993 0.22298 0
0.911879 0.199359 0
1 0.175723 0
1 0.152102 0
1 0.128481 0
0 0.476234 0
0 0.452613 0
0.191485 0.428992 0
0.405371 0.405356 0
0.619242 0.381735 0
0.833127 0.358114 0
1 0.334478 0
1 0.310857 0
1 0.287236 0
0 0.634989 0
0 0.611368 0
0.112734 0.587747 0
0.326619 0.564111 0
0.54049 0.54049 0
0.754376 0.516869 0
0.968246 0.493233 0
1 0.469612 0
1 0.445975 0
0 0.793744 0
0 0.770123 0
0.0339818 0.746487 0
0.247868 0.722866 0
0.461738 0.699245 0
0.675624 0.675608 0
0.889494 0.651987 0
1 0.628367 0
1 0.60473 0
0 0.952499 0
0 0.928878 0
0 0.905241 0
0.169116 0.881621 0
0.382986 0.858 0
0.596872 0.834363 0
0.810742 0.810742 0
1 0.787121 0
1 0.763485 0
0 1 0
0 1 0
0 1 0
0.0903639 1 0
0.304234 1 0
0.51812 0.993118 0
0.731991 0.969497 0
0.945876 0.945861 0
1 0.92224 0
0 1 0
0 1 0
0 1 0
0.0116121 1 0
0.225483 1 0
0.439368 1 0
0.653239 1 0
0.867124 1 0
1 1 0
0 0 0.227344
0.203723 0 0.203723
0.417609 0 0.180102
0.631479 0 0.156481
0.845365 0 0.132845
1 0 0.109224
1 0 0.0856031
1 0 0.0619821
1 0 0.0383459
0 0.148608 0.148608
0.124987 0.124987 0.124987
0.338872 0.101366 0.101366
0.552743 0.0777295 0.0777295
0.766629 0.0541085 0.0541085
0.980499 0.0304875 0.0304875
1 0.0068513 0.00686656
1 0 0
1 0 0
0 0.307362 0.0698558
0.0462348 0.283742 0.0462348
0.260121 0.260105 0.0226139
0.473991 0.236484 0
0.687877 0.212863 0
0.901747 0.189227 0
1 0.165606 0
1 0.141985 0
1 0.118349 0
0 0.466117 0
0 0.442496 0
0.181369 0.41886 0
0.395239 0.395239 0
0.609125 0.371618 0
0.822995 0.347982 0
1 0.324361 0
1 0.30074 0
1 0.277104 0
0 0.624872 0
0 0.601251 0
0.102617 0.577615 0
0.316487 0.553994 0
0.530373 0.530358 0
0.744244 0.506737 0
0.958129 0.483116 0
1 0.45948 0
1 0.435859 0
0 0.783627 0
0 0.759991 0
0.0238651 0.73637 0
0.237736 0.712749 0
0.451621 0.689113 0
0.665492 0.665492 0
0.879377 0.641871 0
1 0.618235 0
1 0.594614 0
0 0.942367 0
0 0.918746 0
0 0.895125 0
0.158984 0.871504 0
0.372869 0.847868 0
0.58674 0.824247 0
0.800626 0.80061 0
1 0.776989 0
1 0.753368 0
0 1 0
0 1 0
0 1 0
0.0802319 1 0
0.294118 1 0
0.507988 0.983001 0
0.721874 0.959365 0
0.935744 0.935744 0
1 0.912123 0
0 1 0
0 1 0
0 1 0
0.00148013 1 0
0.215366 1 0
0.429236 1 0
0.643122 1 0
0.856992 1 0
1 1 0
0 0 0.454734
0.193606 0 0.431113
0.407477 0 0.407477
0.621363 0 0.383856
0.835233 0 0.360235
1 0 0.336599
1 0 0.312978
1 0 0.289357
1 0 0.265736
0 0.138491 0.375982
0.114855 0.11487 0.352361
0.32874 0.0912337 0.32874
0.542611 0.0676127 0.305119
0.756497 0.0439765 0.281483
0.970382 0.0203555 0.257862
1 0 0.234241
1 0 0.21062
1 0 0.186984
0 0.297246 0.29723
0.0361028 0.27361 0.27361
0.249989 0.249989 0.249989
0.463874 0.226368 0.226368
0.677745 0.202731 0.202731
0.89163 0.17911 0.17911
1 0.155489 0.155489
1 0.131853 0.131868
1 0.108232 0.108232
0 0.455985 0.218479
0 0.432364 0.194858
0.171237 0.408743 0.171237
0.385122 0.385107 0.147616
0.598993 0.361486 0.12398
0.812879 0.337865 0.100359
1 0.314229 0.0767376
1 0.290608 0.0531167
1 0.266987 0.0294804
0 0.61474 0.139727
0 0.591119 0.116106
0.0924849 0.567498 0.0924849
0.306371 0.543862 0.068864
0.520241 0.520241 0.0452277
0.734127 0.49662 0.0216068
0.947997 0.472984 0
1 0.449363 0
1 0.425742 0
0 0.773495 0.0609751
0 0.749874 0.0373541
0.0137331 0.726253 0.0137331
0.227619 0.702617 0
0.441489 0.678996 0
0.655375 0.65536 0
0.869245 0.631739 0
1 0.608118 0
1 0.584482 0
0 0.93225 0
0 0.908629 0
0 0.884993 0
0.148867 0.861372 0
0.362737 0.837751 0
0.576623 0.814115 0
0.790494 0.790494 0
1 0.766873 0
1 0.743236 0
0 1 0
0 1 0
0 1 0
0.0701152 1 0
0.283986 0.996506 0
0.497871 0.972869 0
0.711742 0.949248 0
0.925628 0.925612 0
1 0.901991 0
0 1 0
0 1 0
0 1 0
0 1 0
0.205234 1 0
0.41912 1 0
0.63299 1 0
0.846876 1 0
1 1 0
0 0 0.682109
0.183474 0 0.658488
0.39736 0 0.634867
0.611231 0 0.611231
0.825116 0 0.58761
1 0 0.563989
1 0 0.540352
1 0 0.516732
1 0 0.493111
0 0.128359 0.603372
0.104738 0.104738 0.579751
0.318608 0.081117 0.556115
0.532494 0.0574807 0.532494
0.746365 0.0338598 0.508873
0.96025 0.0102388 0.485237
1 0 0.461616
1 0 0.437995
1 0 0.414374
0 0.287114 0.52462
0.0259861 0.263493 0.500999
0.239857 0.239872 0.477363
0.453742 0.216236 0.453742
0.667613 0.192615 0.430121
0.881498 0.168978 0.406485
1 0.145357 0.382864
1 0.121736 0.359243
1 0.0981003 0.335622
0 0.445869 0.445869
0 0.422248 0.422248
0.161105 0.398611 0.398611
0.37499 0.37499 0.37499
0.588876 0.35137 0.35137
0.802747 0.327733 0.327733
1 0.304112 0.304112
1 0.280491 0.280491
1 0.256855 0.25687
0 0.604623 0.367117
0 0.581003 0.343496
0.0823682 0.557366 0.31986
0.296239 0.533745 0.296239
0.510124 0.510109 0.272618
0.723995 0.486488 0.248981
0.937881 0.462867 0.22536
1 0.439231 0.20174
1 0.41561 0.178119
0 0.763378 0.288365
0 0.739742 0.264744
0.00361639 0.716121 0.241108
0.217487 0.6925 0.217487
0.431373 0.668864 0.193866
0.645243 0.645243 0.17023
0.859129 0.621622 0.146609
1 0.597986 0.122988
1 0.574365 0.0993668
0 0.922118 0.209613
0 0.898497 0.185992
0 0.874876 0.162356
0.138735 0.851255 0.138735
0.352621 0.827619 0.115114
0.566491 0.803998 0.0914778
0.780377 0.780362 0.0678569
0.994247 0.756741 0.0442359
1 0.73312 0.0206149
0 1 0.130861
0 1 0.10724
0 1 0.0836042
0.0599832 1 0.0599832
0.273869 0.986374 0.0363622
0.487739 0.962753 0.012726
0.701625 0.939116 0
0.915496 0.915496 0
1 0.891875 0
0 1 0.0521096
0 1 0.0284886
0 1 0.00485237
0 1 0
0.195117 1 0
0.408988 1 0
0.622873 1 0
0.836744 1 0
1 1 0
0 0 0.909483
0.173358 0 0.885863
0.387228 0 0.862242
0.601114 0 0.838621
0.814984 0 0.814984
1 0 0.791363
1 0 0.767742
1 0 0.744106
1 0 0.720485
0 0.118242 0.830747
0.0946059 0.0946212 0.807126
0.308492 0.070985 0.783505
0.522362 0.047364 0.759869
0.736248 0.0237278 0.736248
0.950118 0.000106813 0.712627
1 0 0.688991
1 0 0.66537
1 0 0.641749
0 0.276997 0.751995
0.0158541 0.253361 0.728374
0.22974 0.22974 0.704753
0.44361 0.206119 0.681117
0.657496 0.182483 0.657496
0.871366 0.158862 0.633875
1 0.135241 0.610239
1 0.111604 0.586618
1 0.0879835 0.562997
0 0.435737 0.673243
0 0.412116 0.649622
0.150988 0.388495 0.626001
0.364858 0.364874 0.602365
0.578744 0.341238 0.578744
0.792615 0.317617 0.555123
1 0.29398 0.531487
1 0.270359 0.507866
1 0.246738 0.484245
0 0.594491 0.594491
0 0.570871 0.570871
0.0722362 0.54725 0.54725
0.286107 0.523613 0.523613
0.499992 0.499992 0.499992
0.713878 0.476371 0.476371
0.927749 0.452735 0.452735
1 0.429114 0.429114
1 0.405493 0.405493
0 0.753246 0.51574
0 0.729625 0.492119
0 0.706004 0.468498
0.20737 0.682368 0.444862
0.421241 0.658747 0.421241
0.635126 0.635126 0.39762
0.848997 0.61149 0.373983
1 0.587869 0.350362
1 0.564233 0.326741
0 0.912001 0.436988
0 0.88838 0.413367
0 0.864744 0.389746
0.128618 0.841123 0.36611
0.342489 0.817502 0.342489
0.556374 0.793866 0.318868
0.770245 0.770245 0.295232
0.984131 0.746624 0.271611
1 0.722988 0.24799
0 1 0.358236
0 1 0.334615
0 1 0.310994
0.0498665 0.999878 0.287358
0.263737 0.976257 0.263737
0.477623 0.952621 0.240116
0.691493 0.929 0.21648
0.905379 0.905364 0.192859
1 0.881743 0.169238
0 1 0.279484
0 1 0.255863
0 1 0.232242
0 1 0.208606
0.184985 1 0.184985
0.398871 1 0.161364
0.612741 1 0.137728
0.826627 1 0.114107
1 1 0.090486
0 0 1
0.163226 0 1
0.377111 0 1
0.590982 0 1
0.804868 0 1
1 0 1
1 0 0.995117
1 0 0.971496
1 0 0.94786
0 0.10811 1
0.0844892 0.0844892 1
0.29836 0.0608682 1
0.512245 0.037232 0.987259
0.726116 0.013611 0.963623
0.940002 0 0.940002
1 0 0.916381
1 0 0.892744
1 0 0.869123
0 0.266865 0.97937
0.00573739 0.243244 0.955749
0.219608 0.219623 0.932128
0.433494 0.195987 0.908507
0.647364 0.172366 0.884871
0.86125 0.14873 0.86125
1 0.125109 0.837629
1 0.101488 0.813993
1 0.0778515 0.790372
0 0.42562 0.900618
0 0.401999 0.876997
0.140856 0.378363 0.853376
0.354742 0.354742 0.829755
0.568612 0.331121 0.806119
0.782498 0.307485 0.782498
0.996368 0.283864 0.758877
1 0.260243 0.735241
1 0.236606 0.71162
0 0.584375 0.821866
0 0.560754 0.798245
0.0621042 0.537118 0.774624
0.27599 0.513497 0.751003
0.48986 0.489876 0.727367
0.703746 0.466239 0.703746
0.917617 0.442618 0.680125
1 0.418982 0.656489
1 0.395361 0.632868
0 0.74313 0.743114
0 0.719493 0.719493
0 0.695872 0.695872
0.197238 0.672251 0.672251
0.411109 0.648615 0.648615
0.624994 0.624994 0.624994
0.83888 0.601373 0.601373
1 0.577737 0.577737
1 0.554116 0.554116
0 0.901869 0.664363
0 0.878248 0.640742
0 0.854627 0.617121
0.118486 0.831006 0.5935
0.332372 0.80737 0.569863
0.546242 0.783749 0.546242
0.760128 0.760113 0.522622
0.973999 0.736492 0.498985
1 0.712871 0.475364
0 1 0.585611
0 1 0.56199
0 1 0.538369
0.0397345 0.989746 0.514748
0.25362 0.966125 0.491112
0.467491 0.942504 0.467491
0.681376 0.918868 0.44387
0.895247 0.895247 0.420233
1 0.871626 0.396612
0 1 0.506859
0 1 0.483238
0 1 0.459617
0 1 0.435996
0.174868 1 0.41236
0.388739 1 0.388739
0.602625 1 0.365118
0.816495 1 0.341482
1 1 0.317861
0 0 1
0.153109 0 1
0.366979 0 1
0.580865 0 1
0.794736 0 1
1 0 1
1 0 1
1 0 1
1 0 1
0 0.0979934 1
0.0743572 0.0743725 1
0.288243 0.0507362 1
0.502113 0.0271153 1
0.715999 0.00347906 1
0.92987 0 1
1 0 1
1 0 1
1 0 1
0 0.256748 1
0 0.233112 1
0.209491 0.209491 1
0.423362 0.18587 1
0.637247 0.162234 1
0.851118 0.138613 1
1 0.114992 1
1 0.0913558 1
1 0.0677348 1
0 0.415488 1
0 0.391867 1
0.130739 0.368246 1
0.34461 0.344625 1
0.558495 0.320989 1
0.772366 0.297368 1
0.986252 0.273732 0.986252
1 0.250111 0.962631
1 0.22649 0.938994
0 0.574243 1
0 0.550622 1
0.0519875 0.527001 1
0.265858 0.503365 0.978378
0.479744 0.479744 0.954757
0.693614 0.456123 0.931121
0.9075 0.432486 0.9075
1 0.408865 0.883879
1 0.385245 0.860243
0 0.732998 0.970504
0 0.709377 0.946883
0 0.685756 0.923247
0.187106 0.66212 0.899626
0.400992 0.638498 0.876005
0.614862 0.614878 0.852369
0.828748 0.591241 0.828748
1 0.56762 0.805127
1 0.543984 0.781491
0 0.891752 0.891752
0 0.868132 0.868116
0 0.844495 0.844495
0.108354 0.820874 0.820874
0.32224 0.797253 0.797253
0.53611 0.773617 0.773617
0.749996 0.749996 0.749996
0.963882 0.726375 0.726375
1 0.702739 0.702739
0 1 0.813001
0 1 0.78938
0 1 0.765743
0.0296178 0.979629 0.742123
0.243488 0.956008 0.718502
0.457374 0.932372 0.694865
0.671244 0.908751 0.671244
0.88513 0.88513 0.647623
1 0.861494 0.623987
0 1 0.734249
0 1 0.710628
0 1 0.686992
0 1 0.663371
0.164736 1 0.63975
0.378622 1 0.616114
0.592493 1 0.592493
0.806378 1 0.568872
1 1 0.545235
0 0 1
0.142977 0 1
0.356863 0 1
0.570733 0 1
0.784619 0 1
0.998489 0 1
1 0 1
1 0 1
1 0 1
0 0.0878614 1
0.0642405 0.0642405 1
0.278111 0.0406195 1
0.491997 0.0169833 1
0.705867 0 1
0.919753 0 1
1 0 1
1 0 1
1 0 1
0 0.246616 1
0 0.222995 1
0.199359 0.199374 1
0.413245 0.175738 1
0.627115 0.152117 1
0.841001 0.128481 1
1 0.10486 1
1 0.081239 1
1 0.0576028 1
0 0.405371 1
0 0.38175 1
0.120607 0.358114 1
0.334493 0.334493 1
0.548363 0.310872 1
0.762249 0.287236 1
0.97612 0.263615 1
1 0.239994 1
1 0.216358 1
0 0.564126 1
0 0.540505 1
0.0418555 0.516869 1
0.255741 0.493248 1
0.469612 0.469627 1
0.683497 0.445991 1
0.897368 0.42237 1
1 0.398733 1
1 0.375113 1
0 0.722881 1
0 0.699245 1
0 0.675624 1
0.176989 0.652003 1
0.39086 0.628367 1
0.604746 0.604746 1
0.818616 0.581125 1
1 0.557488 1
1 0.533867 1
0 0.881621 1
0 0.858 1
0 0.834379 1
0.0982376 0.810758 1
0.312108 0.787121 1
0.525994 0.7635 1
0.739864 0.739879 0.977371
0.95375 0.716243 0.95375
1 0.692622 0.930129
0 1 1
0 1 1
0 0.993133 0.993118
0.0194858 0.969497 0.969497
0.233356 0.945876 0.945876
0.447242 0.922255 0.922255
0.661128 0.898619 0.898619
0.874998 0.874998 0.874998
1 0.851377 0.851377
0 1 0.961624
0 1 0.938003
0 1 0.914366
0 1 0.890745
0.15462 1 0.867124
0.36849 1 0.843503
0.582376 1 0.819867
0.796246 1 0.796246
1 1 0.772625
0 0 1
0.132845 0 1
0.346731 0 1
0.560616 0 1
0.774487 0 1
0.988373 0 1
1 0 1
1 0 1
1 0 1
0 0.0777447 1
0.0541085 0.0541238 1
0.267994 0.0304875 1
0.481865 0.00686656 1
0.69575 0 1
0.909621 0 1
1 0 1
1 0 1
1 0 1
0 0.2365 1
0 0.212863 1
0.189242 0.189242 1
0.403113 0.165621 1
0.616999 0.141985 1
0.830869 0.118364 1
1 0.0947433 1
1 0.071107 1
1 0.0474861 1
0 0.395239 1
0 0.371618 1
0.110491 0.347997 1
0.324361 0.324376 1
0.538247 0.30074 1
0.752117 0.277119 1
0.966003 0.253483 1
1 0.229862 1
1 0.206241 1
0 0.553994 1
0 0.530373 1
0.0317388 0.506752 1
0.245609 0.483116 1
0.459495 0.459495 1
0.673365 0.435874 1
0.887251 0.412238 1
1 0.388617 1
1 0.364996 1
0 0.712749 1
0 0.689128 1
0 0.665507 1
0.166857 0.641871 1
0.380743 0.61825 1
0.594614 0.594629 1
0.808499 0.570993 1
1 0.547372 1
1 0.523735 1
0 0.871504 1
0 0.847883 1
0 0.824247 1
0.0881056 0.800626 1
0.301991 0.777005 1
0.515862 0.753368 1
0.729747 0.729747 1
0.943618 0.706127 1
1 0.68249 1
0 1 1
0 1 1
0 0.983001 1
0.00935378 0.959381 1
0.223239 0.93576 1
0.43711 0.912123 1
0.650996 0.888502 1
0.864866 0.864881 1
1 0.841245 1
0 1 1
0 1 1
0 1 1
0 1 1
0.144488 1 1
0.358358 1 1
0.572244 1 1
0.786114 1 1
1 1 1
