public/LUTS/Color Gain/Color Gain_02.cube
TITLE "Generated by Resolve"
LUT_3D_SIZE 33
0 0 0
0.0361639 0 0
0.0723583 0 0
0.108553 0 0
0.144732 0 0
0.180926 0 0
0.217105 0 0
0.2533 0 0
0.289494 0 0
0.325673 0 0
0.361868 0 0
0.398047 0 0
0.434241 0 0
0.47042 0 0
0.506615 0 0
0.542809 0 0
0.578988 0 0
0.615183 0 0
0.651362 0 0
0.687556 0 0
0.723751 0 0
0.75993 0 0
0.796124 0 0
0.832303 0 0
0.868498 0 0
0.904677 0 0
0.940871 0 0
0.977066 0 0
1 0 0
1 0 0
1 0 0
1 0 0
1 0 0
0 0.0331121 0
0.0317998 0.0317998 0
0.0679789 0.0304875 0
0.104173 0.0291752 0
0.140368 0.027863 0
0.176547 0.0265507 0
0.212741 0.0252384 0
0.24892 0.0239261 0
0.285115 0.0226139 0
0.321309 0.0213016 0
0.357488 0.0199893 0
0.393683 0.018677 0
0.429862 0.0173648 0
0.466056 0.0160525 0
0.502235 0.014725 0
0.53843 0.0134127 0
0.574624 0.0121004 0
0.610803 0.0107881 0
0.646998 0.00947585 0
0.683177 0.00816358 0
0.719371 0.0068513 0
0.755566 0.00553903 0
0.791745 0.00422675 0
0.827939 0.00291447 0
0.864118 0.0016022 0
0.900313 0.000289921 0
0.936492 0 0
0.972686 0 0
1 0 0
1 0 0
1 0 0
1 0 0
1 0 0
0 0.0662394 0
0.0274205 0.0649271 0
0.0636149 0.0636149 0
0.099794 0.0623026 0
0.135988 0.0609903 0
0.172168 0.059678 0
0.208362 0.0583658 0
0.244556 0.0570535 0
0.280735 0.0557412 0
0.31693 0.0544289 0
0.353109 0.0531014 0
0.389303 0.0517891 0
0.425498 0.0504768 0
0.461677 0.0491646 0
0.497871 0.0478523 0
0.534051 0.04654 0
0.570245 0.0452277 0
0.606424 0.0439155 0
0.642618 0.0426032 0
0.678813 0.0412909 0
0.714992 0.0399786 0
0.751186 0.0386664 0
0.787366 0.0373541 0
0.82356 0.0360418 0
0.859754 0.0347295 0
0.895933 0.0334173 0
0.932128 0.032105 0
0.968307 0.0307927 0
1 0.0294804 0
1 0.0281682 0
1 0.0268559 0
1 0.0255436 0
1 0.0242313 0
0 0.0993668 0
0.0230411 0.0980545 0
0.0592355 0.0967422 0
0.0954299 0.0954299 0
0.131609 0.0941176 0
0.167803 0.0927901 0
0.203983 0.0914778 0
0.240177 0.0901656 0
0.276356 0.0888533 0
0.312551 0.087541 0
0.348745 0.0862287 0
0.384924 0.0849165 0
0.421118 0.0836042 0
0.457298 0.0822919 0
0.493492 0.0809796 0
0.529686 0.0796674 0
0.565866 0.0783551 0
0.60206 0.0770428 0
0.638239 0.0757305 0
0.674434 0.0744182 0
0.710628 0.073106 0
0.746807 0.0717937 0
0.783001 0.0704814 0
0.819181 0.0691691 0
0.855375 0.0678569 0
0.891554 0.0665446 0
0.927749 0.0652323 0
0.963943 0.06392 0
1 0.0626078 0
1 0.0612955 0
1 0.0599832 0
1 0.0586709 0
1 0.0573587 0
0 0.132479 0
0.018677 0.131167 0
0.0548562 0.129854 0
0.0910506 0.128542 0
0.12723 0.12723 0
0.163424 0.125917 0
0.199619 0.124605 0
0.235798 0.123293 0
0.271992 0.121981 0
0.308171 0.120668 0
0.344366 0.119356 0
0.38056 0.118044 0
0.416739 0.116732 0
0.452934 0.115419 0
0.489113 0.114107 0
0.525307 0.112795 0
0.561486 0.111482 0
0.597681 0.11017 0
0.633875 0.108858 0
0.670054 0.107546 0
0.706249 0.106233 0
0.742428 0.104921 0
0.778622 0.103609 0
0.814817 0.102296 0
0.850996 0.100984 0
0.88719 0.0996719 0
0.923369 0.0983597 0
0.959564 0.0970474 0
0.995743 0.0957351 0
1 0.0944228 0
1 0.0931106 0
1 0.0917983 0
1 0.090486 0
0 0.165606 0
0.0142977 0.164294 0
0.0504921 0.162982 0
0.0866712 0.161669 0
0.122866 0.160357 0
0.159045 0.159045 0
0.195239 0.157733 0
0.231418 0.15642 0
0.267613 0.155108 0
0.303807 0.153796 0
0.339986 0.152483 0
0.376181 0.151171 0
0.41236 0.149859 0
0.448554 0.148547 0
0.484749 0.147234 0
0.520928 0.145922 0
0.557122 0.14461 0
0.593301 0.143297 0
0.629496 0.141985 0
0.665675 0.140673 0
0.701869 0.139361 0
0.738064 0.138048 0
0.774243 0.136736 0
0.810437 0.135424 0
0.846616 0.134112 0
0.882811 0.132799 0
0.919005 0.131487 0
0.955184 0.130175 0
0.991379 0.128862 0
1 0.12755 0
1 0.126238 0
1 0.124926 0
1 0.123613 0
0 0.198734 0
0.00991836 0.197421 0
0.0461128 0.196109 0
0.0822919 0.194797 0
0.118486 0.193484 0
0.154681 0.192172 0
0.19086 0.19086 0
0.227054 0.189548 0
0.263233 0.188235 0
0.299428 0.186923 0
0.335622 0.185611 0
0.371801 0.184298 0
0.407996 0.182986 0
0.444175 0.181674 0
0.480369 0.180362 0
0.516548 0.179049 0
0.552743 0.177737 0
0.588937 0.176425 0
0.625116 0.175113 0
0.661311 0.1738 0
0.69749 0.172488 0
0.733684 0.171176 0
0.769879 0.169863 0
0.806058 0.168551 0
0.842252 0.167239 0
0.878431 0.165927 0
0.914626 0.164614 0
0.950805 0.163302 0
0.986999 0.16199 0
1 0.160678 0
1 0.15935 0
1 0.158038 0
1 0.156725 0
0 0.231861 0
0.00555428 0.230549 0
0.0417334 0.229236 0
0.0779278 0.227924 0
0.114107 0.226612 0
0.150301 0.225299 0
0.186481 0.223987 0
0.222675 0.222675 0
0.258869 0.221363 0
0.295048 0.22005 0
0.331243 0.218738 0
0.367422 0.217426 0
0.403616 0.216114 0
0.439811 0.214801 0
0.47599 0.213489 0
0.512184 0.212177 0
0.548363 0.210864 0
0.584558 0.209552 0
0.620737 0.20824 0
0.656931 0.206928 0
0.693126 0.205615 0
0.729305 0.204303 0
0.765499 0.202991 0
0.801678 0.201678 0
0.837873 0.200366 0
0.874067 0.199039 0
0.910246 0.197726 0
0.946441 0.196414 0
0.98262 0.195102 0
1 0.19379 0
1 0.192477 0
1 0.191165 0
1 0.189853 0
0 0.264988 0
0.00117494 0.263676 0
0.0373541 0.262364 0
0.0735485 0.261051 0
0.109743 0.259739 0
0.145922 0.258427 0
0.182116 0.257115 0
0.218296 0.255802 0
0.25449 0.25449 0
0.290669 0.253178 0
0.326863 0.251865 0
0.363058 0.250553 0
0.399237 0.249241 0
0.435431 0.247929 0
0.471611 0.246616 0
0.507805 0.245304 0
0.543999 0.243992 0
0.580179 0.242679 0
0.616373 0.241367 0
0.652552 0.240055 0
0.688746 0.238743 0
0.724926 0.237415 0
0.76112 0.236103 0
0.797314 0.234791 0
0.833494 0.233478 0
0.869688 0.232166 0
0.905867 0.230854 0
0.942061 0.229541 0
0.978256 0.228229 0
1 0.226917 0
1 0.225605 0
1 0.224292 0
1 0.22298 0
0 0.298116 0
0 0.296803 0
0.03299 0.295491 0
0.0691691 0.294179 0
0.105364 0.292866 0
0.141543 0.291554 0
0.177737 0.290242 0
0.213931 0.28893 0
0.250111 0.287617 0
0.286305 0.286305 0
0.322484 0.284993 0
0.358679 0.28368 0
0.394873 0.282368 0
0.431052 0.281056 0
0.467247 0.279744 0
0.503426 0.278431 0
0.53962 0.277104 0
0.575799 0.275792 0
0.611994 0.274479 0
0.648188 0.273167 0
0.684367 0.271855 0
0.720562 0.270542 0
0.756741 0.26923 0
0.792935 0.267918 0
0.829129 0.266606 0
0.865309 0.265293 0
0.901503 0.263981 0
0.937682 0.262669 0
0.973877 0.261357 0
1 0.260044 0
1 0.258732 0
1 0.25742 0
1 0.256107 0
0 0.331243 0
0 0.329931 0
0.0286107 0.328618 0
0.0648051 0.327306 0
0.100984 0.325994 0
0.137179 0.324681 0
0.173358 0.323369 0
0.209552 0.322057 0
0.245731 0.320745 0
0.281926 0.319432 0
0.31812 0.31812 0
0.354299 0.316808 0
0.390494 0.31548 0
0.426673 0.314168 0
0.462867 0.312856 0
0.499062 0.311543 0
0.535241 0.310231 0
0.571435 0.308919 0
0.607614 0.307607 0
0.643809 0.306294 0
0.679988 0.304982 0
0.716182 0.30367 0
0.752377 0.302358 0
0.788556 0.301045 0
0.82475 0.299733 0
0.860929 0.298421 0
0.897124 0.297108 0
0.933318 0.295796 0
0.969497 0.294484 0
1 0.293172 0
1 0.291859 0
1 0.290547 0
1 0.289235 0
0 0.36437 0
0 0.363058 0
0.0242313 0.361746 0
0.0604257 0.360433 0
0.0966049 0.359121 0
0.132799 0.357809 0
0.168994 0.356497 0
0.205173 0.355169 0
0.241367 0.353857 0
0.277546 0.352544 0
0.313741 0.351232 0
0.34992 0.34992 0
0.386114 0.348608 0
0.422309 0.347295 0
0.458488 0.345983 0
0.494682 0.344671 0
0.530861 0.343359 0
0.567056 0.342046 0
0.60325 0.340734 0
0.639429 0.339422 0
0.675624 0.338109 0
0.711803 0.336797 0
0.747997 0.335485 0
0.784176 0.334173 0
0.820371 0.33286 0
0.856565 0.331548 0
0.892744 0.330236 0
0.928939 0.328923 0
0.965118 0.327611 0
1 0.326299 0
1 0.324987 0
1 0.323674 0
1 0.322362 0
0 0.397498 0
0 0.396185 0
0.0198672 0.394873 0
0.0560464 0.393545 0
0.0922408 0.392233 0
0.12842 0.390921 0
0.164614 0.389609 0
0.200793 0.388296 0
0.236988 0.386984 0
0.273182 0.385672 0
0.309361 0.38436 0
0.345556 0.383047 0
0.381735 0.381735 0
0.417929 0.380423 0
0.454124 0.37911 0
0.490303 0.377798 0
0.526497 0.376486 0
0.562676 0.375174 0
0.598871 0.373861 0
0.63505 0.372549 0
0.671244 0.371237 0
0.707439 0.369924 0
0.743618 0.368612 0
0.779812 0.3673 0
0.815991 0.365988 0
0.852186 0.364675 0
0.88838 0.363363 0
0.924559 0.362051 0
0.960754 0.360739 0
0.996933 0.359426 0
1 0.358114 0
1 0.356802 0
1 0.355489 0
0 0.43061 0
0 0.429297 0
0.0154879 0.427985 0
0.051667 0.426673 0
0.0878614 0.425361 0
0.124056 0.424048 0
0.160235 0.422736 0
0.196429 0.421424 0
0.232609 0.420111 0
0.268803 0.418799 0
0.304982 0.417487 0
0.341176 0.416175 0
0.377371 0.414862 0
0.41355 0.41355 0
0.449744 0.412238 0
0.485924 0.410925 0
0.522118 0.409613 0
0.558312 0.408301 0
0.594491 0.406989 0
0.630686 0.405676 0
0.666865 0.404364 0
0.703059 0.403052 0
0.739239 0.40174 0
0.775433 0.400427 0
0.811627 0.399115 0
0.847807 0.397803 0
0.884001 0.39649 0
0.92018 0.395178 0
0.956374 0.393866 0
0.992569 0.392554 0
1 0.391241 0
1 0.389929 0
1 0.388617 0
0 0.463737 0
0 0.462425 0
0.0111086 0.461112 0
0.047303 0.4598 0
0.0834821 0.458488 0
0.119677 0.457176 0
0.155856 0.455863 0
0.19205 0.454551 0
0.228244 0.453239 0
0.264424 0.451926 0
0.300618 0.450614 0
0.336797 0.449302 0
0.372992 0.44799 0
0.409171 0.446677 0
0.445365 0.445365 0
0.481559 0.444053 0
0.517739 0.442741 0
0.553933 0.441428 0
0.590112 0.440116 0
0.626307 0.438804 0
0.662501 0.437491 0
0.69868 0.436179 0
0.734874 0.434867 0
0.771054 0.433555 0
0.807248 0.432242 0
0.843442 0.43093 0
0.879622 0.429618 0
0.915816 0.428305 0
0.951995 0.426993 0
0.98819 0.425681 0
1 0.424369 0
1 0.423056 0
1 0.421729 0
0 0.496864 0
0 0.495552 0
0.00672923 0.49424 0
0.0429236 0.492927 0
0.079118 0.491615 0
0.115297 0.490303 0
0.151492 0.488991 0
0.187671 0.487678 0
0.223865 0.486366 0
0.260044 0.485054 0
0.296239 0.483742 0
0.332433 0.482429 0
0.368612 0.481117 0
0.404807 0.479805 0
0.440986 0.478492 0
0.47718 0.47718 0
0.513375 0.475868 0
0.549554 0.474556 0
0.585748 0.473243 0
0.621927 0.471931 0
0.658122 0.470619 0
0.694301 0.469306 0
0.730495 0.467994 0
0.76669 0.466682 0
0.802869 0.46537 0
0.839063 0.464057 0
0.875242 0.462745 0
0.911437 0.461418 0
0.947631 0.460105 0
0.98381 0.458793 0
1 0.457481 0
1 0.456168 0
1 0.454856 0
0 0.529992 0
0 0.528679 0
0.00236515 0.527367 0
0.0385443 0.526055 0
0.0747387 0.524742 0
0.110918 0.52343 0
0.147112 0.522118 0
0.183307 0.520806 0
0.219486 0.519493 0
0.25568 0.518181 0
0.291859 0.516869 0
0.328054 0.515557 0
0.364233 0.514244 0
0.400427 0.512932 0
0.436622 0.51162 0
0.472801 0.510307 0
0.508995 0.508995 0
0.545174 0.507683 0
0.581369 0.506371 0
0.617563 0.505058 0
0.653742 0.503746 0
0.689937 0.502434 0
0.726116 0.501122 0
0.76231 0.499794 0
0.798489 0.498482 0
0.834684 0.497169 0
0.870878 0.495857 0
0.907057 0.494545 0
0.943252 0.493233 0
0.979431 0.49192 0
1 0.490608 0
1 0.489296 0
1 0.487984 0
0 0.563119 0
0 0.561807 0
0 0.560494 0
0.034165 0.559182 0
0.0703593 0.55787 0
0.106554 0.556558 0
0.142733 0.555245 0
0.178927 0.553933 0
0.215106 0.552621 0
0.251301 0.551308 0
0.287495 0.549996 0
0.323674 0.548684 0
0.359869 0.547372 0
0.396048 0.546059 0
0.432242 0.544747 0
0.468437 0.543435 0
0.504616 0.542123 0
0.54081 0.54081 0
0.576989 0.539483 0
0.613184 0.53817 0
0.649363 0.536858 0
0.685557 0.535546 0
0.721752 0.534234 0
0.757931 0.532921 0
0.794125 0.531609 0
0.830304 0.530297 0
0.866499 0.528984 0
0.902693 0.527672 0
0.938872 0.52636 0
0.975067 0.525048 0
1 0.523735 0
1 0.522423 0
1 0.521111 0
0 0.596246 0
0 0.594934 0
0 0.593622 0
0.0298009 0.592309 0
0.06598 0.590997 0
0.102174 0.589685 0
0.138369 0.588373 0
0.174548 0.58706 0
0.210742 0.585748 0
0.246921 0.584436 0
0.283116 0.583124 0
0.319295 0.581811 0
0.355489 0.580499 0
0.391684 0.579187 0
0.427863 0.577859 0
0.464057 0.576547 0
0.500237 0.575235 0
0.536431 0.573922 0
0.572625 0.57261 0
0.608804 0.571298 0
0.644999 0.569986 0
0.681178 0.568673 0
0.717372 0.567361 0
0.753552 0.566049 0
0.789746 0.564736 0
0.82594 0.563424 0
0.862119 0.562112 0
0.898314 0.5608 0
0.934493 0.559487 0
0.970687 0.558175 0
1 0.556863 0
1 0.55555 0
1 0.554238 0
0 0.629374 0
0 0.628061 0
0 0.626749 0
0.0254215 0.625437 0
0.0616159 0.624125 0
0.0977951 0.622812 0
0.133989 0.6215 0
0.170169 0.620188 0
0.206363 0.618875 0
0.242557 0.617548 0
0.278737 0.616236 0
0.314931 0.614923 0
0.35111 0.613611 0
0.387304 0.612299 0
0.423484 0.610986 0
0.459678 0.609674 0
0.495872 0.608362 0
0.532052 0.60705 0
0.568246 0.605737 0
0.604425 0.604425 0
0.64062 0.603113 0
0.676814 0.601801 0
0.712993 0.600488 0
0.749187 0.599176 0
0.785367 0.597864 0
0.821561 0.596551 0
0.85774 0.595239 0
0.893935 0.593927 0
0.930129 0.592615 0
0.966308 0.591302 0
1 0.58999 0
1 0.588678 0
1 0.587366 0
0 0.662501 0
0 0.661189 0
0 0.659876 0
0.0210422 0.658564 0
0.0572366 0.657252 0
0.093431 0.655924 0
0.12961 0.654612 0
0.165805 0.6533 0
0.201984 0.651987 0
0.238178 0.650675 0
0.274357 0.649363 0
0.310552 0.648051 0
0.346746 0.646738 0
0.382925 0.645426 0
0.41912 0.644114 0
0.455299 0.642802 0
0.491493 0.641489 0
0.527687 0.640177 0
0.563867 0.638865 0
0.600061 0.637552 0
0.63624 0.63624 0
0.672435 0.634928 0
0.708614 0.633616 0
0.744808 0.632303 0
0.781003 0.630991 0
0.817182 0.629679 0
0.853376 0.628367 0
0.889555 0.627054 0
0.92575 0.625742 0
0.961944 0.62443 0
0.998123 0.623117 0
1 0.621805 0
1 0.620493 0
0 0.695613 0
0 0.694301 0
0 0.692988 0
0.0166781 0.691676 0
0.0528573 0.690364 0
0.0890516 0.689052 0
0.125231 0.687739 0
0.161425 0.686427 0
0.19762 0.685115 0
0.233799 0.683803 0
0.269993 0.68249 0
0.306172 0.681178 0
0.342367 0.679866 0
0.378546 0.678553 0
0.41474 0.677241 0
0.450935 0.675929 0
0.487114 0.674617 0
0.523308 0.673304 0
0.559487 0.671992 0
0.595682 0.67068 0
0.631876 0.669367 0
0.668055 0.668055 0
0.70425 0.666743 0
0.740429 0.665431 0
0.776623 0.664118 0
0.812802 0.662806 0
0.848997 0.661494 0
0.885191 0.660182 0
0.92137 0.658869 0
0.957565 0.657557 0
0.993744 0.656245 0
1 0.654932 0
1 0.65362 0
0 0.72874 0
0 0.727428 0
0 0.726116 0
0.0122988 0.724804 0
0.0484779 0.723491 0
0.0846723 0.722179 0
0.120867 0.720867 0
0.157046 0.719554 0
0.19324 0.718242 0
0.229419 0.71693 0
0.265614 0.715618 0
0.301808 0.714305 0
0.337987 0.712993 0
0.374182 0.711681 0
0.410361 0.710369 0
0.446555 0.709056 0
0.482734 0.707744 0
0.518929 0.706432 0
0.555123 0.705119 0
0.591302 0.703807 0
0.627497 0.702495 0
0.663676 0.701183 0
0.69987 0.69987 0
0.736065 0.698558 0
0.772244 0.697246 0
0.808438 0.695933 0
0.844617 0.694621 0
0.880812 0.693309 0
0.917006 0.691997 0
0.953185 0.690684 0
0.98938 0.689372 0
1 0.68806 0
1 0.686748 0
0 0.761868 0
0 0.760555 0
0 0.759243 0
0.00791943 0.757931 0
0.0441138 0.756619 0
0.080293 0.755306 0
0.116487 0.753994 0
0.152682 0.752682 0
0.188861 0.751369 0
0.225055 0.750057 0
0.261234 0.748745 0
0.297429 0.747433 0
0.333608 0.74612 0
0.369802 0.744808 0
0.405997 0.743496 0
0.442176 0.742184 0
0.47837 0.740871 0
0.514549 0.739559 0
0.550744 0.738247 0
0.586938 0.736934 0
0.623117 0.735622 0
0.659312 0.73431 0
0.695491 0.732998 0
0.731685 0.731685 0
0.767865 0.730373 0
0.804059 0.729061 0
0.840253 0.727749 0
0.876432 0.726436 0
0.912627 0.725124 0
0.948806 0.723796 0
0.985 0.722484 0
1 0.721172 0
1 0.71986 0
0 0.794995 0
0 0.793683 0
0 0.79237 0
0.00354009 0.791058 0
0.0397345 0.789746 0
0.0759289 0.788434 0
0.112108 0.787121 0
0.148302 0.785809 0
0.184482 0.784497 0
0.220676 0.783185 0
0.25687 0.781872 0
0.29305 0.78056 0
0.329244 0.779248 0
0.365423 0.777935 0
0.401617 0.776623 0
0.437797 0.775311 0
0.473991 0.773999 0
0.510185 0.772686 0
0.546365 0.771374 0
0.582559 0.770062 0
0.618738 0.76875 0
0.654932 0.767437 0
0.691127 0.766125 0
0.727306 0.764813 0
0.7635 0.7635 0
0.79968 0.762173 0
0.835874 0.760861 0
0.872053 0.759548 0
0.908248 0.758236 0
0.944442 0.756924 0
0.980621 0.755611 0
1 0.754299 0
1 0.752987 0
0 0.828122 0
0 0.82681 0
0 0.825498 0
0 0.824186 0
0.0353552 0.822873 0
0.0715496 0.821561 0
0.107729 0.820249 0
0.143923 0.818936 0
0.180117 0.817624 0
0.216297 0.816312 0
0.252491 0.815 0
0.28867 0.813687 0
0.324865 0.812375 0
0.361059 0.811063 0
0.397238 0.80975 0
0.433433 0.808438 0
0.469612 0.807126 0
0.505806 0.805814 0
0.542 0.804501 0
0.57818 0.803189 0
0.614374 0.801862 0
0.650553 0.800549 0
0.686748 0.799237 0
0.722927 0.797925 0
0.759121 0.796613 0
0.795316 0.7953 0
0.831495 0.793988 0
0.867689 0.792676 0
0.903868 0.791363 0
0.940063 0.790051 0
0.976257 0.788739 0
1 0.787427 0
1 0.786114 0
0 0.86125 0
0 0.859937 0
0 0.858625 0
0 0.857313 0
0.0309911 0.856001 0
0.0671702 0.854688 0
0.103365 0.853376 0
0.139544 0.852064 0
0.175738 0.850752 0
0.211933 0.849439 0
0.248112 0.848127 0
0.284306 0.846815 0
0.320485 0.845502 0
0.35668 0.84419 0
0.392859 0.842878 0
0.429053 0.841566 0
0.465248 0.840238 0
0.501427 0.838926 0
0.537621 0.837613 0
0.5738 0.836301 0
0.609995 0.834989 0
0.646189 0.833677 0
0.682368 0.832364 0
0.718563 0.831052 0
0.754742 0.82974 0
0.790936 0.828428 0
0.827115 0.827115 0
0.86331 0.825803 0
0.899504 0.824491 0
0.935683 0.823178 0
0.971878 0.821866 0
1 0.820554 0
1 0.819242 0
0 0.894377 0
0 0.893065 0
0 0.891752 0
0 0.89044 0
0.0266117 0.889128 0
0.0627909 0.887816 0
0.0989853 0.886503 0
0.13518 0.885191 0
0.171359 0.883879 0
