public/LUTS/Color Gain/Color Gain_08.cube
TITLE "Generated by Resolve"
LUT_3D_SIZE 5
0 0 0
0.40798 0 0
0.815991 0 0
1 0 0
1 0 0
0 0.309987 0
0.267994 0.267979 0
0.67599 0.225986 0
1 0.183978 0
1 0.141985 0
0 0.619989 0
0.127993 0.577996 0
0.535988 0.535988 0
0.943999 0.49398 0
1 0.451987 0
0 0.929992 0
0 0.887999 0
0.395987 0.845991 0
0.803998 0.803998 0
1 0.76199 0
0 1 0
0 1 0
0.255985 1 0
0.663996 1 0
1 1 0
0 0 0.431983
0.389975 0 0.38999
0.797986 0 0.347982
1 0 0.305974
1 0 0.263981
0 0.291981 0.291981
0.249989 0.249989 0.249989
0.658 0.20798 0.20798
1 0.165988 0.165988
1 0.12398 0.12398
0 0.601999 0.15198
0.109987 0.559991 0.109987
0.517998 0.517998 0.0679789
0.925994 0.47599 0.0259861
1 0.433982 0
0 0.912001 0.0119783
0 0.869993 0
0.377997 0.828 0
0.785992 0.785992 0
1 0.743984 0
0 1 0
0 1 0
0.237995 1 0
0.645991 1 0
1 1 0
0 0 0.863996
0.371984 0 0.821988
0.779995 0 0.779995
1 0 0.737987
1 0 0.695994
0 0.273991 0.723995
0.231983 0.231983 0.682002
0.639994 0.18999 0.639994
1 0.147982 0.598001
1 0.105989 0.555993
0 0.583993 0.583993
0.0919814 0.542 0.542
0.499992 0.499992 0.499992
0.908003 0.457984 0.457984
1 0.415991 0.415991
0 0.893996 0.443992
0 0.852003 0.401984
0.359991 0.809995 0.359991
0.768002 0.768002 0.317983
1 0.725994 0.27599
0 1 0.30399
0 1 0.261982
0.219989 1 0.219989
0.628 1 0.177981
1 1 0.135988
0 0 1
0.353979 0 1
0.76199 0 1
1 0 1
1 0 1
0 0.255985 1
0.213993 0.213993 1
0.621988 0.171984 1
1 0.129992 1
1 0.0879835 0.988006
0 0.566003 1
0.073991 0.523995 0.973999
0.481987 0.481987 0.932006
0.889998 0.439994 0.889998
1 0.397986 0.848005
0 0.876005 0.87599
0 0.833997 0.833997
0.341985 0.792004 0.792004
0.749996 0.749996 0.749996
1 0.707988 0.707988
0 1 0.735988
0 1 0.693996
0.201984 1 0.651987
0.609995 1 0.609995
1 1 0.567987
0 0 1
0.335988 0 1
0.743984 0 1
1 0 1
1 0 1
0 0.237995 1
0.195987 0.195987 1
0.603998 0.153994 1
1 0.111986 1
1 0.0699779 1
0 0.547997 1
0.0559854 0.506004 1
0.463996 0.463996 1
0.871992 0.421988 1
1 0.379995 1
0 0.858 1
0 0.816007 1
0.323995 0.773999 1
0.731991 0.731991 1
1 0.689998 1
0 1 1
0 1 1
0.183993 1 1
0.591989 1 1
1 1 1
