public/LUTS/Color Gain/Color Gain_03.cube
TITLE "Generated by Resolve"
LUT_3D_SIZE 33
0 0 0
0.0386358 0 0
0.0773022 0 0
0.115953 0 0
0.154604 0 0
0.193271 0 0
0.231922 0 0
0.270573 0 0
0.309239 0 0
0.34789 0 0
0.386557 0 0
0.425208 0 0
0.463859 0 0
0.502525 0 0
0.541176 0 0
0.579828 0 0
0.618494 0 0
0.657145 0 0
0.695811 0 0
0.734462 0 0
0.773114 0 0
0.81178 0 0
0.850431 0 0
0.889082 0 0
0.927749 0 0
0.9664 0 0
1 0 0
1 0 0
1 0 0
1 0 0
1 0 0
1 0 0
1 0 0
0 0.0340429 0
0.0320745 0.0320745 0
0.0707408 0.0301061 0
0.109392 0.0281376 0
0.148043 0.0261692 0
0.186709 0.0242008 0
0.22536 0.0222324 0
0.264027 0.020264 0
0.302678 0.0182956 0
0.341329 0.0163272 0
0.379995 0.0143587 0
0.418647 0.0123903 0
0.457298 0.0104219 0
0.495964 0.0084535 0
0.534615 0.00648508 0
0.573281 0.00451667 0
0.611933 0.00254826 0
0.650584 0.000579843 0
0.68925 0 0
0.727901 0 0
0.766552 0 0
0.805219 0 0
0.84387 0 0
0.882536 0 0
0.921187 0 0
0.959838 0 0
0.998505 0 0
1 0 0
1 0 0
1 0 0
1 0 0
1 0 0
1 0 0
0 0.0681163 0
0.0255131 0.0661479 0
0.0641794 0.0641794 0
0.102831 0.062211 0
0.141482 0.0602274 0
0.180148 0.0582589 0
0.218799 0.0562905 0
0.25745 0.0543221 0
0.296117 0.0523537 0
0.334768 0.0503853 0
0.373434 0.0484169 0
0.412085 0.0464485 0
0.450736 0.04448 0
0.489403 0.0425116 0
0.528054 0.0405432 0
0.566705 0.0385748 0
0.605371 0.0366064 0
0.644022 0.034638 0
0.682689 0.0326696 0
0.72134 0.0307012 0
0.759991 0.0287327 0
0.798657 0.0267643 0
0.837308 0.0247959 0
0.875959 0.0228275 0
0.914626 0.0208591 0
0.953277 0.0188907 0
0.991943 0.0169223 0
1 0.0149538 0
1 0.0129854 0
1 0.011017 0
1 0.0090486 0
1 0.00708019 0
1 0.00509651 0
0 0.102174 0
0.0189517 0.100206 0
0.0576028 0.0982376 0
0.0962692 0.0962692 0
0.13492 0.0943008 0
0.173587 0.0923323 0
0.212238 0.0903639 0
0.250889 0.0883955 0
0.289555 0.0864271 0
0.328206 0.0844587 0
0.366857 0.0824903 0
0.405524 0.0805219 0
0.444175 0.0785534 0
0.482841 0.0765698 0
0.521492 0.0746014 0
0.560143 0.0726329 0
0.59881 0.0706645 0
0.637461 0.0686961 0
0.676127 0.0667277 0
0.714778 0.0647593 0
0.753429 0.0627909 0
0.792096 0.0608225 0
0.830747 0.058854 0
0.869398 0.0568856 0
0.908064 0.0549172 0
0.946715 0.0529488 0
0.985382 0.0509804 0
1 0.049012 0
1 0.0470436 0
1 0.0450752 0
1 0.0431067 0
1 0.0411383 0
1 0.0391699 0
0 0.136233 0
0.0123903 0.134264 0
0.0510414 0.132296 0
0.0897078 0.130327 0
0.128359 0.128359 0
0.167025 0.12639 0
0.205676 0.124422 0
0.244327 0.122454 0
0.282994 0.120485 0
0.321645 0.118517 0
0.360296 0.116548 0
0.398962 0.11458 0
0.437613 0.112612 0
0.47628 0.110643 0
0.514931 0.108675 0
0.553582 0.106706 0
0.592248 0.104738 0
0.6309 0.10277 0
0.669551 0.100801 0
0.708217 0.0988327 0
0.746868 0.0968643 0
0.785534 0.0948959 0
0.824186 0.0929122 0
0.862837 0.0909438 0
0.901503 0.0889754 0
0.940154 0.0870069 0
0.978805 0.0850385 0
1 0.0830701 0
1 0.0811017 0
1 0.0791333 0
1 0.0771649 0
1 0.0751965 0
1 0.073228 0
0 0.170306 0
0.00582895 0.168338 0
0.04448 0.166369 0
0.0831464 0.164385 0
0.121798 0.162417 0
0.160449 0.160449 0
0.199115 0.15848 0
0.237766 0.156512 0
0.276432 0.154543 0
0.315084 0.152575 0
0.353735 0.150607 0
0.392401 0.148638 0
0.431052 0.14667 0
0.469703 0.144701 0
0.50837 0.142733 0
0.547021 0.140764 0
0.585687 0.138796 0
0.624338 0.136828 0
0.662989 0.134859 0
0.701656 0.132891 0
0.740307 0.130922 0
0.778958 0.128954 0
0.817624 0.126986 0
0.856275 0.125017 0
0.894942 0.123049 0
0.933593 0.12108 0
0.972244 0.119112 0
1 0.117144 0
1 0.115175 0
1 0.113207 0
1 0.111238 0
1 0.109255 0
1 0.107286 0
0 0.204364 0
0 0.202396 0
0.0379187 0.200427 0
0.076585 0.198459 0
0.115236 0.19649 0
0.153887 0.194522 0
0.192554 0.192554 0
0.231205 0.190585 0
0.269871 0.188617 0
0.308522 0.186648 0
0.347173 0.18468 0
0.38584 0.182712 0
0.424491 0.180728 0
0.463142 0.178759 0
0.501808 0.176791 0
0.540459 0.174823 0
0.579126 0.172854 0
0.617777 0.170886 0
0.656428 0.168917 0
0.695094 0.166949 0
0.733745 0.164981 0
0.772396 0.163012 0
0.811063 0.161044 0
0.849714 0.159075 0
0.88838 0.157107 0
0.927031 0.155138 0
0.965682 0.15317 0
1 0.151202 0
1 0.149233 0
1 0.147265 0
1 0.145296 0
1 0.143328 0
1 0.14136 0
0 0.238422 0
0 0.236454 0
0.0313573 0.234485 0
0.0700236 0.232517 0
0.108675 0.230549 0
0.147326 0.22858 0
0.185992 0.226612 0
0.224643 0.224643 0
0.263294 0.222675 0
0.301961 0.220706 0
0.340612 0.218738 0
0.379278 0.21677 0
0.417929 0.214801 0
0.45658 0.212833 0
0.495247 0.210864 0
0.533898 0.208896 0
0.572549 0.206928 0
0.611215 0.204959 0
0.649866 0.202991 0
0.688533 0.201022 0
0.727184 0.199054 0
0.765835 0.19707 0
0.804501 0.195102 0
0.843153 0.193133 0
0.881804 0.191165 0
0.92047 0.189197 0
0.959121 0.187228 0
0.997787 0.18526 0
1 0.183291 0
1 0.181323 0
1 0.179355 0
1 0.177386 0
1 0.175418 0
0 0.27248 0
0 0.270527 0
0.0247959 0.268544 0
0.063447 0.266575 0
0.102113 0.264607 0
0.140764 0.262638 0
0.179431 0.26067 0
0.218082 0.258701 0
0.256733 0.256733 0
0.295399 0.254765 0
0.334051 0.252796 0
0.372702 0.250828 0
0.411368 0.248859 0
0.450019 0.246891 0
0.488685 0.244923 0
0.527337 0.242954 0
0.565988 0.240986 0
0.604654 0.239017 0
0.643305 0.237049 0
0.681956 0.23508 0
0.720623 0.233112 0
0.759274 0.231144 0
0.79794 0.229175 0
0.836591 0.227207 0
0.875242 0.225238 0
0.913909 0.22327 0
0.95256 0.221302 0
0.991211 0.219333 0
1 0.217365 0
1 0.215396 0
1 0.213413 0
1 0.211444 0
1 0.209476 0
0 0.306554 0
0 0.304585 0
0.0182345 0.302617 0
0.0568856 0.300649 0
0.095552 0.29868 0
0.134203 0.296712 0
0.172869 0.294743 0
0.211521 0.292775 0
0.250172 0.290806 0
0.288838 0.288838 0
0.327489 0.28687 0
0.36614 0.284886 0
0.404807 0.282918 0
0.443458 0.280949 0
0.482124 0.278981 0
0.520775 0.277012 0
0.559426 0.275044 0
0.598093 0.273075 0
0.636744 0.271107 0
0.675395 0.269139 0
0.714061 0.26717 0
0.752712 0.265202 0
0.791379 0.263233 0
0.83003 0.261265 0
0.868681 0.259297 0
0.907347 0.257328 0
0.945998 0.25536 0
0.984649 0.253391 0
1 0.251423 0
1 0.249454 0
1 0.247486 0
1 0.245518 0
1 0.243549 0
0 0.340612 0
0 0.338643 0
0.0116732 0.336675 0
0.0503243 0.334707 0
0.0889906 0.332738 0
0.127642 0.33077 0
0.166293 0.328801 0
0.204959 0.326833 0
0.24361 0.324865 0
0.282277 0.322896 0
0.320928 0.320928 0
0.359579 0.318959 0
0.398245 0.316991 0
0.436896 0.315022 0
0.475547 0.313054 0
0.514214 0.311086 0
0.552865 0.309117 0
0.591531 0.307149 0
0.630182 0.30518 0
0.668833 0.303212 0
0.7075 0.301228 0
0.746151 0.29926 0
0.784802 0.297292 0
0.823468 0.295323 0
0.862119 0.293355 0
0.900786 0.291386 0
0.939437 0.289418 0
0.978088 0.287449 0
1 0.285481 0
1 0.283513 0
1 0.281544 0
1 0.279576 0
1 0.277607 0
0 0.37467 0
0 0.372702 0
0.00511177 0.370733 0
0.0437629 0.368765 0
0.0824292 0.366796 0
0.12108 0.364828 0
0.159731 0.36286 0
0.198398 0.360891 0
0.237049 0.358923 0
0.2757 0.356954 0
0.314366 0.354986 0
0.353017 0.353017 0
0.391684 0.351049 0
0.430335 0.349081 0
0.468986 0.347112 0
0.507652 0.345144 0
0.546304 0.343175 0
0.584955 0.341207 0
0.623621 0.339239 0
0.662272 0.33727 0
0.700938 0.335302 0
0.73959 0.333333 0
0.778241 0.331365 0
0.816907 0.329397 0
0.855558 0.327428 0
0.894209 0.32546 0
0.932876 0.323491 0
0.971527 0.321523 0
1 0.319554 0
1 0.317571 0
1 0.315602 0
1 0.313634 0
1 0.311666 0
0 0.408743 0
0 0.406775 0
0 0.404807 0
0.0372015 0.402838 0
0.0758679 0.40087 0
0.114519 0.398901 0
0.15317 0.396933 0
0.191836 0.394965 0
0.230488 0.392996 0
0.269139 0.391028 0
0.307805 0.389044 0
0.346456 0.387076 0
0.385122 0.385107 0
0.423774 0.383139 0
0.462425 0.38117 0
0.501091 0.379202 0
0.539742 0.377234 0
0.578393 0.375265 0
0.61706 0.373297 0
0.655711 0.371328 0
0.694377 0.36936 0
0.733028 0.367391 0
0.771679 0.365423 0
0.810346 0.363455 0
0.848997 0.361486 0
0.887648 0.359518 0
0.926314 0.357549 0
0.964965 0.355581 0
1 0.353613 0
1 0.351644 0
1 0.349676 0
1 0.347707 0
1 0.345739 0
0 0.442802 0
0 0.440833 0
0 0.438865 0
0.0306401 0.436896 0
0.0692912 0.434928 0
0.107958 0.432959 0
0.146609 0.430991 0
0.185275 0.429023 0
0.223926 0.427054 0
0.262577 0.425086 0
0.301244 0.423117 0
0.339895 0.421149 0
0.378546 0.419181 0
0.417212 0.417212 0
0.455863 0.415244 0
0.49453 0.413275 0
0.533181 0.411307 0
0.571832 0.409339 0
0.610498 0.40737 0
0.649149 0.405386 0
0.6878 0.403418 0
0.726467 0.40145 0
0.765118 0.399481 0
0.803784 0.397513 0
0.842435 0.395544 0
0.881086 0.393576 0
0.919753 0.391608 0
0.958404 0.389639 0
0.997055 0.387671 0
1 0.385702 0
1 0.383734 0
1 0.381765 0
1 0.379797 0
0 0.47686 0
0 0.474891 0
0 0.472923 0
0.0240787 0.470954 0
0.0627298 0.468986 0
0.101396 0.467018 0
0.140047 0.465049 0
0.178698 0.463081 0
0.217365 0.461112 0
0.256016 0.459144 0
0.294682 0.457176 0
0.333333 0.455207 0
0.371984 0.453239 0
0.410651 0.45127 0
0.449302 0.449302 0
0.487953 0.447333 0
0.526619 0.445365 0
0.56527 0.443397 0
0.603937 0.441428 0
0.642588 0.43946 0
0.681239 0.437491 0
0.719905 0.435523 0
0.758556 0.433555 0
0.797223 0.431586 0
0.835874 0.429618 0
0.874525 0.427649 0
0.913191 0.425681 0
0.951843 0.423713 0
0.990494 0.421729 0
1 0.41976 0
1 0.417792 0
1 0.415824 0
1 0.413855 0
0 0.510933 0
0 0.508965 0
0 0.506996 0
0.0175174 0.505028 0
0.0561685 0.503059 0
0.0948348 0.501091 0
0.133486 0.499123 0
0.172137 0.497154 0
0.210803 0.495186 0
0.249454 0.493202 0
0.288121 0.491234 0
0.326772 0.489265 0
0.365423 0.487297 0
0.404089 0.485328 0
0.442741 0.48336 0
0.481392 0.481392 0
0.520058 0.479423 0
0.558709 0.477455 0
0.597375 0.475486 0
0.636027 0.473518 0
0.674678 0.47155 0
0.713344 0.469581 0
0.751995 0.467613 0
0.790646 0.465644 0
0.829313 0.463676 0
0.867964 0.461707 0
0.90663 0.459739 0
0.945281 0.457771 0
0.983932 0.455802 0
1 0.453834 0
1 0.451865 0
1 0.449897 0
1 0.447929 0
0 0.544991 0
0 0.543023 0
0 0.541054 0
0.010956 0.539086 0
0.0496071 0.537118 0
0.0882734 0.535149 0
0.126925 0.533181 0
0.165576 0.531212 0
0.204242 0.529244 0
0.242893 0.527276 0
0.281544 0.525307 0
0.320211 0.523339 0
0.358862 0.52137 0
0.397528 0.519402 0
0.436179 0.517433 0
0.47483 0.515465 0
0.513497 0.513497 0
0.552148 0.511528 0
0.590799 0.509544 0
0.629465 0.507576 0
0.668116 0.505608 0
0.706783 0.503639 0
0.745434 0.501671 0
0.784085 0.499702 0
0.822751 0.497734 0
0.861402 0.495766 0
0.900053 0.493797 0
0.93872 0.491829 0
0.977371 0.48986 0
1 0.487892 0
1 0.485924 0
1 0.483955 0
1 0.481987 0
0 0.579049 0
0 0.577081 0
0 0.575113 0
0.0043946 0.573144 0
0.0430457 0.571176 0
0.0816968 0.569207 0
0.120363 0.567239 0
0.159014 0.56527 0
0.197681 0.563302 0
0.236332 0.561334 0
0.274983 0.559365 0
0.313649 0.557397 0
0.3523 0.555428 0
0.390967 0.55346 0
0.429618 0.551492 0
0.468269 0.549523 0
0.506935 0.547555 0
0.545586 0.545586 0
0.584237 0.543618 0
0.622904 0.54165 0
0.661555 0.539681 0
0.700221 0.537713 0
0.738872 0.535744 0
0.777523 0.533776 0
0.81619 0.531807 0
0.854841 0.529839 0
0.893492 0.527871 0
0.932158 0.525887 0
0.97081 0.523919 0
1 0.52195 0
1 0.519982 0
1 0.518013 0
1 0.516045 0
0 0.613123 0
0 0.611154 0
0 0.609186 0
0 0.607217 0
0.0364843 0.605249 0
0.0751354 0.603281 0
0.113802 0.601312 0
0.152453 0.599344 0
0.191119 0.59736 0
0.22977 0.595392 0
0.268421 0.593423 0
0.307088 0.591455 0
0.345739 0.589487 0
0.38439 0.587518 0
0.423056 0.58555 0
0.461707 0.583581 0
0.500374 0.581613 0
0.539025 0.579644 0
0.577676 0.577676 0
0.616342 0.575708 0
0.654994 0.573739 0
0.693645 0.571771 0
0.732311 0.569802 0
0.770962 0.567834 0
0.809628 0.565866 0
0.84828 0.563897 0
0.886931 0.561929 0
0.925597 0.55996 0
0.964248 0.557992 0
1 0.556023 0
1 0.554055 0
1 0.552087 0
1 0.550118 0
0 0.647181 0
0 0.645212 0
0 0.643244 0
0 0.641276 0
0.0299229 0.639307 0
0.068574 0.637339 0
0.10724 0.63537 0
0.145892 0.633402 0
0.184543 0.631434 0
0.223209 0.629465 0
0.26186 0.627497 0
0.300526 0.625528 0
0.339178 0.62356 0
0.377829 0.621592 0
0.416495 0.619623 0
0.455146 0.617655 0
0.493797 0.615686 0
0.532464 0.613703 0
0.571115 0.611734 0
0.609781 0.609766 0
0.648432 0.607797 0
0.687083 0.605829 0
0.72575 0.603861 0
0.764401 0.601892 0
0.803052 0.599924 0
0.841718 0.597955 0
0.880369 0.595987 0
0.919036 0.594018 0
0.957687 0.59205 0
0.996338 0.590082 0
1 0.588113 0
1 0.586145 0
1 0.584176 0
0 0.681239 0
0 0.679271 0
0 0.677302 0
0 0.675334 0
0.0233616 0.673365 0
0.0620127 0.671397 0
0.100679 0.669429 0
0.13933 0.66746 0
0.177981 0.665492 0
0.216648 0.663523 0
0.255299 0.661555 0
0.293965 0.659586 0
0.332616 0.657618 0
0.371267 0.65565 0
0.409934 0.653681 0
0.448585 0.651713 0
0.487236 0.649744 0
0.525902 0.647776 0
0.564553 0.645808 0
0.60322 0.643839 0
0.641871 0.641871 0
0.680522 0.639902 0
0.719188 0.637934 0
0.757839 0.635966 0
0.79649 0.633997 0
0.835157 0.632029 0
0.873808 0.630045 0
0.912474 0.628077 0
0.951125 0.626108 0
0.989776 0.62414 0
1 0.622171 0
1 0.620203 0
1 0.618235 0
0 0.715312 0
0 0.713344 0
0 0.711376 0
0 0.709407 0
0.0168002 0.707439 0
0.0554513 0.70547 0
0.0941176 0.703502 0
0.132769 0.701518 0
0.17142 0.69955 0
0.210086 0.697581 0
0.248737 0.695613 0
0.287388 0.693645 0
0.326055 0.691676 0
0.364706 0.689708 0
0.403372 0.687739 0
0.442023 0.685771 0
0.480674 0.683803 0
0.519341 0.681834 0
0.557992 0.679866 0
0.596643 0.677897 0
0.635309 0.675929 0
0.673961 0.673961 0
0.712627 0.671992 0
0.751278 0.670024 0
0.789929 0.668055 0
0.828595 0.666087 0
0.867247 0.664118 0
0.905898 0.66215 0
0.944564 0.660182 0
0.983215 0.658213 0
1 0.656245 0
1 0.654276 0
1 0.652308 0
0 0.749371 0
0 0.747402 0
0 0.745434 0
0 0.743465 0
0.0102388 0.741497 0
0.0488899 0.739528 0
0.087541 0.73756 0
0.126207 0.735592 0
0.164858 0.733623 0
0.203525 0.731655 0
0.242176 0.729686 0
0.280827 0.727718 0
0.319493 0.72575 0
0.358144 0.723781 0
0.396796 0.721813 0
0.435462 0.719844 0
0.474113 0.717861 0
0.512779 0.715892 0
0.551431 0.713924 0
0.590082 0.711955 0
0.628748 0.709987 0
0.667399 0.708019 0
0.70605 0.70605 0
0.744717 0.704082 0
0.783368 0.702113 0
0.822034 0.700145 0
0.860685 0.698177 0
0.899336 0.696208 0
0.938003 0.69424 0
0.976654 0.692271 0
1 0.690303 0
1 0.688334 0
1 0.686366 0
0 0.783429 0
0 0.78146 0
0 0.779492 0
0 0.777523 0
0.00367742 0.775555 0
0.0423285 0.773587 0
0.0809796 0.771618 0
0.119646 0.76965 0
0.158297 0.767681 0
0.196963 0.765713 0
0.235615 0.763745 0
0.274266 0.761776 0
0.312932 0.759808 0
0.351583 0.757839 0
0.390234 0.755871 0
0.428901 0.753902 0
0.467552 0.751934 0
0.506218 0.749966 0
0.544869 0.747997 0
0.58352 0.746029 0
0.622187 0.74406 0
0.660838 0.742092 0
0.699489 0.740124 0
0.738155 0.738155 0
0.776806 0.736187 0
0.815473 0.734203 0
0.854124 0.732235 0
0.892775 0.730266 0
0.931441 0.728298 0
0.970092 0.726329 0
1 0.724361 0
1 0.722393 0
1 0.720424 0
0 0.817502 0
0 0.815534 0
0 0.813565 0
0 0.811597 0
0 0.809628 0
0.0357671 0.80766 0
0.0744182 0.805676 0
0.113085 0.803708 0
0.151736 0.80174 0
0.190387 0.799771 0
0.229053 0.797803 0
0.267704 0.795834 0
0.306371 0.793866 0
0.345022 0.791897 0
0.383673 0.789929 0
0.422339 0.787961 0
0.46099 0.785992 0
0.499641 0.784024 0
0.538308 0.782055 0
0.576959 0.780087 0
0.615625 0.778119 0
0.654276 0.77615 0
0.692927 0.774182 0
0.731594 0.772213 0
0.770245 0.770245 0
0.808896 0.768277 0
0.847562 0.766308 0
0.886213 0.76434 0
0.92488 0.762371 0
0.963531 0.760403 0
1 0.758434 0
1 0.756466 0
1 0.754498 0
0 0.85156 0
0 0.849592 0
0 0.847623 0
0 0.845655 0
0 0.843687 0
0.0292058 0.841718 0
0.0678569 0.83975 0
0.106523 0.837781 0
0.145174 0.835813 0
0.183825 0.833844 0
0.222492 0.831876 0
0.261143 0.829908 0
0.299794 0.827939 0
0.33846 0.825971 0
0.377111 0.824002 0
0.415778 0.822019 0
0.454429 0.82005 0
0.49308 0.818082 0
0.531746 0.816114 0
0.570397 0.814145 0
0.609049 0.812177 0
0.647715 0.810208 0
0.686366 0.80824 0
0.725032 0.806271 0
0.763684 0.804303 0
0.802335 0.802335 0
0.841001 0.800366 0
0.879652 0.798398 0
0.918318 0.796429 0
0.95697 0.794461 0
0.995621 0.792493 0
1 0.790524 0
1 0.788556 0
0 0.885618 0
0 0.88365 0
0 0.881682 0
0 0.879713 0
0 0.877745 0
0.0226444 0.875776 0
0.0612955 0.873808 0
0.0999619 0.871839 0
0.138613 0.869871 0
0.177264 0.867903 0
0.21593 0.865934 0
0.254582 0.863966 0
0.293233 0.861997 0
0.331899 0.860029 0
0.37055 0.858061 0
0.409216 0.856092 0
0.447868 0.854124 0
0.486519 0.852155 0
0.525185 0.850187 0
0.563836 0.848219 0
0.602487 0.84625 0
0.641154 0.844282 0
0.679805 0.842313 0
0.718471 0.840345 0
0.757122 0.838361 0
0.795773 0.836393 0
0.83444 0.834424 0
0.873091 0.832456 0
0.911742 0.830488 0
0.950408 0.828519 0
0.989059 0.826551 0
1 0.824582 0
1 0.822614 0
0 0.919692 0
0 0.917723 0
0 0.915755 0
0 0.913787 0
0 0.911818 0
0.016083 0.909834 0
0.0547341 0.907866 0
0.0933852 0.905898 0
0.132052 0.903929 0
