public/LUTS/Color Gain/Color Gain_07.cube
TITLE "Generated by Resolve"
LUT_3D_SIZE 33
0 0 0
0.0485084 0 0
0.0970474 0 0
0.145571 0 0
0.19411 0 0
0.242634 0 0
0.291173 0 0
0.339696 0 0
0.388235 0 0
0.436759 0 0
0.485298 0 0
0.533822 0 0
0.582361 0 0
0.6309 0 0
0.679423 0 0
0.727962 0 0
0.776486 0 0
0.825025 0 0
0.873549 0 0
0.922087 0 0
0.970611 0 0
1 0 0
1 0 0
1 0 0
1 0 0
1 0 0
1 0 0
1 0 0
1 0 0
1 0 0
1 0 0
1 0 0
1 0 0
0 0.0377966 0
0.0332036 0.0332036 0
0.0817426 0.0286107 0
0.130266 0.0240177 0
0.178805 0.0194247 0
0.227329 0.0148318 0
0.275868 0.0102388 0
0.324392 0.00564584 0
0.37293 0.00103761 0
0.421454 0 0
0.469993 0 0
0.518517 0 0
0.567056 0 0
0.615579 0 0
0.664118 0 0
0.712657 0 0
0.761181 0 0
0.80972 0 0
0.858244 0 0
0.906783 0 0
0.955306 0 0
1 0 0
1 0 0
1 0 0
1 0 0
1 0 0
1 0 0
1 0 0
1 0 0
1 0 0
1 0 0
1 0 0
1 0 0
0 0.0756085 0
0.0178836 0.0710155 0
0.0664225 0.0664225 0
0.114961 0.0618296 0
0.163485 0.0572366 0
0.212024 0.0526436 0
0.260548 0.0480507 0
0.309087 0.0434577 0
0.35761 0.0388647 0
0.406149 0.0342565 0
0.454673 0.0296635 0
0.503212 0.0250706 0
0.551736 0.0204776 0
0.600275 0.0158846 0
0.648814 0.0112917 0
0.697337 0.00669871 0
0.745876 0.00210575 0
0.7944 0 0
0.842939 0 0
0.891463 0 0
0.940002 0 0
0.988525 0 0
1 0 0
1 0 0
1 0 0
1 0 0
1 0 0
1 0 0
1 0 0
1 0 0
1 0 0
1 0 0
1 0 0
0 0.11342 0
0.00257877 0.108827 0
0.0511025 0.104234 0
0.0996414 0.0996414 0
0.14818 0.0950484 0
0.196704 0.0904555 0
0.245243 0.0858625 0
0.293767 0.0812695 0
0.342306 0.0766766 0
0.390829 0.0720836 0
0.439368 0.0674754 0
0.487892 0.0628824 0
0.536431 0.0582895 0
0.584955 0.0536965 0
0.633494 0.0491035 0
0.682033 0.0445106 0
0.730556 0.0399176 0
0.779095 0.0353246 0
0.827619 0.0307317 0
0.876158 0.0261387 0
0.924681 0.0215457 0
0.97322 0.0169528 0
1 0.0123598 0
1 0.00776684 0
1 0.00315862 0
1 0 0
1 0 0
1 0 0
1 0 0
1 0 0
1 0 0
1 0 0
1 0 0
0 0.151232 0
0 0.146639 0
0.0357977 0.142046 0
0.0843214 0.137453 0
0.13286 0.13286 0
0.181399 0.128267 0
0.229923 0.123674 0
0.278462 0.119081 0
0.326986 0.114488 0
0.375525 0.109895 0
0.424048 0.105303 0
0.472587 0.100694 0
0.521111 0.0961013 0
0.56965 0.0915084 0
0.618173 0.0869154 0
0.666712 0.0823224 0
0.715251 0.0777295 0
0.763775 0.0731365 0
0.812314 0.0685435 0
0.860838 0.0639506 0
0.909377 0.0593576 0
0.9579 0.0547646 0
1 0.0501717 0
1 0.0455787 0
1 0.0409857 0
1 0.0363775 0
1 0.0317845 0
1 0.0271916 0
1 0.0225986 0
1 0.0180056 0
1 0.0134127 0
1 0.00881972 0
1 0.00422675 0
0 0.189044 0
0 0.184451 0
0.0204776 0.179858 0
0.0690166 0.175265 0
0.117556 0.170672 0
0.166079 0.166079 0
0.214618 0.161486 0
0.263142 0.156893 0
0.311681 0.1523 0
0.360204 0.147707 0
0.408743 0.143114 0
0.457267 0.138521 0
0.505806 0.133913 0
0.55433 0.12932 0
0.602869 0.124727 0
0.651392 0.120134 0
0.699931 0.115541 0
0.74847 0.110948 0
0.796994 0.106355 0
0.845533 0.101762 0
0.894057 0.0971695 0
0.942596 0.0925765 0
0.991119 0.0879835 0
1 0.0833906 0
1 0.0787976 0
1 0.0742046 0
1 0.0696117 0
1 0.0650034 0
1 0.0604105 0
1 0.0558175 0
1 0.0512245 0
1 0.0466316 0
1 0.0420386 0
0 0.226856 0
0 0.222263 0
0.00517281 0.21767 0
0.0536965 0.213077 0
0.102235 0.208484 0
0.150774 0.203891 0
0.199298 0.199298 0
0.247837 0.194705 0
0.296361 0.190112 0
0.3449 0.185519 0
0.393423 0.180926 0
0.441962 0.176333 0
0.490486 0.17174 0
0.539025 0.167147 0
0.587549 0.162539 0
0.636088 0.157946 0
0.684627 0.153353 0
0.73315 0.14876 0
0.781689 0.144167 0
0.830213 0.139574 0
0.878752 0.134981 0
0.927275 0.130388 0
0.975814 0.125795 0
1 0.121202 0
1 0.116609 0
1 0.112016 0
1 0.107424 0
1 0.102831 0
1 0.0982223 0
1 0.0936294 0
1 0.0890364 0
1 0.0844434 0
1 0.0798505 0
0 0.264668 0
0 0.260075 0
0 0.255482 0
0.0383917 0.250889 0
0.0869154 0.246296 0
0.135454 0.241703 0
0.183993 0.23711 0
0.232517 0.232517 0
0.281056 0.227924 0
0.32958 0.223331 0
0.378119 0.218738 0
0.426642 0.214145 0
0.475181 0.209552 0
0.523705 0.204959 0
0.572244 0.200366 0
0.620768 0.195758 0
0.669306 0.191165 0
0.717845 0.186572 0
0.766369 0.181979 0
0.814908 0.177386 0
0.863432 0.172793 0
0.911971 0.1682 0
0.960494 0.163607 0
1 0.159014 0
1 0.154421 0
1 0.149828 0
1 0.145235 0
1 0.140642 0
1 0.136049 0
1 0.131441 0
1 0.126848 0
1 0.122255 0
1 0.117662 0
0 0.30248 0
0 0.297902 0
0 0.293294 0
0.0230716 0.288701 0
0.0716106 0.284108 0
0.120134 0.279515 0
0.168673 0.274922 0
0.217212 0.270329 0
0.265736 0.265736 0
0.314275 0.261143 0
0.362799 0.25655 0
0.411337 0.251957 0
0.459861 0.247364 0
0.5084 0.242771 0
0.556924 0.238178 0
0.605463 0.233585 0
0.653986 0.228977 0
0.702525 0.224384 0
0.751064 0.219791 0
0.799588 0.215198 0
0.848127 0.210605 0
0.896651 0.206012 0
0.94519 0.201419 0
0.993713 0.196826 0
1 0.192233 0
1 0.18764 0
1 0.183047 0
1 0.178454 0
1 0.173861 0
1 0.169268 0
1 0.16466 0
1 0.160067 0
1 0.155474 0
0 0.340307 0
0 0.335714 0
0 0.331121 0
0.00776684 0.326513 0
0.0562905 0.32192 0
0.104829 0.317327 0
0.153368 0.312734 0
0.201892 0.308141 0
0.250431 0.303548 0
0.298955 0.298955 0
0.347494 0.294362 0
0.396017 0.289769 0
0.444556 0.285176 0
0.49308 0.280583 0
0.541619 0.27599 0
0.590143 0.271397 0
0.638682 0.266804 0
0.687221 0.262196 0
0.735744 0.257603 0
0.784283 0.25301 0
0.832807 0.248417 0
0.881346 0.243824 0
0.92987 0.239231 0
0.978408 0.234638 0
1 0.230045 0
1 0.225452 0
1 0.220859 0
1 0.216266 0
1 0.211673 0
1 0.20708 0
1 0.202487 0
1 0.197879 0
1 0.193286 0
0 0.378119 0
0 0.373526 0
0 0.368933 0
0 0.36434 0
0.0409857 0.359731 0
0.0895094 0.355138 0
0.138048 0.350545 0
0.186587 0.345953 0
0.235111 0.34136 0
0.28365 0.336767 0
0.332174 0.332174 0
0.380713 0.327581 0
0.429236 0.322988 0
0.477775 0.318395 0
0.526299 0.313802 0
0.574838 0.309209 0
0.623362 0.304616 0
0.671901 0.300023 0
0.720439 0.295415 0
0.768963 0.290822 0
0.817502 0.286229 0
0.866026 0.281636 0
0.914565 0.277043 0
0.963088 0.27245 0
1 0.267857 0
1 0.263264 0
1 0.258671 0
1 0.254078 0
1 0.249485 0
1 0.244892 0
1 0.240299 0
1 0.235706 0
1 0.231098 0
0 0.41593 0
0 0.411337 0
0 0.406744 0
0 0.402152 0
0.0256657 0.397559 0
0.0742046 0.39295 0
0.122728 0.388357 0
0.171267 0.383764 0
0.219806 0.379171 0
0.26833 0.374578 0
0.316869 0.369985 0
0.365393 0.365393 0
0.413931 0.3608 0
0.462455 0.356207 0
0.510994 0.351614 0
0.559518 0.347021 0
0.608057 0.342428 0
0.65658 0.337835 0
0.705119 0.333242 0
0.753658 0.328634 0
0.802182 0.324041 0
0.850721 0.319448 0
0.899245 0.314855 0
0.947784 0.310262 0
0.996307 0.305669 0
1 0.301076 0
1 0.296483 0
1 0.29189 0
1 0.287297 0
1 0.282704 0
1 0.278111 0
1 0.273518 0
1 0.268925 0
0 0.453742 0
0 0.449149 0
0 0.444556 0
0 0.439963 0
0.0103609 0.43537 0
0.0588846 0.430777 0
0.107424 0.426169 0
0.155962 0.421576 0
0.204486 0.416983 0
0.253025 0.41239 0
0.301549 0.407797 0
0.350088 0.403204 0
0.398611 0.398611 0
0.44715 0.394018 0
0.495674 0.389425 0
0.544213 0.384833 0
0.592737 0.38024 0
0.641276 0.375647 0
0.689799 0.371054 0
0.738338 0.366461 0
0.786877 0.361868 0
0.835401 0.357259 0
0.88394 0.352667 0
0.932464 0.348074 0
0.981003 0.343481 0
1 0.338888 0
1 0.334295 0
1 0.329702 0
1 0.325109 0
1 0.320516 0
1 0.315923 0
1 0.31133 0
1 0.306737 0
0 0.491554 0
0 0.486961 0
0 0.482368 0
0 0.477775 0
0 0.473182 0
0.0435798 0.468589 0
0.0921035 0.463996 0
0.140642 0.459403 0
0.189181 0.454795 0
0.237705 0.450202 0
0.286244 0.445609 0
0.334768 0.441016 0
0.383307 0.436423 0
0.43183 0.43183 0
0.480369 0.427237 0
0.528893 0.422644 0
0.577432 0.418051 0
0.625956 0.413458 0
0.674495 0.408865 0
0.723033 0.404273 0
0.771557 0.39968 0
0.820096 0.395087 0
0.86862 0.390478 0
0.917159 0.385885 0
0.965682 0.381292 0
1 0.376699 0
1 0.372107 0
1 0.367514 0
1 0.362921 0
1 0.358328 0
1 0.353735 0
1 0.349142 0
1 0.344549 0
0 0.529366 0
0 0.524773 0
0 0.52018 0
0 0.515587 0
0 0.510994 0
0.0282597 0.506401 0
0.0767987 0.501808 0
0.125322 0.497215 0
0.173861 0.492622 0
0.2224 0.488014 0
0.270924 0.483421 0
0.319463 0.478828 0
0.367987 0.474235 0
0.416526 0.469642 0
0.465049 0.465049 0
0.513588 0.460456 0
0.562112 0.455863 0
0.610651 0.45127 0
0.659175 0.446677 0
0.707713 0.442084 0
0.756252 0.437491 0
0.804776 0.432898 0
0.853315 0.428305 0
0.901839 0.423697 0
0.950378 0.419104 0
0.998901 0.414511 0
1 0.409918 0
1 0.405325 0
1 0.400732 0
1 0.396139 0
1 0.391546 0
1 0.386954 0
1 0.382361 0
0 0.567178 0
0 0.562585 0
0 0.557992 0
0 0.553399 0
0 0.548806 0
0.0129549 0.544213 0
0.0614786 0.53962 0
0.110018 0.535027 0
0.158541 0.530434 0
0.20708 0.525841 0
0.255619 0.521233 0
0.304143 0.51664 0
0.352682 0.512047 0
0.401205 0.507454 0
0.449744 0.502861 0
0.498268 0.498268 0
0.546807 0.493675 0
0.595331 0.489082 0
0.64387 0.484489 0
0.692393 0.479896 0
0.740932 0.475303 0
0.789471 0.47071 0
0.837995 0.466117 0
0.886534 0.461524 0
0.935058 0.456916 0
0.983597 0.452323 0
1 0.44773 0
1 0.443137 0
1 0.438544 0
1 0.433951 0
1 0.429358 0
1 0.424765 0
1 0.420172 0
0 0.60499 0
0 0.600397 0
0 0.595804 0
0 0.591211 0
0 0.586618 0
0 0.582025 0
0.0461738 0.577432 0
0.0946975 0.572839 0
0.143236 0.568246 0
0.191775 0.563653 0
0.240299 0.55906 0
0.288838 0.554452 0
0.337362 0.549859 0
0.385901 0.545266 0
0.434424 0.540673 0
0.482963 0.53608 0
0.531487 0.531487 0
0.580026 0.526894 0
0.62855 0.522301 0
0.677089 0.517708 0
0.725612 0.513115 0
0.774151 0.508522 0
0.82269 0.503929 0
0.871214 0.499336 0
0.919753 0.494743 0
0.968277 0.490135 0
1 0.485542 0
1 0.480949 0
1 0.476356 0
1 0.471763 0
1 0.46717 0
1 0.462577 0
1 0.457984 0
0 0.642802 0
0 0.638209 0
0 0.633616 0
0 0.629023 0
0 0.62443 0
0 0.619837 0
0.0308537 0.615244 0
0.0793927 0.610651 0
0.127916 0.606058 0
0.176455 0.601465 0
0.224994 0.596872 0
0.273518 0.592279 0
0.322057 0.587671 0
0.370581 0.583078 0
0.41912 0.578485 0
0.467643 0.573892 0
0.516182 0.569299 0
0.564706 0.564706 0
0.613245 0.560113 0
0.661768 0.55552 0
0.710307 0.550927 0
0.758846 0.546334 0
0.80737 0.541741 0
0.855909 0.537148 0
0.904433 0.532555 0
0.952972 0.527962 0
1 0.523354 0
1 0.518761 0
1 0.514168 0
1 0.509575 0
1 0.504982 0
1 0.500389 0
1 0.495796 0
0 0.680613 0
0 0.67602 0
0 0.671427 0
0 0.666835 0
0 0.662242 0
0 0.657649 0
0.0155489 0.653056 0
0.0640726 0.648463 0
0.112612 0.64387 0
0.161135 0.639277 0
0.209674 0.634684 0
0.258213 0.630091 0
0.306737 0.625498 0
0.355276 0.62089 0
0.4038 0.616297 0
0.452338 0.611704 0
0.500862 0.607111 0
0.549401 0.602518 0
0.597925 0.597925 0
0.646464 0.593332 0
0.694987 0.588739 0
0.743526 0.584146 0
0.792065 0.579553 0
0.840589 0.57496 0
0.889128 0.570367 0
0.937652 0.565774 0
0.986191 0.561181 0
1 0.556588 0
1 0.55198 0
1 0.547387 0
1 0.542794 0
1 0.538201 0
1 0.533608 0
0 0.718425 0
0 0.713832 0
0 0.709239 0
0 0.704646 0
0 0.700053 0
0 0.69546 0
0.000228885 0.690867 0
0.0487678 0.686275 0
0.0972915 0.681682 0
0.14583 0.677089 0
0.194354 0.672496 0
0.242893 0.667903 0
0.291432 0.66331 0
0.339956 0.658717 0
0.388495 0.654124 0
0.437018 0.649516 0
0.485557 0.644923 0
0.534081 0.64033 0
0.58262 0.635737 0
0.631144 0.631144 0
0.679683 0.626551 0
0.728206 0.621958 0
0.776745 0.617365 0
0.825284 0.612772 0
0.873808 0.608179 0
0.922347 0.603586 0
0.970871 0.598993 0
1 0.5944 0
1 0.589807 0
1 0.585199 0
1 0.580606 0
1 0.576013 0
1 0.57142 0
0 0.756237 0
0 0.751659 0
0 0.747051 0
0 0.742458 0
0 0.737865 0
0 0.733272 0
0 0.728679 0
0.0334478 0.724086 0
0.0819867 0.719493 0
0.13051 0.7149 0
0.179049 0.710307 0
0.227588 0.705715 0
0.276112 0.701122 0
0.324651 0.696529 0
0.373175 0.691936 0
0.421714 0.687343 0
0.470237 0.682734 0
0.518776 0.678141 0
0.5673 0.673548 0
0.615839 0.668956 0
0.664363 0.664363 0
0.712902 0.65977 0
0.76144 0.655177 0
0.809964 0.650584 0
0.858503 0.645991 0
0.907027 0.641398 0
0.955566 0.636805 0
1 0.632212 0
1 0.627619 0
1 0.623026 0
1 0.618418 0
1 0.613825 0
1 0.609232 0
0 0.794064 0
0 0.789471 0
0 0.784878 0
0 0.78027 0
0 0.775677 0
0 0.771084 0
0 0.766491 0
0.018143 0.761898 0
0.0666667 0.757305 0
0.115206 0.752712 0
0.163729 0.748119 0
0.212268 0.743526 0
0.260807 0.738933 0
0.309331 0.73434 0
0.35787 0.729747 0
0.406394 0.725155 0
0.454932 0.720562 0
0.503456 0.715953 0
0.551995 0.71136 0
0.600519 0.706767 0
0.649058 0.702174 0
0.697581 0.697581 0
0.74612 0.692988 0
0.794659 0.688396 0
0.843183 0.683803 0
0.891722 0.67921 0
0.940246 0.674617 0
0.988785 0.670024 0
1 0.665431 0
1 0.660838 0
1 0.656245 0
1 0.651637 0
1 0.647044 0
0 0.831876 0
0 0.827283 0
0 0.82269 0
0 0.818097 0
0 0.813489 0
0 0.808896 0
0 0.804303 0
0.00282292 0.79971 0
0.0513619 0.795117 0
0.0998856 0.790524 0
0.148425 0.785931 0
0.196948 0.781338 0
0.245487 0.776745 0
0.294026 0.772152 0
0.34255 0.767559 0
0.391089 0.762966 0
0.439612 0.758373 0
0.488151 0.75378 0
0.536675 0.749172 0
0.585214 0.744579 0
0.633738 0.739986 0
0.682277 0.735393 0
0.7308 0.7308 0
0.779339 0.726207 0
0.827878 0.721614 0
0.876402 0.717021 0
0.924941 0.712428 0
0.973465 0.707835 0
1 0.703243 0
1 0.69865 0
1 0.694057 0
1 0.689464 0
1 0.684855 0
0 0.869688 0
0 0.865095 0
0 0.860502 0
0 0.855909 0
0 0.851316 0
0 0.846708 0
0 0.842115 0
0 0.837522 0
0.0360418 0.832929 0
0.0845808 0.828336 0
0.133104 0.823743 0
0.181643 0.81915 0
0.230182 0.814557 0
0.278706 0.809964 0
0.327245 0.805371 0
0.375769 0.800778 0
0.424308 0.796185 0
0.472831 0.791592 0
0.52137 0.786999 0
0.569894 0.782391 0
0.618433 0.777798 0
0.666957 0.773205 0
0.715496 0.768612 0
0.764019 0.764019 0
0.812558 0.759426 0
0.861097 0.754833 0
0.909621 0.75024 0
0.95816 0.745647 0
1 0.741054 0
1 0.736461 0
1 0.731868 0
1 0.727275 0
1 0.722683 0
0 0.9075 0
0 0.902907 0
0 0.898314 0
0 0.893721 0
0 0.889128 0
0 0.884535 0
0 0.879927 0
0 0.875334 0
0.020737 0.870741 0
0.0692607 0.866148 0
0.1178 0.861555 0
0.166323 0.856962 0
0.214862 0.852369 0
0.263401 0.847776 0
0.311925 0.843183 0
0.360464 0.83859 0
0.408988 0.833997 0
0.457527 0.829404 0
0.50605 0.824811 0
0.554589 0.820218 0
0.603113 0.81561 0
0.651652 0.811017 0
0.700175 0.806424 0
0.748714 0.801831 0
0.797253 0.797238 0
0.845777 0.792645 0
0.894316 0.788052 0
0.94284 0.783459 0
0.991379 0.778866 0
1 0.774273 0
1 0.76968 0
1 0.765087 0
1 0.760494 0
0 0.945312 0
0 0.940719 0
0 0.936126 0
0 0.931533 0
0 0.92694 0
0 0.922347 0
0 0.917754 0
0 0.913146 0
0.00541695 0.908553 0
0.0539559 0.90396 0
0.10248 0.899367 0
0.151019 0.894774 0
0.199542 0.890181 0
0.248081 0.885588 0
0.29662 0.880995 0
0.345144 0.876402 0
0.393683 0.871809 0
0.442206 0.867216 0
0.490745 0.862623 0
0.539269 0.85803 0
0.587808 0.853437 0
0.636332 0.848844 0
0.684871 0.844236 0
0.733394 0.839643 0
0.781933 0.83505 0
0.830472 0.830457 0
0.878996 0.825864 0
0.927535 0.821271 0
0.976059 0.816678 0
1 0.812085 0
1 0.807492 0
1 0.802899 0
1 0.798306 0
0 0.983124 0
0 0.978531 0
0 0.973938 0
0 0.969345 0
0 0.964752 0
0 0.960159 0
0 0.955566 0
0 0.950973 0
0 0.94638 0
0.0386358 0.941772 0
0.0871748 0.937179 0
0.135698 0.932586 0
0.184237 0.927993 0
0.232761 0.9234 0
0.2813 0.918807 0
0.329839 0.914214 0
0.378363 0.909621 0
0.426902 0.905028 0
0.475425 0.900435 0
0.523964 0.895842 0
0.572488 0.891249 0
0.621027 0.886656 0
0.669551 0.882063 0
0.71809 0.877455 0
0.766613 0.872862 0
0.815152 0.868269 0
0.863691 0.863676 0
0.912215 0.859083 0
0.960754 0.85449 0
1 0.849897 0
1 0.845304 0
1 0.840711 0
1 0.836118 0
0 1 0
0 1 0
0 1 0
0 1 0
0 1 0
0 0.997971 0
0 0.993378 0
0 0.988785 0
0 0.984192 0
