public/LUTS/Color Gain/Color Gain_07.cube
TITLE "Generated by Resolve"
LUT_3D_SIZE 9
0 0 0
0.19411 0 0
0.388235 0 0
0.582361 0 0
0.776486 0 0
0.970611 0 0
1 0 0
1 0 0
1 0 0
0 0.151232 0
0.13286 0.13286 0
0.326986 0.114488 0
0.521111 0.0961013 0
0.715251 0.0777295 0
0.909377 0.0593576 0
1 0.0409857 0
1 0.0225986 0
1 0.00422675 0
0 0.30248 0
0.0716106 0.284108 0
0.265736 0.265736 0
0.459861 0.247364 0
0.653986 0.228977 0
0.848127 0.210605 0
1 0.192233 0
1 0.173861 0
1 0.155474 0
0 0.453742 0
0.0103609 0.43537 0
0.204486 0.416983 0
0.398611 0.398611 0
0.592737 0.38024 0
0.786877 0.361868 0
0.981003 0.343481 0
1 0.325109 0
1 0.306737 0
0 0.60499 0
0 0.586618 0
0.143236 0.568246 0
0.337362 0.549859 0
0.531487 0.531487 0
0.725612 0.513115 0
0.919753 0.494743 0
1 0.476356 0
1 0.457984 0
0 0.756237 0
0 0.737865 0
0.0819867 0.719493 0
0.276112 0.701122 0
0.470237 0.682734 0
0.664363 0.664363 0
0.858503 0.645991 0
1 0.627619 0
1 0.609232 0
0 0.9075 0
0 0.889128 0
0.020737 0.870741 0
0.214862 0.852369 0
0.408988 0.833997 0
0.603113 0.81561 0
0.797253 0.797238 0
0.991379 0.778866 0
1 0.760494 0
0 1 0
0 1 0
0 1 0
0.153613 1 0
0.347738 0.985245 0
0.541863 0.966873 0
0.735988 0.948501 0
0.930129 0.930114 0
1 0.911742 0
0 1 0
0 1 0
0 1 0
0.0923629 1 0
0.286488 1 0
0.480613 1 0
0.674739 1 0
0.868879 1 0
1 1 0
0 0 0.204608
0.186236 0 0.186236
0.380362 0 0.167849
0.574487 0 0.149477
0.768612 0 0.131106
0.962737 0 0.112734
1 0 0.0943465
1 0 0.0759747
1 0 0.0576028
0 0.143359 0.143359
0.124987 0.124987 0.124987
0.319112 0.106615 0.106615
0.513237 0.0882277 0.0882429
0.707378 0.0698558 0.0698558
0.901503 0.0514839 0.0514839
1 0.0331121 0.0331121
1 0.014725 0.0147402
1 0 0
0 0.294606 0.0821088
0.0637369 0.276234 0.0637369
0.257862 0.257862 0.0453651
0.451987 0.23949 0.026978
0.646113 0.221103 0.00860609
0.840253 0.202731 0
1 0.18436 0
1 0.165988 0
1 0.147601 0
0 0.445869 0.0208591
0.00248722 0.427497 0.00248722
0.196612 0.40911 0
0.390738 0.390738 0
0.584863 0.372366 0
0.779004 0.353994 0
0.973129 0.335607 0
1 0.317235 0
1 0.298863 0
0 0.597116 0
0 0.578744 0
0.135363 0.560372 0
0.329488 0.541985 0
0.523613 0.523613 0
0.717739 0.505241 0
0.911879 0.48687 0
1 0.468482 0
1 0.450111 0
0 0.748363 0
0 0.729992 0
0.0741131 0.71162 0
0.268238 0.693248 0
0.462364 0.674861 0
0.656489 0.656489 0
0.850629 0.638117 0
1 0.619745 0
1 0.601358 0
0 0.899626 0
0 0.881254 0
0.0128634 0.862867 0
0.206989 0.844495 0
0.401114 0.826123 0
0.595239 0.807752 0
0.789364 0.789364 0
0.983505 0.770993 0
1 0.752621 0
0 1 0
0 1 0
0 1 0
0.145739 0.995743 0
0.339864 0.977371 0
0.533989 0.958999 0
0.728115 0.940627 0
0.922255 0.92224 0
1 0.903868 0
0 1 0
0 1 0
0 1 0
0.0844892 1 0
0.278614 1 0
0.47274 1 0
0.666865 1 0
0.861006 1 0
1 1 0
0 0 0.409232
0.178347 0 0.39086
0.372488 0 0.372488
0.566613 0 0.354116
0.760739 0 0.335729
0.954864 0 0.317357
1 0 0.298985
1 0 0.280613
1 0 0.262226
0 0.135485 0.347982
0.117113 0.117113 0.32961
0.311238 0.0987411 0.311238
0.505364 0.080354 0.292866
0.699489 0.0619821 0.274495
0.893629 0.0436103 0.256107
1 0.0252384 0.237736
1 0.0068513 0.219364
1 0 0.200992
0 0.286732 0.286732
0.0558633 0.26836 0.26836
0.249989 0.249989 0.249989
0.444114 0.231617 0.231617
0.638239 0.21323 0.213245
0.83238 0.194858 0.194858
1 0.176486 0.176486
1 0.158114 0.158114
1 0.139727 0.139742
0 0.437995 0.225483
0 0.419623 0.207111
0.188739 0.401236 0.188739
0.382864 0.382864 0.170367
0.576989 0.364492 0.15198
0.771115 0.346105 0.133608
0.965255 0.327733 0.115236
1 0.309361 0.0968643
1 0.29099 0.0784772
0 0.589242 0.164233
0 0.570871 0.145861
0.127489 0.552499 0.127489
0.321614 0.534112 0.109117
0.51574 0.51574 0.0907301
0.709865 0.497368 0.0723583
0.904005 0.478996 0.0539864
1 0.460609 0.0356146
1 0.442237 0.0172274
0 0.74049 0.102983
0 0.722118 0.0846113
0.0662394 0.703746 0.0662394
0.260365 0.685374 0.0478523
0.45449 0.666987 0.0294804
0.648615 0.648615 0.0111086
0.842741 0.630243 0
1 0.611872 0
1 0.593484 0
0 0.891752 0.0417334
0 0.873381 0.0233616
0.0049897 0.854994 0.0049897
0.199115 0.836622 0
0.39324 0.81825 0
0.587366 0.799863 0
0.781491 0.781491 0
0.975631 0.763119 0
1 0.744747 0
0 1 0
0 1 0
0 1 0
0.137865 0.987869 0
0.331991 0.969497 0
0.526116 0.951125 0
0.720241 0.932754 0
0.914366 0.914366 0
1 0.895994 0
0 1 0
0 1 0
0 1 0
0.0766155 1 0
0.270741 1 0
0.464866 1 0
0.658991 1 0
0.853117 1 0
1 1 0
0 0 0.613855
0.170474 0 0.595483
0.364614 0 0.577111
0.55874 0 0.55874
0.752865 0 0.540368
0.94699 0 0.521981
1 0 0.503609
1 0 0.485237
1 0 0.466865
0 0.127611 0.552621
0.109239 0.109239 0.534249
0.303365 0.0908675 0.515862
0.49749 0.0724804 0.49749
0.691615 0.0541085 0.479118
0.885756 0.0357366 0.460746
1 0.0173495 0.442374
1 0 0.423987
1 0 0.405615
0 0.278859 0.491371
0.0479896 0.260487 0.472999
0.242115 0.242115 0.454612
0.43624 0.223743 0.43624
0.630365 0.205356 0.417868
0.824491 0.186984 0.399496
1 0.168612 0.381109
1 0.15024 0.362737
1 0.131853 0.344366
0 0.430121 0.430121
0 0.411749 0.411734
0.180865 0.393362 0.393362
0.37499 0.37499 0.37499
0.569116 0.356619 0.356619
0.763241 0.338231 0.338247
0.957382 0.31986 0.31986
1 0.301488 0.301488
1 0.283116 0.283116
0 0.581369 0.368856
0 0.562997 0.350484
0.119615 0.544625 0.332113
0.313741 0.526238 0.313741
0.507866 0.507866 0.295369
0.701991 0.489494 0.276982
0.896117 0.471107 0.25861
1 0.452735 0.240238
1 0.434363 0.221866
0 0.732616 0.307607
0 0.714244 0.289235
0.0583658 0.695872 0.270863
0.252491 0.677501 0.252491
0.446616 0.659113 0.234119
0.640742 0.640742 0.215732
0.834867 0.62237 0.19736
1 0.603998 0.178988
1 0.585611 0.160616
0 0.883879 0.246357
0 0.865507 0.227985
0 0.84712 0.209613
0.191241 0.828748 0.191241
0.385367 0.810376 0.172854
0.579492 0.791989 0.154482
0.773617 0.773617 0.13611
0.967742 0.755245 0.117739
1 0.736873 0.0993515
0 1 0.185107
0 1 0.166735
0 0.998383 0.148363
0.129992 0.979995 0.129992
0.324117 0.961624 0.111604
0.518242 0.943252 0.0932326
0.712367 0.924865 0.0748608
0.906493 0.906493 0.0564889
1 0.888121 0.0381018
0 1 0.123857
0 1 0.105486
0 1 0.0871138
0.0687419 1 0.0687266
0.262867 1 0.0503548
0.456992 1 0.0319829
0.651118 1 0.013611
0.845243 1 0
1 1 0
0 0 0.818494
0.1626 0 0.800122
0.356725 0 0.781735
0.550866 0 0.763363
0.744991 0 0.744991
0.939116 0 0.726619
1 0 0.708232
1 0 0.68986
1 0 0.671489
0 0.119738 0.757244
0.101366 0.101366 0.738872
0.295491 0.0829938 0.7205
0.489616 0.0646067 0.702129
0.683742 0.0462348 0.683742
0.877867 0.027863 0.66537
1 0.00947585 0.646998
1 0 0.628626
1 0 0.610239
0 0.270985 0.695994
0.040116 0.252613 0.677623
0.234241 0.234241 0.659251
0.428367 0.215869 0.640864
0.622492 0.197482 0.622492
0.816617 0.17911 0.60412
1 0.160739 0.585748
1 0.142351 0.567376
1 0.12398 0.548989
0 0.422248 0.634745
0 0.403876 0.616373
0.172992 0.385489 0.598001
0.367117 0.367117 0.579614
0.561242 0.348745 0.561242
0.755367 0.330358 0.54287
0.949493 0.311986 0.524498
1 0.293614 0.506111
1 0.275242 0.487739
0 0.573495 0.573495
0 0.555123 0.555123
0.111742 0.536751 0.536736
0.305867 0.518364 0.518364
0.499992 0.499992 0.499992
0.694118 0.481621 0.481621
0.888243 0.463233 0.463249
1 0.444862 0.444862
1 0.42649 0.42649
0 0.724743 0.512245
0 0.706371 0.493874
0.0504921 0.687999 0.475486
0.244617 0.669627 0.457115
0.438743 0.65124 0.438743
0.632868 0.632868 0.420371
0.826993 0.614496 0.401984
1 0.596109 0.383612
1 0.577737 0.36524
0 0.876005 0.450996
0 0.857633 0.432609
0 0.839246 0.414237
0.183368 0.820874 0.395865
0.377493 0.802502 0.377493
0.571618 0.784115 0.359121
0.765743 0.765743 0.340734
0.959869 0.747372 0.322362
1 0.729 0.30399
0 1 0.389731
0 1 0.371359
0 0.990509 0.352987
0.122118 0.972122 0.334615
0.316243 0.95375 0.316243
0.510369 0.935378 0.297856
0.704494 0.916991 0.279484
0.898619 0.898619 0.261112
1 0.880247 0.242741
0 1 0.328481
0 1 0.310109
0 1 0.291737
0.0608682 1 0.273365
0.254994 1 0.254994
0.449119 1 0.236606
0.643244 1 0.218235
0.837369 1 0.199863
1 1 0.181491
0 0 1
0.154726 0 1
0.348852 0 0.986374
0.542992 0 0.968002
0.737118 0 0.949615
0.931243 0 0.931243
1 0 0.912871
1 0 0.894499
1 0 0.876112
0 0.111864 0.961868
0.093492 0.093492 0.943496
0.287617 0.0751202 0.925124
0.481743 0.056733 0.906752
0.675868 0.0383612 0.88838
0.869993 0.0199893 0.869993
1 0.0016022 0.851621
1 0 0.833249
1 0 0.814878
0 0.263111 0.900618
0.0322423 0.244739 0.882246
0.226368 0.226368 0.863874
0.420493 0.207996 0.845502
0.614618 0.189609 0.827131
0.808743 0.171237 0.808743
1 0.152865 0.790372
1 0.134478 0.772
1 0.116106 0.753628
0 0.414374 0.839368
0 0.395987 0.820996
0.165118 0.377615 0.802625
0.359243 0.359243 0.784253
0.553368 0.340871 0.765866
0.747494 0.322484 0.747494
0.941619 0.304112 0.729122
1 0.28574 0.71075
1 0.267353 0.692378
0 0.565621 0.778119
0 0.54725 0.759747
0.103868 0.528878 0.741375
0.297993 0.510491 0.723003
0.492119 0.492119 0.704616
0.686244 0.473747 0.686244
0.880369 0.45536 0.667872
1 0.436988 0.6495
1 0.418616 0.631113
0 0.716869 0.716869
0 0.698497 0.698497
0.0426032 0.680125 0.680125
0.236744 0.661753 0.661738
0.430869 0.643366 0.643366
0.624994 0.624994 0.624994
0.81912 0.606622 0.606622
1 0.588235 0.588251
1 0.569863 0.569863
0 0.868132 0.655619
0 0.849744 0.637247
0 0.831373 0.618875
0.175494 0.813001 0.600488
0.369619 0.794629 0.582116
0.563745 0.776242 0.563745
0.75787 0.75787 0.545373
0.951995 0.739498 0.526986
1 0.721111 0.508614
0 1 0.594369
0 1 0.575998
0 0.982635 0.55761
0.114229 0.964248 0.539239
0.30837 0.945876 0.520867
0.502495 0.927504 0.502495
0.69662 0.909117 0.484123
0.890745 0.890745 0.465736
1 0.872374 0.447364
0 1 0.53312
0 1 0.514748
0 1 0.496361
0.0529793 1 0.477989
0.24712 1 0.459617
0.441245 1 0.441245
0.63537 1 0.422858
0.829496 1 0.404486
1 1 0.386114
0 0 1
0.146853 0 1
0.340978 0 1
0.535103 0 1
0.729244 0 1
0.923369 0 1
1 0 1
1 0 1
1 0 1
0 0.10399 1
0.0856184 0.0856184 1
0.279744 0.0672313 1
0.473869 0.0488594 1
0.667994 0.0304875 1
0.862119 0.0121157 1
1 0 1
1 0 1
1 0 1
0 0.255238 1
0.0243534 0.236866 1
0.218494 0.218494 1
0.412619 0.200122 1
0.606744 0.181735 1
0.80087 0.163363 1
0.994995 0.144991 0.994995
1 0.126604 0.976623
1 0.108232 0.958251
0 0.4065 1
0 0.388113 1
0.157244 0.369741 1
0.35137 0.35137 0.988876
0.545495 0.332998 0.970504
0.73962 0.314611 0.952132
0.933745 0.296239 0.933745
1 0.277867 0.915373
1 0.25948 0.897002
0 0.557748 0.982742
0 0.539376 0.96437
0.0959793 0.520989 0.945998
0.29012 0.502617 0.927626
0.484245 0.484245 0.909255
0.67837 0.465873 0.890867
0.872496 0.447486 0.872496
1 0.429114 0.854124
1 0.410742 0.835752
0 0.708995 0.921492
0 0.690623 0.90312
0.0347295 0.672251 0.884749
0.22887 0.65388 0.866377
0.422995 0.635493 0.848005
0.617121 0.617121 0.829618
0.811246 0.598749 0.811246
1 0.580362 0.792874
1 0.56199 0.774502
0 0.860258 0.860243
0 0.841871 0.841871
0 0.823499 0.823499
0.167605 0.805127 0.805127
0.361746 0.786755 0.78674
0.555871 0.768368 0.768368
0.749996 0.749996 0.749996
0.944121 0.731624 0.731624
1 0.713237 0.713252
0 1 0.798993
0 0.993133 0.780621
0 0.974746 0.762249
0.106355 0.956374 0.743877
0.300496 0.938003 0.72549
0.494621 0.919631 0.707118
0.688746 0.901244 0.688746
0.882872 0.882872 0.670375
1 0.8645 0.651987
0 1 0.737743
0 1 0.719371
0 1 0.700999
0.0451057 1 0.682612
0.239231 1 0.66424
0.433371 1 0.645869
0.627497 1 0.627497
0.821622 1 0.609125
1 1 0.590738
0 0 1
0.138979 0 1
0.333104 0 1
0.52723 0 1
0.72137 0 1
0.915496 0 1
1 0 1
1 0 1
1 0 1
0 0.0961166 1
0.0777295 0.0777447 1
0.27187 0.0593576 1
0.465995 0.0409857 1
0.660121 0.0226139 1
0.854246 0.00424201 1
1 0 1
1 0 1
1 0 1
0 0.247364 1
0.0164797 0.228992 1
0.21062 0.21062 1
0.404746 0.192233 1
0.598871 0.173861 1
0.792996 0.155489 1
0.987121 0.137118 1
1 0.11873 1
1 0.100359 1
0 0.398627 1
0 0.38024 1
0.149355 0.361868 1
0.343496 0.343496 1
0.537621 0.325124 1
0.731746 0.306737 1
0.925872 0.288365 1
1 0.269993 1
1 0.251606 1
0 0.549874 1
0 0.531502 1
0.0881056 0.513115 1
0.282246 0.494743 1
0.476371 0.476371 1
0.670497 0.458 1
0.864622 0.439612 1
1 0.421241 1
1 0.402869 1
0 0.701122 1
0 0.68275 1
0.0268559 0.664378 1
0.220981 0.645991 1
0.415122 0.627619 1
0.609247 0.609247 1
0.803372 0.590875 1
0.997497 0.572488 0.997497
1 0.554116 0.979126
0 0.852384 1
0 0.833997 1
0 0.815625 1
0.159731 0.797253 1
0.353872 0.778881 0.991379
0.547997 0.760494 0.973007
0.742123 0.742123 0.95462
0.936248 0.723751 0.936248
1 0.705364 0.917876
0 1 1
0 0.98526 0.985245
0 0.966873 0.966873
0.0984817 0.948501 0.948501
0.292607 0.930129 0.930129
0.486748 0.911757 0.911742
0.680873 0.89337 0.89337
0.874998 0.874998 0.874998
1 0.856626 0.856626
0 1 0.942367
0 1 0.923995
0 1 0.905623
0.037232 1 0.887251
0.231357 1 0.868879
0.425498 1 0.850492
0.619623 1 0.83212
0.813748 1 0.813748
1 1 0.795377
0 0 1
0.131106 0 1
0.325231 0 1
0.519356 0 1
0.713481 0 1
0.907622 0 1
1 0 1
1 0 1
1 0 1
0 0.0882429 1
0.0698558 0.0698711 1
0.263996 0.0514839 1
0.458122 0.0331121 1
0.652247 0.0147402 1
0.846372 0 1
1 0 1
1 0 1
1 0 1
0 0.23949 1
0.00860609 0.221118 1
0.202731 0.202747 1
0.396872 0.18436 1
0.590997 0.165988 1
0.785122 0.147616 1
0.979248 0.129244 1
1 0.110857 1
1 0.0924849 1
0 0.390738 1
0 0.372366 1
0.141482 0.353994 1
0.335622 0.335622 1
0.529747 0.317235 1
0.723873 0.298863 1
0.917998 0.280491 1
1 0.262119 1
1 0.243732 1
0 0.542 1
0 0.523629 1
0.0802319 0.505241 1
0.274357 0.48687 1
0.468498 0.468498 1
0.662623 0.450126 1
0.856748 0.431739 1
1 0.413367 1
1 0.394995 1
0 0.693248 1
0 0.674876 1
0.0189822 0.656504 1
0.213107 0.638117 1
0.407248 0.619745 1
0.601373 0.601373 1
0.795499 0.583001 1
0.989624 0.564614 1
1 0.546242 1
0 0.844495 1
0 0.826123 1
0 0.807752 1
0.151858 0.78938 1
0.345983 0.770993 1
0.540124 0.752621 1
0.734249 0.734249 1
0.928374 0.715877 1
1 0.69749 1
0 0.995758 1
0 0.977386 1
0 0.958999 1
0.0906081 0.940627 1
0.284733 0.922255 1
0.478874 0.903883 1
0.672999 0.885496 1
0.867124 0.867124 1
1 0.848753 1
0 1 1
0 1 1
0 1 1
0.0293584 1 1
0.223484 1 1
0.417609 1 1
0.611749 1 1
0.805875 1 1
1 1 1
