public/LUTS/Color Gain/Color Gain_05.cube
TITLE "Generated by Resolve"
LUT_3D_SIZE 9
0 0 0
0.17435 0 0
0.34873 0 0
0.52311 0 0
0.69749 0 0
0.87187 0 0
1 0 0
1 0 0
1 0 0
0 0.14374 0
0.130617 0.130617 0
0.304982 0.117479 0
0.479362 0.104356 0
0.653742 0.0912337 0
0.828122 0.0781109 0
1 0.0649729 0
1 0.0518502 0
1 0.0387274 0
0 0.28748 0
0.0868544 0.274357 0
0.261234 0.261234 0
0.435615 0.248112 0
0.609995 0.234989 0
0.784375 0.221866 0
0.958755 0.208728 0
1 0.195605 0
1 0.182483 0
0 0.431235 0
0.0431067 0.418112 0
0.217487 0.40499 0
0.391867 0.391867 0
0.566247 0.378744 0
0.740627 0.365606 0
0.914992 0.352483 0
1 0.339361 0
1 0.326238 0
0 0.57499 0
0 0.561868 0
0.173739 0.548745 0
0.348119 0.535622 0
0.522499 0.522484 0
0.696864 0.509361 0
0.871244 0.496239 0
1 0.483116 0
1 0.469978 0
0 0.718746 0
0 0.705623 0
0.129992 0.6925 0
0.304356 0.679362 0
0.478737 0.666239 0
0.653117 0.653117 0
0.827497 0.639994 0
1 0.626871 0
1 0.613733 0
0 0.862501 0
0 0.849378 0
0.0862287 0.83624 0
0.260609 0.823117 0
0.434989 0.809995 0
0.609369 0.796872 0
0.783749 0.783749 0
0.958129 0.770611 0
1 0.757488 0
0 1 0
0 0.993118 0
0.0424811 0.979995 0
0.216861 0.966873 0
0.391241 0.95375 0
0.565621 0.940627 0
0.740001 0.927489 0
0.914366 0.914366 0
1 0.901244 0
0 1 0
0 1 0
0 1 0
0.173114 1 0
0.347494 1 0
0.521874 1 0
0.696239 1 0
0.870619 1 0
1 1 0
0 0 0.181857
0.168734 0 0.168734
0.343114 0 0.155612
0.517494 0 0.142489
0.691859 0 0.129351
0.866239 0 0.116228
1 0 0.103105
1 0 0.0899825
1 0 0.0768597
0 0.138109 0.138109
0.124987 0.124987 0.124987
0.299367 0.111864 0.111864
0.473747 0.0987411 0.0987411
0.648127 0.0856031 0.0856031
0.822492 0.0724804 0.0724804
0.996872 0.0593576 0.0593576
1 0.0462348 0.0462348
1 0.0331121 0.0331121
0 0.281865 0.0943618
0.081239 0.268742 0.081239
0.255619 0.255619 0.0681163
0.429984 0.242481 0.0549783
0.604364 0.229358 0.0418555
0.778744 0.216236 0.0287327
0.953124 0.203113 0.01561
1 0.18999 0.00248722
1 0.176852 0
0 0.42562 0.0506142
0.0374914 0.412497 0.0374914
0.211856 0.399359 0.0243534
0.386236 0.386236 0.0112306
0.560616 0.373114 0
0.734997 0.359991 0
0.909377 0.346868 0
1 0.33373 0
1 0.320607 0
0 0.569375 0.0068513
0 0.556237 0
0.168109 0.543114 0
0.342489 0.529992 0
0.516869 0.516869 0
0.691249 0.503746 0
0.865629 0.490608 0
1 0.477485 0
1 0.464363 0
0 0.713115 0
0 0.699992 0
0.124361 0.68687 0
0.298741 0.673747 0
0.473121 0.660624 0
0.647501 0.647486 0
0.821866 0.634363 0
0.996246 0.621241 0
1 0.608118 0
0 0.85687 0
0 0.843748 0
0.0806134 0.830625 0
0.254994 0.817502 0
0.429374 0.804364 0
0.603738 0.791241 0
0.778119 0.778119 0
0.952499 0.764996 0
1 0.751873 0
0 1 0
0 0.987503 0
0.0368658 0.97438 0
0.211231 0.961242 0
0.385611 0.948119 0
0.559991 0.934997 0
0.734371 0.921874 0
0.908751 0.908751 0
1 0.895613 0
0 1 0
0 1 0
0 1 0
0.167483 1 0
0.341863 1 0
0.516243 1 0
0.690623 1 0
0.865003 1 0
1 1 0
0 0 0.363729
0.163104 0 0.350607
0.337484 0 0.337484
0.511864 0 0.324361
0.686244 0 0.311238
0.860624 0 0.298116
1 0 0.284977
1 0 0.271855
1 0 0.258732
0 0.132494 0.319982
0.119356 0.119356 0.306859
0.293736 0.106233 0.293736
0.468116 0.0931106 0.280613
0.642496 0.0799878 0.267491
0.816876 0.066865 0.254368
0.991257 0.053727 0.241245
1 0.0406043 0.228107
1 0.0274815 0.214984
0 0.276234 0.276234
0.0756085 0.263111 0.263111
0.249989 0.249989 0.249989
0.424369 0.236866 0.236866
0.598749 0.223743 0.223743
0.773129 0.210605 0.210605
0.947494 0.197482 0.197482
1 0.18436 0.18436
1 0.171237 0.171237
0 0.419989 0.232486
0.0318608 0.406867 0.219364
0.206241 0.393744 0.206241
0.380621 0.380621 0.193118
0.554986 0.367483 0.17998
0.729366 0.35436 0.166857
0.903746 0.341238 0.153735
1 0.328115 0.140612
1 0.314992 0.127489
0 0.563745 0.188739
0 0.550622 0.175616
0.162493 0.537499 0.162493
0.336858 0.524361 0.149355
0.511238 0.511238 0.136233
0.685618 0.498116 0.12311
0.859998 0.484993 0.109987
1 0.47187 0.0968643
1 0.458732 0.0837415
0 0.7075 0.144991
0 0.694377 0.131853
0.11873 0.681239 0.11873
0.293111 0.668116 0.105608
0.467491 0.654994 0.0924849
0.641871 0.641871 0.0793622
0.816251 0.628748 0.0662394
0.990631 0.61561 0.0531014
1 0.602487 0.0399786
0 0.851255 0.101228
0 0.838117 0.0881056
0.0749828 0.824994 0.0749828
0.249363 0.811872 0.0618601
0.423743 0.798749 0.0487373
0.598123 0.785626 0.0356146
0.772503 0.772488 0.0224765
0.946868 0.759365 0.00935378
1 0.746242 0
0 0.994995 0.0574807
0 0.981872 0.044358
0.0312352 0.96875 0.0312352
0.205615 0.955627 0.0181125
0.379995 0.942504 0.0049897
0.554376 0.929366 0
0.72874 0.916243 0
0.90312 0.90312 0
1 0.889998 0
0 1 0.0137331
0 1 0.000610361
0 1 0
0.161868 1 0
0.336233 1 0
0.510613 1 0
0.684993 1 0
0.859373 1 0
1 1 0
0 0 0.545617
0.157488 0 0.532494
0.331853 0 0.519371
0.506233 0 0.506233
0.680613 0 0.493111
0.854994 0 0.479988
1 0 0.466865
1 0 0.453742
1 0 0.440604
0 0.126864 0.501869
0.113741 0.113741 0.488746
0.288121 0.100618 0.475624
0.462486 0.08748 0.462486
0.636866 0.0743572 0.449363
0.811246 0.0612345 0.43624
0.985626 0.0481117 0.423117
1 0.0349889 0.409995
1 0.0218509 0.396872
0 0.270619 0.458122
0.0699931 0.257496 0.444999
0.244358 0.244358 0.431861
0.418738 0.231235 0.418738
0.593118 0.218112 0.405615
0.767498 0.20499 0.392493
0.941878 0.191867 0.37937
1 0.178729 0.366247
1 0.165606 0.353109
0 0.414374 0.414359
0.0262303 0.401236 0.401236
0.20061 0.388113 0.388113
0.37499 0.37499 0.37499
0.549371 0.361868 0.361868
0.723751 0.348745 0.348745
0.898131 0.335607 0.335607
1 0.322484 0.322484
1 0.309361 0.309361
0 0.558114 0.370611
0 0.544991 0.357488
0.156863 0.531868 0.344366
0.331243 0.518746 0.331243
0.505623 0.505623 0.31812
0.679988 0.492485 0.304982
0.854368 0.479362 0.291859
1 0.466239 0.278737
1 0.453117 0.265614
0 0.701869 0.326863
0 0.688746 0.313741
0.113115 0.675624 0.300618
0.287495 0.662501 0.287495
0.46186 0.649363 0.274357
0.63624 0.63624 0.261234
0.81062 0.623117 0.248112
0.985 0.609995 0.234989
1 0.596872 0.221866
0 0.845624 0.283116
0 0.832502 0.269993
0.0693675 0.819379 0.256855
0.243732 0.806241 0.243732
0.418112 0.793118 0.23061
0.592493 0.779995 0.217487
0.766873 0.766873 0.204364
0.941253 0.75375 0.191241
1 0.740612 0.178103
0 0.98938 0.239353
0 0.976257 0.22623
0.0256046 0.963119 0.213107
0.199985 0.949996 0.199985
0.374365 0.936873 0.186862
0.548745 0.923751 0.173739
0.723125 0.910628 0.160616
0.897505 0.89749 0.147478
1 0.884367 0.134356
0 1 0.195605
0 1 0.182483
0 1 0.16936
0.156237 1 0.156237
0.330617 1 0.143114
0.504997 1 0.129992
0.679377 1 0.116854
0.853742 1 0.103731
1 1 0.0906081
0 0 0.727489
0.151858 0 0.714366
0.326238 0 0.701244
0.500618 0 0.688121
0.674983 0 0.674998
0.849363 0 0.66186
1 0 0.648737
1 0 0.635615
1 0 0.622492
0 0.121233 0.683742
0.10811 0.10811 0.670619
0.28249 0.0949874 0.657496
0.45687 0.0818647 0.644373
0.631251 0.0687419 0.631251
0.805615 0.0556039 0.618128
0.979995 0.0424811 0.60499
1 0.0293584 0.591867
1 0.0162356 0.578744
0 0.264988 0.639994
0.0643626 0.251865 0.626871
0.238743 0.238743 0.613748
0.413123 0.22562 0.600626
0.587488 0.212482 0.587488
0.761868 0.199359 0.574365
0.936248 0.186236 0.561242
1 0.173114 0.548119
1 0.159991 0.534997
0 0.408743 0.596246
0.0206149 0.395621 0.583124
0.194995 0.382498 0.570001
0.36936 0.36936 0.556863
0.54374 0.356237 0.54374
0.71812 0.343114 0.530617
0.8925 0.329992 0.517494
1 0.316869 0.504372
1 0.303731 0.491249
0 0.552499 0.552499
0 0.539376 0.539376
0.151232 0.526238 0.526238
0.325612 0.513115 0.513115
0.499992 0.499992 0.499992
0.674372 0.48687 0.48687
0.848753 0.473747 0.473747
1 0.460609 0.460609
1 0.447486 0.447486
0 0.696254 0.508736
0 0.683116 0.495613
0.107485 0.669993 0.48249
0.281865 0.65687 0.469368
0.456245 0.643748 0.456245
0.630625 0.630625 0.443122
0.80499 0.617487 0.429984
0.97937 0.604364 0.416861
1 0.591241 0.403738
0 0.839994 0.464988
0 0.826871 0.451865
0.0637369 0.813748 0.438743
0.238117 0.800626 0.42562
0.412497 0.787503 0.412497
0.586862 0.774365 0.399359
0.761242 0.761242 0.386236
0.935622 0.748119 0.373114
1 0.734997 0.359991
0 0.983749 0.421241
0 0.970626 0.408118
0.0199893 0.957504 0.394995
0.194369 0.944381 0.381857
0.368734 0.931243 0.368734
0.543114 0.91812 0.355612
0.717494 0.904997 0.342489
0.891875 0.891875 0.329366
1 0.878752 0.316243
0 1 0.377493
0 1 0.36437
0 1 0.351232
0.150607 1 0.338109
0.324987 1 0.324987
0.499367 1 0.311864
0.673747 1 0.298741
0.848127 1 0.285618
1 1 0.27248
0 0 0.909377
0.146227 0 0.896239
0.320607 0 0.883116
0.494987 0 0.869993
0.669367 0 0.85687
0.843748 0 0.843748
1 0 0.830625
1 0 0.817487
1 0 0.804364
0 0.115618 0.865629
0.10248 0.102495 0.852506
0.27686 0.0893568 0.839368
0.45124 0.0762341 0.826246
0.62562 0.0631113 0.813123
0.8 0.0499886 0.8
0.97438 0.0368658 0.786877
1 0.0237278 0.773754
1 0.010605 0.760616
0 0.259373 0.821866
0.058732 0.246235 0.808743
0.233112 0.233112 0.795621
0.407492 0.219989 0.782498
0.581872 0.206867 0.769375
0.756252 0.193744 0.756252
0.930617 0.180606 0.74313
1 0.167483 0.729992
1 0.15436 0.716869
0 0.403113 0.778119
0.0149844 0.38999 0.764996
0.189364 0.376867 0.751873
0.363745 0.363745 0.73875
0.538125 0.350622 0.725628
0.712489 0.337484 0.712489
0.88687 0.324361 0.699367
1 0.311238 0.686244
1 0.298116 0.673121
0 0.546868 0.734371
0 0.533745 0.721248
0.145617 0.520623 0.708125
0.319997 0.5075 0.695003
0.494362 0.494362 0.681865
0.668742 0.481239 0.668742
0.843122 0.468116 0.655619
1 0.454994 0.642496
1 0.441871 0.629374
0 0.690623 0.690623
0 0.677501 0.677501
0.101854 0.664378 0.664378
0.276234 0.65124 0.65124
0.450614 0.638117 0.638117
0.624994 0.624994 0.624994
0.799374 0.611872 0.611872
0.973754 0.598749 0.598749
1 0.585611 0.585611
0 0.834379 0.646876
0 0.821256 0.633738
0.0581064 0.808118 0.620615
0.232486 0.794995 0.607492
0.406867 0.781872 0.594369
0.581247 0.76875 0.581247
0.755627 0.755627 0.568124
0.929992 0.742489 0.554986
1 0.729366 0.541863
0 0.978134 0.603113
0 0.964996 0.58999
0.0143587 0.951873 0.576867
0.188739 0.93875 0.563745
0.363119 0.925628 0.550622
0.537499 0.912505 0.537499
0.711864 0.899367 0.524361
0.886244 0.886244 0.511238
1 0.873121 0.498116
0 1 0.559365
0 1 0.546242
0 1 0.53312
0.144991 1 0.519997
0.319371 1 0.506859
0.493736 1 0.493736
0.668116 1 0.480613
0.842496 1 0.467491
1 1 0.454368
0 0 1
0.140612 0 1
0.314977 0 1
0.489357 0 1
0.663737 0 1
0.838117 0 1
1 0 1
1 0 0.999374
1 0 0.986252
0 0.109987 1
0.0968643 0.0968643 1
0.271244 0.0837415 1
0.445609 0.0706188 1
0.619989 0.0574807 0.994995
0.794369 0.044358 0.981872
0.96875 0.0312352 0.96875
1 0.0181125 0.955627
1 0.0049897 0.942504
0 0.253742 1
0.0531167 0.24062 0.990631
0.227481 0.227497 0.977508
0.401862 0.214359 0.96437
0.576242 0.201236 0.951247
0.750622 0.188113 0.938125
0.925002 0.17499 0.925002
1 0.161868 0.911879
1 0.14873 0.898756
0 0.397498 0.960006
0.00935378 0.384375 0.946883
0.183734 0.371237 0.933745
0.358114 0.358114 0.920623
0.532494 0.344991 0.9075
0.706874 0.331868 0.894377
0.881254 0.318746 0.881254
1 0.305608 0.868132
1 0.292485 0.854994
0 0.541253 0.916243
0 0.528115 0.90312
0.139986 0.514992 0.889998
0.314366 0.501869 0.876875
0.488746 0.488746 0.863752
0.663127 0.475624 0.850629
0.837491 0.462486 0.837491
1 0.449363 0.824369
1 0.43624 0.811246
0 0.684993 0.872496
0 0.67187 0.859373
0.0962387 0.658747 0.84625
0.270619 0.645624 0.833127
0.444999 0.632502 0.820005
0.619364 0.619364 0.806867
0.793744 0.606241 0.793744
0.968124 0.593118 0.780621
1 0.579995 0.767498
0 0.828748 0.828748
0 0.815625 0.815625
0.052491 0.802502 0.802502
0.226856 0.78938 0.78938
0.401236 0.776242 0.776242
0.575616 0.763119 0.763119
0.749996 0.749996 0.749996
0.924376 0.736873 0.736873
1 0.723751 0.723751
0 0.972503 0.785
0 0.959381 0.771878
0.00872816 0.946258 0.75874
0.183108 0.93312 0.745617
0.357488 0.919997 0.732494
0.531868 0.906874 0.719371
0.706249 0.893751 0.706249
0.880629 0.880629 0.693126
1 0.867491 0.679988
0 1 0.741238
0 1 0.728115
0 1 0.714992
0.139361 1 0.701869
0.313741 1 0.688746
0.488121 1 0.675624
0.662501 1 0.662501
0.836866 1 0.649363
1 1 0.63624
0 0 1
0.134981 0 1
0.309361 0 1
0.483742 0 1
0.658122 0 1
0.832486 0 1
1 0 1
1 0 1
1 0 1
0 0.104372 1
0.0912337 0.0912337 1
0.265614 0.0781109 1
0.439994 0.0649882 1
0.614374 0.0518654 1
0.788754 0.0387427 1
0.963119 0.0256046 1
1 0.0124819 1
1 0 1
0 0.248112 1
0.0474861 0.234989 1
0.221866 0.221866 1
0.396246 0.208743 1
0.570611 0.195621 1
0.744991 0.182483 1
0.919371 0.16936 1
1 0.156237 1
1 0.143114 1
0 0.391867 1
0.00373846 0.378744 1
0.178119 0.365621 1
0.352483 0.352499 1
0.526864 0.339361 1
0.701244 0.326238 1
0.875624 0.313115 1
1 0.299992 1
1 0.28687 1
0 0.535622 1
0 0.522499 1
0.134356 0.509377 1
0.308736 0.496239 1
0.483116 0.483116 1
0.657496 0.469993 1
0.831876 0.45687 1
1 0.443748 1
1 0.43061 0.993133
0 0.679377 1
0 0.666255 1
0.0906081 0.653117 1
0.264988 0.639994 1
0.439368 0.626871 1
0.613748 0.613748 0.988754
0.788128 0.600626 0.975631
0.962493 0.587488 0.962493
1 0.574365 0.949371
0 0.823133 1
0 0.809995 0.997497
0.0468605 0.796872 0.984375
0.221241 0.783749 0.971252
0.395621 0.770626 0.958129
0.570001 0.757504 0.945006
0.744366 0.744366 0.931868
0.918746 0.731243 0.918746
1 0.71812 0.905623
0 0.966873 0.966873
0 0.95375 0.95375
0.00311284 0.940627 0.940627
0.177493 0.927504 0.927504
0.351858 0.914382 0.914382
0.526238 0.901244 0.901244
0.700618 0.888121 0.888121
0.874998 0.874998 0.874998
1 0.861875 0.861875
0 1 0.923125
0 1 0.910002
0 1 0.89688
0.13373 1 0.883741
0.30811 1 0.870619
0.48249 1 0.857496
0.65687 1 0.844373
0.83125 1 0.83125
1 1 0.818128
0 0 1
0.129351 0 1
0.303731 0 1
0.478111 0 1
0.652491 0 1
0.826871 0 1
1 0 1
1 0 1
1 0 1
0 0.0987411 1
0.0856184 0.0856184 1
0.259983 0.0724956 1
0.434363 0.0593576 1
0.608743 0.0462348 1
0.783123 0.0331121 1
0.957504 0.0199893 1
1 0.00686656 1
1 0 1
0 0.242496 1
0.0418555 0.229374 1
0.216236 0.216236 1
0.390616 0.203113 1
0.564996 0.18999 1
0.739376 0.176867 1
0.913756 0.163745 1
1 0.150607 1
1 0.137484 1
0 0.386252 1
0 0.373114 1
0.172488 0.359991 1
0.346868 0.346868 1
0.521248 0.333745 1
0.695613 0.320623 1
0.869993 0.307485 1
1 0.294362 1
1 0.281239 1
0 0.529992 1
0 0.516869 1
0.12874 0.503746 1
0.30312 0.490623 1
0.477485 0.477501 1
0.651865 0.464363 1
0.826246 0.45124 1
1 0.438117 1
1 0.424994 1
0 0.673747 1
0 0.660624 1
0.0849928 0.647501 1
0.259358 0.634379 1
0.433738 0.621241 1
0.608118 0.608118 1
0.782498 0.594995 1
0.956878 0.581872 1
1 0.56875 1
0 0.817502 1
0 0.804379 1
0.0412299 0.791257 1
0.21561 0.778119 1
0.38999 0.764996 1
0.56437 0.751873 1
0.73875 0.73875 1
0.91313 0.725628 1
1 0.712489 1
0 0.961257 1
0 0.948135 1
0 0.934997 1
0.171862 0.921874 1
0.346242 0.908751 1
0.520623 0.895628 1
0.695003 0.882506 1
0.869368 0.869368 1
1 0.856245 1
0 1 1
0 1 1
0 1 1
0.128115 1 1
0.302495 1 1
0.47686 1 1
0.65124 1 1
0.82562 1 1
1 1 1
