public/LUTS/Color Gain/Color Gain_07.cube
TITLE "Generated by Resolve"
LUT_3D_SIZE 5
0 0 0
0.388235 0 0
0.776486 0 0
1 0 0
1 0 0
0 0.30248 0
0.265736 0.265736 0
0.653986 0.228977 0
1 0.192233 0
1 0.155474 0
0 0.60499 0
0.143236 0.568246 0
0.531487 0.531487 0
0.919753 0.494743 0
1 0.457984 0
0 0.9075 0
0.020737 0.870741 0
0.408988 0.833997 0
0.797253 0.797238 0
1 0.760494 0
0 1 0
0 1 0
0.286488 1 0
0.674739 1 0
1 1 0
0 0 0.409232
0.372488 0 0.372488
0.760739 0 0.335729
1 0 0.298985
1 0 0.262226
0 0.286732 0.286732
0.249989 0.249989 0.249989
0.638239 0.21323 0.213245
1 0.176486 0.176486
1 0.139727 0.139742
0 0.589242 0.164233
0.127489 0.552499 0.127489
0.51574 0.51574 0.0907301
0.904005 0.478996 0.0539864
1 0.442237 0.0172274
0 0.891752 0.0417334
0.0049897 0.854994 0.0049897
0.39324 0.81825 0
0.781491 0.781491 0
1 0.744747 0
0 1 0
0 1 0
0.270741 1 0
0.658991 1 0
1 1 0
0 0 0.818494
0.356725 0 0.781735
0.744991 0 0.744991
1 0 0.708232
1 0 0.671489
0 0.270985 0.695994
0.234241 0.234241 0.659251
0.622492 0.197482 0.622492
1 0.160739 0.585748
1 0.12398 0.548989
0 0.573495 0.573495
0.111742 0.536751 0.536736
0.499992 0.499992 0.499992
0.888243 0.463233 0.463249
1 0.42649 0.42649
0 0.876005 0.450996
0 0.839246 0.414237
0.377493 0.802502 0.377493
0.765743 0.765743 0.340734
1 0.729 0.30399
0 1 0.328481
0 1 0.291737
0.254994 1 0.254994
0.643244 1 0.218235
1 1 0.181491
0 0 1
0.340978 0 1
0.729244 0 1
1 0 1
1 0 1
0 0.255238 1
0.218494 0.218494 1
0.606744 0.181735 1
0.994995 0.144991 0.994995
1 0.108232 0.958251
0 0.557748 0.982742
0.0959793 0.520989 0.945998
0.484245 0.484245 0.909255
0.872496 0.447486 0.872496
1 0.410742 0.835752
0 0.860258 0.860243
0 0.823499 0.823499
0.361746 0.786755 0.78674
0.749996 0.749996 0.749996
1 0.713237 0.713252
0 1 0.737743
0 1 0.700999
0.239231 1 0.66424
0.627497 1 0.627497
1 1 0.590738
0 0 1
0.325231 0 1
0.713481 0 1
1 0 1
1 0 1
0 0.23949 1
0.202731 0.202747 1
0.590997 0.165988 1
0.979248 0.129244 1
1 0.0924849 1
0 0.542 1
0.0802319 0.505241 1
0.468498 0.468498 1
0.856748 0.431739 1
1 0.394995 1
0 0.844495 1
0 0.807752 1
0.345983 0.770993 1
0.734249 0.734249 1
1 0.69749 1
0 1 1
0 1 1
0.223484 1 1
0.611749 1 1
1 1 1
