public/LUTS/Color Gain/Color Gain_04.cube
TITLE "Generated by Resolve"
LUT_3D_SIZE 9
0 0 0
0.164477 0 0
0.328984 0 0
0.493492 0 0
0.657984 0 0
0.822492 0 0
0.986999 0 0
1 0 0
1 0 0
0 0.139986 0
0.129488 0.129488 0
0.293996 0.11899 0
0.458488 0.108476 0
0.622995 0.0979782 0
0.787503 0.08748 0
0.951995 0.0769818 0
1 0.0664836 0
1 0.0559854 0
0 0.279988 0
0.0944839 0.26949 0
0.258991 0.258991 0
0.423484 0.248493 0
0.587991 0.23798 0
0.752499 0.227481 0
0.916991 0.216983 0
1 0.206485 0
1 0.195987 0
0 0.419989 0
0.0594797 0.409491 0
0.223987 0.398993 0
0.388495 0.388495 0
0.552987 0.377981 0
0.717494 0.367483 0
0.882002 0.356985 0
1 0.346487 0
1 0.335988 0
0 0.559991 0
0.0244907 0.549493 0
0.188983 0.538994 0
0.353491 0.528496 0
0.517998 0.517983 0
0.68249 0.507485 0
0.846998 0.496986 0
1 0.486488 0
1 0.47599 0
0 0.699992 0
0 0.689494 0
0.153994 0.678996 0
0.318486 0.668498 0
0.482994 0.657984 0
0.647501 0.647486 0
0.811994 0.636988 0
0.976501 0.62649 0
1 0.615991 0
0 0.839994 0
0 0.829496 0
0.11899 0.818998 0
0.283482 0.808499 0
0.44799 0.798001 0
0.612497 0.787488 0
0.776989 0.776989 0
0.941497 0.766491 0
1 0.755993 0
0 0.979995 0
0 0.969497 0
0.0839857 0.958999 0
0.248493 0.948501 0
0.412985 0.938003 0
0.577493 0.927489 0
0.742 0.916991 0
0.906493 0.906493 0
1 0.895994 0
0 1 0
0 1 0
0.0489815 1 0
0.213489 1 0
0.377997 1 0
0.542489 1 0
0.706996 1 0
0.871504 1 0
1 1 0
0 0 0.170489
0.159976 0 0.159991
0.324483 0 0.149477
0.488991 0 0.138979
0.653498 0 0.128481
0.81799 0 0.117983
0.982498 0 0.107485
1 0 0.0969863
1 0 0.0864881
0 0.135485 0.135485
0.124987 0.124987 0.124987
0.289494 0.114488 0.114488
0.453986 0.10399 0.10399
0.618494 0.0934768 0.093492
0.783001 0.0829786 0.0829786
0.947494 0.0724804 0.0724804
1 0.0619821 0.0619821
1 0.0514839 0.0514839
0 0.275486 0.100481
0.0899825 0.264988 0.0899825
0.25449 0.25449 0.0794842
0.418997 0.243992 0.068986
0.58349 0.233494 0.0584878
0.747997 0.22298 0.0479896
0.912505 0.212482 0.0374914
1 0.201984 0.026978
1 0.191485 0.0164797
0 0.415488 0.0654765
0.0549783 0.40499 0.0549783
0.219486 0.394491 0.04448
0.383993 0.383993 0.0339818
0.548501 0.373495 0.0234836
0.712993 0.362982 0.0129854
0.877501 0.352483 0.00248722
1 0.341985 0
1 0.331487 0
0 0.555489 0.0304875
0.0199893 0.544991 0.0199893
0.184482 0.534493 0.00949111
0.348989 0.523995 0
0.513497 0.513497 0
0.677989 0.502983 0
0.842496 0.492485 0
1 0.481987 0
1 0.471489 0
0 0.695491 0
0 0.684993 0
0.149493 0.674495 0
0.313985 0.663996 0
0.478492 0.653498 0
0.643 0.642985 0
0.807492 0.632486 0
0.972 0.621988 0
1 0.61149 0
0 0.835492 0
0 0.824994 0
0.114488 0.814496 0
0.278996 0.803998 0
0.443488 0.7935 0
0.607996 0.783001 0
0.772503 0.772488 0
0.936996 0.76199 0
1 0.751492 0
0 0.975494 0
0 0.964996 0
0.0794842 0.954498 0
0.243992 0.943999 0
0.408484 0.933501 0
0.572992 0.923003 0
0.737499 0.91249 0
0.901991 0.901991 0
1 0.891493 0
0 1 0
0 1 0
0.04448 1 0
0.208988 1 0
0.373495 1 0
0.537987 1 0
0.702495 1 0
0.867002 1 0
1 1 0
0 0 0.340978
0.155489 0 0.33048
0.319982 0 0.319982
0.484489 0 0.309483
0.648997 0 0.298985
0.813489 0 0.288487
0.977996 0 0.277989
1 0 0.267491
1 0 0.256977
0 0.130983 0.305989
0.120485 0.120485 0.295491
0.284993 0.109987 0.284993
0.449485 0.0994888 0.274495
0.613993 0.0889906 0.263996
0.7785 0.0784772 0.253483
0.942992 0.0679789 0.242985
1 0.0574807 0.232486
1 0.0469825 0.221988
0 0.270985 0.270985
0.085481 0.260487 0.260487
0.249989 0.249989 0.249989
0.414496 0.23949 0.23949
0.578988 0.228992 0.228992
0.743496 0.218479 0.218494
0.908003 0.20798 0.20798
1 0.197482 0.197482
1 0.186984 0.186984
0 0.410986 0.235981
0.0504921 0.400488 0.225483
0.214984 0.38999 0.214984
0.379492 0.379492 0.204486
0.543999 0.368994 0.193988
0.708492 0.358495 0.18349
0.872999 0.347982 0.172992
1 0.337484 0.162493
1 0.326986 0.15198
0 0.550988 0.200992
0.0154879 0.54049 0.190494
0.17998 0.529992 0.17998
0.344488 0.519493 0.169482
0.508995 0.508995 0.158984
0.673503 0.498497 0.148486
0.837995 0.487984 0.137987
1 0.477485 0.127489
1 0.466987 0.116991
0 0.69099 0.165988
0 0.680491 0.155489
0.144991 0.669993 0.144991
0.309483 0.659495 0.134493
0.473991 0.648997 0.12398
0.638498 0.638498 0.113481
0.802991 0.627985 0.102983
0.967498 0.617487 0.0924849
1 0.606989 0.0819867
0 0.830991 0.130983
0 0.820493 0.120485
0.109987 0.809995 0.109987
0.274495 0.799496 0.0994888
0.438987 0.788998 0.0889906
0.603494 0.7785 0.0784772
0.768002 0.767987 0.0679789
0.932494 0.757488 0.0574807
1 0.74699 0.0469825
0 0.971008 0.0959793
0 0.960494 0.085481
0.0749828 0.949996 0.0749828
0.23949 0.939498 0.0644846
0.403998 0.929 0.0539864
0.56849 0.918502 0.0434882
0.732998 0.908003 0.03299
0.897505 0.89749 0.0224765
1 0.886992 0.0119783
0 1 0.0609751
0 1 0.0504768
0.0399786 1 0.0399786
0.204486 1 0.0294804
0.368994 1 0.0189822
0.533486 1 0.00848402
0.697993 1 0
0.862501 1 0
1 1 0
0 0 0.511482
0.150988 0 0.500984
0.31548 0 0.490486
0.479988 0 0.479988
0.644495 0 0.46949
0.808988 0 0.458991
0.973495 0 0.448493
1 0 0.437995
1 0 0.427482
0 0.126482 0.476493
0.115984 0.115984 0.465995
0.280491 0.105486 0.455497
0.444999 0.0949874 0.444999
0.609491 0.0844892 0.434485
0.773999 0.073991 0.423987
0.938506 0.0634775 0.413489
1 0.0529793 0.402991
1 0.0424811 0.392493
0 0.266484 0.441489
0.0809796 0.255985 0.430991
0.245487 0.245487 0.420493
0.409995 0.234989 0.409995
0.574487 0.224491 0.399496
0.738994 0.213993 0.388998
0.903502 0.203479 0.378485
1 0.192981 0.367987
1 0.182483 0.357488
0 0.406485 0.406485
0.0459907 0.395987 0.395987
0.210483 0.385489 0.385489
0.37499 0.37499 0.37499
0.539498 0.364492 0.364492
0.70399 0.353994 0.353994
0.868498 0.343481 0.343496
1 0.332982 0.332982
1 0.322484 0.322484
0 0.546487 0.371496
0.0109865 0.535988 0.360983
0.175494 0.52549 0.350484
0.339986 0.514992 0.339986
0.504494 0.504494 0.329488
0.669001 0.493996 0.31899
0.833494 0.483497 0.308492
0.998001 0.472984 0.297993
1 0.462486 0.287495
0 0.686503 0.336492
0 0.67599 0.325994
0.14049 0.665492 0.315496
0.304982 0.654994 0.304982
0.46949 0.644495 0.294484
0.633997 0.633997 0.283986
0.798505 0.623499 0.273487
0.962997 0.612985 0.262989
1 0.602487 0.252491
0 0.826505 0.301488
0 0.815991 0.29099
0.105486 0.805493 0.280491
0.269993 0.794995 0.269993
0.434485 0.784497 0.259495
0.598993 0.773999 0.248981
0.7635 0.7635 0.238483
0.927993 0.752987 0.227985
1 0.742489 0.217487
0 0.966506 0.266484
0 0.956008 0.255985
0.0704814 0.945495 0.245487
0.234989 0.934997 0.234989
0.399496 0.924498 0.224491
0.563989 0.914 0.213993
0.728496 0.903502 0.203479
0.893004 0.892989 0.192981
1 0.88249 0.182483
0 1 0.231479
0 1 0.220981
0.0354925 1 0.210483
0.199985 1 0.199985
0.364492 1 0.189487
0.529 1 0.178988
0.693492 1 0.16849
0.858 1 0.157992
1 1 0.147478
0 0 0.681987
0.146487 0 0.671489
0.310979 0 0.66099
0.475486 0 0.650492
0.639994 0 0.639994
0.804486 0 0.629496
0.968994 0 0.618997
1 0 0.608484
1 0 0.597986
0 0.121981 0.646998
0.111482 0.111482 0.6365
0.27599 0.100984 0.626001
0.440497 0.090486 0.615488
0.60499 0.0799878 0.60499
0.769497 0.0694896 0.594491
0.934005 0.0589914 0.583993
1 0.0484779 0.573495
1 0.0379797 0.562997
0 0.261997 0.611994
0.0764935 0.251484 0.601495
0.240986 0.240986 0.590997
0.405493 0.230488 0.580499
0.570001 0.219989 0.570001
0.734493 0.209491 0.559487
0.899001 0.198993 0.548989
1 0.188479 0.538491
1 0.177981 0.527993
0 0.401999 0.576989
0.0414893 0.391485 0.566491
0.205982 0.380987 0.555993
0.370489 0.370489 0.545495
0.534997 0.359991 0.534997
0.699489 0.349493 0.524498
0.863996 0.338994 0.514
1 0.328481 0.503487
1 0.317983 0.492988
0 0.542 0.541985
0.00648508 0.531502 0.531487
0.170993 0.520989 0.520989
0.335485 0.510491 0.510491
0.499992 0.499992 0.499992
0.6645 0.489494 0.489494
0.828992 0.478996 0.478996
0.9935 0.468482 0.468498
1 0.457984 0.457984
0 0.682002 0.506996
0 0.671504 0.496498
0.135988 0.66099 0.485985
0.300496 0.650492 0.475486
0.464988 0.639994 0.464988
0.629496 0.629496 0.45449
0.794003 0.618997 0.443992
0.958495 0.608499 0.433494
1 0.597986 0.422995
0 0.822003 0.471992
0 0.811505 0.461494
0.100984 0.800992 0.450996
0.265492 0.790494 0.440497
0.429984 0.779995 0.429984
0.594491 0.769497 0.419486
0.758999 0.758999 0.408988
0.923506 0.748501 0.398489
1 0.737987 0.387991
0 0.962005 0.436988
0 0.951507 0.42649
0.06598 0.940993 0.415991
0.230488 0.930495 0.405493
0.394995 0.919997 0.394995
0.559487 0.909499 0.384497
0.723995 0.899001 0.373983
0.888502 0.888502 0.363485
1 0.877989 0.352987
0 1 0.401984
0 1 0.391485
0.0309911 1 0.380987
0.195483 1 0.370489
0.359991 1 0.359991
0.524498 1 0.349493
0.688991 1 0.338994
0.853498 1 0.328481
1 1 0.317983
0 0 0.852491
0.141985 0 0.841993
0.306493 0 0.831495
0.470985 0 0.820996
0.635493 0 0.810498
0.8 0 0.8
0.964492 0 0.789502
1 0 0.778988
1 0 0.76849
0 0.117494 0.817502
0.106981 0.106996 0.807004
0.271489 0.0964828 0.796506
0.435996 0.0859846 0.785992
0.600488 0.0754864 0.775494
0.764996 0.0649882 0.764996
0.929503 0.05449 0.754498
1 0.0439765 0.743999
1 0.0334783 0.733501
0 0.257496 0.782498
0.0719921 0.246998 0.772
0.236484 0.236484 0.761501
0.400992 0.225986 0.751003
0.565499 0.215488 0.74049
0.729992 0.20499 0.729992
0.894499 0.194491 0.719493
1 0.183993 0.708995
1 0.17348 0.698497
0 0.397498 0.747494
0.0369879 0.386999 0.736996
0.201495 0.376486 0.726497
0.365988 0.365988 0.715999
0.530495 0.355489 0.705501
0.695003 0.344991 0.695003
0.859495 0.334493 0.684489
1 0.323995 0.673991
1 0.313481 0.663493
0 0.537499 0.712489
0.00198367 0.527001 0.701991
0.166491 0.516487 0.691493
0.330983 0.505989 0.680995
0.495491 0.495491 0.670497
0.659998 0.484993 0.659998
0.824491 0.474495 0.6495
0.988998 0.463996 0.639002
1 0.453483 0.628489
0 0.677501 0.677501
0 0.667002 0.667002
0.131487 0.656504 0.656489
0.295995 0.645991 0.645991
0.460487 0.635493 0.635493
0.624994 0.624994 0.624994
0.789502 0.614496 0.614496
0.953994 0.603998 0.603998
1 0.593484 0.5935
0 0.817502 0.642496
0 0.807004 0.631998
0.0964828 0.796506 0.6215
0.26099 0.785992 0.610986
0.425498 0.775494 0.600488
0.58999 0.764996 0.58999
0.754498 0.754498 0.579492
0.919005 0.743999 0.568994
1 0.733501 0.558495
0 0.957504 0.607492
0 0.947005 0.596994
0.0614786 0.936507 0.586496
0.225986 0.925994 0.575998
0.390494 0.915496 0.565499
0.554986 0.904997 0.554986
0.719493 0.894499 0.544488
0.884001 0.884001 0.533989
1 0.873503 0.523491
0 1 0.572488
0 1 0.56199
0.0264897 1 0.551492
0.190982 1 0.540993
0.355489 1 0.530495
0.519997 1 0.519997
0.684489 1 0.509499
0.848997 1 0.498985
1 1 0.488487
0 0 1
0.137484 0 1
0.301991 0 1
0.466484 0 0.991501
0.630991 0 0.981003
0.795499 0 0.970504
0.959991 0 0.959991
1 0 0.949493
1 0 0.938994
0 0.112993 0.988006
0.10248 0.102495 0.977508
0.266987 0.0919814 0.966995
0.431495 0.0814832 0.956497
0.595987 0.070985 0.945998
0.760494 0.0604868 0.9355
0.925002 0.0499886 0.925002
1 0.0394903 0.914504
1 0.0289769 0.904005
0 0.252995 0.953002
0.0674907 0.242496 0.942504
0.231983 0.231998 0.932006
0.39649 0.221485 0.921508
0.560998 0.210986 0.910994
0.72549 0.200488 0.900496
0.889998 0.18999 0.889998
1 0.179492 0.879499
1 0.168978 0.869001
0 0.392996 0.917998
0.0324865 0.382498 0.9075
0.196994 0.372 0.897002
0.361486 0.361486 0.886503
0.525994 0.350988 0.876005
0.690501 0.34049 0.865507
0.854994 0.329992 0.854994
1 0.319493 0.844495
1 0.308995 0.833997
0 0.532998 0.882994
0 0.522499 0.872496
0.16199 0.512001 0.861997
0.326497 0.501488 0.851499
0.49099 0.49099 0.841001
0.655497 0.480491 0.830503
0.820005 0.469993 0.820005
0.984497 0.459495 0.809491
1 0.448997 0.798993
0 0.672999 0.848005
0 0.662501 0.837491
0.126986 0.652003 0.826993
0.291493 0.641489 0.816495
0.455985 0.630991 0.805997
0.620493 0.620493 0.795499
0.785 0.609995 0.785
0.949493 0.599496 0.774502
1 0.588998 0.764004
0 0.813001 0.813001
0 0.802502 0.802502
0.0919814 0.792004 0.792004
0.256489 0.781506 0.781491
0.420996 0.770993 0.770993
0.585489 0.760494 0.760494
0.749996 0.749996 0.749996
0.914504 0.739498 0.739498
1 0.729 0.729
0 0.953002 0.777996
0 0.942504 0.767498
0.0569924 0.932006 0.757
0.221485 0.921508 0.746502
0.385992 0.910994 0.735988
0.5505 0.900496 0.72549
0.714992 0.889998 0.714992
0.879499 0.879499 0.704494
1 0.869001 0.693996
0 1 0.742992
0 1 0.732494
0.0219883 1 0.721996
0.186481 1 0.711498
0.350988 1 0.700999
0.515496 1 0.690501
0.679988 1 0.679988
0.844495 1 0.66949
1 1 0.658991
0 0 1
0.132982 0 1
0.29749 0 1
0.461982 0 1
0.62649 0 1
0.790997 0 1
0.955489 0 1
1 0 1
1 0 1
0 0.108492 1
0.0979934 0.0979934 1
0.262486 0.0874952 1
0.426993 0.0769818 1
0.591501 0.0664836 1
0.755993 0.0559854 1
0.920501 0.0454871 1
1 0.0349889 1
1 0.0244907 1
0 0.248493 1
0.0629892 0.237995 1
0.227481 0.227497 1
0.391989 0.216983 1
0.556497 0.206485 1
0.720989 0.195987 1
0.885496 0.185489 1
1 0.17499 1
1 0.164492 1
0 0.388495 1
0.027985 0.377997 1
0.192493 0.367498 1
0.356985 0.357 1
0.521492 0.346487 1
0.686 0.335988 1
0.850492 0.32549 1
1 0.314992 1
1 0.304494 1
0 0.528496 1
0 0.517998 1
0.157488 0.5075 1
0.321996 0.497002 1
0.486488 0.486488 1
0.650996 0.47599 1
0.815503 0.465492 0.990494
0.979995 0.454994 0.979995
1 0.444495 0.969497
0 0.668498 1
0 0.658 1
0.122484 0.647501 0.997497
0.286992 0.637003 0.986999
0.451499 0.62649 0.976501
0.615991 0.615991 0.966003
0.780499 0.605493 0.955505
0.945006 0.594995 0.945006
1 0.584497 0.934493
0 0.808499 0.983505
0 0.798001 0.973007
0.08748 0.787503 0.962493
0.251987 0.777005 0.951995
0.416495 0.766491 0.941497
0.580987 0.755993 0.930999
0.745495 0.745495 0.920501
0.910002 0.734997 0.910002
1 0.724498 0.899504
0 0.948501 0.948501
0 0.938003 0.938003
0.052491 0.927504 0.927504
0.216983 0.917006 0.917006
0.381491 0.906508 0.906493
0.545998 0.895994 0.895994
0.710491 0.885496 0.885496
0.874998 0.874998 0.874998
1 0.8645 0.8645
0 1 0.913497
0 1 0.902998
0.0174868 1 0.8925
0.181994 1 0.882002
0.346487 1 0.871504
0.510994 1 0.86099
0.675502 1 0.850492
0.839994 1 0.839994
1 1 0.829496
0 0 1
0.128481 0 1
0.292988 0 1
0.457481 0 1
0.621988 0 1
0.786496 0 1
0.950988 0 1
1 0 1
1 0 1
0 0.10399 1
0.093492 0.093492 1
0.257984 0.0829938 1
0.422492 0.0724956 1
0.586999 0.0619821 1
0.751492 0.0514839 1
0.915999 0.0409857 1
1 0.0304875 1
1 0.0199893 1
0 0.243992 1
0.0584878 0.233494 1
0.222995 0.222995 1
0.387488 0.212497 1
0.551995 0.201984 1
0.716503 0.191485 1
0.880995 0.180987 1
1 0.170489 1
1 0.159991 1
0 0.383993 1
0.0234836 0.373495 1
0.187991 0.362997 1
0.352483 0.352499 1
0.516991 0.341985 1
0.681498 0.331487 1
0.845991 0.320989 1
1 0.310491 1
1 0.299992 1
0 0.523995 1
0 0.513497 1
0.152987 0.502998 1
0.317494 0.4925 1
0.481987 0.482002 1
0.646494 0.471489 1
0.811002 0.46099 1
0.975494 0.450492 1
1 0.439994 1
0 0.663996 1
0 0.653498 1
0.117983 0.643 1
0.28249 0.632502 1
0.446998 0.622003 1
0.61149 0.61149 1
0.775998 0.600992 1
0.940505 0.590494 1
1 0.579995 1
0 0.803998 1
0 0.7935 1
0.0829786 0.783001 1
0.247486 0.772503 1
0.411994 0.762005 1
0.576501 0.751492 1
0.740993 0.740993 1
0.905501 0.730495 1
1 0.719997 1
0 0.943999 1
0 0.933501 1
0.0479896 0.923003 1
0.212482 0.912505 1
0.376989 0.902007 1
0.541497 0.891493 1
0.705989 0.880995 1
0.870497 0.870497 1
1 0.859998 1
0 1 1
0 1 1
0.0129854 1 1
0.177493 1 1
0.341985 1 1
0.506493 1 1
0.671 1 1
0.835492 1 1
1 1 1
