public/LUTS/Color Gain/Color Gain_05.cube
TITLE "Generated by Resolve"
LUT_3D_SIZE 5
0 0 0
0.34873 0 0
0.69749 0 0
1 0 0
1 0 0
0 0.28748 0
0.261234 0.261234 0
0.609995 0.234989 0
0.958755 0.208728 0
1 0.182483 0
0 0.57499 0
0.173739 0.548745 0
0.522499 0.522484 0
0.871244 0.496239 0
1 0.469978 0
0 0.862501 0
0.0862287 0.83624 0
0.434989 0.809995 0
0.783749 0.783749 0
1 0.757488 0
0 1 0
0 1 0
0.347494 1 0
0.696239 1 0
1 1 0
0 0 0.363729
0.337484 0 0.337484
0.686244 0 0.311238
1 0 0.284977
1 0 0.258732
0 0.276234 0.276234
0.249989 0.249989 0.249989
0.598749 0.223743 0.223743
0.947494 0.197482 0.197482
1 0.171237 0.171237
0 0.563745 0.188739
0.162493 0.537499 0.162493
0.511238 0.511238 0.136233
0.859998 0.484993 0.109987
1 0.458732 0.0837415
0 0.851255 0.101228
0.0749828 0.824994 0.0749828
0.423743 0.798749 0.0487373
0.772503 0.772488 0.0224765
1 0.746242 0
0 1 0.0137331
0 1 0
0.336233 1 0
0.684993 1 0
1 1 0
0 0 0.727489
0.326238 0 0.701244
0.674983 0 0.674998
1 0 0.648737
1 0 0.622492
0 0.264988 0.639994
0.238743 0.238743 0.613748
0.587488 0.212482 0.587488
0.936248 0.186236 0.561242
1 0.159991 0.534997
0 0.552499 0.552499
0.151232 0.526238 0.526238
0.499992 0.499992 0.499992
0.848753 0.473747 0.473747
1 0.447486 0.447486
0 0.839994 0.464988
0.0637369 0.813748 0.438743
0.412497 0.787503 0.412497
0.761242 0.761242 0.386236
1 0.734997 0.359991
0 1 0.377493
0 1 0.351232
0.324987 1 0.324987
0.673747 1 0.298741
1 1 0.27248
0 0 1
0.314977 0 1
0.663737 0 1
1 0 1
1 0 0.986252
0 0.253742 1
0.227481 0.227497 0.977508
0.576242 0.201236 0.951247
0.925002 0.17499 0.925002
1 0.14873 0.898756
0 0.541253 0.916243
0.139986 0.514992 0.889998
0.488746 0.488746 0.863752
0.837491 0.462486 0.837491
1 0.43624 0.811246
0 0.828748 0.828748
0.052491 0.802502 0.802502
0.401236 0.776242 0.776242
0.749996 0.749996 0.749996
1 0.723751 0.723751
0 1 0.741238
0 1 0.714992
0.313741 1 0.688746
0.662501 1 0.662501
1 1 0.63624
0 0 1
0.303731 0 1
0.652491 0 1
1 0 1
1 0 1
0 0.242496 1
0.216236 0.216236 1
0.564996 0.18999 1
0.913756 0.163745 1
1 0.137484 1
0 0.529992 1
0.12874 0.503746 1
0.477485 0.477501 1
0.826246 0.45124 1
1 0.424994 1
0 0.817502 1
0.0412299 0.791257 1
0.38999 0.764996 1
0.73875 0.73875 1
1 0.712489 1
0 1 1
0 1 1
0.302495 1 1
0.65124 1 1
1 1 1
