public/LUTS/Color Gain/Color Gain_02.cube
TITLE "Generated by Resolve"
LUT_3D_SIZE 9
0 0 0
0.144732 0 0
0.289494 0 0
0.434241 0 0
0.578988 0 0
0.723751 0 0
0.868498 0 0
1 0 0
1 0 0
0 0.132479 0
0.12723 0.12723 0
0.271992 0.121981 0
0.416739 0.116732 0
0.561486 0.111482 0
0.706249 0.106233 0
0.850996 0.100984 0
0.995743 0.0957351 0
1 0.090486 0
0 0.264988 0
0.109743 0.259739 0
0.25449 0.25449 0
0.399237 0.249241 0
0.543999 0.243992 0
0.688746 0.238743 0
0.833494 0.233478 0
0.978256 0.228229 0
1 0.22298 0
0 0.397498 0
0.0922408 0.392233 0
0.236988 0.386984 0
0.381735 0.381735 0
0.526497 0.376486 0
0.671244 0.371237 0
0.815991 0.365988 0
0.960754 0.360739 0
1 0.355489 0
0 0.529992 0
0.0747387 0.524742 0
0.219486 0.519493 0
0.364233 0.514244 0
0.508995 0.508995 0
0.653742 0.503746 0
0.798489 0.498482 0
0.943252 0.493233 0
1 0.487984 0
0 0.662501 0
0.0572366 0.657252 0
0.201984 0.651987 0
0.346746 0.646738 0
0.491493 0.641489 0
0.63624 0.63624 0
0.781003 0.630991 0
0.92575 0.625742 0
1 0.620493 0
0 0.794995 0
0.0397345 0.789746 0
0.184482 0.784497 0
0.329244 0.779248 0
0.473991 0.773999 0
0.618738 0.76875 0
0.7635 0.7635 0
0.908248 0.758236 0
1 0.752987 0
0 0.927504 0
0.0222324 0.922255 0
0.166979 0.916991 0
0.311742 0.911742 0
0.456489 0.906493 0
0.601251 0.901244 0
0.745998 0.895994 0
0.890745 0.890745 0
1 0.885496 0
0 1 0
0.0047303 1 0
0.149493 1 0
0.29424 1 0
0.438987 1 0
0.583749 1 0
0.728496 1 0
0.873243 1 0
1 1 0
0 0 0.147738
0.142489 0 0.142489
0.287236 0 0.13724
0.431983 0 0.131991
0.576745 0 0.126741
0.721492 0 0.121477
0.866239 0 0.116228
1 0 0.110979
1 0 0.10573
0 0.130236 0.130236
0.124987 0.124987 0.124987
0.269734 0.119738 0.119738
0.414496 0.114488 0.114488
0.559243 0.109239 0.109239
0.70399 0.10399 0.10399
0.848753 0.0987259 0.0987411
0.9935 0.0934768 0.093492
1 0.0882277 0.0882429
0 0.262745 0.112734
0.107485 0.257496 0.107485
0.252232 0.252232 0.102235
0.396994 0.246983 0.0969863
0.541741 0.241733 0.0917372
0.686488 0.236484 0.0864881
0.83125 0.231235 0.081239
0.975998 0.225986 0.0759899
1 0.220737 0.0707408
0 0.395239 0.0952316
0.0899825 0.38999 0.0899825
0.234745 0.384741 0.0847334
0.379492 0.379492 0.0794842
0.524239 0.374243 0.0742351
0.669001 0.368994 0.068986
0.813748 0.363745 0.0637369
0.958495 0.35848 0.0584878
1 0.353231 0.0532387
0 0.527749 0.0777295
0.0724804 0.522499 0.0724804
0.217243 0.517235 0.0672313
0.36199 0.511986 0.0619821
0.506737 0.506737 0.056733
0.651499 0.501488 0.0514839
0.796246 0.496239 0.0462348
0.940993 0.49099 0.0409857
1 0.48574 0.0357366
0 0.660243 0.0602274
0.0549783 0.654994 0.0549783
0.199741 0.649744 0.0497292
0.344488 0.644495 0.04448
0.489235 0.639246 0.0392309
0.633997 0.633997 0.0339818
0.778744 0.628748 0.0287327
0.923506 0.623484 0.0234836
1 0.618235 0.0182345
0 0.792752 0.0427405
0.0374914 0.787503 0.0374762
0.182239 0.782254 0.0322271
0.326986 0.776989 0.026978
0.471748 0.77174 0.0217288
0.616495 0.766491 0.0164797
0.761242 0.761242 0.0112306
0.906004 0.755993 0.00598154
1 0.750744 0.000732433
0 0.925246 0.0252384
0.0199893 0.919997 0.0199893
0.164736 0.914748 0.0147402
0.309483 0.909499 0.00947585
0.454246 0.90425 0.00422675
0.598993 0.899001 0
0.74374 0.893751 0
0.888502 0.888502 0
1 0.883238 0
0 1 0.00773632
0.00248722 1 0.00248722
0.147234 1 0
0.291997 1 0
0.436744 1 0
0.581491 1 0
0.726253 1 0
0.871 1 0
1 1 0
0 0 0.295491
0.14023 0 0.290242
0.284993 0 0.284993
0.42974 0 0.279744
0.574487 0 0.274495
0.719249 0 0.26923
0.863996 0 0.263981
1 0 0.258732
1 0 0.253483
0 0.127993 0.277989
0.122744 0.122744 0.27274
0.267491 0.117479 0.267491
0.412238 0.11223 0.262242
0.557 0.106981 0.256992
0.701747 0.101732 0.251743
0.846494 0.0964828 0.246494
0.991257 0.0912337 0.241245
1 0.0859846 0.235981
0 0.260487 0.260487
0.105241 0.255238 0.255238
0.249989 0.249989 0.249989
0.394736 0.244739 0.244739
0.539498 0.23949 0.23949
0.684245 0.234241 0.234241
0.828992 0.228992 0.228992
0.973754 0.223728 0.223743
1 0.218479 0.218494
0 0.392996 0.242985
0.0877394 0.387747 0.237736
0.232486 0.382498 0.232486
0.377234 0.377234 0.227237
0.521996 0.371984 0.221988
0.666743 0.366735 0.216739
0.81149 0.361486 0.21149
0.956252 0.356237 0.206241
1 0.350988 0.200992
0 0.52549 0.225483
0.0702373 0.520241 0.220233
0.214984 0.514992 0.214984
0.359747 0.509743 0.209735
0.504494 0.504494 0.204486
0.649241 0.499245 0.199237
0.794003 0.493996 0.193988
0.93875 0.488746 0.188739
1 0.483482 0.18349
0 0.658 0.20798
0.0527352 0.65275 0.202731
0.197482 0.647501 0.197482
0.342245 0.642237 0.192233
0.486992 0.636988 0.186984
0.631739 0.631739 0.181735
0.776501 0.62649 0.176486
0.921248 0.621241 0.171237
1 0.615991 0.165988
0 0.790494 0.190478
0.0352331 0.785245 0.185229
0.17998 0.779995 0.17998
0.324742 0.774746 0.174731
0.46949 0.769497 0.169482
0.614237 0.764248 0.164233
0.758999 0.758999 0.158984
0.903746 0.75375 0.153735
1 0.748486 0.148486
0 0.923003 0.172992
0.017731 0.917754 0.167742
0.162493 0.912505 0.162478
0.30724 0.907256 0.157229
0.451987 0.901991 0.15198
0.59675 0.896742 0.146731
0.741497 0.891493 0.141482
0.886244 0.886244 0.136233
1 0.880995 0.130983
0 1 0.155489
0.000228885 1 0.15024
0.144991 1 0.144991
0.289738 1 0.139742
0.434485 1 0.134478
0.579248 1 0.129229
0.723995 1 0.12398
0.868742 1 0.11873
1 1 0.113481
0 0 0.443244
0.137987 0 0.437995
0.282734 0 0.432746
0.427497 0 0.427497
0.572244 0 0.422248
0.716991 0 0.416983
0.861753 0 0.411734
1 0 0.406485
1 0 0.401236
0 0.125734 0.425742
0.120485 0.120485 0.420493
0.265232 0.115236 0.415244
0.409995 0.109987 0.409995
0.554742 0.104738 0.404746
0.699489 0.0994888 0.399496
0.844251 0.0942397 0.394247
0.988998 0.0889906 0.388998
1 0.0837262 0.383734
0 0.258244 0.40824
0.102983 0.252995 0.402991
0.247745 0.247745 0.397742
0.392493 0.242481 0.392493
0.53724 0.237232 0.387243
0.682002 0.231983 0.381994
0.826749 0.226734 0.376745
0.971496 0.221485 0.371496
1 0.216236 0.366247
0 0.390738 0.390738
0.085481 0.385489 0.385489
0.230243 0.38024 0.38024
0.37499 0.37499 0.37499
0.519738 0.369741 0.369741
0.6645 0.364492 0.364492
0.809247 0.359243 0.359243
0.953994 0.353994 0.353994
1 0.34873 0.348745
0 0.523247 0.373236
0.0679789 0.517998 0.367987
0.212741 0.512749 0.362737
0.357488 0.5075 0.357488
0.502235 0.502235 0.352239
0.646998 0.496986 0.34699
0.791745 0.491737 0.341741
0.936492 0.486488 0.336492
1 0.481239 0.331243
0 0.655741 0.355734
0.0504921 0.650492 0.350484
0.195239 0.645243 0.345235
0.339986 0.639994 0.339986
0.484749 0.634745 0.334737
0.629496 0.629496 0.329488
0.774243 0.624247 0.324239
0.919005 0.618997 0.31899
1 0.613748 0.313741
0 0.788251 0.338231
0.03299 0.783001 0.332982
0.177737 0.777752 0.327733
0.322484 0.772503 0.322484
0.467247 0.767239 0.317235
0.611994 0.76199 0.311986
0.756741 0.756741 0.306737
0.901503 0.751492 0.301488
1 0.746242 0.296239
0 0.920745 0.320745
0.0154879 0.915496 0.315496
0.160235 0.910246 0.310231
0.304982 0.904997 0.304982
0.449744 0.899748 0.299733
0.594491 0.894499 0.294484
0.739239 0.88925 0.289235
0.884001 0.884001 0.283986
1 0.878752 0.278737
0 1 0.303243
0 1 0.297993
0.142733 1 0.292744
0.287495 1 0.28748
0.432242 1 0.282231
0.576989 1 0.276982
0.721752 1 0.271733
0.866499 1 0.266484
1 1 0.261234
0 0 0.590997
0.135729 0 0.585748
0.280491 0 0.580499
0.425238 0 0.57525
0.569986 0 0.569986
0.714748 0 0.564736
0.859495 0 0.559487
1 0 0.554238
1 0 0.548989
0 0.123491 0.573495
0.118242 0.118242 0.568246
0.262989 0.112993 0.562997
0.407736 0.107744 0.557748
0.552499 0.10248 0.552499
0.697246 0.0972305 0.54725
0.841993 0.0919814 0.542
0.986755 0.0867323 0.536736
1 0.0814832 0.531487
0 0.255985 0.555993
0.10074 0.250736 0.550744
0.245487 0.245487 0.545495
0.390234 0.240238 0.540246
0.534997 0.234989 0.534997
0.679744 0.22974 0.529747
0.824491 0.224491 0.524498
0.969253 0.219242 0.519249
1 0.213993 0.514
0 0.388495 0.538491
0.083238 0.383246 0.533242
0.227985 0.377997 0.527993
0.372747 0.372747 0.522744
0.517494 0.367483 0.517494
0.662242 0.362234 0.512245
0.807004 0.356985 0.506996
0.951751 0.351736 0.501747
1 0.346487 0.496498
0 0.520989 0.520989
0.0657359 0.51574 0.51574
0.210483 0.510491 0.510491
0.355245 0.505241 0.505241
0.499992 0.499992 0.499992
0.644739 0.494743 0.494743
0.789502 0.489494 0.489494
0.934249 0.484245 0.484245
1 0.478996 0.478996
0 0.653498 0.503487
0.0482338 0.648249 0.498238
0.192981 0.643 0.492988
0.337743 0.637751 0.487739
0.48249 0.632502 0.48249
0.627237 0.627237 0.477241
0.772 0.621988 0.471992
0.916747 0.616739 0.466743
1 0.61149 0.461494
0 0.785992 0.485985
0.0307317 0.780743 0.480735
0.175494 0.775494 0.475486
0.320241 0.770245 0.470237
0.464988 0.764996 0.464988
0.609751 0.759747 0.459739
0.754498 0.754498 0.45449
0.899245 0.749249 0.449241
1 0.743999 0.443992
0 0.918502 0.468498
0.0132296 0.913252 0.463249
0.157992 0.908003 0.457984
0.302739 0.902754 0.452735
0.447486 0.897505 0.447486
0.592248 0.892241 0.442237
0.736996 0.886992 0.436988
0.881743 0.881743 0.431739
1 0.876493 0.42649
0 1 0.450996
0 1 0.445747
0.14049 1 0.440497
0.285237 1 0.435233
0.429984 1 0.429984
0.574746 1 0.424735
0.719493 1 0.419486
0.86424 1 0.414237
1 1 0.408988
0 0 0.73875
0.133486 0 0.733501
0.278233 0 0.728252
0.422995 0 0.723003
0.567742 0 0.717739
0.712489 0 0.712489
0.857252 0 0.70724
1 0 0.701991
1 0 0.696742
0 0.121233 0.721248
0.115984 0.115984 0.715999
0.260746 0.110735 0.71075
0.405493 0.105486 0.705501
0.55024 0.100237 0.700252
0.695003 0.0949874 0.695003
0.83975 0.0897383 0.689754
0.984497 0.0844892 0.684489
1 0.0792401 0.67924
0 0.253742 0.703746
0.0984817 0.248493 0.698497
0.243244 0.243244 0.693248
0.387991 0.237995 0.687999
0.532738 0.232746 0.68275
0.677501 0.227481 0.677501
0.822248 0.222232 0.672251
0.966995 0.216983 0.667002
1 0.211734 0.661738
0 0.386236 0.686244
0.0809796 0.380987 0.680995
0.225742 0.375738 0.675746
0.370489 0.370489 0.670497
0.515236 0.36524 0.665248
0.659998 0.359991 0.659998
0.804746 0.354742 0.654749
0.949493 0.349493 0.6495
1 0.344244 0.644251
0 0.518746 0.668742
0.0634928 0.513497 0.663493
0.20824 0.508247 0.658244
0.352987 0.502998 0.652995
0.497749 0.497749 0.647745
0.642496 0.492485 0.642496
0.787243 0.487236 0.637247
0.932006 0.481987 0.631998
1 0.476738 0.626749
0 0.65124 0.65124
0.0459907 0.645991 0.645991
0.190738 0.640742 0.640742
0.335485 0.635493 0.635493
0.480247 0.630243 0.630243
0.624994 0.624994 0.624994
0.769741 0.619745 0.619745
0.914504 0.614496 0.614496
1 0.609247 0.609247
0 0.783749 0.633738
0.0284886 0.7785 0.628489
0.173236 0.773251 0.62324
0.317983 0.768002 0.61799
0.462745 0.762753 0.612741
0.607492 0.757504 0.607492
0.752239 0.752239 0.602243
0.897002 0.74699 0.596994
1 0.741741 0.591745
0 0.916259 0.616251
0.0109865 0.910994 0.610986
0.155734 0.905745 0.605737
0.300496 0.900496 0.600488
0.445243 0.895247 0.595239
0.58999 0.889998 0.58999
0.734752 0.884749 0.584741
0.879499 0.879499 0.579492
1 0.87425 0.574243
0 1 0.598749
0 1 0.5935
0.138231 1 0.588251
0.282994 1 0.582986
0.427741 1 0.577737
0.572488 1 0.572488
0.71725 1 0.567239
0.861997 1 0.56199
1 1 0.556741
0 0 0.886503
0.131228 0 0.881254
0.27599 0 0.876005
0.420737 0 0.870741
0.565484 0 0.865492
0.710246 0 0.860243
0.854994 0 0.854994
0.999741 0 0.849744
1 0 0.844495
0 0.11899 0.869001
0.113741 0.113741 0.863752
0.258488 0.108492 0.858503
0.403235 0.103243 0.853254
0.547997 0.0979934 0.848005
0.692744 0.0927291 0.842756
0.837491 0.08748 0.837507
0.982254 0.0822309 0.832242
1 0.0769818 0.826993
0 0.251484 0.851499
0.0962387 0.246235 0.84625
0.240986 0.240986 0.841001
0.385748 0.235737 0.835752
0.530495 0.230488 0.830503
0.675242 0.225238 0.825254
0.820005 0.219989 0.820005
0.964752 0.21474 0.814755
1 0.209491 0.809491
0 0.383993 0.833997
0.0787366 0.378744 0.828748
0.223484 0.373495 0.823499
0.368246 0.368246 0.81825
0.512993 0.362997 0.813001
0.65774 0.357748 0.807752
0.802502 0.352483 0.802502
0.94725 0.347234 0.797253
1 0.341985 0.792004
0 0.516503 0.816495
0.0612345 0.511238 0.811246
0.205982 0.505989 0.805997
0.350744 0.50074 0.800748
0.495491 0.495491 0.795499
0.640238 0.490242 0.790249
0.785 0.484993 0.785
0.929747 0.479744 0.779751
1 0.474495 0.774502
0 0.648997 0.798993
0.0437324 0.643748 0.793744
0.188495 0.638498 0.788495
0.333242 0.633249 0.783246
0.477989 0.628 0.777996
0.622751 0.622751 0.772747
0.767498 0.617487 0.767498
0.912245 0.612238 0.762249
1 0.606989 0.757
0 0.781506 0.781491
0.0262303 0.776257 0.776242
0.170993 0.770993 0.770993
0.31574 0.765743 0.765743
0.460487 0.760494 0.760494
0.605249 0.755245 0.755245
0.749996 0.749996 0.749996
0.894743 0.744747 0.744747
1 0.739498 0.739498
0 0.914 0.763989
0.00872816 0.908751 0.75874
0.15349 0.903502 0.753491
0.298238 0.898253 0.748241
0.442985 0.893004 0.742992
0.587747 0.887755 0.737743
0.732494 0.882506 0.732494
0.877241 0.877241 0.727245
1 0.871992 0.721996
0 1 0.746502
0 1 0.741253
0.135988 1 0.735988
0.280735 1 0.730739
0.425498 1 0.72549
0.570245 1 0.720241
0.714992 1 0.714992
0.859754 1 0.709743
1 1 0.704494
0 0 1
0.128985 0 1
0.273732 0 1
0.418494 0 1
0.563241 0 1
0.707988 0 1
0.85275 0 1
0.997497 0 0.997497
1 0 0.992248
0 0.116747 1
0.111482 0.111482 1
0.256245 0.106233 1
0.400992 0.100984 1
0.545739 0.0957351 0.995758
0.690501 0.090486 0.990509
0.835248 0.0852369 0.985245
0.979995 0.0799878 0.979995
1 0.0747387 0.974746
0 0.249241 0.999252
0.0939803 0.243992 0.994003
0.238743 0.238743 0.988754
0.38349 0.233494 0.983505
0.528237 0.228244 0.978256
0.672999 0.222995 0.973007
0.817746 0.217731 0.967758
0.962493 0.212482 0.962509
1 0.207233 0.957244
0 0.38175 0.98175
0.0764935 0.376501 0.976501
0.221241 0.371237 0.971252
0.365988 0.365988 0.966003
0.51075 0.360739 0.960754
0.655497 0.355489 0.955505
0.800244 0.35024 0.950256
0.945006 0.344991 0.945006
1 0.339742 0.939757
0 0.514244 0.964248
0.0589914 0.508995 0.958999
0.203738 0.503746 0.95375
0.348486 0.498497 0.948501
0.493248 0.493248 0.943252
0.637995 0.487999 0.938003
0.782742 0.48275 0.932754
0.927504 0.477485 0.927504
1 0.472236 0.922255
0 0.646754 0.946746
0.0414893 0.641505 0.941497
0.186236 0.63624 0.936248
0.330983 0.630991 0.930999
0.475746 0.625742 0.92575
0.620493 0.620493 0.920501
0.76524 0.615244 0.915251
0.910002 0.609995 0.910002
1 0.604746 0.904753
0 0.779248 0.929244
0.0239872 0.773999 0.923995
0.168734 0.76875 0.918746
0.313497 0.7635 0.913497
0.458244 0.758251 0.908248
0.602991 0.753002 0.902998
0.747753 0.747753 0.897749
0.8925 0.742489 0.8925
1 0.73724 0.887251
0 0.911757 0.911742
0.00648508 0.906508 0.906493
0.151232 0.901259 0.901244
0.295995 0.895994 0.895994
0.440742 0.890745 0.890745
0.585489 0.885496 0.885496
0.730251 0.880247 0.880247
0.874998 0.874998 0.874998
1 0.869749 0.869749
0 1 0.894255
0 1 0.889006
0.13373 1 0.883741
0.278492 1 0.878492
0.423239 1 0.873243
0.567987 1 0.867994
0.712749 1 0.862745
0.857496 1 0.857496
1 1 0.852247
0 0 1
0.126741 0 1
0.271489 0 1
0.416236 0 1
0.560998 0 1
0.705745 0 1
0.850492 0 1
0.995254 0 1
1 0 1
0 0.114488 1
0.109239 0.109239 1
0.253986 0.10399 1
0.398733 0.0987411 1
0.543496 0.093492 1
0.688243 0.0882429 1
0.83299 0.0829938 1
0.977752 0.0777295 1
1 0.0724804 1
0 0.246998 1
0.0917372 0.241749 1
0.236484 0.236484 1
0.381247 0.231235 1
0.525994 0.225986 1
0.670741 0.220737 1
0.815503 0.215488 1
0.96025 0.210239 1
1 0.20499 1
0 0.379492 1
0.0742351 0.374243 1
0.218982 0.368994 1
0.363745 0.363745 1
0.508492 0.358495 1
0.653239 0.353246 1
0.798001 0.347997 1
0.942748 0.342733 1
1 0.337484 1
0 0.512001 1
0.056733 0.506752 1
0.201495 0.501503 1
0.346242 0.496239 1
0.49099 0.49099 1
0.635752 0.48574 1
0.780499 0.480491 1
0.925246 0.475242 1
1 0.469993 1
0 0.644495 1
0.0392309 0.639246 1
0.183993 0.633997 1
0.32874 0.628748 1
0.473487 0.623499 1
0.61825 0.61825 1
0.762997 0.613001 1
0.907744 0.607752 1
1 0.602487 1
0 0.777005 1
0.0217288 0.771756 1
0.166491 0.766506 1
0.311238 0.761242 1
0.455985 0.755993 1
0.600748 0.750744 1
0.745495 0.745495 1
0.890242 0.740246 1
1 0.734997 1
0 0.909499 1
0.00424201 0.90425 1
0.148989 0.899001 1
0.293736 0.893751 1
0.438499 0.888502 1
0.583246 0.883253 1
0.727993 0.878004 1
0.872755 0.872755 1
1 0.867491 1
0 1 1
0 1 1
0.131487 1 1
0.276234 1 1
0.420996 1 1
0.565744 1 1
0.710491 1 1
0.855253 1 1
1 1 1
