public/LUTS/Color Gain/Color Gain_06.cube
TITLE "Generated by Resolve"
LUT_3D_SIZE 33
0 0 0
0.0460365 0 0
0.0921035 0 0
0.13817 0 0
0.184237 0 0
0.230289 0 0
0.276356 0 0
0.322423 0 0
0.36849 0 0
0.414542 0 0
0.460609 0 0
0.506676 0 0
0.552743 0 0
0.598795 0 0
0.644862 0 0
0.690929 0 0
0.736996 0 0
0.783047 0 0
0.829114 0 0
0.875181 0 0
0.921248 0 0
0.9673 0 0
1 0 0
1 0 0
1 0 0
1 0 0
1 0 0
1 0 0
1 0 0
1 0 0
1 0 0
1 0 0
1 0 0
0 0.0368505 0
0.032929 0.032929 0
0.0789807 0.0289769 0
0.125048 0.0250401 0
0.171115 0.0211032 0
0.217182 0.0171664 0
0.263233 0.0132296 0
0.3093 0.00929274 0
0.355367 0.00535592 0
0.401434 0.00141909 0
0.447486 0 0
0.493553 0 0
0.53962 0 0
0.585687 0 0
0.631739 0 0
0.677806 0 0
0.723873 0 0
0.76994 0 0
0.815991 0 0
0.862058 0 0
0.908125 0 0
0.954192 0 0
1 0 0
1 0 0
1 0 0
1 0 0
1 0 0
1 0 0
1 0 0
1 0 0
1 0 0
1 0 0
1 0 0
0 0.0737316 0
0.019791 0.0697948 0
0.0658579 0.0658579 0
0.111925 0.0619211 0
0.157992 0.0579843 0
0.204044 0.0540475 0
0.250111 0.0501106 0
0.296178 0.0461738 0
0.342245 0.042237 0
0.388296 0.0383001 0
0.434363 0.0343633 0
0.48043 0.0304265 0
0.526497 0.0264744 0
0.572549 0.0225376 0
0.618616 0.0186007 0
0.664683 0.0146639 0
0.71075 0.0107271 0
0.756802 0.00679026 0
0.802869 0.00285344 0
0.848936 0 0
0.895003 0 0
0.941054 0 0
0.987121 0 0
1 0 0
1 0 0
1 0 0
1 0 0
1 0 0
1 0 0
1 0 0
1 0 0
1 0 0
1 0 0
0 0.110613 0
0.00666819 0.106676 0
0.0527352 0.102739 0
0.0988022 0.0988022 0
0.144854 0.0948653 0
0.190921 0.0909285 0
0.236988 0.0869917 0
0.283055 0.0830396 0
0.329107 0.0791028 0
0.375174 0.0751659 0
0.421241 0.0712291 0
0.467308 0.0672923 0
0.513359 0.0633555 0
0.559426 0.0594186 0
0.605493 0.0554818 0
0.65156 0.051545 0
0.697627 0.0476081 0
0.743679 0.0436713 0
0.789746 0.0397345 0
0.835813 0.0357977 0
0.88188 0.0318608 0
0.927932 0.027924 0
0.973999 0.0239872 0
1 0.0200351 0
1 0.0160983 0
1 0.0121614 0
1 0.00822461 0
1 0.00428779 0
1 0.000350958 0
1 0 0
1 0 0
1 0 0
1 0 0
0 0.147478 0
0 0.143542 0
0.0396124 0.139605 0
0.0856794 0.135668 0
0.131731 0.131731 0
0.177798 0.127794 0
0.223865 0.123857 0
0.269932 0.119921 0
0.315984 0.115984 0
0.362051 0.112047 0
0.408118 0.10811 0
0.454185 0.104173 0
0.500237 0.100237 0
0.546304 0.0962997 0
0.592371 0.0923629 0
0.638437 0.088426 0
0.684489 0.0844892 0
0.730556 0.0805371 0
0.776623 0.0766003 0
0.82269 0.0726635 0
0.868742 0.0687266 0
0.914809 0.0647898 0
0.960876 0.060853 0
1 0.0569162 0
1 0.0529793 0
1 0.0490425 0
1 0.0451057 0
1 0.0411688 0
1 0.037232 0
1 0.0332952 0
1 0.0293584 0
1 0.0254215 0
1 0.0214847 0
0 0.18436 0
0 0.180423 0
0.0264897 0.176486 0
0.0725414 0.172549 0
0.118608 0.168612 0
0.164675 0.164675 0
0.210742 0.160739 0
0.256794 0.156802 0
0.302861 0.152865 0
0.348928 0.148928 0
0.394995 0.144991 0
0.441047 0.141039 0
0.487114 0.137102 0
0.533181 0.133165 0
0.579248 0.129229 0
0.625299 0.125292 0
0.671366 0.121355 0
0.717433 0.117418 0
0.7635 0.113481 0
0.809552 0.109545 0
0.855619 0.105608 0
0.901686 0.101671 0
0.947753 0.097734 0
0.993805 0.0937972 0
1 0.0898604 0
1 0.0859236 0
1 0.0819867 0
1 0.0780346 0
1 0.0740978 0
1 0.070161 0
1 0.0662242 0
1 0.0622873 0
1 0.0583505 0
0 0.221241 0
0 0.217304 0
0.0133516 0.213367 0
0.0594186 0.20943 0
0.105486 0.205493 0
0.151553 0.201541 0
0.197604 0.197604 0
0.243671 0.193668 0
0.289738 0.189731 0
0.335805 0.185794 0
0.381872 0.181857 0
0.427924 0.17792 0
0.473991 0.173983 0
0.520058 0.170047 0
0.566125 0.16611 0
0.612177 0.162173 0
0.658244 0.158236 0
0.704311 0.154299 0
0.750378 0.150362 0
0.796429 0.146426 0
0.842496 0.142489 0
0.888563 0.138552 0
0.93463 0.1346 0
0.980682 0.130663 0
1 0.126726 0
1 0.122789 0
1 0.118853 0
1 0.114916 0
1 0.110979 0
1 0.107042 0
1 0.103105 0
1 0.0991684 0
1 0.0952316 0
0 0.258106 0
0 0.25417 0
0.000228885 0.250233 0
0.0462959 0.246296 0
0.0923629 0.242359 0
0.13843 0.238422 0
0.184482 0.234485 0
0.230549 0.230549 0
0.276616 0.226612 0
0.322683 0.222675 0
0.368734 0.218738 0
0.414801 0.214801 0
0.460868 0.210864 0
0.506935 0.206928 0
0.552987 0.202991 0
0.599054 0.199054 0
0.645121 0.195102 0
0.691188 0.191165 0
0.73724 0.187228 0
0.783307 0.183291 0
0.829374 0.179355 0
0.875441 0.175418 0
0.921492 0.171481 0
0.967559 0.167544 0
1 0.163607 0
1 0.15967 0
1 0.155734 0
1 0.151797 0
1 0.14786 0
1 0.143923 0
1 0.139986 0
1 0.136049 0
1 0.132097 0
0 0.294987 0
0 0.291051 0
0 0.287114 0
0.0331731 0.283177 0
0.0792401 0.27924 0
0.125292 0.275303 0
0.171359 0.271366 0
0.217426 0.26743 0
0.263493 0.263493 0
0.309545 0.259556 0
0.355612 0.255604 0
0.401679 0.251667 0
0.447745 0.24773 0
0.493797 0.243793 0
0.539864 0.239857 0
0.585931 0.23592 0
0.631998 0.231983 0
0.67805 0.228046 0
0.724117 0.224109 0
0.770184 0.220172 0
0.816251 0.216236 0
0.862303 0.212299 0
0.90837 0.208362 0
0.954437 0.204425 0
1 0.200488 0
1 0.196551 0
1 0.192599 0
1 0.188663 0
1 0.184726 0
1 0.180789 0
1 0.176852 0
1 0.172915 0
1 0.168978 0
0 0.331868 0
0 0.327932 0
0 0.323995 0
0.0200504 0.320058 0
0.0661173 0.316106 0
0.112169 0.312169 0
0.158236 0.308232 0
0.204303 0.304295 0
0.25037 0.300359 0
0.296422 0.296422 0
0.342489 0.292485 0
0.388556 0.288548 0
0.434623 0.284611 0
0.480674 0.280674 0
0.526741 0.276738 0
0.572808 0.272801 0
0.618875 0.268864 0
0.664927 0.264927 0
0.710994 0.26099 0
0.757061 0.257053 0
0.803128 0.253101 0
0.84918 0.249165 0
0.895247 0.245228 0
0.941314 0.241291 0
0.987381 0.237354 0
1 0.233417 0
1 0.22948 0
1 0.225544 0
1 0.221607 0
1 0.21767 0
1 0.213733 0
1 0.209796 0
1 0.205859 0
0 0.368734 0
0 0.364797 0
0 0.360861 0
0.0069276 0.356924 0
0.0529793 0.352987 0
0.0990463 0.34905 0
0.145113 0.345113 0
0.19118 0.341176 0
0.237232 0.33724 0
0.283299 0.333303 0
0.329366 0.329366 0
0.375433 0.325429 0
0.421485 0.321492 0
0.467552 0.317556 0
0.513619 0.313619 0
0.559686 0.309667 0
0.605737 0.30573 0
0.651804 0.301793 0
0.697871 0.297856 0
0.743938 0.293919 0
0.78999 0.289982 0
0.836057 0.286046 0
0.882124 0.282109 0
0.928191 0.278172 0
0.974243 0.274235 0
1 0.270298 0
1 0.266361 0
1 0.262425 0
1 0.258488 0
1 0.254551 0
1 0.250614 0
1 0.246662 0
1 0.242725 0
0 0.405615 0
0 0.401679 0
0 0.397742 0
0 0.393805 0
0.0398566 0.389868 0
0.0859236 0.385931 0
0.131991 0.381994 0
0.178042 0.378058 0
0.224109 0.374121 0
0.270176 0.370169 0
0.316243 0.366232 0
0.362295 0.362295 0
0.408362 0.358358 0
0.454429 0.354421 0
0.500496 0.350484 0
0.546548 0.346548 0
0.592615 0.342611 0
0.638682 0.338674 0
0.684749 0.334737 0
0.7308 0.3308 0
0.776867 0.326863 0
0.822934 0.322927 0
0.869001 0.31899 0
0.915053 0.315053 0
0.96112 0.311116 0
1 0.307164 0
1 0.303227 0
1 0.29929 0
1 0.295354 0
1 0.291417 0
1 0.28748 0
1 0.283543 0
1 0.279606 0
0 0.442496 0
0 0.43856 0
0 0.434623 0
0 0.430671 0
0.0267338 0.426734 0
0.0728008 0.422797 0
0.118868 0.41886 0
0.16492 0.414923 0
0.210986 0.410986 0
0.257053 0.40705 0
0.30312 0.403113 0
0.349172 0.399176 0
0.395239 0.395239 0
0.441306 0.391302 0
0.487373 0.387366 0
0.533425 0.383429 0
0.579492 0.379492 0
0.625559 0.375555 0
0.671626 0.371618 0
0.717678 0.367666 0
0.763745 0.363729 0
0.809812 0.359792 0
0.855879 0.355856 0
0.90193 0.351919 0
0.947997 0.347982 0
0.994064 0.344045 0
1 0.340108 0
1 0.336172 0
1 0.332235 0
1 0.328298 0
1 0.324361 0
1 0.320424 0
1 0.316487 0
0 0.479362 0
0 0.475425 0
0 0.471489 0
0 0.467552 0
0.013611 0.463615 0
0.059678 0.459678 0
0.10573 0.455741 0
0.151797 0.451804 0
0.197864 0.447868 0
0.243931 0.443931 0
0.289982 0.439994 0
0.336049 0.436057 0
0.382116 0.43212 0
0.428183 0.428168 0
0.474235 0.424231 0
0.520302 0.420294 0
0.566369 0.416358 0
0.612436 0.412421 0
0.658488 0.408484 0
0.704555 0.404547 0
0.750622 0.40061 0
0.796689 0.396674 0
0.842741 0.392737 0
0.888808 0.3888 0
0.934874 0.384863 0
0.980941 0.380926 0
1 0.376989 0
1 0.373053 0
1 0.369116 0
1 0.365179 0
1 0.361227 0
1 0.35729 0
1 0.353353 0
0 0.516243 0
0 0.512306 0
0 0.50837 0
0 0.504433 0
0.000488289 0.500496 0
0.04654 0.496559 0
0.092607 0.492622 0
0.138674 0.488685 0
0.184741 0.484733 0
0.230793 0.480797 0
0.27686 0.47686 0
0.322927 0.472923 0
0.368994 0.468986 0
0.415045 0.465049 0
0.461112 0.461112 0
0.507179 0.457176 0
0.553246 0.453239 0
0.599298 0.449302 0
0.645365 0.445365 0
0.691432 0.441428 0
0.737499 0.437491 0
0.783566 0.433555 0
0.829618 0.429618 0
0.875685 0.425681 0
0.921752 0.421729 0
0.967819 0.417792 0
1 0.413855 0
1 0.409918 0
1 0.405982 0
1 0.402045 0
1 0.398108 0
1 0.394171 0
1 0.390234 0
0 0.553109 0
0 0.549187 0
0 0.545235 0
0 0.541299 0
0 0.537362 0
0.0334173 0.533425 0
0.0794842 0.529488 0
0.125551 0.525551 0
0.171618 0.521614 0
0.21767 0.517678 0
0.263737 0.513741 0
0.309804 0.509804 0
0.355871 0.505867 0
0.401923 0.50193 0
0.44799 0.497993 0
0.494057 0.494057 0
0.540124 0.49012 0
0.586175 0.486183 0
0.632242 0.482231 0
0.678309 0.478294 0
0.724376 0.474357 0
0.770428 0.47042 0
0.816495 0.466484 0
0.862562 0.462547 0
0.908629 0.45861 0
0.954681 0.454673 0
1 0.450736 0
1 0.446799 0
1 0.442863 0
1 0.438926 0
1 0.434989 0
1 0.431052 0
1 0.427115 0
0 0.58999 0
0 0.586053 0
0 0.582116 0
0 0.57818 0
0 0.574243 0
0.0202945 0.570306 0
0.0663615 0.566369 0
0.112428 0.562432 0
0.15848 0.558495 0
0.204547 0.554559 0
0.250614 0.550622 0
0.296681 0.546685 0
0.342733 0.542733 0
0.3888 0.538796 0
0.434867 0.534859 0
0.480934 0.530922 0
0.526986 0.526986 0
0.573053 0.523049 0
0.61912 0.519112 0
0.665187 0.515175 0
0.711238 0.511238 0
0.757305 0.507301 0
0.803372 0.503365 0
0.849439 0.499428 0
0.895491 0.495491 0
0.941558 0.491554 0
0.987625 0.487617 0
1 0.48368 0
1 0.479728 0
1 0.475792 0
1 0.471855 0
1 0.467918 0
1 0.463981 0
0 0.626871 0
0 0.622934 0
0 0.618997 0
0 0.615061 0
0 0.611124 0
0.00717174 0.607187 0
0.0532387 0.603235 0
0.0992905 0.599298 0
0.145357 0.595361 0
0.191424 0.591424 0
0.237491 0.587488 0
0.283558 0.583551 0
0.32961 0.579614 0
0.375677 0.575677 0
0.421744 0.57174 0
0.467811 0.567803 0
0.513863 0.563867 0
0.55993 0.55993 0
0.605997 0.555993 0
0.652064 0.552056 0
0.698116 0.548119 0
0.744183 0.544182 0
0.790249 0.540246 0
0.836316 0.536294 0
0.882368 0.532357 0
0.928435 0.52842 0
0.974502 0.524483 0
1 0.520546 0
1 0.516609 0
1 0.512673 0
1 0.508736 0
1 0.504799 0
1 0.500862 0
0 0.663737 0
0 0.6598 0
0 0.655863 0
0 0.651926 0
0 0.64799 0
0 0.644053 0
0.040116 0.640116 0
0.0861677 0.636179 0
0.132235 0.632242 0
0.178302 0.628305 0
0.224369 0.624369 0
0.27042 0.620432 0
0.316487 0.616495 0
0.362554 0.612558 0
0.408621 0.608621 0
0.454673 0.604685 0
0.50074 0.600748 0
0.546807 0.596796 0
0.592874 0.592859 0
0.638926 0.588922 0
0.684993 0.584985 0
0.73106 0.581048 0
0.777127 0.577111 0
0.823178 0.573175 0
0.869245 0.569238 0
0.915312 0.565301 0
0.961379 0.561364 0
1 0.557427 0
1 0.553491 0
1 0.549554 0
1 0.545617 0
1 0.54168 0
1 0.537743 0
0 0.700618 0
0 0.696681 0
0 0.692744 0
0 0.688807 0
0 0.684871 0
0 0.680934 0
0.026978 0.676997 0
0.0730449 0.67306 0
0.119112 0.669123 0
0.165179 0.665187 0
0.211231 0.66125 0
0.257298 0.657298 0
0.303365 0.653361 0
0.349432 0.649424 0
0.395483 0.645487 0
0.44155 0.64155 0
0.487617 0.637613 0
0.533684 0.633677 0
0.579736 0.62974 0
0.625803 0.625803 0
0.67187 0.621866 0
0.717937 0.617929 0
0.763989 0.613993 0
0.810056 0.610056 0
0.856123 0.606119 0
0.90219 0.602182 0
0.948241 0.598245 0
0.994308 0.594293 0
1 0.590356 0
1 0.586419 0
1 0.582483 0
1 0.578546 0
1 0.574609 0
0 0.737499 0
0 0.733562 0
0 0.729625 0
0 0.725689 0
0 0.721752 0
0 0.7178 0
0.0138552 0.713863 0
0.0599222 0.709926 0
0.105989 0.705989 0
0.152056 0.702052 0
0.198108 0.698116 0
0.244175 0.694179 0
0.290242 0.690242 0
0.336309 0.686305 0
0.382361 0.682368 0
0.428428 0.678431 0
0.474495 0.674495 0
0.520562 0.670558 0
0.566613 0.666621 0
0.61268 0.662684 0
0.658747 0.658747 0
0.704814 0.654795 0
0.750866 0.650858 0
0.796933 0.646922 0
0.843 0.642985 0
0.889067 0.639048 0
0.935119 0.635111 0
0.981186 0.631174 0
1 0.627237 0
1 0.623301 0
1 0.619364 0
1 0.615427 0
1 0.61149 0
0 0.774365 0
0 0.770428 0
0 0.766491 0
0 0.762554 0
0 0.758618 0
0 0.754681 0
0.000732433 0.750744 0
0.0467994 0.746807 0
0.0928664 0.74287 0
0.138918 0.738933 0
0.184985 0.734997 0
0.231052 0.73106 0
0.277119 0.727123 0
0.323171 0.723186 0
0.369238 0.719249 0
0.415305 0.715312 0
0.461372 0.71136 0
0.507424 0.707424 0
0.553491 0.703487 0
0.599557 0.69955 0
0.645624 0.695613 0
0.691676 0.691676 0
0.737743 0.687739 0
0.78381 0.683803 0
0.829877 0.679866 0
0.875929 0.675929 0
0.921996 0.671992 0
0.968063 0.668055 0
1 0.664118 0
1 0.660182 0
1 0.656245 0
1 0.652308 0
1 0.648356 0
0 0.811246 0
0 0.807309 0
0 0.803372 0
0 0.799435 0
0 0.795499 0
0 0.791562 0
0 0.787625 0
0.0336767 0.783688 0
0.0797284 0.779751 0
0.125795 0.775814 0
0.171862 0.771862 0
0.217929 0.767926 0
0.263981 0.763989 0
0.310048 0.760052 0
0.356115 0.756115 0
0.402182 0.752178 0
0.448234 0.748241 0
0.494301 0.744305 0
0.540368 0.740368 0
0.586435 0.736431 0
0.632486 0.732494 0
0.678553 0.728557 0
0.72462 0.72462 0
0.770687 0.720684 0
0.816739 0.716747 0
0.862806 0.71281 0
0.908873 0.708858 0
0.95494 0.704921 0
1 0.700984 0
1 0.697047 0
1 0.693111 0
1 0.689174 0
1 0.685237 0
0 0.848127 0
0 0.84419 0
0 0.840253 0
0 0.836316 0
0 0.832364 0
0 0.828428 0
0 0.824491 0
0.0205539 0.820554 0
0.0666056 0.816617 0
0.112673 0.81268 0
0.15874 0.808743 0
0.204807 0.804807 0
0.250858 0.80087 0
0.296925 0.796933 0
0.342992 0.792996 0
0.389059 0.789059 0
0.435111 0.785122 0
0.481178 0.781186 0
0.527245 0.777249 0
0.573312 0.773312 0
0.619364 0.76936 0
0.665431 0.765423 0
0.711498 0.761486 0
0.757565 0.757549 0
0.803616 0.753613 0
0.849683 0.749676 0
0.89575 0.745739 0
0.941817 0.741802 0
0.987869 0.737865 0
1 0.733928 0
1 0.729992 0
1 0.726055 0
1 0.722118 0
0 0.884993 0
0 0.881056 0
0 0.877119 0
0 0.873182 0
0 0.869245 0
0 0.865309 0
0 0.861372 0
0.00741588 0.857435 0
0.0534829 0.853498 0
0.0995499 0.849561 0
0.145617 0.845624 0
0.191669 0.841688 0
0.237736 0.837751 0
0.283803 0.833814 0
0.32987 0.829862 0
0.375921 0.825925 0
0.421988 0.821988 0
0.468055 0.818051 0
0.514122 0.814115 0
0.560174 0.810178 0
0.606241 0.806241 0
0.652308 0.802304 0
0.698375 0.798367 0
0.744427 0.79443 0
0.790494 0.790494 0
0.836561 0.786557 0
0.882628 0.78262 0
0.928679 0.778683 0
0.974746 0.774746 0
1 0.770809 0
1 0.766873 0
1 0.762921 0
1 0.758984 0
0 0.921874 0
0 0.917937 0
0 0.914 0
0 0.910063 0
0 0.906126 0
0 0.90219 0
0 0.898253 0
0 0.894316 0
0.0403601 0.890379 0
0.0864271 0.886427 0
0.132479 0.88249 0
0.178546 0.878553 0
0.224613 0.874617 0
0.27068 0.87068 0
0.316732 0.866743 0
0.362799 0.862806 0
0.408865 0.858869 0
0.454932 0.854932 0
0.500984 0.850996 0
0.547051 0.847059 0
0.593118 0.843122 0
0.639185 0.839185 0
0.685237 0.835248 0
0.731304 0.831312 0
0.777371 0.827375 0
0.823438 0.823423 0
0.869505 0.819486 0
0.915557 0.815549 0
0.961624 0.811612 0
1 0.807675 0
1 0.803738 0
1 0.799802 0
1 0.795865 0
0 0.958755 0
0 0.954818 0
0 0.950881 0
0 0.946929 0
0 0.942992 0
0 0.939055 0
0 0.935119 0
0 0.931182 0
0.0272374 0.927245 0
0.0733043 0.923308 0
0.119356 0.919371 0
0.165423 0.915434 0
0.21149 0.911498 0
0.257557 0.907561 0
0.303609 0.903624 0
0.349676 0.899687 0
0.395743 0.89575 0
0.44181 0.891814 0
0.487861 0.887877 0
0.533928 0.883925 0
0.579995 0.879988 0
0.626062 0.876051 0
0.672114 0.872114 0
0.718181 0.868177 0
0.764248 0.86424 0
0.810315 0.860304 0
0.856367 0.856367 0
0.902434 0.85243 0
0.948501 0.848493 0
0.994568 0.844556 0
1 0.84062 0
1 0.836683 0
1 0.832746 0
0 0.995621 0
0 0.991684 0
0 0.987747 0
0 0.98381 0
0 0.979873 0
0 0.975937 0
0 0.972 0
0 0.968063 0
0.0141146 0.964126 0
