public/LUTS/Color Gain/Color Gain_01.cube
TITLE "Generated by Resolve"
LUT_3D_SIZE 5
0 0 0
0.269734 0 0
0.539498 0 0
0.809247 0 0
1 0 0
0 0.257496 0
0.252232 0.252232 0
0.521996 0.246983 0
0.791745 0.241733 0
1 0.236484 0
0 0.514992 0
0.234745 0.509743 0
0.504494 0.504494 0
0.774243 0.499245 0
1 0.49398 0
0 0.772503 0
0.217243 0.767239 0
0.486992 0.76199 0
0.756741 0.756741 0
1 0.751492 0
0 1 0
0.199741 1 0
0.46949 1 0
0.739239 1 0
1 1 0
0 0 0.27274
0.267491 0 0.267491
0.53724 0 0.262242
0.806989 0 0.256992
1 0 0.251743
0 0.255238 0.255238
0.249989 0.249989 0.249989
0.519738 0.244739 0.244739
0.789502 0.23949 0.23949
1 0.234241 0.234241
0 0.512749 0.237736
0.232486 0.5075 0.232486
0.502235 0.502235 0.227237
0.772 0.496986 0.221988
1 0.491737 0.216739
0 0.770245 0.220233
0.214984 0.764996 0.214984
0.484749 0.759747 0.209735
0.754498 0.754498 0.204486
1 0.749249 0.199237
0 1 0.202731
0.197482 1 0.197482
0.467247 1 0.192233
0.736996 1 0.186984
1 1 0.181735
0 0 0.545495
0.265232 0 0.540246
0.534997 0 0.534997
0.804746 0 0.529747
1 0 0.524498
0 0.252995 0.527993
0.247745 0.247745 0.522744
0.517494 0.242481 0.517494
0.787243 0.237232 0.512245
1 0.231983 0.506996
0 0.510491 0.510491
0.230243 0.505241 0.505241
0.499992 0.499992 0.499992
0.769741 0.494743 0.494743
1 0.489494 0.489494
0 0.768002 0.492988
0.212741 0.762753 0.487739
0.48249 0.757504 0.48249
0.752239 0.752239 0.477241
1 0.74699 0.471992
0 1 0.475486
0.195239 1 0.470237
0.464988 1 0.464988
0.734752 1 0.459739
1 1 0.45449
0 0 0.81825
0.262989 0 0.813001
0.532738 0 0.807752
0.802502 0 0.802502
1 0 0.797253
0 0.250736 0.800748
0.245487 0.245487 0.795499
0.515236 0.240238 0.790249
0.785 0.234989 0.785
1 0.22974 0.779751
0 0.508247 0.783246
0.227985 0.502998 0.777996
0.497749 0.497749 0.772747
0.767498 0.492485 0.767498
1 0.487236 0.762249
0 0.765743 0.765743
0.210483 0.760494 0.760494
0.480247 0.755245 0.755245
0.749996 0.749996 0.749996
1 0.744747 0.744747
0 1 0.748241
0.192981 1 0.742992
0.462745 1 0.737743
0.732494 1 0.732494
1 1 0.727245
0 0 1
0.260731 0 1
0.530495 0 1
0.800244 0 1
1 0 1
0 0.248493 1
0.243244 0.243244 1
0.512993 0.237995 1
0.782742 0.232746 1
1 0.227481 1
0 0.505989 1
0.225742 0.50074 1
0.495491 0.495491 1
0.76524 0.490242 1
1 0.484993 1
0 0.7635 1
0.20824 0.758251 1
0.477989 0.753002 1
0.747753 0.747753 1
1 0.742489 1
0 1 1
0.190738 1 1
0.460487 1 1
0.730251 1 1
1 1 1
