public/LUTS/Color Gain/Color Gain_09.cube
TITLE "Generated by Resolve"
LUT_3D_SIZE 5
0 0 0
0.427726 0 0
0.855482 0 0
1 0 0
1 0 0
0 0.317479 0
0.270237 0.270237 0
0.697993 0.22298 0
1 0.175723 0
1 0.128481 0
0 0.634989 0
0.112734 0.587747 0
0.54049 0.54049 0
0.968246 0.493233 0
1 0.445975 0
0 0.952499 0
0 0.905241 0
0.382986 0.858 0
0.810742 0.810742 0
1 0.763485 0
0 1 0
0 1 0
0.225483 1 0
0.653239 1 0
1 1 0
0 0 0.454734
0.407477 0 0.407477
0.835233 0 0.360235
1 0 0.312978
1 0 0.265736
0 0.297246 0.29723
0.249989 0.249989 0.249989
0.677745 0.202731 0.202731
1 0.155489 0.155489
1 0.108232 0.108232
0 0.61474 0.139727
0.0924849 0.567498 0.0924849
0.520241 0.520241 0.0452277
0.947997 0.472984 0
1 0.425742 0
0 0.93225 0
0 0.884993 0
0.362737 0.837751 0
0.790494 0.790494 0
1 0.743236 0
0 1 0
0 1 0
0.205234 1 0
0.63299 1 0
1 1 0
0 0 0.909483
0.387228 0 0.862242
0.814984 0 0.814984
1 0 0.767742
1 0 0.720485
0 0.276997 0.751995
0.22974 0.22974 0.704753
0.657496 0.182483 0.657496
1 0.135241 0.610239
1 0.0879835 0.562997
0 0.594491 0.594491
0.0722362 0.54725 0.54725
0.499992 0.499992 0.499992
0.927749 0.452735 0.452735
1 0.405493 0.405493
0 0.912001 0.436988
0 0.864744 0.389746
0.342489 0.817502 0.342489
0.770245 0.770245 0.295232
1 0.722988 0.24799
0 1 0.279484
0 1 0.232242
0.184985 1 0.184985
0.612741 1 0.137728
1 1 0.090486
0 0 1
0.366979 0 1
0.794736 0 1
1 0 1
1 0 1
0 0.256748 1
0.209491 0.209491 1
0.637247 0.162234 1
1 0.114992 1
1 0.0677348 1
0 0.574243 1
0.0519875 0.527001 1
0.479744 0.479744 0.954757
0.9075 0.432486 0.9075
1 0.385245 0.860243
0 0.891752 0.891752
0 0.844495 0.844495
0.32224 0.797253 0.797253
0.749996 0.749996 0.749996
1 0.702739 0.702739
0 1 0.734249
0 1 0.686992
0.164736 1 0.63975
0.592493 1 0.592493
1 1 0.545235
0 0 1
0.346731 0 1
0.774487 0 1
1 0 1
1 0 1
0 0.2365 1
0.189242 0.189242 1
0.616999 0.141985 1
1 0.0947433 1
1 0.0474861 1
0 0.553994 1
0.0317388 0.506752 1
0.459495 0.459495 1
0.887251 0.412238 1
1 0.364996 1
0 0.871504 1
0 0.824247 1
0.301991 0.777005 1
0.729747 0.729747 1
1 0.68249 1
0 1 1
0 1 1
0.144488 1 1
0.572244 1 1
1 1 1
