public/LUTS/Color Gain/Color Gain_02.cube
TITLE "Generated by Resolve"
LUT_3D_SIZE 5
0 0 0
0.289494 0 0
0.578988 0 0
0.868498 0 0
1 0 0
0 0.264988 0
0.25449 0.25449 0
0.543999 0.243992 0
0.833494 0.233478 0
1 0.22298 0
0 0.529992 0
0.219486 0.519493 0
0.508995 0.508995 0
0.798489 0.498482 0
1 0.487984 0
0 0.794995 0
0.184482 0.784497 0
0.473991 0.773999 0
0.7635 0.7635 0
1 0.752987 0
0 1 0
0.149493 1 0
0.438987 1 0
0.728496 1 0
1 1 0
0 0 0.295491
0.284993 0 0.284993
0.574487 0 0.274495
0.863996 0 0.263981
1 0 0.253483
0 0.260487 0.260487
0.249989 0.249989 0.249989
0.539498 0.23949 0.23949
0.828992 0.228992 0.228992
1 0.218479 0.218494
0 0.52549 0.225483
0.214984 0.514992 0.214984
0.504494 0.504494 0.204486
0.794003 0.493996 0.193988
1 0.483482 0.18349
0 0.790494 0.190478
0.17998 0.779995 0.17998
0.46949 0.769497 0.169482
0.758999 0.758999 0.158984
1 0.748486 0.148486
0 1 0.155489
0.144991 1 0.144991
0.434485 1 0.134478
0.723995 1 0.12398
1 1 0.113481
0 0 0.590997
0.280491 0 0.580499
0.569986 0 0.569986
0.859495 0 0.559487
1 0 0.548989
0 0.255985 0.555993
0.245487 0.245487 0.545495
0.534997 0.234989 0.534997
0.824491 0.224491 0.524498
1 0.213993 0.514
0 0.520989 0.520989
0.210483 0.510491 0.510491
0.499992 0.499992 0.499992
0.789502 0.489494 0.489494
1 0.478996 0.478996
0 0.785992 0.485985
0.175494 0.775494 0.475486
0.464988 0.764996 0.464988
0.754498 0.754498 0.45449
1 0.743999 0.443992
0 1 0.450996
0.14049 1 0.440497
0.429984 1 0.429984
0.719493 1 0.419486
1 1 0.408988
0 0 0.886503
0.27599 0 0.876005
0.565484 0 0.865492
0.854994 0 0.854994
1 0 0.844495
0 0.251484 0.851499
0.240986 0.240986 0.841001
0.530495 0.230488 0.830503
0.820005 0.219989 0.820005
1 0.209491 0.809491
0 0.516503 0.816495
0.205982 0.505989 0.805997
0.495491 0.495491 0.795499
0.785 0.484993 0.785
1 0.474495 0.774502
0 0.781506 0.781491
0.170993 0.770993 0.770993
0.460487 0.760494 0.760494
0.749996 0.749996 0.749996
1 0.739498 0.739498
0 1 0.746502
0.135988 1 0.735988
0.425498 1 0.72549
0.714992 1 0.714992
1 1 0.704494
0 0 1
0.271489 0 1
0.560998 0 1
0.850492 0 1
1 0 1
0 0.246998 1
0.236484 0.236484 1
0.525994 0.225986 1
0.815503 0.215488 1
1 0.20499 1
0 0.512001 1
0.201495 0.501503 1
0.49099 0.49099 1
0.780499 0.480491 1
1 0.469993 1
0 0.777005 1
0.166491 0.766506 1
0.455985 0.755993 1
0.745495 0.745495 1
1 0.734997 1
0 1 1
0.131487 1 1
0.420996 1 1
0.710491 1 1
1 1 1
