public/LUTS/Color Gain/Color Gain_03.cube
TITLE "Generated by Resolve"
LUT_3D_SIZE 5
0 0 0
0.309239 0 0
0.618494 0 0
0.927749 0 0
1 0 0
0 0.27248 0
0.256733 0.256733 0
0.565988 0.240986 0
0.875242 0.225238 0
1 0.209476 0
0 0.544991 0
0.204242 0.529244 0
0.513497 0.513497 0
0.822751 0.497734 0
1 0.481987 0
0 0.817502 0
0.151736 0.80174 0
0.46099 0.785992 0
0.770245 0.770245 0
1 0.754498 0
0 1 0
0.0992294 1 0
0.408484 1 0
0.717739 1 0
1 1 0
0 0 0.318242
0.30248 0 0.30248
0.611734 0 0.286732
0.920989 0 0.270985
1 0 0.255238
0 0.265736 0.265736
0.249989 0.249989 0.249989
0.559243 0.234241 0.234241
0.868498 0.218479 0.218494
1 0.202731 0.202731
0 0.538247 0.21323
0.197482 0.522499 0.197482
0.506737 0.506737 0.181735
0.815991 0.49099 0.165988
1 0.475242 0.15024
0 0.810742 0.160739
0.144991 0.794995 0.144991
0.454246 0.779248 0.129229
0.7635 0.7635 0.113481
1 0.747738 0.097734
0 1 0.108232
0.0924849 1 0.0924849
0.40174 1 0.0767376
0.710994 1 0.0609903
1 1 0.0452277
0 0 0.6365
0.295735 0 0.620737
0.60499 0 0.60499
0.914244 0 0.589242
1 0 0.573495
0 0.258991 0.583993
0.243244 0.243244 0.568246
0.552499 0.227481 0.552499
0.861753 0.211734 0.536736
1 0.195987 0.520989
0 0.531502 0.531487
0.190738 0.51574 0.51574
0.499992 0.499992 0.499992
0.809247 0.484245 0.484245
1 0.468482 0.468498
0 0.803998 0.478996
0.138231 0.788251 0.463249
0.447486 0.772503 0.447486
0.756741 0.756741 0.431739
1 0.740993 0.415991
0 1 0.42649
0.0857404 1 0.410742
0.394995 1 0.394995
0.70425 1 0.379232
1 1 0.363485
0 0 0.954742
0.288991 0 0.938994
0.598245 0 0.923247
0.9075 0 0.9075
1 0 0.891752
0 0.252247 0.902251
0.236484 0.236484 0.886503
0.545739 0.220737 0.870756
0.854994 0.20499 0.854994
1 0.189242 0.839246
0 0.524742 0.849744
0.183993 0.508995 0.833997
0.493248 0.493248 0.81825
0.802502 0.477485 0.802502
1 0.461738 0.78674
0 0.797253 0.797253
0.131487 0.781506 0.781491
0.440742 0.765743 0.765743
0.749996 0.749996 0.749996
1 0.734249 0.734249
0 1 0.744747
0.0789807 1 0.729
0.388235 1 0.713252
0.69749 1 0.69749
1 1 0.681743
0 0 1
0.282231 0 1
0.591485 0 1
0.90074 0 1
1 0 1
0 0.245487 1
0.22974 0.22974 1
0.538994 0.213993 1
0.848249 0.198245 1
1 0.182483 1
0 0.517998 1
0.177234 0.502251 1
0.486488 0.486488 1
0.795743 0.470741 1
1 0.454994 1
0 0.790494 1
0.124743 0.774746 1
0.433997 0.758999 1
0.743252 0.743252 1
1 0.727489 1
0 1 1
0.0722362 1 1
0.381491 1 1
0.690745 1 1
1 1 1
