public/LUTS/Color Gain/Color Gain_01.cube
TITLE "Generated by Resolve"
LUT_3D_SIZE 33
0 0 0
0.0337072 0 0
0.0674296 0 0
0.101137 0 0
0.134859 0 0
0.168582 0 0
0.202304 0 0
0.236011 0 0
0.269734 0 0
0.303456 0 0
0.337179 0 0
0.370901 0 0
0.404608 0 0
0.438331 0 0
0.472053 0 0
0.505776 0 0
0.539498 0 0
0.573205 0 0
0.606928 0 0
0.64065 0 0
0.674372 0 0
0.708095 0 0
0.741802 0 0
0.775525 0 0
0.809247 0 0
0.842969 0 0
0.876692 0 0
0.910399 0 0
0.944121 0 0
0.977844 0 0
1 0 0
1 0 0
1 0 0
0 0.032166 0
0.0315099 0.0315099 0
0.0652323 0.0308537 0
0.0989548 0.0301976 0
0.132677 0.0295415 0
0.1664 0.0288853 0
0.200107 0.0282292 0
0.233829 0.0275731 0
0.267552 0.0269169 0
0.301274 0.0262608 0
0.334997 0.0256046 0
0.368704 0.0249485 0
0.402426 0.0242924 0
0.436149 0.0236362 0
0.469871 0.0229801 0
0.503594 0.0223239 0
0.537301 0.0216678 0
0.571023 0.0210117 0
0.604746 0.0203555 0
0.638468 0.0196994 0
0.672175 0.0190433 0
0.705898 0.0183871 0
0.73962 0.017731 0
0.773342 0.0170748 0
0.807065 0.0164187 0
0.840772 0.0157626 0
0.874495 0.0151064 0
0.908217 0.0144503 0
0.941939 0.0137942 0
0.975662 0.013138 0
1 0.0124819 0
1 0.0118257 0
1 0.0111696 0
0 0.0643626 0
0.0293278 0.0637064 0
0.0630503 0.0630503 0
0.0967727 0.0623941 0
0.13048 0.061738 0
0.164202 0.0610819 0
0.197925 0.0604257 0
0.231647 0.0597696 0
0.26537 0.0591135 0
0.299077 0.0584573 0
0.332799 0.0578012 0
0.366522 0.057145 0
0.400244 0.0564889 0
0.433967 0.0558328 0
0.467674 0.0551766 0
0.501396 0.0545205 0
0.535119 0.0538643 0
0.568841 0.0532082 0
0.602564 0.0525521 0
0.636271 0.0518959 0
0.669993 0.0512398 0
0.703716 0.0505837 0
0.737438 0.0499123 0
0.771145 0.0492561 0
0.804868 0.0486 0
0.83859 0.0479438 0
0.872312 0.0472877 0
0.906035 0.0466316 0
0.939742 0.0459754 0
0.973465 0.0453193 0
1 0.0446632 0
1 0.044007 0
1 0.0433509 0
0 0.0965438 0
0.0271458 0.0958877 0
0.060853 0.0952316 0
0.0945754 0.0945754 0
0.128298 0.0939193 0
0.16202 0.0932631 0
0.195743 0.092607 0
0.22945 0.0919509 0
0.263172 0.0912947 0
0.296895 0.0906386 0
0.330617 0.0899825 0
0.36434 0.0893263 0
0.398047 0.0886702 0
0.431769 0.088014 0
0.465492 0.0873579 0
0.499214 0.0867018 0
0.532937 0.0860456 0
0.566644 0.0853895 0
0.600366 0.0847334 0
0.634089 0.0840772 0
0.667811 0.0834211 0
0.701534 0.0827649 0
0.735241 0.0821088 0
0.768963 0.0814527 0
0.802686 0.0807965 0
0.836408 0.0801404 0
0.87013 0.0794842 0
0.903838 0.0788281 0
0.93756 0.078172 0
0.971283 0.0775158 0
1 0.0768597 0
1 0.0762036 0
1 0.0755474 0
0 0.12874 0
0.0249485 0.128084 0
0.0586709 0.127428 0
0.0923934 0.126772 0
0.126116 0.126116 0
0.159838 0.12546 0
0.193545 0.124804 0
0.227268 0.124147 0
0.26099 0.123491 0
0.294713 0.122835 0
0.32842 0.122179 0
0.362142 0.121523 0
0.395865 0.120867 0
0.429587 0.120211 0
0.46331 0.119554 0
0.497017 0.118883 0
0.530739 0.118227 0
0.564462 0.117571 0
0.598184 0.116915 0
0.631907 0.116258 0
0.665614 0.115602 0
0.699336 0.114946 0
0.733059 0.11429 0
0.766781 0.113634 0
0.800504 0.112978 0
0.834211 0.112322 0
0.867933 0.111666 0
0.901656 0.111009 0
0.935378 0.110353 0
0.9691 0.109697 0
1 0.109041 0
1 0.108385 0
1 0.107729 0
0 0.160922 0
0.0227665 0.160266 0
0.0564889 0.159609 0
0.0902113 0.158953 0
0.123919 0.158297 0
0.157641 0.157641 0
0.191363 0.156985 0
0.225086 0.156329 0
0.258808 0.155673 0
0.292515 0.155016 0
0.326238 0.15436 0
0.35996 0.153704 0
0.393683 0.153048 0
0.42739 0.152392 0
0.461112 0.151736 0
0.494835 0.15108 0
0.528557 0.150423 0
0.56228 0.149767 0
0.595987 0.149111 0
0.629709 0.148455 0
0.663432 0.147799 0
0.697154 0.147143 0
0.730877 0.146487 0
0.764584 0.14583 0
0.798306 0.145174 0
0.832029 0.144518 0
0.865751 0.143862 0
0.899474 0.143206 0
0.933181 0.14255 0
0.966903 0.141894 0
1 0.141238 0
1 0.140581 0
1 0.139925 0
0 0.193118 0
0.0205844 0.192462 0
0.0542916 0.191806 0
0.088014 0.19115 0
0.121736 0.190494 0
0.155459 0.189837 0
0.189181 0.189181 0
0.222889 0.188525 0
0.256611 0.187869 0
0.290333 0.187198 0
0.324056 0.186542 0
0.357778 0.185885 0
0.391485 0.185229 0
0.425208 0.184573 0
0.45893 0.183917 0
0.492653 0.183261 0
0.526375 0.182605 0
0.560082 0.181949 0
0.593805 0.181292 0
0.627527 0.180636 0
0.66125 0.17998 0
0.694957 0.179324 0
0.728679 0.178668 0
0.762402 0.178012 0
0.796124 0.177356 0
0.829847 0.176699 0
0.863554 0.176043 0
0.897276 0.175387 0
0.930999 0.174731 0
0.964721 0.174075 0
0.998444 0.173419 0
1 0.172763 0
1 0.172107 0
0 0.225299 0
0.0183871 0.224643 0
0.0521096 0.223987 0
0.085832 0.223331 0
0.119554 0.222675 0
0.153262 0.222019 0
0.186984 0.221363 0
0.220706 0.220706 0
0.254429 0.22005 0
0.288151 0.219394 0
0.321859 0.218738 0
0.355581 0.218082 0
0.389303 0.217426 0
0.423026 0.21677 0
0.456748 0.216114 0
0.490455 0.215457 0
0.524178 0.214801 0
0.5579 0.214145 0
0.591623 0.213489 0
0.625345 0.212833 0
0.659052 0.212177 0
0.692775 0.211521 0
0.726497 0.210864 0
0.76022 0.210208 0
0.793927 0.209552 0
0.827649 0.208896 0
0.861372 0.20824 0
0.895094 0.207584 0
0.928817 0.206928 0
0.962524 0.206271 0
0.996246 0.205615 0
1 0.204959 0
1 0.204303 0
0 0.257496 0
0.0162051 0.25684 0
0.0499275 0.256168 0
0.0836347 0.255512 0
0.117357 0.254856 0
0.15108 0.2542 0
0.184802 0.253544 0
0.218524 0.252888 0
0.252232 0.252232 0
0.285954 0.251575 0
0.319677 0.250919 0
0.353399 0.250263 0
0.387121 0.249607 0
0.420829 0.248951 0
0.454551 0.248295 0
0.488273 0.247639 0
0.521996 0.246983 0
0.555718 0.246326 0
0.589426 0.24567 0
0.623148 0.245014 0
0.65687 0.244358 0
0.690593 0.243702 0
0.724315 0.243046 0
0.758022 0.24239 0
0.791745 0.241733 0
0.825467 0.241077 0
0.85919 0.240421 0
0.892897 0.239765 0
0.926619 0.239109 0
0.960342 0.238453 0
0.994064 0.237797 0
1 0.23714 0
1 0.236484 0
0 0.289677 0
0.014023 0.289021 0
0.0477302 0.288365 0
0.0814527 0.287709 0
0.115175 0.287053 0
0.148898 0.286397 0
0.18262 0.28574 0
0.216327 0.285084 0
0.25005 0.284428 0
0.283772 0.283772 0
0.317494 0.283116 0
0.351202 0.28246 0
0.384924 0.281804 0
0.418647 0.281147 0
0.452369 0.280491 0
0.486091 0.279835 0
0.519799 0.279179 0
0.553521 0.278523 0
0.587243 0.277867 0
0.620966 0.277211 0
0.654688 0.276555 0
0.688396 0.275898 0
0.722118 0.275242 0
0.75584 0.274586 0
0.789563 0.27393 0
0.823285 0.273274 0
0.856992 0.272618 0
0.890715 0.271946 0
0.924437 0.27129 0
0.95816 0.270634 0
0.991882 0.269978 0
1 0.269322 0
1 0.268666 0
0 0.321859 0
0.0118257 0.321202 0
0.0455482 0.320546 0
0.0792706 0.31989 0
0.112993 0.319234 0
0.1467 0.318578 0
0.180423 0.317922 0
0.214145 0.317266 0
0.247868 0.316609 0
0.28159 0.315953 0
0.315297 0.315297 0
0.34902 0.314641 0
0.382742 0.313985 0
0.416464 0.313329 0
0.450172 0.312673 0
0.483894 0.312016 0
0.517617 0.31136 0
0.551339 0.310704 0
0.585061 0.310048 0
0.618769 0.309392 0
0.652491 0.308736 0
0.686213 0.30808 0
0.719936 0.307424 0
0.753658 0.306767 0
0.787366 0.306111 0
0.821088 0.305455 0
0.85481 0.304799 0
0.888533 0.304143 0
0.922255 0.303487 0
0.955962 0.302831 0
0.989685 0.302174 0
1 0.301518 0
1 0.300862 0
0 0.354055 0
0.0096437 0.353399 0
0.0433661 0.352743 0
0.0770733 0.352087 0
0.110796 0.351431 0
0.144518 0.350774 0
0.178241 0.350118 0
0.211963 0.349462 0
0.24567 0.348806 0
0.279393 0.34815 0
0.313115 0.347494 0
0.346838 0.346838 0
0.38056 0.346181 0
0.414267 0.345525 0
0.44799 0.344869 0
0.481712 0.344213 0
0.515435 0.343557 0
0.549142 0.342901 0
0.582864 0.342245 0
0.616587 0.341588 0
0.650309 0.340917 0
0.684031 0.340261 0
0.717739 0.339605 0
0.751461 0.338949 0
0.785183 0.338293 0
0.818906 0.337636 0
0.852628 0.33698 0
0.886336 0.336324 0
0.920058 0.335668 0
0.95378 0.335012 0
0.987503 0.334356 0
1 0.3337 0
1 0.333043 0
0 0.386236 0
0.0074464 0.38558 0
0.0411688 0.384924 0
0.0748913 0.384268 0
0.108614 0.383612 0
0.142336 0.382956 0
0.176043 0.3823 0
0.209766 0.381643 0
0.243488 0.380987 0
0.277211 0.380331 0
0.310933 0.379675 0
0.34464 0.379019 0
0.378363 0.378363 0
0.412085 0.377707 0
0.445808 0.37705 0
0.47953 0.376394 0
0.513237 0.375738 0
0.54696 0.375082 0
0.580682 0.374426 0
0.614404 0.37377 0
0.648127 0.373114 0
0.681834 0.372457 0
0.715557 0.371801 0
0.749279 0.371145 0
0.783001 0.370489 0
0.816709 0.369833 0
0.850431 0.369177 0
0.884153 0.368521 0
0.917876 0.367864 0
0.951598 0.367208 0
0.985306 0.366552 0
1 0.365896 0
1 0.36524 0
0 0.418433 0
0.00526436 0.417777 0
0.0389868 0.417121 0
0.0727092 0.416464 0
0.106416 0.415808 0
0.140139 0.415152 0
0.173861 0.414496 0
0.207584 0.41384 0
0.241306 0.413184 0
0.275013 0.412528 0
0.308736 0.411872 0
0.342458 0.411215 0
0.376181 0.410559 0
0.409903 0.409903 0
0.44361 0.409232 0
0.477333 0.408576 0
0.511055 0.407919 0
0.544778 0.407263 0
0.5785 0.406607 0
0.612207 0.405951 0
0.64593 0.405295 0
0.679652 0.404639 0
0.713375 0.403983 0
0.747097 0.403326 0
0.780804 0.40267 0
0.814527 0.402014 0
0.848249 0.401358 0
0.881971 0.400702 0
0.915679 0.400046 0
0.949401 0.39939 0
0.983124 0.398733 0
1 0.398077 0
1 0.397421 0
0 0.450614 0
0.00308232 0.449958 0
0.0368048 0.449302 0
0.0705119 0.448646 0
0.104234 0.44799 0
0.137957 0.447333 0
0.171679 0.446677 0
0.205386 0.446021 0
0.239109 0.445365 0
0.272831 0.444709 0
0.306554 0.444053 0
0.340276 0.443397 0
0.373983 0.442741 0
0.407706 0.442084 0
0.441428 0.441428 0
0.475151 0.440772 0
0.508873 0.440116 0
0.54258 0.43946 0
0.576303 0.438804 0
0.610025 0.438148 0
0.643748 0.437491 0
0.67747 0.436835 0
0.711177 0.436179 0
0.7449 0.435523 0
0.778622 0.434867 0
0.812345 0.434211 0
0.846067 0.433555 0
0.879774 0.432898 0
0.913497 0.432242 0
0.947219 0.431586 0
0.980941 0.43093 0
1 0.430274 0
1 0.429618 0
0 0.482811 0
0.000885023 0.482155 0
0.0346075 0.481498 0
0.0683299 0.480842 0
0.102052 0.480186 0
0.135775 0.47953 0
0.169482 0.478874 0
0.203204 0.478202 0
0.236927 0.477546 0
0.270649 0.47689 0
0.304372 0.476234 0
0.338079 0.475578 0
0.371801 0.474922 0
0.405524 0.474266 0
0.439246 0.47361 0
0.472953 0.472953 0
0.506676 0.472297 0
0.540398 0.471641 0
0.574121 0.470985 0
0.607843 0.470329 0
0.64155 0.469673 0
0.675273 0.469017 0
0.708995 0.46836 0
0.742718 0.467704 0
0.77644 0.467048 0
0.810147 0.466392 0
0.84387 0.465736 0
0.877592 0.46508 0
0.911315 0.464424 0
0.945037 0.463767 0
0.978744 0.463111 0
1 0.462455 0
1 0.461799 0
0 0.514992 0
0 0.514336 0
0.0324254 0.51368 0
0.0661479 0.513024 0
0.099855 0.512367 0
0.133577 0.511711 0
0.1673 0.511055 0
0.201022 0.510399 0
0.234745 0.509743 0
0.268452 0.509087 0
0.302174 0.508431 0
0.335897 0.507774 0
0.369619 0.507118 0
0.403342 0.506462 0
0.437049 0.505806 0
0.470771 0.50515 0
0.504494 0.504494 0
0.538216 0.503838 0
0.571923 0.503182 0
0.605646 0.502525 0
0.639368 0.501869 0
0.673091 0.501213 0
0.706813 0.500557 0
0.74052 0.499901 0
0.774243 0.499245 0
0.807965 0.498589 0
0.841688 0.497932 0
0.87541 0.497276 0
0.909117 0.49662 0
0.94284 0.495964 0
0.976562 0.495308 0
1 0.494652 0
1 0.49398 0
0 0.547173 0
0 0.546517 0
0.0302281 0.545861 0
0.0639506 0.545205 0
0.097673 0.544549 0
0.131395 0.543893 0
0.165118 0.543236 0
0.198825 0.54258 0
0.232547 0.541924 0
0.26627 0.541268 0
0.299992 0.540612 0
0.333715 0.539956 0
0.367422 0.5393 0
0.401144 0.538643 0
0.434867 0.537987 0
0.468589 0.537331 0
0.502312 0.536675 0
0.536019 0.536019 0
0.569741 0.535363 0
0.603464 0.534707 0
0.637186 0.534051 0
0.670909 0.533394 0
0.704616 0.532738 0
0.738338 0.532082 0
0.772061 0.531426 0
0.805783 0.53077 0
0.83949 0.530114 0
0.873213 0.529458 0
0.906935 0.528801 0
0.940658 0.528145 0
0.97438 0.527489 0
1 0.526833 0
1 0.526177 0
0 0.57937 0
0 0.578714 0
0.0280461 0.578058 0
0.0617685 0.577401 0
0.095491 0.576745 0
0.129198 0.576089 0
0.162921 0.575433 0
0.196643 0.574777 0
0.230365 0.574121 0
0.264088 0.573465 0
0.297795 0.572808 0
0.331518 0.572152 0
0.36524 0.571496 0
0.398962 0.57084 0
0.432685 0.570184 0
0.466392 0.569528 0
0.500114 0.568872 0
0.533837 0.568215 0
0.567559 0.567559 0
0.601282 0.566903 0
0.634989 0.566247 0
0.668711 0.565591 0
0.702434 0.564935 0
0.736156 0.564279 0
0.769879 0.563622 0
0.803586 0.562966 0
0.837308 0.562295 0
0.871031 0.561639 0
0.904753 0.560983 0
0.93846 0.560327 0
0.972183 0.55967 0
1 0.559014 0
1 0.558358 0
0 0.611551 0
0 0.610895 0
0.025864 0.610239 0
0.0595865 0.609583 0
0.0932937 0.608927 0
0.127016 0.60827 0
0.160739 0.607614 0
0.194461 0.606958 0
0.228168 0.606302 0
0.261891 0.605646 0
0.295613 0.60499 0
0.329335 0.604334 0
0.363058 0.603677 0
0.396765 0.603021 0
0.430488 0.602365 0
0.46421 0.601709 0
0.497932 0.601053 0
0.531655 0.600397 0
0.565362 0.599741 0
0.599084 0.599084 0
0.632807 0.598428 0
0.666529 0.597772 0
0.700252 0.597116 0
0.733959 0.59646 0
0.767681 0.595804 0
0.801404 0.595148 0
0.835126 0.594491 0
0.868849 0.593835 0
0.902556 0.593179 0
0.936278 0.592523 0
0.970001 0.591867 0
1 0.591211 0
1 0.590555 0
0 0.643748 0
0 0.643091 0
0.0236667 0.642435 0
0.0573892 0.641779 0
0.0911116 0.641123 0
0.124834 0.640467 0
0.158556 0.639811 0
0.192264 0.639155 0
0.225986 0.638498 0
0.259709 0.637842 0
0.293431 0.637186 0
0.327153 0.63653 0
0.360861 0.635874 0
0.394583 0.635218 0
0.428305 0.634562 0
0.462028 0.633906 0
0.495735 0.633249 0
0.529458 0.632593 0
0.56318 0.631937 0
0.596902 0.631266 0
0.630625 0.63061 0
0.664332 0.629953 0
0.698054 0.629297 0
0.731777 0.628641 0
0.765499 0.627985 0
0.799222 0.627329 0
0.832929 0.626673 0
0.866651 0.626017 0
0.900374 0.62536 0
0.934096 0.624704 0
0.967819 0.624048 0
1 0.623392 0
1 0.622736 0
0 0.675929 0
0 0.675273 0
0.0214847 0.674617 0
0.0552071 0.673961 0
0.0889296 0.673304 0
0.122637 0.672648 0
0.156359 0.671992 0
0.190082 0.671336 0
0.223804 0.67068 0
0.257527 0.670024 0
0.291234 0.669367 0
0.324956 0.668711 0
0.358679 0.668055 0
0.392401 0.667399 0
0.426123 0.666743 0
0.459831 0.666087 0
0.493553 0.665431 0
0.527276 0.664775 0
0.560998 0.664118 0
0.594705 0.663462 0
0.628428 0.662806 0
0.66215 0.66215 0
0.695872 0.661494 0
0.729595 0.660838 0
0.763302 0.660182 0
0.797024 0.659525 0
0.830747 0.658869 0
0.864469 0.658213 0
0.898192 0.657557 0
0.931899 0.656901 0
0.965621 0.656245 0
0.999344 0.655589 0
1 0.654932 0
0 0.708125 0
0 0.707469 0
0.0193027 0.706813 0
0.0530098 0.706157 0
0.0867323 0.705501 0
0.120455 0.704845 0
0.154177 0.704189 0
0.1879 0.703532 0
0.221607 0.702876 0
0.255329 0.70222 0
0.289052 0.701564 0
0.322774 0.700908 0
0.356497 0.700236 0
0.390204 0.69958 0
0.423926 0.698924 0
0.457649 0.698268 0
0.491371 0.697612 0
0.525093 0.696956 0
0.558801 0.6963 0
0.592523 0.695644 0
0.626245 0.694987 0
0.659968 0.694331 0
0.693675 0.693675 0
0.727398 0.693019 0
0.76112 0.692363 0
0.794842 0.691707 0
0.828565 0.691051 0
0.862272 0.690394 0
0.895994 0.689738 0
0.929717 0.689082 0
0.963439 0.688426 0
0.997162 0.68777 0
1 0.687114 0
0 0.740307 0
0 0.739651 0
0.0171054 0.738994 0
0.0508278 0.738338 0
0.0845502 0.737682 0
0.118273 0.737026 0
0.15198 0.73637 0
0.185702 0.735714 0
0.219425 0.735058 0
0.253147 0.734401 0
0.28687 0.733745 0
0.320577 0.733089 0
0.354299 0.732433 0
0.388022 0.731777 0
0.421744 0.731121 0
0.455467 0.730465 0
0.489174 0.729809 0
0.522896 0.729152 0
0.556619 0.728496 0
0.590341 0.72784 0
0.624063 0.727184 0
0.657771 0.726528 0
0.691493 0.725872 0
0.725216 0.725216 0
0.758938 0.724559 0
0.79266 0.723903 0
0.826368 0.723247 0
0.86009 0.722591 0
0.893812 0.721935 0
0.927535 0.721279 0
0.961242 0.720623 0
0.994965 0.719966 0
1 0.71931 0
0 0.772503 0
0 0.771847 0
0.0149233 0.771191 0
0.0486458 0.770535 0
0.0823682 0.769879 0
0.116075 0.769207 0
0.149798 0.768551 0
0.18352 0.767895 0
0.217243 0.767239 0
0.25095 0.766583 0
0.284672 0.765927 0
0.318395 0.76527 0
0.352117 0.764614 0
0.38584 0.763958 0
0.419547 0.763302 0
0.453269 0.762646 0
0.486992 0.76199 0
0.520714 0.761334 0
0.554437 0.760678 0
0.588144 0.760021 0
0.621866 0.759365 0
0.655589 0.758709 0
0.689311 0.758053 0
0.723033 0.757397 0
0.756741 0.756741 0
0.790463 0.756085 0
0.824186 0.755428 0
0.857908 0.754772 0
0.89163 0.754116 0
0.925338 0.75346 0
0.95906 0.752804 0
0.992782 0.752148 0
1 0.751492 0
0 0.804685 0
0 0.804028 0
0.0127413 0.803372 0
0.0464485 0.802716 0
0.0801709 0.80206 0
0.113893 0.801404 0
0.147616 0.800748 0
0.181338 0.800092 0
0.215045 0.799435 0
0.248768 0.798779 0
0.28249 0.798123 0
0.316213 0.797467 0
0.34992 0.796811 0
0.383642 0.796155 0
0.417365 0.795499 0
0.451087 0.794842 0
0.48481 0.794186 0
0.518517 0.79353 0
0.552239 0.792874 0
0.585962 0.792218 0
0.619684 0.791562 0
0.653407 0.790906 0
0.687114 0.790249 0
0.720836 0.789593 0
0.754559 0.788937 0
0.788281 0.788281 0
0.822003 0.787625 0
0.855711 0.786969 0
0.889433 0.786313 0
0.923156 0.785657 0
0.956878 0.784985 0
0.9906 0.784329 0
1 0.783673 0
0 0.836866 0
0 0.83621 0
0.010544 0.835554 0
0.0442664 0.834897 0
0.0779889 0.834241 0
0.111711 0.833585 0
0.145418 0.832929 0
0.179141 0.832273 0
0.212863 0.831617 0
0.246586 0.830961 0
0.280308 0.830304 0
0.314015 0.829648 0
0.347738 0.828992 0
0.38146 0.828336 0
0.415183 0.82768 0
0.448905 0.827024 0
0.482612 0.826368 0
0.516335 0.825711 0
0.550057 0.825055 0
0.58378 0.824399 0
0.617487 0.823743 0
0.651209 0.823087 0
0.684932 0.822431 0
0.718654 0.821775 0
0.752377 0.821118 0
0.786084 0.820462 0
0.819806 0.819806 0
0.853529 0.81915 0
0.887251 0.818494 0
0.920974 0.817838 0
0.954681 0.817182 0
0.988403 0.816526 0
1 0.815869 0
0 0.869062 0
0 0.868406 0
0.00836194 0.86775 0
0.0420844 0.867094 0
0.0757916 0.866438 0
0.109514 0.865782 0
0.143236 0.865125 0
0.176959 0.864469 0
0.210681 0.863813 0
