public/LUTS/Color Gain/Color Gain_06.cube
TITLE "Generated by Resolve"
LUT_3D_SIZE 5
0 0 0
0.36849 0 0
0.736996 0 0
1 0 0
1 0 0
0 0.294987 0
0.263493 0.263493 0
0.631998 0.231983 0
1 0.200488 0
1 0.168978 0
0 0.58999 0
0.15848 0.558495 0
0.526986 0.526986 0
0.895491 0.495491 0
1 0.463981 0
0 0.884993 0
0.0534829 0.853498 0
0.421988 0.821988 0
0.790494 0.790494 0
1 0.758984 0
0 1 0
0 1 0
0.316991 1 0
0.685496 1 0
1 1 0
0 0 0.386481
0.354986 0 0.354986
0.723491 0 0.323491
1 0 0.291981
1 0 0.260487
0 0.281483 0.281483
0.249989 0.249989 0.249989
0.618494 0.218494 0.218494
0.986999 0.186984 0.186984
1 0.155489 0.155489
0 0.576501 0.176486
0.144991 0.544991 0.144991
0.513497 0.513497 0.113481
0.882002 0.481987 0.0819867
1 0.450492 0.0504768
0 0.871504 0.0714885
0.0399786 0.839994 0.0399786
0.408484 0.808499 0.00848402
0.776989 0.776989 0
1 0.745495 0
0 1 0
0 1 0
0.303487 1 0
0.671992 1 0
1 1 0
0 0 0.772992
0.341482 0 0.741497
0.709987 0 0.709987
1 0 0.678492
1 0 0.646983
0 0.267994 0.667994
0.236484 0.236484 0.6365
0.60499 0.20499 0.60499
0.973495 0.17348 0.573495
1 0.141985 0.542
0 0.562997 0.562997
0.131487 0.531502 0.531487
0.499992 0.499992 0.499992
0.868498 0.468498 0.468498
1 0.436988 0.436988
0 0.858 0.457984
0.0264897 0.826505 0.42649
0.394995 0.794995 0.394995
0.7635 0.7635 0.363485
1 0.731991 0.331991
0 1 0.352987
0 1 0.321492
0.289982 1 0.289982
0.658488 1 0.258488
1 1 0.226993
0 0 1
0.327977 0 1
0.696483 0 1
1 0 1
1 0 1
0 0.25449 1
0.222995 0.222995 1
0.591501 0.191485 0.991501
0.960006 0.159991 0.960006
1 0.128481 0.928496
0 0.549493 0.949493
0.117983 0.517998 0.917998
0.486488 0.486488 0.886503
0.854994 0.454994 0.854994
1 0.423484 0.823499
0 0.844495 0.844495
0.0129854 0.813001 0.813001
0.381491 0.781491 0.781491
0.749996 0.749996 0.749996
1 0.718502 0.718502
0 1 0.739498
0 1 0.707988
0.276493 1 0.676493
0.644999 1 0.644999
1 1 0.613489
0 0 1
0.314488 0 1
0.682994 0 1
1 0 1
1 0 1
0 0.240986 1
0.209491 0.209491 1
0.577996 0.177996 1
0.946502 0.146487 1
1 0.114992 1
0 0.536004 1
0.104494 0.504494 1
0.472999 0.472999 1
0.841505 0.441489 1
1 0.409995 1
0 0.831006 1
0 0.799496 1
0.367987 0.768002 1
0.736492 0.736492 1
1 0.704997 1
0 1 1
0 1 1
0.262989 1 1
0.631495 1 1
1 1 1
