public/LUTS/Color Gain/Color Gain_08.cube
TITLE "Generated by Resolve"
LUT_3D_SIZE 33
0 0 0
0.0509804 0 0
0.101976 0 0
0.152972 0 0
0.203983 0 0
0.254978 0 0
0.305974 0 0
0.356985 0 0
0.40798 0 0
0.458976 0 0
0.509987 0 0
0.560983 0 0
0.611978 0 0
0.662989 0 0
0.713985 0 0
0.764981 0 0
0.815991 0 0
0.866987 0 0
0.917983 0 0
0.968994 0 0
1 0 0
1 0 0
1 0 0
1 0 0
1 0 0
1 0 0
1 0 0
1 0 0
1 0 0
1 0 0
1 0 0
1 0 0
1 0 0
0 0.0387274 0
0.0334783 0.0334783 0
0.0844892 0.0282292 0
0.135485 0.0229801 0
0.186481 0.017731 0
0.237491 0.0124819 0
0.288487 0.00723278 0
0.339483 0.00198367 0
0.390494 0 0
0.441489 0 0
0.492485 0 0
0.543496 0 0
0.594491 0 0
0.645487 0 0
0.696498 0 0
0.747494 0 0
0.798489 0 0
0.8495 0 0
0.900496 0 0
0.951492 0 0
1 0 0
1 0 0
1 0 0
1 0 0
1 0 0
1 0 0
1 0 0
1 0 0
1 0 0
1 0 0
1 0 0
1 0 0
1 0 0
0 0.0774853 0
0.0159915 0.0722362 0
0.0669871 0.0669871 0
0.117983 0.061738 0
0.168994 0.0564889 0
0.219989 0.0512398 0
0.270985 0.0459754 0
0.321996 0.0407263 0
0.372992 0.0354772 0
0.423987 0.0302281 0
0.474998 0.024979 0
0.525994 0.0197299 0
0.576989 0.0144808 0
0.628 0.00923171 0
0.678996 0.0039826 0
0.729992 0 0
0.781003 0 0
0.831998 0 0
0.882994 0 0
0.934005 0 0
0.985 0 0
1 0 0
1 0 0
1 0 0
1 0 0
1 0 0
1 0 0
1 0 0
1 0 0
1 0 0
1 0 0
1 0 0
1 0 0
0 0.116228 0
0 0.110979 0
0.049485 0.10573 0
0.100481 0.100481 0
0.151492 0.0952316 0
0.202487 0.0899825 0
0.253483 0.0847334 0
0.304494 0.0794842 0
0.355489 0.0742351 0
0.406485 0.068986 0
0.457496 0.0637369 0
0.508492 0.0584878 0
0.559487 0.0532387 0
0.610498 0.0479744 0
0.661494 0.0427253 0
0.712489 0.0374762 0
0.7635 0.0322271 0
0.814496 0.026978 0
0.865492 0.0217288 0
0.916503 0.0164797 0
0.967498 0.0112306 0
1 0.00598154 0
1 0.000732433 0
1 0 0
1 0 0
1 0 0
1 0 0
1 0 0
1 0 0
1 0 0
1 0 0
1 0 0
1 0 0
0 0.154986 0
0 0.149737 0
0.0319829 0.144488 0
0.0829786 0.139239 0
0.133989 0.133989 0
0.184985 0.12874 0
0.235981 0.123491 0
0.286992 0.118227 0
0.337987 0.112978 0
0.388983 0.107729 0
0.439994 0.10248 0
0.49099 0.0972305 0
0.541985 0.0919814 0
0.592996 0.0867323 0
0.643992 0.0814832 0
0.694987 0.0762341 0
0.745998 0.070985 0
0.796994 0.0657359 0
0.84799 0.0604868 0
0.899001 0.0552377 0
0.949996 0.0499733 0
1 0.0447242 0
1 0.0394751 0
1 0.034226 0
1 0.0289769 0
1 0.0237278 0
1 0.0184787 0
1 0.0132296 0
1 0.00798047 0
1 0.00273136 0
1 0 0
1 0 0
1 0 0
0 0.193729 0
0 0.188479 0
0.0144808 0.18323 0
0.0654917 0.177981 0
0.116487 0.172732 0
0.167483 0.167483 0
0.218494 0.162234 0
0.26949 0.156985 0
0.320485 0.151736 0
0.371496 0.146487 0
0.422492 0.141238 0
0.473487 0.135988 0
0.524498 0.130739 0
0.575494 0.12549 0
0.62649 0.120226 0
0.677501 0.114977 0
0.728496 0.109728 0
0.779492 0.104479 0
0.830503 0.0992294 0
0.881498 0.0939803 0
0.932494 0.0887312 0
0.983505 0.0834821 0
1 0.078233 0
1 0.0729839 0
1 0.0677348 0
1 0.0624857 0
1 0.0572213 0
1 0.0519722 0
1 0.0467231 0
1 0.041474 0
1 0.0362249 0
1 0.0309758 0
1 0.0257267 0
0 0.232486 0
0 0.227237 0
0 0.221988 0
0.0479896 0.216739 0
0.0989853 0.21149 0
0.149981 0.206241 0
0.200992 0.200992 0
0.251987 0.195743 0
0.302983 0.190478 0
0.353994 0.185229 0
0.40499 0.17998 0
0.455985 0.174731 0
0.506996 0.169482 0
0.557992 0.164233 0
0.608988 0.158984 0
0.659998 0.153735 0
0.710994 0.148486 0
0.76199 0.143236 0
0.813001 0.137987 0
0.863996 0.132738 0
0.914992 0.127474 0
0.966003 0.122225 0
1 0.116976 0
1 0.111727 0
1 0.106477 0
1 0.101228 0
1 0.0959793 0
1 0.0907301 0
1 0.085481 0
1 0.0802319 0
1 0.0749828 0
1 0.0697337 0
1 0.0644846 0
0 0.271229 0
0 0.265995 0
0 0.260731 0
0.0304875 0.255482 0
0.0814832 0.250233 0
0.132479 0.244984 0
0.18349 0.239734 0
0.234485 0.234485 0
0.285481 0.229236 0
0.336492 0.223987 0
0.387488 0.218738 0
0.438483 0.213489 0
0.489494 0.20824 0
0.54049 0.202991 0
0.591485 0.197726 0
0.642496 0.192477 0
0.693492 0.187228 0
0.744488 0.181979 0
0.795499 0.17673 0
0.846494 0.171481 0
0.89749 0.166232 0
0.948501 0.160983 0
0.999496 0.155734 0
1 0.150484 0
1 0.145235 0
1 0.139986 0
1 0.134737 0
1 0.129473 0
1 0.124224 0
1 0.118975 0
1 0.113725 0
1 0.108476 0
1 0.103227 0
0 0.309987 0
0 0.304738 0
0 0.299489 0
0.0129854 0.29424 0
0.0639811 0.288991 0
0.114992 0.283742 0
0.165988 0.278492 0
0.216983 0.273243 0
0.267994 0.267979 0
0.31899 0.26273 0
0.369985 0.257481 0
0.420996 0.252232 0
0.471992 0.246983 0
0.522988 0.241733 0
0.573999 0.236484 0
0.624994 0.231235 0
0.67599 0.225986 0
0.727001 0.220737 0
0.777996 0.215488 0
0.828992 0.210239 0
0.880003 0.20499 0
0.930999 0.199725 0
0.981994 0.194476 0
1 0.189227 0
1 0.183978 0
1 0.178729 0
1 0.17348 0
1 0.168231 0
1 0.162982 0
1 0.157733 0
1 0.152483 0
1 0.147234 0
1 0.141985 0
0 0.34873 0
0 0.343496 0
0 0.338231 0
0 0.332982 0
0.046479 0.327733 0
0.0974899 0.322484 0
0.148486 0.317235 0
0.199481 0.311986 0
0.250492 0.306737 0
0.301488 0.301488 0
0.352483 0.296239 0
0.403494 0.29099 0
0.45449 0.28574 0
0.505486 0.280491 0
0.556497 0.275242 0
0.607492 0.269978 0
0.658488 0.264729 0
0.709499 0.25948 0
0.760494 0.254231 0
0.81149 0.248981 0
0.862501 0.243732 0
0.913497 0.238483 0
0.964492 0.233234 0
1 0.227985 0
1 0.222736 0
1 0.217487 0
1 0.212238 0
1 0.206973 0
1 0.201724 0
1 0.196475 0
1 0.191226 0
1 0.185977 0
1 0.180728 0
0 0.387488 0
0 0.382239 0
0 0.376989 0
0 0.37174 0
0.0289769 0.366491 0
0.0799878 0.361242 0
0.130983 0.355993 0
0.181979 0.350744 0
0.23299 0.345495 0
0.283986 0.34023 0
0.334981 0.334981 0
0.385992 0.329732 0
0.436988 0.324483 0
0.487999 0.319234 0
0.538994 0.313985 0
0.58999 0.308736 0
0.641001 0.303487 0
0.691997 0.298238 0
0.742992 0.292988 0
0.794003 0.287739 0
0.844999 0.28249 0
0.895994 0.277226 0
0.947005 0.271977 0
0.998001 0.266728 0
1 0.261479 0
1 0.256229 0
1 0.25098 0
1 0.245731 0
1 0.240482 0
1 0.235233 0
1 0.229984 0
1 0.224735 0
1 0.219486 0
0 0.426246 0
0 0.420996 0
0 0.415747 0
0 0.410483 0
0.01149 0.405234 0
0.0624857 0.399985 0
0.113481 0.394736 0
0.164492 0.389487 0
0.215488 0.384237 0
0.266484 0.378988 0
0.317494 0.373739 0
0.36849 0.36849 0
0.419486 0.363241 0
0.470497 0.357992 0
0.521492 0.352743 0
0.572488 0.347478 0
0.623499 0.342229 0
0.674495 0.33698 0
0.72549 0.331731 0
0.776501 0.326482 0
0.827497 0.321233 0
0.878492 0.315984 0
0.929503 0.310735 0
0.980499 0.305486 0
1 0.300237 0
1 0.294987 0
1 0.289738 0
1 0.284489 0
1 0.279225 0
1 0.273976 0
1 0.268727 0
1 0.263478 0
1 0.258228 0
0 0.464988 0
0 0.459739 0
0 0.45449 0
0 0.449241 0
0 0.443992 0
0.0449836 0.438743 0
0.0959793 0.433494 0
0.14699 0.428244 0
0.197986 0.422995 0
0.248981 0.417731 0
0.299992 0.412482 0
0.350988 0.407233 0
0.401984 0.401984 0
0.452995 0.396735 0
0.50399 0.391485 0
0.554986 0.386236 0
0.605997 0.380987 0
0.656992 0.375738 0
0.707988 0.370489 0
0.758999 0.36524 0
0.809995 0.359991 0
0.86099 0.354742 0
0.912001 0.349477 0
0.962997 0.344228 0
1 0.338979 0
1 0.33373 0
1 0.328481 0
1 0.323232 0
1 0.317983 0
1 0.312734 0
1 0.307485 0
1 0.302235 0
1 0.296986 0
0 0.503746 0
0 0.498497 0
0 0.493248 0
0 0.487984 0
0 0.482734 0
0.0274815 0.477485 0
0.0784924 0.472236 0
0.129488 0.466987 0
0.180484 0.461738 0
0.231495 0.456489 0
0.28249 0.45124 0
0.333486 0.445991 0
0.384497 0.440742 0
0.435492 0.435492 0
0.486488 0.430243 0
0.537499 0.424994 0
0.588495 0.41973 0
0.63949 0.414481 0
0.690501 0.409232 0
0.741497 0.403983 0
0.792493 0.398733 0
0.843503 0.393484 0
0.894499 0.388235 0
0.945495 0.382986 0
0.996506 0.377737 0
1 0.372488 0
1 0.367239 0
1 0.36199 0
1 0.356725 0
1 0.351476 0
1 0.346227 0
1 0.340978 0
1 0.335729 0
0 0.542489 0
0 0.53724 0
0 0.531991 0
0 0.526741 0
0 0.521492 0
0.0099794 0.516243 0
0.0609903 0.510994 0
0.111986 0.505745 0
0.162982 0.500496 0
0.213993 0.495247 0
0.264988 0.489982 0
0.315984 0.484733 0
0.366995 0.479484 0
0.41799 0.474235 0
0.468986 0.468986 0
0.519997 0.463737 0
0.570993 0.458488 0
0.621988 0.453239 0
0.672999 0.44799 0
0.723995 0.442741 0
0.77499 0.437491 0
0.826001 0.432242 0
0.876997 0.426978 0
0.927993 0.421729 0
0.979004 0.41648 0
1 0.411231 0
1 0.405982 0
1 0.400732 0
1 0.395483 0
1 0.390234 0
1 0.384985 0
1 0.379736 0
1 0.374487 0
0 0.581247 0
0 0.575998 0
0 0.570748 0
0 0.565499 0
0 0.560235 0
0 0.554986 0
0.0434882 0.549737 0
0.0944839 0.544488 0
0.14548 0.539239 0
0.19649 0.533989 0
0.247486 0.52874 0
0.298482 0.523491 0
0.349493 0.518242 0
0.400488 0.512993 0
0.451484 0.507744 0
0.502495 0.502495 0
0.553491 0.49723 0
0.604486 0.491981 0
0.655497 0.486732 0
0.706493 0.481483 0
0.757488 0.476234 0
0.808499 0.470985 0
0.859495 0.465736 0
0.910491 0.460487 0
0.961501 0.455238 0
1 0.449989 0
1 0.444739 0
1 0.43949 0
1 0.434241 0
1 0.428977 0
1 0.423728 0
1 0.418479 0
1 0.41323 0
0 0.619989 0
0 0.61474 0
0 0.609491 0
0 0.604242 0
0 0.598993 0
0 0.593744 0
0.0259861 0.588495 0
0.0769818 0.583246 0
0.127993 0.577996 0
0.178988 0.572747 0
0.229984 0.567483 0
0.280995 0.562234 0
0.331991 0.556985 0
0.382986 0.551736 0
0.433997 0.546487 0
0.484993 0.541238 0
0.535988 0.535988 0
0.586999 0.530739 0
0.637995 0.52549 0
0.688991 0.520241 0
0.740001 0.514992 0
0.790997 0.509743 0
0.841993 0.504494 0
0.893004 0.499229 0
0.943999 0.49398 0
0.994995 0.488731 0
1 0.483482 0
1 0.478233 0
1 0.472984 0
1 0.467735 0
1 0.462486 0
1 0.457237 0
1 0.451987 0
0 0.658747 0
0 0.653498 0
0 0.648249 0
0 0.643 0
0 0.637736 0
0 0.632486 0
0.00848402 0.627237 0
0.0594797 0.621988 0
0.110491 0.616739 0
0.161486 0.61149 0
0.212482 0.606241 0
0.263493 0.600992 0
0.314488 0.595743 0
0.365484 0.590494 0
0.416495 0.585245 0
0.467491 0.579995 0
0.518486 0.574746 0
0.569497 0.569482 0
0.620493 0.564233 0
0.671489 0.558984 0
0.722499 0.553735 0
0.773495 0.548486 0
0.824491 0.543236 0
0.875502 0.537987 0
0.926497 0.532738 0
0.977493 0.527489 0
1 0.52224 0
1 0.516991 0
1 0.511742 0
1 0.506477 0
1 0.501228 0
1 0.495979 0
1 0.49073 0
0 0.69749 0
0 0.692241 0
0 0.686992 0
0 0.681743 0
0 0.676493 0
0 0.671244 0
0 0.665995 0
0.0419776 0.660746 0
0.0929885 0.655497 0
0.143984 0.650248 0
0.19498 0.644999 0
0.245991 0.639735 0
0.296986 0.634485 0
0.347982 0.629236 0
0.398993 0.623987 0
0.449989 0.618738 0
0.500984 0.613489 0
0.551995 0.60824 0
0.602991 0.602991 0
0.653986 0.597742 0
0.704997 0.592493 0
0.755993 0.587243 0
0.806989 0.581994 0
0.858 0.57673 0
0.908995 0.571481 0
0.959991 0.566232 0
1 0.560983 0
1 0.555734 0
1 0.550484 0
1 0.545235 0
1 0.539986 0
1 0.534737 0
1 0.529488 0
0 0.736248 0
0 0.730999 0
0 0.72575 0
0 0.7205 0
0 0.715251 0
0 0.709987 0
0 0.704738 0
0.0244907 0.699489 0
0.0754864 0.69424 0
0.126482 0.688991 0
0.177493 0.683742 0
0.228489 0.678492 0
0.279484 0.673243 0
0.330495 0.667994 0
0.381491 0.662745 0
0.432486 0.657496 0
0.483497 0.652247 0
0.534493 0.646983 0
0.585489 0.641733 0
0.6365 0.636484 0
0.687495 0.631235 0
0.738491 0.625986 0
0.789502 0.620737 0
0.840497 0.615488 0
0.891493 0.610239 0
0.942504 0.60499 0
0.9935 0.599741 0
1 0.594491 0
1 0.589242 0
1 0.583993 0
1 0.578729 0
1 0.57348 0
1 0.568231 0
0 0.77499 0
0 0.769741 0
0 0.764492 0
0 0.759243 0
0 0.753994 0
0 0.748745 0
0 0.743496 0
0.00698863 0.738247 0
0.0579843 0.732998 0
0.10898 0.727749 0
0.159991 0.722499 0
0.210986 0.717235 0
0.261982 0.711986 0
0.312993 0.706737 0
0.363989 0.701488 0
0.414984 0.696239 0
0.465995 0.69099 0
0.516991 0.68574 0
0.567987 0.680491 0
0.618997 0.675242 0
0.669993 0.669993 0
0.720989 0.664744 0
0.772 0.659495 0
0.822995 0.654246 0
0.873991 0.648981 0
0.925002 0.643732 0
0.975998 0.638483 0
1 0.633234 0
1 0.627985 0
1 0.622736 0
1 0.617487 0
1 0.612238 0
1 0.606989 0
0 0.813748 0
0 0.808499 0
0 0.80325 0
0 0.798001 0
0 0.792752 0
0 0.787488 0
0 0.782238 0
0 0.776989 0
0.0404822 0.77174 0
0.0914778 0.766491 0
0.142489 0.761242 0
0.193484 0.755993 0
0.24448 0.750744 0
0.295491 0.745495 0
0.346487 0.740246 0
0.397482 0.734997 0
0.448493 0.729747 0
0.499489 0.724498 0
0.5505 0.719234 0
0.601495 0.713985 0
0.652491 0.708736 0
0.703502 0.703487 0
0.754498 0.698238 0
0.805493 0.692988 0
0.856504 0.687739 0
0.9075 0.68249 0
0.958495 0.677241 0
1 0.671992 0
1 0.666743 0
1 0.661494 0
1 0.656245 0
1 0.65098 0
1 0.645731 0
0 0.852491 0
0 0.847242 0
0 0.841993 0
0 0.836744 0
0 0.831495 0
0 0.826246 0
0 0.820996 0
0 0.815747 0
0.0229801 0.810498 0
0.073991 0.805249 0
0.124987 0.8 0
0.175982 0.794751 0
0.226993 0.789487 0
0.277989 0.784237 0
0.328984 0.778988 0
0.379995 0.773739 0
0.430991 0.76849 0
0.481987 0.763241 0
0.532998 0.757992 0
0.583993 0.752743 0
0.634989 0.747494 0
0.686 0.742245 0
0.736996 0.736996 0
0.787991 0.731746 0
0.839002 0.726482 0
0.889998 0.721233 0
0.940993 0.715984 0
0.992004 0.710735 0
1 0.705486 0
1 0.700236 0
1 0.694987 0
1 0.689738 0
1 0.684489 0
0 0.891249 0
0 0.886 0
0 0.880751 0
0 0.875502 0
0 0.870253 0
0 0.865003 0
0 0.859739 0
0 0.85449 0
0.00547799 0.849241 0
0.0564889 0.843992 0
0.107485 0.838743 0
0.15848 0.833494 0
0.209491 0.828244 0
0.260487 0.822995 0
0.311482 0.817746 0
0.362493 0.812497 0
0.413489 0.807248 0
0.464485 0.801999 0
0.515496 0.79675 0
0.566491 0.791485 0
0.617487 0.786236 0
0.668498 0.780987 0
0.719493 0.775738 0
0.770489 0.770489 0
0.8215 0.76524 0
0.872496 0.759991 0
0.923491 0.754742 0
0.974502 0.749493 0
1 0.744244 0
1 0.738994 0
1 0.733745 0
1 0.728481 0
1 0.723232 0
0 0.929992 0
0 0.924743 0
0 0.919493 0
0 0.914244 0
0 0.908995 0
0 0.903746 0
0 0.898497 0
0 0.893248 0
0 0.887999 0
0.0389868 0.88275 0
0.0899825 0.877501 0
0.140993 0.872251 0
0.191989 0.867002 0
0.242985 0.861738 0
0.293996 0.856489 0
0.344991 0.85124 0
0.395987 0.845991 0
0.446998 0.840742 0
0.497993 0.835492 0
0.548989 0.830243 0
0.6 0.824994 0
0.650996 0.819745 0
0.701991 0.814496 0
0.753002 0.809247 0
0.803998 0.803998 0
0.854994 0.798733 0
0.906004 0.793484 0
0.957 0.788235 0
1 0.782986 0
1 0.777737 0
1 0.772488 0
1 0.767239 0
1 0.76199 0
0 0.96875 0
0 0.9635 0
0 0.958251 0
0 0.953002 0
0 0.947753 0
0 0.942504 0
0 0.937255 0
0 0.931991 0
0 0.926741 0
0.0214847 0.921492 0
0.0724804 0.916243 0
0.123491 0.910994 0
0.174487 0.905745 0
0.225483 0.900496 0
0.276493 0.895247 0
0.327489 0.889998 0
0.378485 0.884749 0
0.429496 0.879499 0
0.480491 0.87425 0
0.531487 0.868986 0
0.582498 0.863737 0
0.633494 0.858488 0
0.684489 0.853239 0
0.7355 0.84799 0
0.786496 0.842741 0
0.837491 0.837491 0
0.888502 0.832242 0
0.939498 0.826993 0
0.990494 0.821744 0
1 0.816495 0
1 0.811246 0
1 0.805997 0
1 0.800732 0
0 1 0
0 1 0
0 0.996994 0
0 0.991745 0
0 0.986496 0
0 0.981247 0
0 0.975998 0
0 0.970748 0
0 0.965499 0
0.0039826 0.96025 0
0.0549783 0.955001 0
0.105989 0.949752 0
0.156985 0.944503 0
0.20798 0.939239 0
0.258991 0.933989 0
0.309987 0.92874 0
0.360983 0.923491 0
0.411994 0.918242 0
0.462989 0.912993 0
0.513985 0.907744 0
0.564996 0.902495 0
0.615991 0.897246 0
0.666987 0.891997 0
0.717998 0.886748 0
0.768994 0.881498 0
0.819989 0.876249 0
0.871 0.870985 0
0.921996 0.865736 0
0.972992 0.860487 0
1 0.855238 0
1 0.849989 0
1 0.844739 0
1 0.83949 0
0 1 0
0 1 0
0 1 0
0 1 0
0 1 0
0 1 0
0 1 0
0 1 0
0 1 0
