public/LUTS/Color Gain/Color Gain_06.cube
TITLE "Generated by Resolve"
LUT_3D_SIZE 9
0 0 0
0.184237 0 0
0.36849 0 0
0.552743 0 0
0.736996 0 0
0.921248 0 0
1 0 0
1 0 0
1 0 0
0 0.147478 0
0.131731 0.131731 0
0.315984 0.115984 0
0.500237 0.100237 0
0.684489 0.0844892 0
0.868742 0.0687266 0
1 0.0529793 0
1 0.037232 0
1 0.0214847 0
0 0.294987 0
0.0792401 0.27924 0
0.263493 0.263493 0
0.447745 0.24773 0
0.631998 0.231983 0
0.816251 0.216236 0
1 0.200488 0
1 0.184726 0
1 0.168978 0
0 0.442496 0
0.0267338 0.426734 0
0.210986 0.410986 0
0.395239 0.395239 0
0.579492 0.379492 0
0.763745 0.363729 0
0.947997 0.347982 0
1 0.332235 0
1 0.316487 0
0 0.58999 0
0 0.574243 0
0.15848 0.558495 0
0.342733 0.542733 0
0.526986 0.526986 0
0.711238 0.511238 0
0.895491 0.495491 0
1 0.479728 0
1 0.463981 0
0 0.737499 0
0 0.721752 0
0.105989 0.705989 0
0.290242 0.690242 0
0.474495 0.674495 0
0.658747 0.658747 0
0.843 0.642985 0
1 0.627237 0
1 0.61149 0
0 0.884993 0
0 0.869245 0
0.0534829 0.853498 0
0.237736 0.837751 0
0.421988 0.821988 0
0.606241 0.806241 0
0.790494 0.790494 0
0.974746 0.774746 0
1 0.758984 0
0 1 0
0 1 0
0.000976577 1 0
0.185229 0.985245 0
0.369497 0.969497 0
0.55375 0.95375 0
0.738003 0.937987 0
0.922255 0.92224 0
1 0.906493 0
0 1 0
0 1 0
0 1 0
0.132738 1 0
0.316991 1 0
0.501244 1 0
0.685496 1 0
0.869749 1 0
1 1 0
0 0 0.193225
0.177478 0 0.177478
0.36173 0 0.16173
0.545983 0 0.145983
0.730236 0 0.130236
0.914488 0 0.114473
1 0 0.0987259
1 0 0.0829786
1 0 0.0672313
0 0.140734 0.140734
0.124987 0.124987 0.124987
0.309239 0.109239 0.109239
0.493492 0.093492 0.093492
0.677745 0.0777295 0.0777295
0.861997 0.0619821 0.0619821
1 0.0462348 0.0462348
1 0.0304875 0.0304875
1 0.014725 0.0147402
0 0.288243 0.0882277
0.0724804 0.272496 0.0724804
0.256733 0.256733 0.056733
0.440986 0.240986 0.0409857
0.625238 0.225238 0.0252384
0.809491 0.209491 0.00949111
0.993744 0.193729 0
1 0.177981 0
1 0.162234 0
0 0.435737 0.0357366
0.0199893 0.419989 0.0199893
0.204242 0.404242 0.00422675
0.388495 0.388495 0
0.572747 0.372732 0
0.757 0.356985 0
0.941253 0.341238 0
1 0.32549 0
1 0.309728 0
0 0.583246 0
0 0.567498 0
0.151736 0.551736 0
0.335988 0.535988 0
0.520241 0.520241 0
0.704494 0.504494 0
0.888747 0.488731 0
1 0.472984 0
1 0.457237 0
0 0.730739 0
0 0.714992 0
0.0992294 0.699245 0
0.283482 0.683497 0
0.467735 0.66775 0
0.651987 0.651987 0
0.83624 0.63624 0
1 0.620493 0
1 0.604746 0
0 0.878248 0
0 0.862501 0
0.0467384 0.846754 0
0.230991 0.830991 0
0.415244 0.815244 0
0.599496 0.799496 0
0.783749 0.783749 0
0.968002 0.767987 0
1 0.752239 0
0 1 0
0 1 0
0 0.994247 0
0.178485 0.9785 0
0.362737 0.962753 0
0.54699 0.94699 0
0.731243 0.931243 0
0.915496 0.915496 0
1 0.899748 0
0 1 0
0 1 0
0 1 0
0.125994 1 0
0.310246 1 0
0.494499 1 0
0.678752 1 0
0.863005 1 0
1 1 0
0 0 0.386481
0.170733 0 0.370733
0.354986 0 0.354986
0.539239 0 0.339239
0.723491 0 0.323491
0.907744 0 0.307729
1 0 0.291981
1 0 0.276234
1 0 0.260487
0 0.133989 0.333989
0.118242 0.118242 0.318242
0.302495 0.10248 0.302495
0.486748 0.0867323 0.286732
0.671 0.070985 0.270985
0.855253 0.0552377 0.255238
1 0.0394751 0.23949
1 0.0237278 0.223743
1 0.00798047 0.20798
0 0.281483 0.281483
0.0657359 0.265736 0.265736
0.249989 0.249989 0.249989
0.434241 0.234241 0.234241
0.618494 0.218494 0.218494
0.802747 0.202731 0.202731
0.986999 0.186984 0.186984
1 0.171237 0.171237
1 0.155489 0.155489
0 0.428992 0.228992
0.0132296 0.413245 0.213245
0.197482 0.397498 0.197482
0.381735 0.381735 0.181735
0.565988 0.365988 0.165988
0.75024 0.35024 0.15024
0.934493 0.334493 0.134493
1 0.31873 0.11873
1 0.302983 0.102983
0 0.576501 0.176486
0 0.560739 0.160739
0.144991 0.544991 0.144991
0.329244 0.529244 0.129229
0.513497 0.513497 0.113481
0.697749 0.497734 0.097734
0.882002 0.481987 0.0819867
1 0.466239 0.0662394
1 0.450492 0.0504768
0 0.723995 0.12398
0 0.708247 0.108232
0.0924849 0.6925 0.0924849
0.276738 0.676738 0.0767376
0.46099 0.66099 0.0609903
0.645243 0.645243 0.0452277
0.829496 0.629496 0.0294804
1 0.613733 0.0137331
1 0.597986 0
0 0.871504 0.0714885
0 0.855756 0.0557412
0.0399786 0.839994 0.0399786
0.224231 0.824247 0.0242313
0.408484 0.808499 0.00848402
0.592737 0.792752 0
0.776989 0.776989 0
0.961242 0.761242 0
1 0.745495 0
0 1 0.0189822
0 1 0.00323491
0 0.987503 0
0.17174 0.971756 0
0.355993 0.955993 0
0.540246 0.940246 0
0.724498 0.924498 0
0.908751 0.908751 0
1 0.892989 0
0 1 0
0 1 0
0 1 0
0.119234 1 0
0.303487 1 0
0.487739 1 0
0.671992 1 0
0.856245 1 0
1 1 0
0 0 0.579736
0.163973 0 0.563989
0.348226 0 0.548241
0.532494 0 0.532494
0.716747 0 0.516732
0.900999 0 0.500984
1 0 0.485237
1 0 0.46949
1 0 0.453742
0 0.12723 0.527245
0.111482 0.111482 0.511498
0.295735 0.0957351 0.49575
0.479988 0.0799878 0.479988
0.66424 0.0642405 0.46424
0.848493 0.0484779 0.448493
1 0.0327306 0.432746
1 0.0169833 0.416999
1 0.00123598 0.401236
0 0.274739 0.474739
0.0589914 0.258991 0.458991
0.243244 0.243244 0.443244
0.427497 0.227481 0.427497
0.611749 0.211734 0.411734
0.796002 0.195987 0.395987
0.980255 0.18024 0.38024
1 0.164477 0.364492
1 0.14873 0.348745
0 0.422248 0.422232
0.00648508 0.4065 0.406485
0.190738 0.390738 0.390738
0.37499 0.37499 0.37499
0.559243 0.359243 0.359243
0.743496 0.343496 0.343496
0.927749 0.327733 0.327733
1 0.311986 0.311986
1 0.296239 0.296239
0 0.569741 0.369741
0 0.553994 0.353994
0.138231 0.538247 0.338247
0.322484 0.522499 0.322484
0.506737 0.506737 0.306737
0.69099 0.49099 0.29099
0.875242 0.475242 0.275242
1 0.459495 0.259495
1 0.443732 0.243732
0 0.71725 0.317235
0 0.701503 0.301488
0.0857404 0.68574 0.28574
0.269993 0.669993 0.269993
0.454246 0.654246 0.254231
0.638498 0.638498 0.238483
0.822751 0.622736 0.222736
1 0.606989 0.206989
1 0.591241 0.191241
0 0.864744 0.264729
0 0.848997 0.248981
0.0332341 0.833249 0.233234
0.217487 0.817502 0.217487
0.40174 0.80174 0.20174
0.585992 0.785992 0.185992
0.770245 0.770245 0.17023
0.954498 0.754498 0.154482
1 0.738735 0.138735
0 1 0.212238
0 0.996506 0.19649
0 0.980758 0.180743
0.164981 0.964996 0.164981
0.349233 0.949248 0.149233
0.533486 0.933501 0.133486
0.717739 0.917754 0.117739
0.901991 0.901991 0.101991
1 0.886244 0.0862287
0 1 0.159731
0 1 0.143984
0 1 0.128237
0.11249 1 0.11249
0.296742 1 0.0967269
0.480995 1 0.0809796
0.665248 1 0.0652323
0.8495 1 0.049485
1 1 0.0337377
0 0 0.772992
0.157229 0 0.757244
0.341482 0 0.741497
0.525734 0 0.725734
0.709987 0 0.709987
0.89424 0 0.69424
1 0 0.678492
1 0 0.662745
1 0 0.646983
0 0.120485 0.7205
0.104738 0.104738 0.704753
0.288991 0.0889906 0.688991
0.473243 0.0732433 0.673243
0.657496 0.0574807 0.657496
0.841749 0.0417334 0.641749
1 0.0259861 0.626001
1 0.0102388 0.610239
1 0 0.594491
0 0.267994 0.667994
0.0522316 0.252247 0.652247
0.236484 0.236484 0.6365
0.420737 0.220737 0.620752
0.60499 0.20499 0.60499
0.789242 0.189242 0.589242
0.973495 0.17348 0.573495
1 0.157733 0.557748
1 0.141985 0.542
0 0.415488 0.615488
0 0.399741 0.599741
0.183993 0.383993 0.583993
0.368246 0.368246 0.568246
0.552499 0.352483 0.552499
0.736751 0.336736 0.536736
0.921004 0.320989 0.520989
1 0.305241 0.505241
1 0.289479 0.489494
0 0.562997 0.562997
0 0.54725 0.54725
0.131487 0.531502 0.531487
0.31574 0.51574 0.51574
0.499992 0.499992 0.499992
0.684245 0.484245 0.484245
0.868498 0.468498 0.468498
1 0.452735 0.452735
1 0.436988 0.436988
0 0.710491 0.510491
0 0.694743 0.494743
0.0789807 0.678996 0.478996
0.263233 0.663249 0.463249
0.447486 0.647501 0.447486
0.631739 0.631739 0.431739
0.815991 0.615991 0.415991
1 0.600244 0.400244
1 0.584497 0.384497
0 0.858 0.457984
0 0.842252 0.442237
0.0264897 0.826505 0.42649
0.210742 0.810742 0.410742
0.394995 0.794995 0.394995
0.579248 0.779248 0.379232
0.7635 0.7635 0.363485
0.947753 0.747738 0.347738
1 0.731991 0.331991
0 1 0.405493
0 0.989746 0.389746
0 0.973999 0.373983
0.158236 0.958251 0.358236
0.342489 0.942504 0.342489
0.526741 0.926741 0.326741
0.710994 0.910994 0.310994
0.895247 0.895247 0.295232
1 0.879499 0.279484
0 1 0.352987
0 1 0.33724
0 1 0.321492
0.10573 1 0.305745
0.289982 1 0.289982
0.474235 1 0.274235
0.658488 1 0.258488
0.842741 1 0.242741
1 1 0.226993
0 0 0.966247
0.150484 0 0.9505
0.334737 0 0.934752
0.51899 0 0.91899
0.703243 0 0.903243
0.887495 0 0.887495
1 0 0.871748
1 0 0.856001
1 0 0.840238
0 0.113741 0.913756
0.0979934 0.0979934 0.897993
0.282246 0.0822309 0.882246
0.466499 0.0664836 0.866499
0.650752 0.0507362 0.850752
0.835004 0.0349889 0.835004
1 0.0192264 0.819242
1 0.00347906 0.803494
1 0 0.787747
0 0.261234 0.86125
0.0454871 0.245487 0.845502
0.22974 0.22974 0.829755
0.413993 0.213993 0.813993
0.598245 0.198245 0.798245
0.782498 0.182483 0.782498
0.966751 0.166735 0.766751
1 0.150988 0.751003
1 0.135241 0.735241
0 0.408743 0.808743
0 0.392996 0.792996
0.177234 0.377249 0.777249
0.361486 0.361486 0.761501
0.545739 0.345739 0.745754
0.729992 0.329992 0.729992
0.914244 0.314244 0.714244
1 0.298482 0.698497
1 0.282734 0.68275
0 0.556252 0.756252
0 0.54049 0.74049
0.124743 0.524742 0.724743
0.308995 0.508995 0.708995
0.493248 0.493248 0.693248
0.677501 0.477485 0.677501
0.861753 0.461738 0.661738
1 0.445991 0.645991
1 0.430243 0.630243
0 0.703746 0.703746
0 0.687999 0.687999
0.0722362 0.672251 0.672251
0.256489 0.656489 0.656489
0.440742 0.640742 0.640742
0.624994 0.624994 0.624994
0.809247 0.609247 0.609247
0.9935 0.5935 0.5935
1 0.577737 0.577737
0 0.851255 0.65124
0 0.835508 0.635493
0.0197299 0.819745 0.619745
0.203983 0.803998 0.603998
0.388235 0.788251 0.588251
0.572488 0.772503 0.572488
0.756741 0.756741 0.556741
0.940993 0.740993 0.540993
1 0.725246 0.525246
0 0.998749 0.598749
0 0.983001 0.582986
0 0.967254 0.567239
0.151492 0.951507 0.551492
0.335744 0.935744 0.535744
0.519997 0.919997 0.519997
0.70425 0.90425 0.504234
0.888502 0.888502 0.488487
1 0.87274 0.47274
0 1 0.546242
0 1 0.530495
0 1 0.514748
0.0989853 1 0.498985
0.283238 1 0.483238
0.467491 1 0.467491
0.651743 1 0.451743
0.835996 1 0.435996
1 1 0.420233
0 0 1
0.143725 0 1
0.327977 0 1
0.51223 0 1
0.696483 0 1
0.880735 0 1
1 0 1
1 0 1
1 0 1
0 0.106996 1
0.0912337 0.0912337 1
0.275486 0.0754864 1
0.459739 0.0597391 1
0.643992 0.0439918 1
0.828244 0.0282292 1
1 0.0124819 1
1 0 0.99675
1 0 0.981003
0 0.25449 1
0.0387427 0.238743 1
0.222995 0.222995 1
0.407248 0.207233 1
0.591501 0.191485 0.991501
0.775753 0.175738 0.975753
0.960006 0.159991 0.960006
1 0.144228 0.944244
1 0.128481 0.928496
0 0.401999 1
0 0.386252 0.986252
0.170489 0.370489 0.970504
0.354742 0.354742 0.954757
0.538994 0.338994 0.938994
0.723247 0.323247 0.923247
0.9075 0.307485 0.9075
1 0.291737 0.891752
1 0.27599 0.876005
0 0.549493 0.949493
0 0.533745 0.933745
0.117983 0.517998 0.917998
0.302235 0.502251 0.902251
0.486488 0.486488 0.886503
0.670741 0.470741 0.870756
0.854994 0.454994 0.854994
1 0.439246 0.839246
1 0.423484 0.823499
0 0.697002 0.897002
0 0.681254 0.881254
0.0654917 0.665492 0.865492
0.249744 0.649744 0.849744
0.433997 0.633997 0.833997
0.61825 0.61825 0.81825
0.802502 0.602487 0.802502
0.986755 0.58674 0.78674
1 0.570993 0.770993
0 0.844495 0.844495
0 0.828748 0.828748
0.0129854 0.813001 0.813001
0.197238 0.797253 0.797253
0.381491 0.781491 0.781491
0.565744 0.765743 0.765743
0.749996 0.749996 0.749996
0.934249 0.734249 0.734249
1 0.718502 0.718502
0 0.992004 0.791989
0 0.976257 0.776242
0 0.96051 0.760494
0.144732 0.944747 0.744747
0.328984 0.929 0.729
0.513237 0.913252 0.713252
0.69749 0.897505 0.69749
0.881743 0.881743 0.681743
1 0.865995 0.665995
0 1 0.739498
0 1 0.723751
0 1 0.707988
0.0922408 1 0.692241
0.276493 1 0.676493
0.460746 1 0.660746
0.644999 1 0.644999
0.829252 1 0.629236
1 1 0.613489
0 0 1
0.13698 0 1
0.321233 0 1
0.505486 0 1
0.689738 0 1
0.873991 0 1
1 0 1
1 0 1
1 0 1
0 0.100237 1
0.0844892 0.0844892 1
0.268742 0.0687419 1
0.452995 0.0529946 1
0.637247 0.037232 1
0.8215 0.0214847 1
1 0.00573739 1
1 0 1
1 0 1
0 0.247745 1
0.0319829 0.231998 1
0.216236 0.216236 1
0.400488 0.200488 1
0.584741 0.184741 1
0.768994 0.168994 1
0.953246 0.153231 1
1 0.137484 1
1 0.121736 1
0 0.395239 1
0 0.379492 1
0.163745 0.363745 1
0.347997 0.347997 1
0.53225 0.332235 1
0.716503 0.316487 1
0.900755 0.30074 1
1 0.284993 1
1 0.26923 1
0 0.542748 1
0 0.527001 1
0.111238 0.511254 1
0.295491 0.495491 1
0.479744 0.479744 1
0.663996 0.463996 1
0.848249 0.448249 1
1 0.432486 1
1 0.416739 1
0 0.690242 1
0 0.674495 1
0.058732 0.658747 1
0.242985 0.643 1
0.427237 0.627253 1
0.61149 0.61149 1
0.795743 0.595743 0.995758
0.979995 0.579995 0.979995
1 0.564248 0.964248
0 0.837751 1
0 0.822003 1
0.00624094 0.806256 1
0.190494 0.790494 0.990494
0.374746 0.774746 0.974746
0.558999 0.758999 0.958999
0.743252 0.743252 0.943252
0.927504 0.727489 0.927504
1 0.711742 0.911742
0 0.98526 0.985245
0 0.969497 0.969497
0 0.95375 0.95375
0.137987 0.938003 0.938003
0.32224 0.922255 0.922255
0.506493 0.906493 0.906493
0.690745 0.890745 0.890745
0.874998 0.874998 0.874998
1 0.859251 0.859251
0 1 0.932754
0 1 0.917006
0 1 0.901244
0.085481 1 0.885496
0.269734 1 0.869749
0.453986 1 0.854002
0.638239 1 0.838254
0.822492 1 0.822492
1 1 0.806745
0 0 1
0.130236 0 1
0.314488 0 1
0.498741 0 1
0.682994 0 1
0.867247 0 1
1 0 1
1 0 1
1 0 1
0 0.093492 1
0.0777295 0.0777447 1
0.261982 0.0619974 1
0.446235 0.0462348 1
0.630488 0.0304875 1
0.81474 0.0147402 1
0.998993 0 1
1 0 1
1 0 1
0 0.240986 1
0.0252384 0.225238 1
0.209491 0.209491 1
0.393744 0.193744 1
0.577996 0.177996 1
0.762249 0.162234 1
0.946502 0.146487 1
1 0.130739 1
1 0.114992 1
0 0.388495 1
0 0.372747 1
0.156985 0.357 1
0.341238 0.341238 1
0.52549 0.32549 1
0.709743 0.309743 1
0.893996 0.293996 1
1 0.278233 1
1 0.262486 1
0 0.536004 1
0 0.520241 1
0.104494 0.504494 1
0.288746 0.488746 1
0.472999 0.472999 1
0.657252 0.457237 1
0.841505 0.441489 1
1 0.425742 1
1 0.409995 1
0 0.683497 1
0 0.66775 1
0.0519875 0.652003 1
0.23624 0.636255 1
0.420493 0.620493 1
0.604746 0.604746 1
0.788998 0.588998 1
0.973251 0.573251 1
1 0.557488 1
0 0.831006 1
0 0.815259 1
0 0.799496 1
0.183734 0.783749 1
0.367987 0.768002 1
0.552239 0.752255 1
0.736492 0.736492 1
0.920745 0.720745 1
1 0.704997 1
0 0.9785 1
0 0.962753 1
0 0.947005 1
0.131243 0.931258 1
0.315496 0.915496 1
0.499748 0.899748 1
0.684001 0.884001 1
0.868254 0.868254 1
1 0.852491 1
0 1 1
0 1 1
0 1 1
0.0787366 1 1
0.262989 1 1
0.447242 1 1
0.631495 1 1
0.815747 1 1
1 1 1
