public/LUTS/Color Gain/Color Gain_03.cube
TITLE "Generated by Resolve"
LUT_3D_SIZE 9
0 0 0
0.154604 0 0
0.309239 0 0
0.463859 0 0
0.618494 0 0
0.773114 0 0
0.927749 0 0
1 0 0
1 0 0
0 0.136233 0
0.128359 0.128359 0
0.282994 0.120485 0
0.437613 0.112612 0
0.592248 0.104738 0
0.746868 0.0968643 0
0.901503 0.0889754 0
1 0.0811017 0
1 0.073228 0
0 0.27248 0
0.102113 0.264607 0
0.256733 0.256733 0
0.411368 0.248859 0
0.565988 0.240986 0
0.720623 0.233112 0
0.875242 0.225238 0
1 0.217365 0
1 0.209476 0
0 0.408743 0
0.0758679 0.40087 0
0.230488 0.392996 0
0.385122 0.385107 0
0.539742 0.377234 0
0.694377 0.36936 0
0.848997 0.361486 0
1 0.353613 0
1 0.345739 0
0 0.544991 0
0.0496071 0.537118 0
0.204242 0.529244 0
0.358862 0.52137 0
0.513497 0.513497 0
0.668116 0.505608 0
0.822751 0.497734 0
0.977371 0.48986 0
1 0.481987 0
0 0.681239 0
0.0233616 0.673365 0
0.177981 0.665492 0
0.332616 0.657618 0
0.487236 0.649744 0
0.641871 0.641871 0
0.79649 0.633997 0
0.951125 0.626108 0
1 0.618235 0
0 0.817502 0
0 0.809628 0
0.151736 0.80174 0
0.306371 0.793866 0
0.46099 0.785992 0
0.615625 0.778119 0
0.770245 0.770245 0
0.92488 0.762371 0
1 0.754498 0
0 0.95375 0
0 0.945876 0
0.12549 0.938003 0
0.28011 0.930129 0
0.434745 0.92224 0
0.589364 0.914366 0
0.743999 0.906493 0
0.898619 0.898619 0
1 0.890745 0
0 1 0
0 1 0
0.0992294 1 0
0.253864 1 0
0.408484 1 0
0.563119 1 0
0.717739 1 0
0.872374 1 0
1 1 0
0 0 0.159106
0.151232 0 0.151232
0.305867 0 0.143359
0.460487 0 0.135485
0.615122 0 0.127611
0.769741 0 0.119738
0.924376 0 0.111864
1 0 0.10399
1 0 0.0961013
0 0.13286 0.13286
0.124987 0.124987 0.124987
0.279622 0.117113 0.117113
0.434241 0.109239 0.109239
0.588876 0.101366 0.101366
0.743496 0.0934768 0.093492
0.898131 0.0856031 0.0856031
1 0.0777295 0.0777295
1 0.0698558 0.0698558
0 0.269108 0.106615
0.0987411 0.261234 0.0987411
0.253361 0.253361 0.0908675
0.407996 0.245487 0.0829786
0.562615 0.237613 0.0751049
0.71725 0.22974 0.0672313
0.87187 0.221866 0.0593576
1 0.213977 0.0514839
1 0.206104 0.0436103
0 0.405371 0.080354
0.0724804 0.397498 0.0724804
0.227115 0.389609 0.0646067
0.381735 0.381735 0.056733
0.53637 0.373861 0.0488594
0.69099 0.365988 0.0409857
0.845624 0.358114 0.0331121
1 0.35024 0.0252384
1 0.342367 0.0173648
0 0.541619 0.0541085
0.0462348 0.533745 0.0462348
0.20087 0.525872 0.0383612
0.355489 0.517998 0.0304875
0.510124 0.510109 0.0226139
0.664744 0.502235 0.0147402
0.819379 0.494362 0.0068513
0.973999 0.486488 0
1 0.478614 0
0 0.677867 0.027863
0.0199893 0.669993 0.0199893
0.174609 0.66212 0.0121157
0.329244 0.654246 0.00422675
0.483864 0.646372 0
0.638498 0.638498 0
0.793118 0.63061 0
0.947753 0.622736 0
1 0.614862 0
0 0.81413 0.0016022
0 0.806241 0
0.148363 0.798367 0
0.302983 0.790494 0
0.457618 0.78262 0
0.612238 0.774746 0
0.766873 0.766873 0
0.921492 0.758999 0
1 0.75111 0
0 0.950378 0
0 0.942504 0
0.122118 0.93463 0
0.276738 0.926741 0
0.431373 0.918868 0
0.585992 0.910994 0
0.740627 0.90312 0
0.895247 0.895247 0
1 0.887373 0
0 1 0
0 1 0
0.0958572 1 0
0.250492 1 0
0.405112 1 0
0.559747 1 0
0.714366 1 0
0.869001 1 0
1 1 0
0 0 0.318242
0.14786 0 0.310369
0.30248 0 0.30248
0.457115 0 0.294606
0.611734 0 0.286732
0.766369 0 0.278859
0.920989 0 0.270985
1 0 0.263111
1 0 0.255238
0 0.129488 0.291981
0.121614 0.121614 0.284108
0.276234 0.113741 0.276234
0.430869 0.105867 0.26836
0.585489 0.0979782 0.260487
0.740124 0.0901045 0.252613
0.894743 0.0822309 0.244739
1 0.0743572 0.236866
1 0.0664836 0.228992
0 0.265736 0.265736
0.0953536 0.257862 0.257862
0.249989 0.249989 0.249989
0.404623 0.242115 0.242115
0.559243 0.234241 0.234241
0.713878 0.226368 0.226368
0.868498 0.218479 0.218494
1 0.210605 0.210605
1 0.202731 0.202731
0 0.401999 0.23949
0.0691081 0.39411 0.231617
0.223743 0.386236 0.223743
0.378363 0.378363 0.215869
0.532998 0.370489 0.20798
0.687617 0.362615 0.200107
0.842252 0.354742 0.192233
0.996872 0.346868 0.18436
1 0.338979 0.176486
0 0.538247 0.21323
0.0428626 0.530373 0.205356
0.197482 0.522499 0.197482
0.352117 0.514611 0.189609
0.506737 0.506737 0.181735
0.661372 0.498863 0.173861
0.815991 0.49099 0.165988
0.970626 0.483116 0.158114
1 0.475242 0.15024
0 0.674495 0.186984
0.0166171 0.666621 0.17911
0.171237 0.658747 0.171237
0.325872 0.650874 0.163363
0.480491 0.643 0.155489
0.635126 0.635111 0.147616
0.789746 0.627237 0.139742
0.944381 0.619364 0.131853
1 0.61149 0.12398
0 0.810742 0.160739
0 0.802869 0.152865
0.144991 0.794995 0.144991
0.299611 0.787121 0.137118
0.454246 0.779248 0.129229
0.608865 0.771374 0.121355
0.7635 0.7635 0.113481
0.91812 0.755611 0.105608
1 0.747738 0.097734
0 0.947005 0.134478
0 0.939132 0.126604
0.11873 0.931243 0.11873
0.273365 0.923369 0.110857
0.427985 0.915496 0.102983
0.58262 0.907622 0.0951095
0.73724 0.899748 0.0872358
0.891875 0.891875 0.0793622
1 0.884001 0.0714885
0 1 0.108232
0 1 0.100359
0.0924849 1 0.0924849
0.24712 1 0.0846113
0.40174 1 0.0767376
0.556374 1 0.068864
0.710994 1 0.0609903
0.865629 1 0.0531014
1 1 0.0452277
0 0 0.477363
0.144488 0 0.46949
0.299107 0 0.461616
0.453742 0 0.453742
0.608362 0 0.445869
0.762997 0 0.437995
0.917617 0 0.430121
1 0 0.422232
1 0 0.414359
0 0.126116 0.451118
0.118242 0.118242 0.443244
0.272862 0.110369 0.43537
0.427497 0.10248 0.427497
0.582116 0.0946059 0.419623
0.736751 0.0867323 0.411734
0.891371 0.0788586 0.403861
1 0.070985 0.395987
1 0.0631113 0.388113
0 0.262364 0.424872
0.0919814 0.25449 0.416999
0.246616 0.246616 0.40911
0.401236 0.238743 0.401236
0.555871 0.230869 0.393362
0.710491 0.22298 0.385489
0.865125 0.215106 0.377615
1 0.207233 0.369741
1 0.199359 0.361868
0 0.398611 0.398611
0.0657359 0.390738 0.390738
0.220356 0.382864 0.382864
0.37499 0.37499 0.37499
0.529625 0.367117 0.367117
0.684245 0.359243 0.359243
0.83888 0.35137 0.35137
0.9935 0.343481 0.343496
1 0.335607 0.335607
0 0.534874 0.372366
0.0394903 0.527001 0.364492
0.19411 0.519112 0.356619
0.348745 0.511238 0.348745
0.503365 0.503365 0.340871
0.658 0.495491 0.332982
0.812619 0.487617 0.325109
0.967254 0.479744 0.317235
1 0.47187 0.309361
0 0.671122 0.34612
0.0132296 0.663249 0.338247
0.167865 0.655375 0.330358
0.322484 0.647501 0.322484
0.477119 0.639612 0.314611
0.631739 0.631739 0.306737
0.786374 0.623865 0.298863
0.940993 0.615991 0.29099
1 0.608118 0.283116
0 0.80737 0.31986
0 0.799496 0.311986
0.141619 0.791623 0.304112
0.296239 0.783749 0.296239
0.450874 0.775876 0.288365
0.605493 0.768002 0.280491
0.760128 0.760113 0.272618
0.914748 0.752239 0.264744
1 0.744366 0.256855
0 0.943633 0.293614
0 0.935744 0.28574
0.115358 0.927871 0.277867
0.269993 0.919997 0.269993
0.424613 0.912123 0.262119
0.579248 0.90425 0.254231
0.733867 0.896376 0.246357
0.888502 0.888502 0.238483
1 0.880613 0.23061
0 1 0.267369
0 1 0.25948
0.0891127 1 0.251606
0.243732 1 0.243732
0.398367 1 0.235859
0.552987 1 0.227985
0.707622 1 0.220111
0.862242 1 0.212238
1 1 0.204364
0 0 0.6365
0.141115 0 0.628611
0.295735 0 0.620737
0.45037 0 0.612863
0.60499 0 0.60499
0.759625 0 0.597116
0.914244 0 0.589242
1 0 0.581369
1 0 0.573495
0 0.122744 0.610239
0.114855 0.11487 0.602365
0.26949 0.106981 0.594491
0.424109 0.0991073 0.586618
0.578744 0.0912337 0.578744
0.733364 0.08336 0.570871
0.887999 0.0754864 0.562997
1 0.0676127 0.555123
1 0.0597391 0.54725
0 0.258991 0.583993
0.0886091 0.251118 0.57612
0.243244 0.243244 0.568246
0.397864 0.23537 0.560372
0.552499 0.227481 0.552499
0.707118 0.219608 0.544625
0.861753 0.211734 0.536736
1 0.203861 0.528862
1 0.195987 0.520989
0 0.395239 0.557748
0.0623636 0.387366 0.549874
0.216983 0.379492 0.542
0.371618 0.371618 0.534112
0.526238 0.363745 0.526238
0.680873 0.355871 0.518364
0.835492 0.347982 0.510491
0.990127 0.340108 0.502617
1 0.332235 0.494743
0 0.531502 0.531487
0.0361028 0.523613 0.523613
0.190738 0.51574 0.51574
0.345357 0.507866 0.507866
0.499992 0.499992 0.499992
0.654627 0.492119 0.492119
0.809247 0.484245 0.484245
0.963882 0.476371 0.476371
1 0.468482 0.468498
0 0.66775 0.505241
0.00985733 0.659876 0.497368
0.164492 0.652003 0.489494
0.319112 0.644114 0.481621
0.473747 0.63624 0.473747
0.628367 0.628367 0.465873
0.783001 0.620493 0.457984
0.937621 0.612619 0.450111
1 0.604746 0.442237
0 0.803998 0.478996
0 0.796124 0.471122
0.138231 0.788251 0.463249
0.292866 0.780377 0.45536
0.447486 0.772503 0.447486
0.602121 0.764614 0.439612
0.756741 0.756741 0.431739
0.911376 0.748867 0.423865
1 0.740993 0.415991
0 0.940246 0.452735
0 0.932372 0.444862
0.111986 0.924498 0.436988
0.266621 0.916625 0.429114
0.421241 0.908751 0.421241
0.575875 0.900877 0.413367
0.730495 0.893004 0.405493
0.88513 0.885115 0.39762
1 0.877241 0.389746
0 1 0.42649
0 1 0.418616
0.0857404 1 0.410742
0.24036 1 0.402869
0.394995 1 0.394995
0.549615 1 0.387121
0.70425 1 0.379232
0.858869 1 0.371359
1 1 0.363485
0 0 0.795621
0.137728 0 0.787747
0.292363 0 0.779873
0.446983 0 0.772
0.601617 0 0.764126
0.756237 0 0.756252
0.910872 0 0.748363
1 0 0.74049
1 0 0.732616
0 0.119356 0.769375
0.111482 0.111482 0.761501
0.266117 0.103609 0.753628
0.420737 0.0957351 0.745754
0.575372 0.0878614 0.737865
0.729992 0.0799878 0.729992
0.884627 0.0721141 0.722118
1 0.0642405 0.714244
1 0.0563516 0.706371
0 0.255619 0.743114
0.0852369 0.247745 0.735241
0.239857 0.239872 0.727367
0.394491 0.231983 0.719493
0.549111 0.224109 0.71162
0.703746 0.216236 0.703746
0.858366 0.208362 0.695872
1 0.200488 0.687999
1 0.192615 0.680125
0 0.391867 0.716869
0.0589914 0.383993 0.708995
0.213611 0.37612 0.701122
0.368246 0.368246 0.693248
0.522866 0.360372 0.685374
0.677501 0.352483 0.677501
0.83212 0.34461 0.669627
0.986755 0.336736 0.661738
1 0.328862 0.653864
0 0.528115 0.690623
0.0327306 0.520241 0.68275
0.187366 0.512367 0.674876
0.341985 0.504494 0.667002
0.49662 0.49662 0.659113
0.65124 0.488746 0.65124
0.805875 0.480873 0.643366
0.960494 0.472984 0.635493
1 0.46511 0.627619
0 0.664378 0.664363
0.00648508 0.656504 0.656489
0.161105 0.648615 0.648615
0.31574 0.640742 0.640742
0.470359 0.632868 0.632868
0.624994 0.624994 0.624994
0.779629 0.617121 0.617121
0.934249 0.609247 0.609247
1 0.601373 0.601373
0 0.800626 0.638117
0 0.792752 0.630243
0.134859 0.784878 0.62237
0.289494 0.777005 0.614496
0.444114 0.769116 0.606622
0.598749 0.761242 0.598749
0.753368 0.753368 0.590875
0.908003 0.745495 0.582986
1 0.737621 0.575113
0 0.936873 0.611872
0 0.929 0.603998
0.108614 0.921126 0.596124
0.263233 0.913252 0.588251
0.417868 0.905379 0.580362
0.572488 0.897505 0.572488
0.727123 0.889616 0.564614
0.881743 0.881743 0.556741
1 0.873869 0.548867
0 1 0.585611
0 1 0.577737
0.0823682 1 0.569863
0.236988 1 0.56199
0.391623 1 0.554116
0.546242 1 0.546242
0.700877 1 0.538369
0.855497 1 0.530495
1 1 0.522622
0 0 0.954742
0.134356 0 0.946868
0.288991 0 0.938994
0.44361 0 0.931121
0.598245 0 0.923247
0.752865 0 0.915373
0.9075 0 0.9075
1 0 0.899626
1 0 0.891752
0 0.115984 0.928496
0.10811 0.10811 0.920623
0.262745 0.100237 0.912749
0.417365 0.0923629 0.904875
0.572 0.0844892 0.897002
0.726619 0.0766155 0.889128
0.881254 0.0687419 0.881254
1 0.060853 0.873381
1 0.0529793 0.865507
0 0.252247 0.902251
0.0818647 0.244373 0.894377
0.236484 0.236484 0.886503
0.391119 0.228611 0.87863
0.545739 0.220737 0.870756
0.700374 0.212863 0.862867
0.854994 0.20499 0.854994
1 0.197116 0.84712
1 0.189242 0.839246
0 0.388495 0.876005
0.0556039 0.380621 0.868132
0.210239 0.372747 0.860243
0.364858 0.364874 0.852369
0.519493 0.356985 0.844495
0.674113 0.349111 0.836622
0.828748 0.341238 0.828748
0.983368 0.333364 0.820874
1 0.32549 0.813001
0 0.524742 0.849744
0.0293584 0.516869 0.841871
0.183993 0.508995 0.833997
0.338613 0.501122 0.826123
0.493248 0.493248 0.81825
0.647868 0.485374 0.810376
0.802502 0.477485 0.802502
0.957122 0.469612 0.794629
1 0.461738 0.78674
0 0.66099 0.823499
0.00311284 0.653117 0.815625
0.157733 0.645243 0.807752
0.312367 0.637369 0.799878
0.466987 0.629496 0.792004
0.621622 0.621622 0.784115
0.776242 0.613748 0.776242
0.930877 0.605875 0.768368
1 0.597986 0.760494
0 0.797253 0.797253
0 0.78938 0.78938
0.131487 0.781506 0.781491
0.286107 0.773617 0.773617
0.440742 0.765743 0.765743
0.595361 0.75787 0.75787
0.749996 0.749996 0.749996
0.904631 0.742123 0.742123
1 0.734249 0.734249
0 0.933501 0.770993
0 0.925628 0.763119
0.105241 0.917754 0.755245
0.259861 0.90988 0.747372
0.414496 0.902007 0.739498
0.569116 0.894118 0.731624
0.723751 0.886244 0.723751
0.87837 0.87837 0.715877
1 0.870497 0.707988
0 1 0.744747
0 1 0.736873
0.0789807 1 0.729
0.233616 1 0.721126
0.388235 1 0.713252
0.54287 1 0.705364
0.69749 1 0.69749
0.852125 1 0.689616
1 1 0.681743
0 0 1
0.130983 0 1
0.285618 0 1
0.440238 0 1
0.594873 0 1
0.749493 0 1
0.904128 0 1
1 0 1
1 0 1
0 0.112612 1
0.104738 0.104738 1
0.259358 0.0968643 1
0.413993 0.0889906 1
0.568612 0.081117 1
0.723247 0.0732433 1
0.877867 0.0653544 1
1 0.0574807 1
1 0.0496071 1
0 0.248859 1
0.0784924 0.240986 1
0.233112 0.233112 1
0.387747 0.225238 1
0.542367 0.217365 1
0.697002 0.209491 1
0.851621 0.201617 1
1 0.193744 1
1 0.185855 0.998383
0 0.385122 1
0.0522316 0.377249 1
0.206867 0.369375 1
0.361486 0.361486 1
0.516121 0.353613 1
0.670741 0.345739 0.995758
0.825376 0.337865 0.987869
0.979995 0.329992 0.979995
1 0.322118 0.972122
0 0.52137 1
0.0259861 0.513497 1
0.180606 0.505623 0.993133
0.335241 0.497749 0.985245
0.48986 0.489876 0.977371
0.644495 0.481987 0.969497
0.799115 0.474113 0.961624
0.95375 0.466239 0.95375
1 0.458366 0.945876
0 0.657618 0.98262
0 0.649744 0.974746
0.15436 0.641871 0.966873
0.308995 0.633997 0.958999
0.463615 0.626123 0.951125
0.61825 0.61825 0.943252
0.772869 0.610376 0.935378
0.927504 0.602487 0.927504
1 0.594614 0.919631
0 0.793881 0.956374
0 0.786007 0.948501
0.128115 0.778119 0.940627
0.282734 0.770245 0.932754
0.437369 0.762371 0.92488
0.591989 0.754498 0.917006
0.746624 0.746624 0.909117
0.901244 0.73875 0.901244
1 0.730877 0.89337
0 0.930129 0.930129
0 0.922255 0.922255
0.101854 0.914382 0.914382
0.256489 0.906508 0.906493
0.411109 0.898619 0.898619
0.565744 0.890745 0.890745
0.720378 0.882872 0.882872
0.874998 0.874998 0.874998
1 0.867124 0.867124
0 1 0.903868
0 1 0.895994
0.0756085 1 0.888121
0.230243 1 0.880247
0.384863 1 0.872374
0.539498 1 0.8645
0.694118 1 0.856626
0.848753 1 0.848753
1 1 0.840879
0 0 1
0.127611 0 1
0.282231 0 1
0.436866 0 1
0.591485 0 1
0.74612 0 1
0.90074 0 1
1 0 1
1 0 1
0 0.109239 1
0.101366 0.101366 1
0.255985 0.093492 1
0.41062 0.0856184 1
0.56524 0.0777447 1
0.719875 0.0698558 1
0.874495 0.0619821 1
1 0.0541085 1
1 0.0462348 1
0 0.245487 1
0.0751049 0.237613 1
0.22974 0.22974 1
0.38436 0.221866 1
0.538994 0.213993 1
0.693614 0.206119 1
0.848249 0.198245 1
1 0.190356 1
1 0.182483 1
0 0.38175 1
0.0488594 0.373877 1
0.203494 0.365988 1
0.358114 0.358114 1
0.512749 0.35024 1
0.667369 0.342367 1
0.822003 0.334493 1
0.976623 0.326619 1
1 0.318746 1
0 0.517998 1
0.0226139 0.510124 1
0.177234 0.502251 1
0.331868 0.494377 1
0.486488 0.486488 1
0.641123 0.478614 1
0.795743 0.470741 1
0.950378 0.462867 1
1 0.454994 1
0 0.654246 1
0 0.646372 1
0.150988 0.638498 1
0.305608 0.630625 1
0.460243 0.622751 1
0.614862 0.614878 1
0.769497 0.606989 1
0.924117 0.599115 1
1 0.591241 1
0 0.790494 1
0 0.78262 1
0.124743 0.774746 1
0.279362 0.766873 1
0.433997 0.758999 1
0.588617 0.751125 1
0.743252 0.743252 1
0.897871 0.735378 1
1 0.727489 1
0 0.926757 1
0 0.918883 1
0.0984817 0.911009 1
0.253117 0.90312 1
0.407736 0.895247 1
0.562371 0.887373 1
0.716991 0.879499 1
0.871626 0.871626 1
1 0.863752 1
0 1 1
0 1 1
0.0722362 1 1
0.226856 1 1
0.381491 1 1
0.53611 1 1
0.690745 1 1
0.845365 1 1
1 1 1
