public/LUTS/Color Gain/Color Gain_04.cube
TITLE "Generated by Resolve"
LUT_3D_SIZE 33
0 0 0
0.0411078 0 0
0.0822309 0 0
0.123354 0 0
0.164477 0 0
0.205615 0 0
0.246738 0 0
0.287861 0 0
0.328984 0 0
0.370108 0 0
0.411231 0 0
0.452369 0 0
0.493492 0 0
0.534615 0 0
0.575738 0 0
0.616861 0 0
0.657984 0 0
0.699123 0 0
0.740246 0 0
0.781369 0 0
0.822492 0 0
0.863615 0 0
0.904738 0 0
0.945876 0 0
0.986999 0 0
1 0 0
1 0 0
1 0 0
1 0 0
1 0 0
1 0 0
1 0 0
1 0 0
0 0.0349889 0
0.0323644 0.0323644 0
0.0734875 0.0297398 0
0.114611 0.0271153 0
0.155734 0.0244907 0
0.196857 0.0218662 0
0.237995 0.0192264 0
0.279118 0.0166018 0
0.320241 0.0139773 0
0.361364 0.0113527 0
0.402487 0.00872816 0
0.44361 0.00610361 0
0.484749 0.00347906 0
0.525872 0.000854505 0
0.566995 0 0
0.608118 0 0
0.649241 0 0
0.690364 0 0
0.731502 0 0
0.772625 0 0
0.813748 0 0
0.854871 0 0
0.895994 0 0
0.937118 0 0
0.978256 0 0
1 0 0
1 0 0
1 0 0
1 0 0
1 0 0
1 0 0
1 0 0
1 0 0
0 0.0699779 0
0.0236057 0.0673533 0
0.0647288 0.0647288 0
0.105867 0.0621042 0
0.14699 0.0594797 0
0.188113 0.0568551 0
0.229236 0.0542306 0
0.270359 0.051606 0
0.311482 0.0489815 0
0.352621 0.0463569 0
0.393744 0.0437324 0
0.434867 0.0411078 0
0.47599 0.0384833 0
0.517113 0.0358587 0
0.558236 0.0332341 0
0.599374 0.0306096 0
0.640497 0.027985 0
0.68162 0.0253605 0
0.722744 0.0227359 0
0.763867 0.0201114 0
0.80499 0.0174868 0
0.846128 0.0148623 0
0.887251 0.0122377 0
0.928374 0.00959792 0
0.969497 0.00697337 0
1 0.00434882 0
1 0.00172427 0
1 0 0
1 0 0
1 0 0
1 0 0
1 0 0
1 0 0
0 0.104982 0
0.0148623 0.102358 0
0.0559854 0.099733 0
0.0971084 0.0971084 0
0.138231 0.0944839 0
0.179355 0.0918593 0
0.220493 0.0892348 0
0.261616 0.0866102 0
0.302739 0.0839857 0
0.343862 0.0813611 0
0.384985 0.0787366 0
0.426108 0.076112 0
0.467247 0.0734875 0
0.50837 0.0708629 0
0.549493 0.0682383 0
0.590616 0.0656138 0
0.631739 0.0629892 0
0.672877 0.0603647 0
0.714 0.0577249 0
0.755123 0.0551003 0
0.796246 0.0524758 0
0.837369 0.0498512 0
0.878492 0.0472267 0
0.919631 0.0446021 0
0.960754 0.0419776 0
1 0.039353 0
1 0.0367285 0
1 0.0341039 0
1 0.0314794 0
1 0.0288548 0
1 0.0262303 0
1 0.0236057 0
1 0.0209812 0
0 0.139986 0
0.00610361 0.137362 0
0.0472419 0.134737 0
0.088365 0.132113 0
0.129488 0.129488 0
0.170611 0.126864 0
0.211734 0.124239 0
0.252857 0.121614 0
0.293996 0.11899 0
0.335119 0.116365 0
0.376242 0.113741 0
0.417365 0.111116 0
0.458488 0.108476 0
0.499611 0.105852 0
0.540749 0.103227 0
0.581872 0.100603 0
0.622995 0.0979782 0
0.664118 0.0953536 0
0.705242 0.0927291 0
0.746365 0.0901045 0
0.787503 0.08748 0
0.828626 0.0848554 0
0.869749 0.0822309 0
0.910872 0.0796063 0
0.951995 0.0769818 0
0.993118 0.0743572 0
1 0.0717327 0
1 0.0691081 0
1 0.0664836 0
1 0.063859 0
1 0.0612345 0
1 0.0586099 0
1 0.0559854 0
0 0.17499 0
0 0.172366 0
0.0384833 0.169741 0
0.0796063 0.167117 0
0.120729 0.164492 0
0.161868 0.161868 0
0.202991 0.159243 0
0.244114 0.156603 0
0.285237 0.153979 0
0.32636 0.151354 0
0.367483 0.14873 0
0.408621 0.146105 0
0.449744 0.143481 0
0.490867 0.140856 0
0.531991 0.138231 0
0.573114 0.135607 0
0.614237 0.132982 0
0.655375 0.130358 0
0.696498 0.127733 0
0.737621 0.125109 0
0.778744 0.122484 0
0.819867 0.11986 0
0.86099 0.117235 0
0.902129 0.114611 0
0.943252 0.111986 0
0.984375 0.109361 0
1 0.106737 0
1 0.104112 0
1 0.101488 0
1 0.0988479 0
1 0.0962234 0
1 0.0935988 0
1 0.0909743 0
0 0.209979 0
0 0.207355 0
0.0297398 0.20473 0
0.0708629 0.202106 0
0.111986 0.199481 0
0.153109 0.196857 0
0.194232 0.194232 0
0.23537 0.191608 0
0.276493 0.188983 0
0.317617 0.186358 0
0.35874 0.183734 0
0.399863 0.181109 0
0.440986 0.178485 0
0.482124 0.17586 0
0.523247 0.173236 0
0.56437 0.170611 0
0.605493 0.167987 0
0.646616 0.165362 0
0.687739 0.162737 0
0.728878 0.160113 0
0.770001 0.157488 0
0.811124 0.154864 0
0.852247 0.152239 0
0.89337 0.149615 0
0.934493 0.146975 0
0.975631 0.14435 0
1 0.141726 0
1 0.139101 0
1 0.136477 0
1 0.133852 0
1 0.131228 0
1 0.128603 0
1 0.125978 0
0 0.244984 0
0 0.242359 0
0.0209812 0.239734 0
0.0621042 0.23711 0
0.103243 0.234485 0
0.144366 0.231861 0
0.185489 0.229236 0
0.226612 0.226612 0
0.267735 0.223987 0
0.308858 0.221363 0
0.349996 0.218738 0
0.391119 0.216114 0
0.432242 0.213489 0
0.473365 0.210864 0
0.514488 0.20824 0
0.555611 0.205615 0
0.59675 0.202991 0
0.637873 0.200366 0
0.678996 0.197742 0
0.720119 0.195102 0
0.761242 0.192477 0
0.802365 0.189853 0
0.843503 0.187228 0
0.884627 0.184604 0
0.92575 0.181979 0
0.966873 0.179355 0
1 0.17673 0
1 0.174105 0
1 0.171481 0
1 0.168856 0
1 0.166232 0
1 0.163607 0
1 0.160983 0
0 0.279988 0
0 0.277363 0
0.0122377 0.274739 0
0.0533608 0.272114 0
0.0944839 0.26949 0
0.135607 0.266865 0
0.17673 0.26424 0
0.217868 0.261616 0
0.258991 0.258991 0
0.300114 0.256367 0
0.341238 0.253742 0
0.382361 0.251118 0
0.423484 0.248493 0
0.464622 0.245853 0
0.505745 0.243229 0
0.546868 0.240604 0
0.587991 0.23798 0
0.629114 0.235355 0
0.670237 0.232731 0
0.711376 0.230106 0
0.752499 0.227481 0
0.793622 0.224857 0
0.834745 0.222232 0
0.875868 0.219608 0
0.916991 0.216983 0
0.958129 0.214359 0
0.999252 0.211734 0
1 0.20911 0
1 0.206485 0
1 0.203861 0
1 0.201236 0
1 0.198611 0
1 0.195987 0
0 0.314992 0
0 0.312367 0
0.00347906 0.309743 0
0.0446174 0.307118 0
0.0857404 0.304494 0
0.126864 0.301869 0
0.167987 0.299245 0
0.20911 0.29662 0
0.250233 0.29398 0
0.291371 0.291356 0
0.332494 0.288731 0
0.373617 0.286107 0
0.41474 0.283482 0
0.455863 0.280858 0
0.496986 0.278233 0
0.538125 0.275608 0
0.579248 0.272984 0
0.620371 0.270359 0
0.661494 0.267735 0
0.702617 0.26511 0
0.74374 0.262486 0
0.784878 0.259861 0
0.826001 0.257237 0
0.867124 0.254612 0
0.908248 0.251987 0
0.949371 0.249363 0
0.990494 0.246738 0
1 0.244114 0
1 0.241489 0
1 0.238865 0
1 0.23624 0
1 0.2336 0
1 0.230976 0
0 0.349996 0
0 0.347372 0
0 0.344732 0
0.0358587 0.342107 0
0.0769818 0.339483 0
0.118105 0.336858 0
0.159243 0.334234 0
0.200366 0.331609 0
0.241489 0.328984 0
0.282612 0.32636 0
0.323735 0.323735 0
0.364858 0.321111 0
0.405997 0.318486 0
0.44712 0.315862 0
0.488243 0.313237 0
0.529366 0.310613 0
0.570489 0.307988 0
0.611612 0.305364 0
0.65275 0.302739 0
0.693874 0.300114 0
0.734997 0.29749 0
0.77612 0.294865 0
0.817243 0.292241 0
0.858366 0.289616 0
0.899504 0.286992 0
0.940627 0.284352 0
0.98175 0.281727 0
1 0.279103 0
1 0.276478 0
1 0.273854 0
1 0.271229 0
1 0.268605 0
1 0.26598 0
0 0.384985 0
0 0.382361 0
0 0.379736 0
0.0271153 0.377111 0
0.0682383 0.374487 0
0.109361 0.371862 0
0.150484 0.369238 0
0.191608 0.366613 0
0.232731 0.363989 0
0.273869 0.361364 0
0.314992 0.35874 0
0.356115 0.356115 0
0.397238 0.353491 0
0.438361 0.350866 0
0.479484 0.348241 0
0.520623 0.345617 0
0.561746 0.342992 0
0.602869 0.340368 0
0.643992 0.337743 0
0.685115 0.335119 0
0.726238 0.332479 0
0.767376 0.329854 0
0.808499 0.32723 0
0.849622 0.324605 0
0.890745 0.321981 0
0.931868 0.319356 0
0.973007 0.316732 0
1 0.314107 0
1 0.311482 0
1 0.308858 0
1 0.306233 0
1 0.303609 0
1 0.300984 0
0 0.419989 0
0 0.417365 0
0 0.41474 0
0.0183566 0.412116 0
0.0594797 0.409491 0
0.100618 0.406867 0
0.141741 0.404242 0
0.182864 0.401617 0
0.223987 0.398993 0
0.26511 0.396368 0
0.306233 0.393744 0
0.347372 0.391119 0
0.388495 0.388495 0
0.429618 0.38587 0
0.470741 0.38323 0
0.511864 0.380606 0
0.552987 0.377981 0
0.594125 0.375357 0
0.635248 0.372732 0
0.676371 0.370108 0
0.717494 0.367483 0
0.758618 0.364858 0
0.799741 0.362234 0
0.840879 0.359609 0
0.882002 0.356985 0
0.923125 0.35436 0
0.964248 0.351736 0
1 0.349111 0
1 0.346487 0
1 0.343862 0
1 0.341238 0
1 0.338613 0
1 0.335988 0
0 0.454994 0
0 0.452369 0
0 0.449744 0
0.00961318 0.44712 0
0.0507362 0.444495 0
0.0918593 0.441871 0
0.132982 0.439246 0
0.174105 0.436622 0
0.215244 0.433997 0
0.256367 0.431357 0
0.29749 0.428733 0
0.338613 0.426108 0
0.379736 0.423484 0
0.420859 0.420859 0
0.461997 0.418235 0
0.50312 0.41561 0
0.544244 0.412985 0
0.585367 0.410361 0
0.62649 0.407736 0
0.667613 0.405112 0
0.708751 0.402487 0
0.749874 0.399863 0
0.790997 0.397238 0
0.83212 0.394614 0
0.873243 0.391989 0
0.914366 0.389364 0
0.955505 0.38674 0
0.996628 0.384115 0
1 0.381491 0
1 0.378866 0
1 0.376242 0
1 0.373602 0
1 0.370977 0
0 0.489998 0
0 0.487373 0
0 0.484749 0
0.000854505 0.482109 0
0.0419776 0.479484 0
0.0831159 0.47686 0
0.124239 0.474235 0
0.165362 0.471611 0
0.206485 0.468986 0
0.247608 0.466361 0
0.288731 0.463737 0
0.32987 0.461112 0
0.370993 0.458488 0
0.412116 0.455863 0
0.453239 0.453239 0
0.494362 0.450614 0
0.535485 0.44799 0
0.576623 0.445365 0
0.617746 0.442741 0
0.658869 0.440116 0
0.699992 0.437491 0
0.741115 0.434867 0
0.782254 0.432242 0
0.823377 0.429618 0
0.8645 0.426993 0
0.905623 0.424369 0
0.946746 0.421729 0
0.987869 0.419104 0
1 0.41648 0
1 0.413855 0
1 0.411231 0
1 0.408606 0
1 0.405982 0
0 0.524987 0
0 0.522362 0
0 0.519738 0
0 0.517113 0
0.0332341 0.514488 0
0.0743572 0.511864 0
0.11548 0.509239 0
0.156619 0.506615 0
0.197742 0.50399 0
0.238865 0.501366 0
0.279988 0.498741 0
0.321111 0.496117 0
0.362234 0.493492 0
0.403372 0.490867 0
0.444495 0.488243 0
0.485618 0.485618 0
0.526741 0.482994 0
0.567864 0.480369 0
0.608988 0.477745 0
0.650126 0.47512 0
0.691249 0.472496 0
0.732372 0.469856 0
0.773495 0.467231 0
0.814618 0.464607 0
0.855741 0.461982 0
0.89688 0.459358 0
0.938003 0.456733 0
0.979126 0.454109 0
1 0.451484 0
1 0.448859 0
1 0.446235 0
1 0.44361 0
1 0.440986 0
0 0.559991 0
0 0.557366 0
0 0.554742 0
0 0.552117 0
0.0244907 0.549493 0
0.0656138 0.546868 0
0.106737 0.544244 0
0.14786 0.541619 0
0.188983 0.538994 0
0.230106 0.53637 0
0.271244 0.533745 0
0.312367 0.531121 0
0.353491 0.528496 0
0.394614 0.525872 0
0.435737 0.523247 0
0.47686 0.520607 0
0.517998 0.517983 0
0.559121 0.515358 0
0.600244 0.512734 0
0.641367 0.510109 0
0.68249 0.507485 0
0.723613 0.50486 0
0.764752 0.502235 0
0.805875 0.499611 0
0.846998 0.496986 0
0.888121 0.494362 0
0.929244 0.491737 0
0.970367 0.489113 0
1 0.486488 0
1 0.483864 0
1 0.481239 0
1 0.478614 0
1 0.47599 0
0 0.594995 0
0 0.592371 0
0 0.589746 0
0 0.587121 0
0.0157321 0.584497 0
0.0568551 0.581872 0
0.0979782 0.579248 0
0.139116 0.576623 0
0.18024 0.573999 0
0.221363 0.571374 0
0.262486 0.568734 0
0.303609 0.56611 0
0.344747 0.563485 0
0.38587 0.560861 0
0.426993 0.558236 0
0.468116 0.555611 0
0.509239 0.552987 0
0.550362 0.550362 0
0.591501 0.547738 0
0.632624 0.545113 0
0.673747 0.542489 0
0.71487 0.539864 0
0.755993 0.53724 0
0.797116 0.534615 0
0.838254 0.531991 0
0.879377 0.529366 0
0.920501 0.526741 0
0.961624 0.524117 0
1 0.521492 0
1 0.518868 0
1 0.516243 0
1 0.513619 0
1 0.510994 0
0 0.629999 0
0 0.627375 0
0 0.62475 0
0 0.622126 0
0.00698863 0.619501 0
0.0481117 0.616861 0
0.0892348 0.614237 0
0.130358 0.611612 0
0.171481 0.608988 0
0.212619 0.606363 0
0.253742 0.603738 0
0.294865 0.601114 0
0.335988 0.598489 0
0.377111 0.595865 0
0.418235 0.59324 0
0.459373 0.590616 0
0.500496 0.587991 0
0.541619 0.585367 0
0.582742 0.582742 0
0.623865 0.580118 0
0.664988 0.577493 0
0.706127 0.574868 0
0.74725 0.572244 0
0.788373 0.569619 0
0.829496 0.566995 0
0.870619 0.56437 0
0.911742 0.561746 0
0.95288 0.559106 0
0.994003 0.556481 0
1 0.553857 0
1 0.551232 0
1 0.548608 0
1 0.545983 0
0 0.664988 0
0 0.662364 0
0 0.659739 0
0 0.657115 0
0 0.65449 0
0.039353 0.651865 0
0.0804913 0.649241 0
0.121614 0.646616 0
0.162737 0.643992 0
0.203861 0.641367 0
0.244984 0.638743 0
0.286107 0.636118 0
0.327245 0.633494 0
0.368368 0.630869 0
0.409491 0.628244 0
0.450614 0.62562 0
0.491737 0.622995 0
0.53286 0.620371 0
0.573999 0.617746 0
0.615122 0.615122 0
0.656245 0.612497 0
0.697368 0.609873 0
0.738491 0.607233 0
0.779614 0.604608 0
0.820752 0.601984 0
0.861875 0.599359 0
0.902998 0.596735 0
0.944121 0.59411 0
0.985245 0.591485 0
1 0.588861 0
1 0.586236 0
1 0.583612 0
1 0.580987 0
0 0.699992 0
0 0.697368 0
0 0.694743 0
0 0.692119 0
0 0.689494 0
0.0306096 0.68687 0
0.0717327 0.684245 0
0.112856 0.68162 0
0.153994 0.678996 0
0.195117 0.676371 0
0.23624 0.673747 0
0.277363 0.671122 0
0.318486 0.668498 0
0.359609 0.665873 0
0.400748 0.663249 0
0.441871 0.660624 0
0.482994 0.657984 0
0.524117 0.65536 0
0.56524 0.652735 0
0.606363 0.650111 0
0.647501 0.647486 0
0.688624 0.644862 0
0.729747 0.642237 0
0.770871 0.639612 0
0.811994 0.636988 0
0.853117 0.634363 0
0.894255 0.631739 0
0.935378 0.629114 0
0.976501 0.62649 0
1 0.623865 0
1 0.621241 0
1 0.618616 0
1 0.615991 0
0 0.734997 0
0 0.732372 0
0 0.729747 0
0 0.727123 0
0 0.724498 0
0.0218662 0.721874 0
0.0629892 0.719249 0
0.104112 0.716625 0
0.145235 0.714 0
0.186358 0.711376 0
0.227481 0.708751 0
0.26862 0.706111 0
0.309743 0.703487 0
0.350866 0.700862 0
0.391989 0.698238 0
0.433112 0.695613 0
0.474235 0.692988 0
0.515373 0.690364 0
0.556497 0.687739 0
0.59762 0.685115 0
0.638743 0.68249 0
0.679866 0.679866 0
0.720989 0.677241 0
0.762127 0.674617 0
0.80325 0.671992 0
0.844373 0.669367 0
0.885496 0.666743 0
0.926619 0.664118 0
0.967742 0.661494 0
1 0.658869 0
1 0.656245 0
1 0.65362 0
1 0.650996 0
0 0.770001 0
0 0.767376 0
0 0.764752 0
0 0.762127 0
0 0.759503 0
0.0131075 0.756863 0
0.0542306 0.754238 0
0.0953536 0.751614 0
0.136492 0.748989 0
0.177615 0.746365 0
0.218738 0.74374 0
0.259861 0.741115 0
0.300984 0.738491 0
0.342107 0.735866 0
0.383246 0.733242 0
0.424369 0.730617 0
0.465492 0.727993 0
0.506615 0.725368 0
0.547738 0.722744 0
0.588861 0.720119 0
0.629999 0.717494 0
0.671122 0.71487 0
0.712245 0.712245 0
0.753368 0.709621 0
0.794491 0.706996 0
0.835615 0.704372 0
0.876753 0.701747 0
0.917876 0.699123 0
0.958999 0.696483 0
1 0.693858 0
1 0.691234 0
1 0.688609 0
1 0.685985 0
0 0.80499 0
0 0.802365 0
0 0.799741 0
0 0.797116 0
0 0.794491 0
0.00436408 0.791867 0
0.0454871 0.789242 0
0.0866102 0.786618 0
0.127733 0.783993 0
0.168856 0.781369 0
0.209995 0.778744 0
0.251118 0.77612 0
0.292241 0.773495 0
0.333364 0.770871 0
0.374487 0.768246 0
0.41561 0.765621 0
0.456748 0.762997 0
0.497871 0.760372 0
0.538994 0.757748 0
0.580118 0.755123 0
0.621241 0.752499 0
0.662364 0.749874 0
0.703502 0.74725 0
0.744625 0.74461 0
0.785748 0.741985 0
0.826871 0.739361 0
0.867994 0.736736 0
0.909117 0.734112 0
0.950256 0.731487 0
0.991379 0.728862 0
1 0.726238 0
1 0.723613 0
1 0.720989 0
0 0.839994 0
0 0.837369 0
0 0.834745 0
0 0.83212 0
0 0.829496 0
0 0.826871 0
0.0367285 0.824247 0
0.0778668 0.821622 0
0.11899 0.818998 0
0.160113 0.816373 0
0.201236 0.813748 0
0.242359 0.811124 0
0.283482 0.808499 0
0.32462 0.805875 0
0.365743 0.80325 0
0.406867 0.800626 0
0.44799 0.798001 0
0.489113 0.795361 0
0.530236 0.792737 0
0.571374 0.790112 0
0.612497 0.787488 0
0.65362 0.784863 0
0.694743 0.782238 0
0.735866 0.779614 0
0.776989 0.776989 0
0.818128 0.774365 0
0.859251 0.77174 0
0.900374 0.769116 0
0.941497 0.766491 0
0.98262 0.763867 0
1 0.761242 0
1 0.758618 0
1 0.755993 0
0 0.874998 0
0 0.872374 0
0 0.869749 0
0 0.867124 0
0 0.8645 0
0 0.861875 0
0.027985 0.859251 0
0.0691081 0.856626 0
0.110231 0.854002 0
0.151354 0.851377 0
0.192493 0.848753 0
0.233616 0.846128 0
0.274739 0.843488 0
0.315862 0.840864 0
0.356985 0.838239 0
0.398108 0.835615 0
0.439246 0.83299 0
0.480369 0.830365 0
0.521492 0.827741 0
0.562615 0.825116 0
0.603738 0.822492 0
0.644877 0.819867 0
0.686 0.817243 0
0.727123 0.814618 0
0.768246 0.811994 0
0.809369 0.809369 0
0.850492 0.806745 0
0.89163 0.80412 0
0.932754 0.801495 0
0.973877 0.798871 0
1 0.796246 0
1 0.793622 0
1 0.790997 0
0 0.910002 0
0 0.907378 0
0 0.904753 0
0 0.902129 0
0 0.899504 0
0 0.89688 0
0.0192416 0.894255 0
0.0603647 0.891615 0
0.101488 0.888991 0
0.142611 0.886366 0
0.183734 0.883741 0
0.224857 0.881117 0
0.265995 0.878492 0
0.307118 0.875868 0
0.348241 0.873243 0
0.389364 0.870619 0
0.430488 0.867994 0
0.471611 0.86537 0
0.512749 0.862745 0
0.553872 0.860121 0
0.594995 0.857496 0
0.636118 0.854871 0
0.677241 0.852247 0
0.718364 0.849622 0
0.759503 0.846998 0
0.800626 0.844373 0
0.841749 0.841749 0
0.882872 0.839124 0
0.923995 0.8365 0
0.965118 0.83386 0
1 0.831235 0
1 0.828611 0
1 0.825986 0
0 0.944991 0
0 0.942367 0
0 0.939742 0
0 0.937118 0
0 0.934493 0
0 0.931868 0
0.0104829 0.929244 0
0.051606 0.926619 0
0.0927291 0.923995 0
