public/LUTS/Autumn/Autumn_10.cube
TITLE "Generated by Resolve"
LUT_3D_SIZE 9
0.0705882 0.112001 0.124102
0.306477 0.111757 0.00726329
0.599603 0.103975 0
0.900465 0.0991226 0
1 0.110872 0
1 0.160006 0
1 0.227527 0
1 0.309804 0
1 0.37554 0
0.0369268 0.175998 0.126467
0.307912 0.15436 0.0118868
0.607935 0.174655 0
0.909895 0.184726 0
1 0.195758 0
1 0.219654 0
1 0.262989 0
1 0.32256 0
1 0.365667 0
0.0019379 0.262074 0.118502
0.281926 0.253681 0.00300603
0.6495 0.237186 0
0.934859 0.276188 0
1 0.32546 0
1 0.377386 0
1 0.425696 0
1 0.476173 0
1 0.492744 0
0 0.383597 0.107622
0.170886 0.426047 0.00180056
0.650095 0.342763 0
0.945815 0.365209 0
1 0.42359 0
1 0.484154 0
1 0.542718 0
1 0.591272 0
1 0.595926 0
0 0.53196 0.085359
0.114702 0.576623 0
0.538628 0.613123 0
0.915236 0.489693 0
1 0.521141 0
1 0.5776 0
1 0.632944 0
1 0.656504 0
1 0.659327 0
0 0.683757 0.0550393
0.0881208 0.71577 0
0.479438 0.762997 0
0.779873 0.728069 0
0.994202 0.63949 0
1 0.658915 0
1 0.704326 0
1 0.713207 0
1 0.715068 0
0 0.826719 0.0262455
0.0750896 0.838163 0
0.43093 0.869459 0
0.712856 0.87863 0
0.867689 0.82565 0
0.999863 0.759411 0
1 0.767163 0
1 0.768246 0
1 0.770962 0
0 0.951583 0.0065156
0.0772564 0.94136 0
0.398535 0.955383 0
0.644846 0.963836 0
0.803769 0.962432 0
0.935622 0.897383 0
0.968078 0.848905 0
0.981537 0.825055 0
0.97969 0.828367 0
0 1 0.00720226
0.0934615 1 0
0.361746 1 0
0.563745 1 0
0.731014 1 0
0.897612 1 0
0.918853 0.970642 0
0.922759 0.929992 0
0.919066 0.936202 0
0 0.188724 0.291096
0.137026 0.166262 0.171649
0.349416 0.196231 0.118746
0.712505 0.206241 0.00767529
0.989349 0.231388 0
1 0.254124 0
1 0.284184 0
1 0.336812 0
1 0.389868 0
0 0.210819 0.28867
0.164553 0.193881 0.201053
0.488029 0.195972 0.0784772
0.848417 0.20087 0.000366217
1 0.221439 0
1 0.243305 0
1 0.277943 0
1 0.331685 0
1 0.381903 0
0 0.29781 0.302113
0.145953 0.269566 0.189425
0.559716 0.25449 0.0360266
0.87335 0.280415 0
0.999832 0.312215 0
1 0.333593 0
1 0.364111 0
1 0.409155 0
1 0.443809 0
0 0.457603 0.319951
0.0319677 0.414969 0.170321
0.546517 0.374838 0.00895705
0.863951 0.390051 0
0.999466 0.446189 0
1 0.499992 0
1 0.54551 0
1 0.585031 0
1 0.590173 0
0 0.5944 0.312901
0.0100404 0.567819 0.128359
0.397894 0.608316 0.00953689
0.837201 0.51107 0
0.986511 0.541207 0
1 0.59321 0
1 0.643397 0
1 0.672358 0
1 0.672297 0
0 0.725689 0.307942
0.000122072 0.711757 0.0821241
0.344594 0.741329 0.000488289
0.699275 0.748745 0
0.947417 0.649897 0
1 0.672312 0
1 0.714275 0
1 0.730205 0
1 0.730938 0
0 0.846525 0.302342
0.00239567 0.840269 0.0449531
0.318318 0.850889 0.00148013
0.627787 0.865141 0
0.826917 0.841047 0
0.996216 0.764645 0
1 0.776822 0
1 0.781918 0
1 0.783536 0
0 0.951476 0.308919
0.0157321 0.94728 0.0317235
0.302724 0.939467 0
0.564309 0.947219 0
0.76434 0.951965 0
0.90779 0.909361 0
0.967147 0.850599 0
0.977111 0.832868 0
0.975357 0.836042 0
0 1 0.341222
0.0261387 1 0.0460212
0.289479 1 0.0144503
0.503838 1 0.00450141
0.675074 1 0.00222782
0.852583 1 0
0.924269 0.9691 0
0.928481 0.923308 0
0.926863 0.929885 0
0 0.276448 0.475517
0 0.268345 0.357488
0.140261 0.263676 0.199222
0.484657 0.263722 0.113329
0.767147 0.317327 0.0611734
0.985702 0.352346 0.00233463
1 0.381506 0
1 0.421881 0
1 0.458991 0
0 0.305943 0.486183
0 0.295491 0.432044
0.204135 0.283314 0.237339
0.566751 0.292592 0.145769
0.844343 0.33373 0.0789502
0.998138 0.358953 0.0115206
1 0.392813 0
1 0.431708 0
1 0.453666 0
0 0.327169 0.483619
0 0.345418 0.507973
0.293187 0.322454 0.313268
0.685496 0.335225 0.204974
0.960098 0.346609 0.0976425
1 0.367514 0.0176394
1 0.399283 0
1 0.428519 0
1 0.441428 0
0 0.399329 0.491722
0 0.439078 0.496468
0.345693 0.429419 0.353292
0.767819 0.417044 0.217319
0.977905 0.437903 0.112184
1 0.461082 0.0265354
1 0.48513 0.000900282
1 0.524025 0
1 0.539513 0
0 0.625589 0.601724
0 0.625757 0.511711
0.209293 0.604318 0.307546
0.747814 0.54548 0.146731
0.93875 0.573892 0.0686961
1 0.618692 0.0090486
1 0.65565 0
1 0.680964 0
1 0.677989 0
0 0.774441 0.641321
0 0.744991 0.49398
0.197803 0.735668 0.256565
0.606134 0.750546 0.132753
0.911894 0.671702 0.00787366
1 0.693843 0
1 0.729839 0
1 0.749371 0
1 0.748913 0
0 0.873365 0.64654
0 0.853498 0.475303
0.212421 0.844358 0.205524
0.534691 0.851286 0.136446
0.791882 0.848753 0.0808118
0.985534 0.776043 0
1 0.788998 0
0.999496 0.799405 0
0.998856 0.800656 0
0 0.958801 0.655528
0 0.951049 0.449592
0.220539 0.935195 0.186313
0.489235 0.931533 0.148867
0.713634 0.936522 0.113344
0.88629 0.914595 0.0559548
0.971496 0.854994 0
0.970611 0.847089 0
0.96846 0.849775 0
0 1 0.663294
0 1 0.429648
0.226154 1 0.191562
0.450233 1 0.171893
0.62977 1 0.13341
0.803418 1 0.0760815
0.939071 0.970733 0.0124361
0.936034 0.92134 0
0.936156 0.92781 0
0 0.386053 0.67895
0 0.377234 0.526192
0 0.376516 0.399069
0.221347 0.373114 0.161059
0.646601 0.33286 0.0451057
0.883909 0.380087 0.00109865
1 0.449348 0.072694
1 0.498726 0.220661
1 0.528298 0.242374
0 0.414694 0.699092
0 0.401526 0.636576
0.000656138 0.399405 0.46833
0.350011 0.373083 0.169009
0.70045 0.355566 0.102892
0.919844 0.409613 0.0495155
1 0.470726 0.17908
1 0.508415 0.250156
1 0.531228 0.243351
0 0.437644 0.699214
0 0.449241 0.744945
0.0198367 0.434165 0.592248
0.467582 0.400473 0.286793
0.771801 0.407401 0.218387
0.96849 0.454566 0.227924
1 0.495842 0.276112
1 0.517342 0.246281
1 0.52578 0.194949
0 0.460822 0.702098
0 0.495354 0.72607
0.0504616 0.504677 0.7337
0.546441 0.480934 0.457938
0.832029 0.50222 0.417639
0.995041 0.52195 0.386969
1 0.528435 0.311666
1 0.540352 0.245426
1 0.526253 0.146685
0 0.525017 0.702358
0 0.561273 0.710872
0.0277714 0.600595 0.715236
0.589578 0.594095 0.583368
0.870161 0.595376 0.497414
0.997482 0.609232 0.428885
1 0.611414 0.337987
1 0.619303 0.242054
1 0.616342 0.181979
0 0.709056 0.811124
0 0.760601 0.798169
0.00257877 0.772686 0.724437
0.508385 0.734447 0.504494
0.855039 0.697063 0.397192
0.979095 0.720592 0.337743
1 0.735439 0.232547
1 0.744778 0.152926
1 0.740414 0.112474
0 0.875975 0.922499
0 0.878111 0.816556
0.00328069 0.869947 0.668025
0.470329 0.836225 0.437736
0.751095 0.842405 0.33518
0.974304 0.780804 0.175006
1 0.787884 0.114672
1 0.799252 0.0402838
1 0.800366 0.0309453
0 0.963821 0.935988
0 0.956405 0.802472
0.0330816 0.949111 0.60058
0.450507 0.91812 0.380529
0.670069 0.919753 0.321721
0.863264 0.915419 0.25333
1 0.848875 0.00392157
0.99971 0.850477 0.000183108
0.999054 0.853239 0
0 1 0.916686
0 1 0.784344
0.0799725 1 0.524819
0.430076 0.999207 0.347768
0.603113 0.997375 0.322133
0.762905 1 0.249134
0.946471 0.969009 0.116381
0.960067 0.922759 0
0.959487 0.927459 0
0 0.505821 0.86688
0 0.490028 0.685557
0 0.485054 0.533578
0.0245212 0.491966 0.347753
0.445411 0.45124 0.0293736
0.804608 0.412772 0.00363165
0.982116 0.457908 0.0657969
1 0.520897 0.30103
1 0.591485 0.54139
0 0.522454 0.884962
0 0.503792 0.816968
0 0.497749 0.629938
0.0772564 0.500877 0.422171
0.54905 0.445243 0.112078
0.835508 0.432456 0.0952163
0.999695 0.479133 0.198642
1 0.543481 0.4065
1 0.603449 0.589548
0 0.543267 0.884581
0 0.541222 0.924376
0 0.530648 0.800366
0.179583 0.512093 0.583139
0.62179 0.471107 0.345647
0.887114 0.468116 0.282155
1 0.521569 0.396796
1 0.580438 0.542947
1 0.609827 0.592386
0 0.561212 0.88896
0 0.588937 0.909285
0 0.593622 0.947707
0.294545 0.545174 0.756634
0.704204 0.530709 0.540703
0.927535 0.548516 0.51812
1 0.593668 0.593317
1 0.61738 0.597055
1 0.61825 0.55491
0 0.586465 0.892119
0 0.619303 0.906966
0 0.659709 0.927672
0.378103 0.624704 0.858961
0.756039 0.614115 0.67248
0.934447 0.647166 0.669673
1 0.663752 0.647929
1 0.664454 0.59028
1 0.650309 0.541039
0 0.639689 0.887037
0 0.67512 0.896056
0 0.710048 0.912688
0.388296 0.713207 0.836271
0.774807 0.719188 0.714839
0.937881 0.730083 0.681117
1 0.724163 0.620386
1 0.715724 0.554116
1 0.7075 0.518715
0 0.78645 0.982025
0 0.823911 0.973526
0 0.857832 0.963546
0.243534 0.858442 0.828626
0.719188 0.819928 0.648997
0.929595 0.798276 0.573587
1 0.800748 0.507927
1 0.806958 0.456641
1 0.805631 0.443992
0 0.921675 1
0 0.957259 0.999069
0 0.957305 0.960479
0.254292 0.934005 0.745235
0.657176 0.900389 0.582773
0.837537 0.90634 0.493095
1 0.84361 0.349859
1 0.849775 0.303517
1 0.852216 0.30312
0 1 1
0 1 0.995254
0 1 0.912718
0.303075 1 0.645747
0.602167 0.983673 0.520546
0.74081 0.987182 0.46276
0.938262 0.968978 0.350668
0.984527 0.915557 0.109316
0.983108 0.919768 0.124041
0 0.620081 0.998489
0 0.599466 0.858396
0 0.591943 0.738308
0 0.582086 0.624598
0.211704 0.573388 0.454887
0.674739 0.505852 0.265766
0.906462 0.515419 0.275471
1 0.532525 0.321477
1 0.595926 0.560784
0 0.624552 1
0 0.604532 0.981079
0 0.59823 0.852537
0 0.591073 0.723644
0.305226 0.569955 0.555871
0.701228 0.526894 0.410452
0.942473 0.524514 0.370092
1 0.553674 0.441398
1 0.607965 0.624598
0 0.639933 0.999771
0 0.628183 1
0 0.618555 0.985916
0.0211337 0.604456 0.863264
0.425238 0.558572 0.696666
0.773053 0.541024 0.541131
0.97615 0.546136 0.500526
1 0.583581 0.583337
1 0.62472 0.691752
0 0.656229 1
0 0.669215 1
0 0.667491 1
0.108064 0.636652 0.980606
0.54258 0.580255 0.829969
0.847013 0.570092 0.673869
0.99617 0.590387 0.638575
1 0.627588 0.70489
1 0.652537 0.747997
0 0.673426 1
0 0.697169 1
0 0.727474 1
0.19266 0.694347 1
0.617594 0.649195 0.899825
0.880644 0.637476 0.773404
0.999451 0.6654 0.750362
1 0.68957 0.773968
1 0.695262 0.776043
0 0.698955 1
0 0.723873 1
0 0.756237 1
0.188846 0.763272 0.995407
0.6645 0.731563 0.905852
0.883833 0.724529 0.806378
0.995666 0.742565 0.798016
1 0.747265 0.784146
1 0.742748 0.768063
0 0.746349 1
0 0.770672 1
0 0.795911 1
0.208026 0.800076 0.988144
0.65507 0.797803 0.884108
0.867475 0.806043 0.811643
0.998749 0.806271 0.786145
1 0.799374 0.754955
1 0.797345 0.747143
0 0.856764 1
0 0.881514 1
0 0.905699 1
0.01561 0.929091 0.999756
0.520867 0.906706 0.875044
0.816266 0.883268 0.753109
0.995224 0.860975 0.685634
1 0.869703 0.652842
1 0.872328 0.652903
0 0.960555 1
0 0.988785 1
0 1 1
0.0158846 1 0.97908
0.497002 0.988998 0.783856
0.745724 0.967254 0.683497
0.909026 0.968688 0.590311
0.997955 0.915496 0.480461
0.997955 0.918944 0.484794
0 0.730327 1
0 0.710307 1
0 0.698848 0.955001
0 0.6869 0.891325
0.0571908 0.670695 0.82533
0.492592 0.623499 0.708721
0.829801 0.593393 0.603998
1 0.600885 0.597208
1 0.608576 0.603571
0 0.726116 1
0 0.709041 1
0 0.698604 0.999329
0 0.690684 0.967269
0.136934 0.664897 0.893019
0.56965 0.609934 0.777829
0.874769 0.588724 0.665629
1 0.601923 0.653941
1 0.61416 0.661601
0 0.733913 1
0 0.718059 1
0 0.706447 1
0 0.701991 0.999954
0.235523 0.660197 0.972625
0.654582 0.60441 0.854871
0.918685 0.589258 0.746258
1 0.607141 0.716228
1 0.630915 0.738918
0 0.746334 1
0 0.746715 1
0 0.737926 1
0 0.729778 1
0.345693 0.677623 0.998901
0.731075 0.629007 0.918746
0.952605 0.613031 0.82269
1 0.632837 0.776028
1 0.658808 0.799985
0 0.759243 1
0 0.771588 1
0 0.786114 1
0.00122072 0.771725 1
0.427909 0.718654 1
0.781201 0.683299 0.953307
0.968429 0.665492 0.870695
1 0.680964 0.817563
1 0.698192 0.838193
0 0.77438 1
0 0.790509 1
0 0.814084 1
0.00915541 0.82591 1
0.490288 0.76704 1
0.807446 0.744167 0.959686
0.974182 0.729702 0.885893
1 0.737453 0.848844
1 0.745235 0.864363
0 0.797406 1
0 0.812909 1
0 0.834394 1
0.0111391 0.848127 1
0.481682 0.823514 0.999069
0.812604 0.806165 0.951019
0.969009 0.79443 0.88571
1 0.796902 0.875303
1 0.799558 0.88304
0 0.834302 1
0 0.850034 1
0 0.867658 1
0.00982681 0.875273 1
0.501183 0.851957 0.996201
0.796765 0.860533 0.924331
0.943221 0.866758 0.872938
1 0.865187 0.867094
1 0.866911 0.868437
0 0.909545 1
0 0.928054 1
0 0.947097 1
0 0.96463 1
0.367315 0.958373 1
0.701976 0.958877 0.907286
0.885466 0.948501 0.810971
0.999969 0.931914 0.748699
1 0.936706 0.74757
0 0.83299 1
0 0.817227 1
0 0.804242 1
0 0.795056 1
0.000198367 0.784649 1
0.34049 0.727977 0.98468
0.742748 0.67248 0.90544
0.97081 0.644877 0.842222
1 0.657298 0.815396
0 0.821927 1
0 0.809339 1
0 0.798871 1
0 0.792554 1
0.0153048 0.780072 1
0.422553 0.720043 1
0.789487 0.669703 0.934432
0.986694 0.645518 0.874403
1 0.658305 0.841535
0 0.821012 1
0 0.805646 1
0 0.795148 1
0 0.790814 1
0.0423133 0.773236 1
0.508156 0.712764 0.999939
0.832532 0.669139 0.964797
0.997162 0.64831 0.906172
1 0.662654 0.872068
0 0.82681 1
0 0.819211 1
0 0.808606 1
0 0.802014 1
0.0885023 0.776684 1
0.580301 0.719905 1
0.866468 0.682628 0.990677
1 0.663905 0.935149
1 0.676875 0.90399
0 0.834119 1
0 0.836149 1
0 0.839643 1
0 0.830716 1
0.162005 0.791913 1
0.642893 0.743404 1
0.892195 0.713115 0.997787
1 0.695598 0.957885
1 0.704479 0.933074
0 0.842893 1
0 0.849714 1
0 0.862409 1
0 0.870008 1
0.259892 0.812711 1
0.705837 0.775158 1
0.917525 0.751568 0.998352
1 0.735088 0.972259
1 0.740993 0.959579
0 0.854002 1
0 0.862547 1
0 0.87718 1
0 0.892592 1
0.30573 0.851057 1
0.745907 0.815991 1
0.930144 0.797238 1
1 0.782391 0.975616
1 0.786633 0.97351
0 0.870588 1
0 0.879561 1
0 0.893004 1
0 0.906584 1
0.356176 0.870832 1
0.735546 0.866941 1
0.917937 0.859602 0.991318
1 0.846815 0.962264
1 0.850828 0.966049
0 0.896101 1
0 0.906889 1
0 0.91957 1
0 0.92874 1
0.396918 0.893858 1
0.731517 0.895979 0.999069
0.887892 0.922637 0.961379
0.996124 0.932723 0.922316
1 0.938476 0.928847
0 0.911421 1
0 0.901686 1
0 0.890883 1
0 0.881758 1
0 0.873732 1
0.186755 0.825483 1
0.645502 0.767926 1
0.903853 0.728084 0.999832
1 0.697002 0.976806
0 0.895232 1
0 0.88835 1
0 0.880049 1
0 0.87332 1
0 0.868025 1
0.269734 0.810208 1
0.698955 0.760616 1
0.93022 0.722667 1
1 0.693172 0.99295
0 0.884413 1
0 0.876051 1
0 0.8692 1
0 0.864012 1
0 0.860029 1
0.355322 0.792676 1
0.746532 0.753948 1
0.959457 0.716258 1
1 0.689021 1
0 0.878187 1
0 0.874022 1
0 0.866865 1
0 0.860716 1
0 0.854444 1
0.430228 0.780606 1
0.793042 0.749081 1
0.983383 0.712047 1
1 0.693767 1
0 0.876097 1
0 0.877791 1
0 0.87808 1
0 0.870726 1
0.0101778 0.852918 1
0.516243 0.782132 1
0.835142 0.755001 1
0.994827 0.722332 1
1 0.710399 1
0 0.8757 1
0 0.882841 1
0 0.89131 1
0 0.89514 1
0.109728 0.852491 1
0.637247 0.791165 1
0.885161 0.770169 1
1 0.742397 1
1 0.738842 1
0 0.877592 1
0 0.887526 1
0 0.900023 1
0 0.911879 1
0.230686 0.868772 1
0.721035 0.819715 1
0.91696 0.803662 1
1 0.781247 1
1 0.78172 1
0 0.884764 1
0 0.895369 1
0 0.9084 1
0 0.921263 1
0.309834 0.882918 1
0.720363 0.869734 1
0.913619 0.861845 1
1 0.843809 0.999344
1 0.84625 0.998993
0 0.902083 1
0 0.912871 1
0 0.925185 1
0 0.933715 1
0.383352 0.89398 1
0.719753 0.897017 1
0.88275 0.926406 0.993149
0.997421 0.932296 0.957946
1 0.936126 0.954421
