public/LUTS/Autumn/Autumn_11.cube
TITLE "Generated by Resolve"
LUT_3D_SIZE 33
0.0561379 0.0773938 0.0809949
0.0991226 0.082887 0.0655528
0.141436 0.0914321 0.051194
0.188083 0.0975509 0.0310521
0.238392 0.101625 0.00743114
0.291859 0.10428 0
0.348592 0.106645 0
0.413153 0.107912 0
0.485573 0.109117 0
0.562127 0.110811 0
0.643824 0.110567 0
0.728573 0.108324 0
0.811109 0.105562 0
0.890043 0.102678 0
0.963912 0.0998398 0
0.997864 0.0977493 0
1 0.0969253 0
1 0.098146 0
1 0.104921 0
1 0.120943 0
1 0.143725 0
1 0.166659 0
1 0.18999 0
1 0.212421 0
1 0.234363 0
1 0.257023 0
1 0.280369 0
1 0.304555 0
1 0.329107 0
1 0.353735 0
1 0.373983 0
1 0.380926 0
1 0.380987 0
0.0506752 0.0932784 0.0803845
0.0930953 0.0909438 0.066743
0.137026 0.0961166 0.0529793
0.184222 0.101884 0.0333104
0.237079 0.104479 0.00914015
0.292683 0.10602 0
0.351171 0.107927 0
0.417334 0.108904 0
0.491478 0.109651 0
0.570001 0.110658 0
0.652522 0.11014 0
0.737072 0.108339 0
0.818708 0.106355 0
0.896178 0.104387 0
0.967773 0.102419 0
0.999115 0.10103 0
1 0.100786 0
1 0.102388 0
1 0.1075 0
1 0.119509 0
1 0.139544 0
1 0.161196 0
1 0.182849 0
1 0.204608 0
1 0.226993 0
1 0.250217 0
1 0.274006 0
1 0.298543 0
1 0.323278 0
1 0.347936 0
1 0.368002 0
1 0.374456 0
1 0.374365 0
0.0442512 0.111498 0.0798657
0.0820172 0.107485 0.070161
0.131701 0.104021 0.0531777
0.179522 0.109194 0.0347601
0.23241 0.112627 0.0101778
0.28983 0.114107 0
0.351141 0.115221 0
0.419806 0.115801 0
0.496925 0.115984 0
0.579065 0.115953 0
0.664088 0.114977 0
0.74905 0.113771 0
0.829725 0.112871 0
0.905196 0.112016 0
0.97232 0.111299 0
1 0.111299 0
1 0.112444 0
1 0.11516 0
1 0.120012 0
1 0.128389 0
1 0.141054 0
1 0.155856 0
1 0.17351 0
1 0.193606 0
1 0.214755 0
1 0.238972 0
1 0.263935 0
1 0.289265 0
1 0.314748 0
1 0.340124 0
1 0.360327 0
1 0.365957 0
1 0.365805 0
0.0364996 0.130388 0.0796368
0.0678111 0.128908 0.0764477
0.119646 0.120165 0.0543374
0.175479 0.117327 0.0359045
0.229206 0.121279 0.0112001
0.286839 0.123949 0
0.348104 0.126574 0
0.41622 0.129564 0
0.49395 0.132235 0
0.577142 0.134157 0
0.662409 0.134829 0
0.747845 0.134493 0
0.829328 0.133806 0
0.904662 0.133242 0
0.971649 0.133257 0
0.999756 0.13431 0
1 0.136553 0
1 0.140185 0
1 0.145342 0
1 0.152422 0
1 0.161654 0
1 0.172885 0
1 0.186481 0
1 0.201968 0
1 0.219028 0
1 0.237522 0
1 0.256992 0
1 0.279271 0
1 0.303914 0
1 0.32929 0
1 0.349081 0
1 0.353643 0
1 0.353658 0
0.0275273 0.150042 0.079408
0.0560769 0.148013 0.0778363
0.100847 0.147387 0.0661479
0.165408 0.131807 0.0373999
0.225834 0.130282 0.0142214
0.285573 0.132708 0
0.347784 0.136553 0
0.416724 0.142092 0
0.495109 0.147677 0
0.578378 0.152743 0
0.662242 0.157321 0
0.745281 0.160937 0
0.824369 0.163073 0
0.897047 0.164843 0
0.963561 0.1664 0
0.996201 0.168002 0
1 0.170474 0
1 0.174258 0
1 0.179248 0
1 0.185916 0
1 0.194583 0
1 0.204685 0
1 0.216114 0
1 0.229465 0
1 0.244907 0
1 0.261265 0
1 0.278721 0
1 0.297368 0
1 0.316899 0
1 0.336324 0
1 0.350576 0
1 0.351797 0
1 0.351095 0
0.0172885 0.16997 0.0798657
0.0449836 0.167315 0.0776684
0.0820172 0.170901 0.071046
0.147311 0.163851 0.0458228
0.216602 0.146685 0.0184024
0.282856 0.143023 0
0.349325 0.146456 0
0.421057 0.153048 0
0.502022 0.15964 0
0.587793 0.165911 0
0.67303 0.172671 0
0.754849 0.179751 0
0.830381 0.186526 0
0.898512 0.193057 0
0.959808 0.198611 0
0.993301 0.203754 0
1 0.208972 0
1 0.214343 0
1 0.220066 0
1 0.226551 0
1 0.234684 0
1 0.244251 0
1 0.255207 0
1 0.267918 0
1 0.282032 0
1 0.297154 0
1 0.31368 0
1 0.330495 0
1 0.347951 0
1 0.364538 0
1 0.37528 0
1 0.37583 0
1 0.375692 0
0.00665293 0.190417 0.0805066
0.033051 0.187793 0.0776532
0.0640574 0.192813 0.0695354
0.120546 0.195682 0.0550393
0.199496 0.179873 0.0185855
0.274372 0.161181 0
0.348486 0.15935 0
0.424155 0.16553 0
0.507668 0.172747 0
0.59704 0.1794 0
0.685359 0.186709 0
0.769085 0.194751 0
0.844358 0.203525 0
0.91014 0.213138 0
0.966903 0.222919 0
0.995499 0.232532 0
1 0.241764 0
1 0.251164 0
1 0.261036 0
1 0.270756 0
1 0.280751 0
1 0.29131 0
1 0.302113 0
1 0.314504 0
1 0.32755 0
1 0.341772 0
1 0.356939 0
1 0.372519 0
1 0.388937 0
1 0.402625 0
1 0.409155 0
1 0.409003 0
1 0.40853 0
0 0.211582 0.0821241
0.0201724 0.209339 0.077821
0.0466468 0.215122 0.0674296
0.0946212 0.222309 0.0552224
0.170504 0.220905 0.0267491
0.258488 0.196872 0
0.340459 0.178668 0
0.424262 0.180499 0
0.511513 0.187304 0
0.604334 0.194476 0
0.695644 0.202182 0
0.781262 0.210712 0
0.85655 0.220417 0
0.921889 0.231037 0
0.976074 0.242466 0
0.998886 0.25449 0
1 0.267262 0
1 0.280324 0
1 0.292851 0
1 0.305287 0
1 0.318776 0
1 0.333288 0
1 0.34789 0
1 0.364553 0
1 0.379416 0
1 0.393194 0
1 0.407706 0
1 0.422766 0
1 0.437629 0
1 0.447715 0
1 0.450401 0
1 0.449775 0
1 0.449042 0
0 0.23389 0.0847944
0.00787366 0.232197 0.0781567
0.0284123 0.238895 0.065156
0.0683452 0.249775 0.0477607
0.136385 0.257649 0.0271
0.229999 0.247639 0.00236515
0.326314 0.217563 0
0.417243 0.202258 0
0.512367 0.204776 0
0.60911 0.211231 0
0.702525 0.219394 0
0.788815 0.228687 0
0.864622 0.239048 0
0.930648 0.250248 0
0.981308 0.26244 0
1 0.275639 0
1 0.289799 0
1 0.304265 0
1 0.318761 0
1 0.333837 0
1 0.349981 0
1 0.366155 0
1 0.382147 0
1 0.399603 0
1 0.417426 0
1 0.435508 0
1 0.45391 0
1 0.471855 0
1 0.487465 0
1 0.496803 0
1 0.499046 0
1 0.49868 0
1 0.498573 0
0 0.262257 0.0832532
0.000946059 0.260319 0.0749371
0.00715648 0.26656 0.0608072
0.0393072 0.27982 0.0378576
0.103761 0.290883 0.0194247
0.191608 0.295857 0.00332647
0.299367 0.274403 0
0.403693 0.240436 0
0.504982 0.229358 0
0.608789 0.231556 0
0.706249 0.23856 0
0.793515 0.248402 0
0.8701 0.259388 0
0.935225 0.271458 0
0.982879 0.284352 0
1 0.29807 0
1 0.312566 0
1 0.327794 0
1 0.343816 0
1 0.360403 0
1 0.377661 0
1 0.395132 0
1 0.412848 0
1 0.430671 0
1 0.449409 0
1 0.467964 0
1 0.487114 0
1 0.505959 0
1 0.519783 0
1 0.526482 0
1 0.529229 0
1 0.531762 0
1 0.534112 0
0 0.293584 0.0810864
0 0.291981 0.071046
0.000457771 0.296529 0.0563058
0.0123598 0.312139 0.0287938
0.0745251 0.324437 0.0126955
0.156527 0.336049 0.00161746
0.261112 0.334813 0
0.378866 0.302037 0
0.489982 0.268513 0
0.599878 0.259022 0
0.704952 0.261814 0
0.796216 0.270008 0
0.872801 0.281315 0
0.936263 0.294011 0
0.983001 0.307454 0
1 0.321675 0
1 0.33695 0
1 0.35285 0
1 0.369146 0
1 0.385855 0
1 0.403296 0
1 0.421653 0
1 0.440146 0
1 0.459251 0
1 0.479011 0
1 0.498482 0
1 0.517494 0
1 0.534783 0
1 0.545373 0
1 0.549752 0
1 0.552621 0
1 0.555291 0
1 0.55758 0
0 0.32694 0.0799573
0 0.325719 0.0678416
0 0.328786 0.0532692
0.00308232 0.345327 0.0256809
0.0490883 0.359915 0.00885023
0.127153 0.37435 0.000289921
0.224552 0.38587 0
0.342168 0.37583 0
0.466316 0.333516 0
0.583535 0.299702 0
0.693874 0.292653 0
0.792538 0.2963 0
0.872145 0.304982 0
0.935836 0.31725 0
0.982818 0.33138 0
1 0.346365 0
1 0.362127 0
1 0.378317 0
1 0.394766 0
1 0.411734 0
1 0.42916 0
1 0.447242 0
1 0.465736 0
1 0.484474 0
1 0.504707 0
1 0.524987 0
1 0.544594 0
1 0.560754 0
1 0.569223 0
1 0.572061 0
1 0.574365 0
1 0.576699 0
1 0.577783 0
0 0.363012 0.0789807
0 0.361852 0.0662547
0 0.364584 0.0515145
0.000900282 0.380636 0.0253758
0.0261387 0.397971 0.00575265
0.100572 0.413931 0
0.192935 0.429572 0
0.303822 0.437583 0
0.430259 0.415778 0
0.5579 0.366018 0
0.675593 0.335515 0
0.779675 0.330526 0
0.864729 0.334478 0
0.931731 0.343191 0
0.981369 0.356405 0
1 0.371649 0
1 0.387533 0
1 0.403952 0
1 0.420615 0
1 0.437491 0
1 0.454749 0
1 0.472435 0
1 0.490623 0
1 0.509682 0
1 0.528756 0
1 0.547906 0
1 0.567163 0
1 0.580407 0
1 0.586435 0
1 0.588754 0
1 0.590616 0
1 0.592309 0
1 0.594095 0
0 0.402167 0.0772717
0 0.400732 0.0641947
0 0.403586 0.0489357
9.15541e-05 0.418143 0.0239567
0.0132448 0.437888 0.00195315
0.0763409 0.45507 0
0.164385 0.472343 0
0.271672 0.486854 0
0.390249 0.488151 0
0.52134 0.455421 0
0.649287 0.403098 0
0.759564 0.374975 0
0.849241 0.371328 0
0.920119 0.375891 0
0.974884 0.384833 0
0.99823 0.397696 0
1 0.413199 0
1 0.429572 0
1 0.446189 0
1 0.463127 0
1 0.480293 0
1 0.49752 0
1 0.514778 0
1 0.533104 0
1 0.551644 0
1 0.570352 0
1 0.588785 0
1 0.599496 0
1 0.603723 0
1 0.605875 0
1 0.60824 0
1 0.610407 0
1 0.611307 0
0 0.44242 0.0744335
0 0.441489 0.0609903
0 0.444678 0.0450599
0 0.457404 0.0209201
0.00701915 0.478553 0.000183108
0.0543832 0.497169 0
0.139422 0.51548 0
0.243442 0.532174 0
0.359319 0.543709 0
0.478477 0.537377 0
0.609293 0.493019 0
0.730327 0.43949 0
0.827634 0.415747 0
0.902907 0.414405 0
0.961028 0.419379 0
0.992523 0.427756 0
1 0.439933 0
1 0.455039 0
1 0.471458 0
1 0.488167 0
1 0.505013 0
1 0.521508 0
1 0.538293 0
1 0.556115 0
1 0.573907 0
1 0.590951 0
1 0.607752 0
1 0.616938 0
1 0.620554 0
1 0.622705 0
1 0.624842 0
1 0.626749 0
1 0.62797 0
0 0.484718 0.0708476
0 0.483925 0.056611
0 0.48687 0.0403601
0 0.497368 0.0173648
0.00218204 0.519753 0
0.0347906 0.539254 0
0.117769 0.558221 0
0.217853 0.575601 0
0.333043 0.590555 0
0.446662 0.59646 0
0.564538 0.580438 0
0.687114 0.529305 0
0.795438 0.477714 0
0.880644 0.457938 0
0.942962 0.458152 0
0.984192 0.463554 0
1 0.471504 0
1 0.482368 0
1 0.496193 0
1 0.5122 0
1 0.528481 0
1 0.544732 0
1 0.561486 0
1 0.57821 0
1 0.594705 0
1 0.611261 0
1 0.626856 0
1 0.634379 0
1 0.636988 0
1 0.638911 0
1 0.640955 0
1 0.642664 0
1 0.643626 0
0 0.52813 0.0657359
0 0.527016 0.051133
0 0.530068 0.0343481
0 0.53814 0.0124361
0.000213626 0.561334 0
0.0227512 0.58088 0
0.0985733 0.599893 0
0.195544 0.617502 0
0.306844 0.633127 0
0.424613 0.643915 0
0.531456 0.644175 0
0.639567 0.61915 0
0.751934 0.565011 0
0.848463 0.518715 0
0.91986 0.501656 0
0.969573 0.502205 0
0.99472 0.507515 0
1 0.514595 0
1 0.524025 0
1 0.536492 0
1 0.551568 0
1 0.567132 0
1 0.58352 0
1 0.599451 0
1 0.615488 0
1 0.631113 0
1 0.645014 0
1 0.651026 0
1 0.65301 0
1 0.654795 0
1 0.656626 0
1 0.658213 0
1 0.658991 0
0 0.570672 0.0601816
0 0.570199 0.0449378
0 0.57322 0.0274662
0 0.580118 0.00627146
0 0.602106 0
0.0160678 0.621698 0
0.0812085 0.640375 0
0.17612 0.657679 0
0.283909 0.673152 0
0.400717 0.685847 0
0.509224 0.69099 0
0.60415 0.685557 0
0.702159 0.65594 0
0.802396 0.603189 0
0.885863 0.561074 0
0.945785 0.54551 0
0.984787 0.545296 0
1 0.550057 0
1 0.556466 0
1 0.564492 0
1 0.575235 0
1 0.588968 0
1 0.604852 0
1 0.620035 0
1 0.635218 0
1 0.65066 0
1 0.662974 0
1 0.667948 0
1 0.66949 0
1 0.670924 0
1 0.67248 0
1 0.674006 0
1 0.674754 0
0 0.61297 0.0545968
0 0.612909 0.0380865
0 0.616297 0.019913
0 0.6224 0.00129702
0 0.642054 0
0.0107576 0.661631 0
0.0662394 0.679973 0
0.159136 0.696635 0
0.263706 0.711269 0
0.37641 0.723735 0
0.488716 0.732647 0
0.582483 0.733333 0
0.663844 0.724315 0
0.749233 0.691341 0
0.837201 0.641581 0
0.910109 0.603479 0
0.963836 0.587686 0
0.993408 0.586831 0
1 0.591211 0
1 0.596674 0
1 0.603113 0
1 0.612116 0
1 0.625315 0
1 0.639963 0
1 0.654536 0
1 0.670466 0
1 0.680415 0
1 0.684108 0
1 0.685496 0
1 0.686961 0
1 0.688655 0
1 0.690028 0
1 0.690608 0
0 0.654673 0.0482185
0 0.65539 0.03093
0 0.658625 0.0121614
0 0.664271 0
0 0.68098 0
0.00607309 0.699977 0
0.0526894 0.7178 0
0.143633 0.733639 0
0.245487 0.747356 0
0.354681 0.759213 0
0.465843 0.769024 0
0.564477 0.773129 0
0.642588 0.771084 0
0.710948 0.759915 0
0.785275 0.72668 0
0.861372 0.680751 0
0.926879 0.644785 0
0.974502 0.629053 0
0.998215 0.627146 0
1 0.630045 0
1 0.634241 0
1 0.639719 0
1 0.647898 0
1 0.659709 0
1 0.673655 0
1 0.689479 0
1 0.697383 0
1 0.700328 0
1 0.701915 0
1 0.703319 0
1 0.704662 0
1 0.70605 0
1 0.7066 0
0 0.696635 0.0413519
0 0.697383 0.0232548
0 0.700511 0.00387579
0 0.705715 0
0 0.719341 0
0.00166323 0.737224 0
0.0404212 0.75378 0
0.129595 0.768704 0
0.228717 0.781781 0
0.334951 0.792767 0
0.442344 0.801633 0
0.543633 0.807813 0
0.625986 0.808499 0
0.689799 0.805402 0
0.747997 0.792874 0
0.810346 0.761852 0
0.876997 0.719448 0
0.937896 0.685893 0
0.981338 0.669673 0
1 0.665461 0
1 0.666514 0
1 0.670344 0
1 0.675349 0
1 0.682246 0
1 0.692393 0
1 0.707683 0
1 0.714046 0
1 0.716289 0
1 0.718013 0
1 0.719692 0
1 0.721172 0
1 0.722362 0
1 0.722805 0
0 0.737224 0.0344854
0 0.738491 0.0151217
0 0.741817 0.00112917
0 0.746487 0
0 0.757275 0
3.0518e-05 0.773358 0
0.0321508 0.788586 0
0.115801 0.802487 0
0.212787 0.814588 0
0.316274 0.824475 0
0.420371 0.832319 0
0.519844 0.838163 0
0.607095 0.841123 0
0.673961 0.839826 0
0.72668 0.836011 0
0.77496 0.824704 0
0.827375 0.796292 0
0.88661 0.757366 0
0.945235 0.724819 0
0.985992 0.707393 0
1 0.701488 0
1 0.701549 0
1 0.704692 0
1 0.708766 0
1 0.715053 0
1 0.725933 0
1 0.730205 0
1 0.732082 0
1 0.733776 0
1 0.735424 0
1 0.737011 0
1 0.738125 0
1 0.739086 0
0 0.777661 0.0269169
0 0.77879 0.00732433
0 0.782162 0.000213626
0 0.786572 0
0 0.794614 0
0 0.808164 0
0.0265812 0.822385 0
0.103319 0.835004 0
0.198596 0.845777 0
0.299626 0.854414 0
0.400702 0.860929 0
0.497002 0.865721 0
0.585016 0.869245 0
0.657359 0.870253 0
0.711635 0.868208 0
0.755032 0.864607 0
0.79585 0.854353 0
0.840238 0.829175 0
0.89485 0.792828 0
0.953399 0.760937 0
0.992187 0.742397 0
1 0.735729 0
1 0.734554 0
1 0.736599 0
1 0.741527 0
1 0.748028 0
1 0.748241 0
1 0.748333 0
1 0.749767 0
1 0.751369 0
1 0.752712 0
1 0.753811 0
1 0.75494 0
0 0.817044 0.0194247
0 0.818769 0.0034638
0 0.822187 0
0 0.825879 0
0 0.831281 0
0 0.842695 0
0.0224765 0.85539 0
0.0938277 0.866316 0
0.186938 0.875517 0
0.284871 0.88275 0
0.383322 0.887831 0
0.476936 0.891417 0
0.561929 0.894331 0
0.635996 0.896422 0
0.694743 0.896452 0
0.739559 0.894286 0
0.777615 0.890852 0
0.813169 0.881331 0
0.853132 0.858579 0
0.904753 0.82565 0
0.962417 0.794629 0
0.999924 0.775296 0
1 0.768444 0
1 0.766171 0
1 0.769543 0
1 0.773404 0
1 0.770703 0
1 0.767147 0
1 0.766217 0
1 0.767391 0
1 0.768978 0
1 0.770291 0
1 0.771557 0
0 0.855802 0.011841
0 0.857572 0.00047303
0 0.860838 0
0 0.86421 0
0 0.867414 0
0 0.875883 0
0.0189212 0.88687 0
0.0855116 0.89604 0
0.17702 0.903456 0
0.272358 0.909163 0
0.367819 0.913329 0
0.458045 0.916182 0
0.539498 0.918379 0
0.611582 0.920302 0
0.672892 0.921904 0
0.721721 0.921843 0
0.761105 0.919631 0
0.795727 0.915816 0
0.829435 0.906691 0
0.866148 0.886488 0
0.914458 0.855726 0
0.970581 0.824872 0
0.989715 0.806653 0
0.993164 0.799741 0
0.994354 0.79852 0
0.994369 0.799558 0
0.996185 0.796033 0
0.998749 0.790875 0
1 0.786206 0
1 0.783886 0
1 0.784573 0
1 0.785626 0
1 0.787091 0
0 0.893156 0.00468452
0 0.895064 0
0 0.898024 0
0 0.901015 0
0 0.902571 0
0 0.907546 0
0.0162203 0.916487 0
0.0790112 0.923873 0
0.168414 0.929625 0
0.26096 0.934173 0
0.353033 0.937697 0
0.439689 0.9402 0
0.517815 0.94229 0
0.586938 0.944244 0
0.647242 0.946166 0
0.698482 0.947906 0
0.741314 0.947951 0
0.777493 0.945663 0
0.811399 0.941283 0
0.845106 0.932525 0
0.879957 0.913817 0
0.919112 0.884092 0
0.963424 0.853697 0
0.975372 0.836011 0
0.978561 0.830381 0
0.979919 0.827893 0
0.982956 0.822599 0
0.986328 0.816617 0
0.989319 0.810849 0
0.992294 0.805386 0
0.994629 0.801556 0
0.994736 0.801694 0
0.993957 0.803494 0
0 0.928756 0
0 0.93048 0
0 0.933181 0
0 0.935958 0
0 0.935576 0
0 0.937392 0
0.0148928 0.944213 0
0.0747845 0.950042 0
0.16257 0.954833 0
0.251987 0.958785 0
0.339467 0.961898 0
0.421851 0.96434 0
0.496361 0.966491 0
0.562249 0.968521 0
0.620218 0.970794 0
0.670817 0.973404 0
0.715923 0.975464 0
0.755306 0.975601 0
0.79086 0.973098 0
0.826062 0.968399 0
0.86125 0.960174 0
0.894926 0.94313 0
0.930617 0.912947 0
0.948547 0.883558 0
0.959014 0.864973 0
0.96257 0.858549 0
0.966079 0.852445 0
0.969833 0.845808 0
0.973602 0.839063 0
0.977584 0.832044 0
0.981292 0.825635 0
0.983093 0.822568 0
0.981277 0.825544 0
0 0.962127 0
0 0.963439 0
0 0.96582 0
0 0.967926 0
0 0.966033 0
0 0.96553 0
0.0145571 0.970642 0
0.0728161 0.975647 0
0.158419 0.97995 0
