public/LUTS/Autumn/Autumn_02.cube
TITLE "Generated by Resolve"
LUT_3D_SIZE 9
0 0 0
0.136492 0 0
0.273014 0 0
0.409522 0 0
0.546029 0 0
0.682551 0 0
0.819059 0 0
0.955581 0 0
1 0 0
0 0.124987 0
0.136492 0.121874 0
0.273014 0.118776 0
0.409522 0.115663 0
0.546029 0.112551 0
0.682551 0.109453 0
0.819059 0.10634 0
0.955581 0.103227 0
1 0.10013 0
0 0.249989 0
0.136492 0.246876 0
0.273014 0.243778 0
0.409522 0.240665 0
0.546029 0.237552 0
0.682551 0.234455 0
0.819059 0.231342 0
0.955581 0.228229 0
1 0.225132 0
0 0.37499 0
0.136492 0.371878 0
0.273014 0.36878 0
0.409522 0.365667 0
0.546029 0.362554 0
0.682551 0.359457 0
0.819059 0.356344 0
0.955581 0.353231 0
1 0.350134 0
0 0.499992 0
0.136492 0.49688 0
0.273014 0.493782 0
0.409522 0.490669 0
0.546029 0.487556 0
0.682551 0.484459 0
0.819059 0.481346 0
0.955581 0.478233 0
1 0.475135 0
0 0.624994 0
0.136492 0.621881 0
0.273014 0.618784 0
0.409522 0.615671 0
0.546029 0.612558 0
0.682551 0.609461 0
0.819059 0.606348 0
0.955581 0.603235 0
1 0.600137 0
0 0.749996 0
0.136492 0.746883 0
0.273014 0.743786 0
0.409522 0.740673 0
0.546029 0.73756 0
0.682551 0.734462 0
0.819059 0.73135 0
0.955581 0.728237 0
1 0.725139 0
0 0.874998 0
0.136492 0.871885 0
0.273014 0.868788 0
0.409522 0.865675 0
0.546029 0.862562 0
0.682551 0.859464 0
0.819059 0.856352 0
0.955581 0.853239 0
1 0.850141 0
0 1 0
0.136492 0.996887 0
0.273014 0.99379 0
0.409522 0.990677 0
0.546029 0.987564 0
0.682551 0.984466 0
0.819059 0.981353 0
0.955581 0.978241 0
1 0.975143 0
0 0 0.124987
0.136492 0 0.121874
0.273014 0 0.118776
0.409522 0 0.115663
0.546029 0 0.112551
0.682551 0 0.109453
0.819059 0 0.10634
0.955581 0 0.103227
1 0 0.10013
0 0.124987 0.124987
0.136492 0.121874 0.121874
0.273014 0.118776 0.118776
0.409522 0.115663 0.115663
0.546029 0.112551 0.112551
0.682551 0.109453 0.109453
0.819059 0.10634 0.10634
0.955581 0.103227 0.103227
1 0.10013 0.10013
0 0.249989 0.124987
0.136492 0.246876 0.121874
0.273014 0.243778 0.118776
0.409522 0.240665 0.115663
0.546029 0.237552 0.112551
0.682551 0.234455 0.109453
0.819059 0.231342 0.10634
0.955581 0.228229 0.103227
1 0.225132 0.10013
0 0.37499 0.124987
0.136492 0.371878 0.121874
0.273014 0.36878 0.118776
0.409522 0.365667 0.115663
0.546029 0.362554 0.112551
0.682551 0.359457 0.109453
0.819059 0.356344 0.10634
0.955581 0.353231 0.103227
1 0.350134 0.10013
0 0.499992 0.124987
0.136492 0.49688 0.121874
0.273014 0.493782 0.118776
0.409522 0.490669 0.115663
0.546029 0.487556 0.112551
0.682551 0.484459 0.109453
0.819059 0.481346 0.10634
0.955581 0.478233 0.103227
1 0.475135 0.10013
0 0.624994 0.124987
0.136492 0.621881 0.121874
0.273014 0.618784 0.118776
0.409522 0.615671 0.115663
0.546029 0.612558 0.112551
0.682551 0.609461 0.109453
0.819059 0.606348 0.10634
0.955581 0.603235 0.103227
1 0.600137 0.10013
0 0.749996 0.124987
0.136492 0.746883 0.121874
0.273014 0.743786 0.118776
0.409522 0.740673 0.115663
0.546029 0.73756 0.112551
0.682551 0.734462 0.109453
0.819059 0.73135 0.10634
0.955581 0.728237 0.103227
1 0.725139 0.10013
0 0.874998 0.124987
0.136492 0.871885 0.121874
0.273014 0.868788 0.118776
0.409522 0.865675 0.115663
0.546029 0.862562 0.112551
0.682551 0.859464 0.109453
0.819059 0.856352 0.10634
0.955581 0.853239 0.103227
1 0.850141 0.10013
0 1 0.124987
0.136492 0.996887 0.121874
0.273014 0.99379 0.118776
0.409522 0.990677 0.115663
0.546029 0.987564 0.112551
0.682551 0.984466 0.109453
0.819059 0.981353 0.10634
0.955581 0.978241 0.103227
1 0.975143 0.10013
0 0 0.249989
0.136492 0 0.246876
0.273014 0 0.243778
0.409522 0 0.240665
0.546029 0 0.237552
0.682551 0 0.234455
0.819059 0 0.231342
0.955581 0 0.228229
1 0 0.225132
0 0.124987 0.249989
0.136492 0.121874 0.246876
0.273014 0.118776 0.243778
0.409522 0.115663 0.240665
0.546029 0.112551 0.237552
0.682551 0.109453 0.234455
0.819059 0.10634 0.231342
0.955581 0.103227 0.228229
1 0.10013 0.225132
0 0.249989 0.249989
0.136492 0.246876 0.246876
0.273014 0.243778 0.243778
0.409522 0.240665 0.240665
0.546029 0.237552 0.237552
0.682551 0.234455 0.234455
0.819059 0.231342 0.231342
0.955581 0.228229 0.228229
1 0.225132 0.225132
0 0.37499 0.249989
0.136492 0.371878 0.246876
0.273014 0.36878 0.243778
0.409522 0.365667 0.240665
0.546029 0.362554 0.237552
0.682551 0.359457 0.234455
0.819059 0.356344 0.231342
0.955581 0.353231 0.228229
1 0.350134 0.225132
0 0.499992 0.249989
0.136492 0.49688 0.246876
0.273014 0.493782 0.243778
0.409522 0.490669 0.240665
0.546029 0.487556 0.237552
0.682551 0.484459 0.234455
0.819059 0.481346 0.231342
0.955581 0.478233 0.228229
1 0.475135 0.225132
0 0.624994 0.249989
0.136492 0.621881 0.246876
0.273014 0.618784 0.243778
0.409522 0.615671 0.240665
0.546029 0.612558 0.237552
0.682551 0.609461 0.234455
0.819059 0.606348 0.231342
0.955581 0.603235 0.228229
1 0.600137 0.225132
0 0.749996 0.249989
0.136492 0.746883 0.246876
0.273014 0.743786 0.243778
0.409522 0.740673 0.240665
0.546029 0.73756 0.237552
0.682551 0.734462 0.234455
0.819059 0.73135 0.231342
0.955581 0.728237 0.228229
1 0.725139 0.225132
0 0.874998 0.249989
0.136492 0.871885 0.246876
0.273014 0.868788 0.243778
0.409522 0.865675 0.240665
0.546029 0.862562 0.237552
0.682551 0.859464 0.234455
0.819059 0.856352 0.231342
0.955581 0.853239 0.228229
1 0.850141 0.225132
0 1 0.249989
0.136492 0.996887 0.246876
0.273014 0.99379 0.243778
0.409522 0.990677 0.240665
0.546029 0.987564 0.237552
0.682551 0.984466 0.234455
0.819059 0.981353 0.231342
0.955581 0.978241 0.228229
1 0.975143 0.225132
0 0 0.37499
0.136492 0 0.371878
0.273014 0 0.36878
0.409522 0 0.365667
0.546029 0 0.362554
0.682551 0 0.359457
0.819059 0 0.356344
0.955581 0 0.353231
1 0 0.350134
0 0.124987 0.37499
0.136492 0.121874 0.371878
0.273014 0.118776 0.36878
0.409522 0.115663 0.365667
0.546029 0.112551 0.362554
0.682551 0.109453 0.359457
0.819059 0.10634 0.356344
0.955581 0.103227 0.353231
1 0.10013 0.350134
0 0.249989 0.37499
0.136492 0.246876 0.371878
0.273014 0.243778 0.36878
0.409522 0.240665 0.365667
0.546029 0.237552 0.362554
0.682551 0.234455 0.359457
0.819059 0.231342 0.356344
0.955581 0.228229 0.353231
1 0.225132 0.350134
0 0.37499 0.37499
0.136492 0.371878 0.371878
0.273014 0.36878 0.36878
0.409522 0.365667 0.365667
0.546029 0.362554 0.362554
0.682551 0.359457 0.359457
0.819059 0.356344 0.356344
0.955581 0.353231 0.353231
1 0.350134 0.350134
0 0.499992 0.37499
0.136492 0.49688 0.371878
0.273014 0.493782 0.36878
0.409522 0.490669 0.365667
0.546029 0.487556 0.362554
0.682551 0.484459 0.359457
0.819059 0.481346 0.356344
0.955581 0.478233 0.353231
1 0.475135 0.350134
0 0.624994 0.37499
0.136492 0.621881 0.371878
0.273014 0.618784 0.36878
0.409522 0.615671 0.365667
0.546029 0.612558 0.362554
0.682551 0.609461 0.359457
0.819059 0.606348 0.356344
0.955581 0.603235 0.353231
1 0.600137 0.350134
0 0.749996 0.37499
0.136492 0.746883 0.371878
0.273014 0.743786 0.36878
0.409522 0.740673 0.365667
0.546029 0.73756 0.362554
0.682551 0.734462 0.359457
0.819059 0.73135 0.356344
0.955581 0.728237 0.353231
1 0.725139 0.350134
0 0.874998 0.37499
0.136492 0.871885 0.371878
0.273014 0.868788 0.36878
0.409522 0.865675 0.365667
0.546029 0.862562 0.362554
0.682551 0.859464 0.359457
0.819059 0.856352 0.356344
0.955581 0.853239 0.353231
1 0.850141 0.350134
0 1 0.37499
0.136492 0.996887 0.371878
0.273014 0.99379 0.36878
0.409522 0.990677 0.365667
0.546029 0.987564 0.362554
0.682551 0.984466 0.359457
0.819059 0.981353 0.356344
0.955581 0.978241 0.353231
1 0.975143 0.350134
0 0 0.499992
0.136492 0 0.49688
0.273014 0 0.493782
0.409522 0 0.490669
0.546029 0 0.487556
0.682551 0 0.484459
0.819059 0 0.481346
0.955581 0 0.478233
1 0 0.475135
0 0.124987 0.499992
0.136492 0.121874 0.49688
0.273014 0.118776 0.493782
0.409522 0.115663 0.490669
0.546029 0.112551 0.487556
0.682551 0.109453 0.484459
0.819059 0.10634 0.481346
0.955581 0.103227 0.478233
1 0.10013 0.475135
0 0.249989 0.499992
0.136492 0.246876 0.49688
0.273014 0.243778 0.493782
0.409522 0.240665 0.490669
0.546029 0.237552 0.487556
0.682551 0.234455 0.484459
0.819059 0.231342 0.481346
0.955581 0.228229 0.478233
1 0.225132 0.475135
0 0.37499 0.499992
0.136492 0.371878 0.49688
0.273014 0.36878 0.493782
0.409522 0.365667 0.490669
0.546029 0.362554 0.487556
0.682551 0.359457 0.484459
0.819059 0.356344 0.481346
0.955581 0.353231 0.478233
1 0.350134 0.475135
0 0.499992 0.499992
0.136492 0.49688 0.49688
0.273014 0.493782 0.493782
0.409522 0.490669 0.490669
0.546029 0.487556 0.487556
0.682551 0.484459 0.484459
0.819059 0.481346 0.481346
0.955581 0.478233 0.478233
1 0.475135 0.475135
0 0.624994 0.499992
0.136492 0.621881 0.49688
0.273014 0.618784 0.493782
0.409522 0.615671 0.490669
0.546029 0.612558 0.487556
0.682551 0.609461 0.484459
0.819059 0.606348 0.481346
0.955581 0.603235 0.478233
1 0.600137 0.475135
0 0.749996 0.499992
0.136492 0.746883 0.49688
0.273014 0.743786 0.493782
0.409522 0.740673 0.490669
0.546029 0.73756 0.487556
0.682551 0.734462 0.484459
0.819059 0.73135 0.481346
0.955581 0.728237 0.478233
1 0.725139 0.475135
0 0.874998 0.499992
0.136492 0.871885 0.49688
0.273014 0.868788 0.493782
0.409522 0.865675 0.490669
0.546029 0.862562 0.487556
0.682551 0.859464 0.484459
0.819059 0.856352 0.481346
0.955581 0.853239 0.478233
1 0.850141 0.475135
0 1 0.499992
0.136492 0.996887 0.49688
0.273014 0.99379 0.493782
0.409522 0.990677 0.490669
0.546029 0.987564 0.487556
0.682551 0.984466 0.484459
0.819059 0.981353 0.481346
0.955581 0.978241 0.478233
1 0.975143 0.475135
0 0 0.624994
0.136492 0 0.621881
0.273014 0 0.618784
0.409522 0 0.615671
0.546029 0 0.612558
0.682551 0 0.609461
0.819059 0 0.606348
0.955581 0 0.603235
1 0 0.600137
0 0.124987 0.624994
0.136492 0.121874 0.621881
0.273014 0.118776 0.618784
0.409522 0.115663 0.615671
0.546029 0.112551 0.612558
0.682551 0.109453 0.609461
0.819059 0.10634 0.606348
0.955581 0.103227 0.603235
1 0.10013 0.600137
0 0.249989 0.624994
0.136492 0.246876 0.621881
0.273014 0.243778 0.618784
0.409522 0.240665 0.615671
0.546029 0.237552 0.612558
0.682551 0.234455 0.609461
0.819059 0.231342 0.606348
0.955581 0.228229 0.603235
1 0.225132 0.600137
0 0.37499 0.624994
0.136492 0.371878 0.621881
0.273014 0.36878 0.618784
0.409522 0.365667 0.615671
0.546029 0.362554 0.612558
0.682551 0.359457 0.609461
0.819059 0.356344 0.606348
0.955581 0.353231 0.603235
1 0.350134 0.600137
0 0.499992 0.624994
0.136492 0.49688 0.621881
0.273014 0.493782 0.618784
0.409522 0.490669 0.615671
0.546029 0.487556 0.612558
0.682551 0.484459 0.609461
0.819059 0.481346 0.606348
0.955581 0.478233 0.603235
1 0.475135 0.600137
0 0.624994 0.624994
0.136492 0.621881 0.621881
0.273014 0.618784 0.618784
0.409522 0.615671 0.615671
0.546029 0.612558 0.612558
0.682551 0.609461 0.609461
0.819059 0.606348 0.606348
0.955581 0.603235 0.603235
1 0.600137 0.600137
0 0.749996 0.624994
0.136492 0.746883 0.621881
0.273014 0.743786 0.618784
0.409522 0.740673 0.615671
0.546029 0.73756 0.612558
0.682551 0.734462 0.609461
0.819059 0.73135 0.606348
0.955581 0.728237 0.603235
1 0.725139 0.600137
0 0.874998 0.624994
0.136492 0.871885 0.621881
0.273014 0.868788 0.618784
0.409522 0.865675 0.615671
0.546029 0.862562 0.612558
0.682551 0.859464 0.609461
0.819059 0.856352 0.606348
0.955581 0.853239 0.603235
1 0.850141 0.600137
0 1 0.624994
0.136492 0.996887 0.621881
0.273014 0.99379 0.618784
0.409522 0.990677 0.615671
0.546029 0.987564 0.612558
0.682551 0.984466 0.609461
0.819059 0.981353 0.606348
0.955581 0.978241 0.603235
1 0.975143 0.600137
0 0 0.749996
0.136492 0 0.746883
0.273014 0 0.743786
0.409522 0 0.740673
0.546029 0 0.73756
0.682551 0 0.734462
0.819059 0 0.73135
0.955581 0 0.728237
1 0 0.725139
0 0.124987 0.749996
0.136492 0.121874 0.746883
0.273014 0.118776 0.743786
0.409522 0.115663 0.740673
0.546029 0.112551 0.73756
0.682551 0.109453 0.734462
0.819059 0.10634 0.73135
0.955581 0.103227 0.728237
1 0.10013 0.725139
0 0.249989 0.749996
0.136492 0.246876 0.746883
0.273014 0.243778 0.743786
0.409522 0.240665 0.740673
0.546029 0.237552 0.73756
0.682551 0.234455 0.734462
0.819059 0.231342 0.73135
0.955581 0.228229 0.728237
1 0.225132 0.725139
0 0.37499 0.749996
0.136492 0.371878 0.746883
0.273014 0.36878 0.743786
0.409522 0.365667 0.740673
0.546029 0.362554 0.73756
0.682551 0.359457 0.734462
0.819059 0.356344 0.73135
0.955581 0.353231 0.728237
1 0.350134 0.725139
0 0.499992 0.749996
0.136492 0.49688 0.746883
0.273014 0.493782 0.743786
0.409522 0.490669 0.740673
0.546029 0.487556 0.73756
0.682551 0.484459 0.734462
0.819059 0.481346 0.73135
0.955581 0.478233 0.728237
1 0.475135 0.725139
0 0.624994 0.749996
0.136492 0.621881 0.746883
0.273014 0.618784 0.743786
0.409522 0.615671 0.740673
0.546029 0.612558 0.73756
0.682551 0.609461 0.734462
0.819059 0.606348 0.73135
0.955581 0.603235 0.728237
1 0.600137 0.725139
0 0.749996 0.749996
0.136492 0.746883 0.746883
0.273014 0.743786 0.743786
0.409522 0.740673 0.740673
0.546029 0.73756 0.73756
0.682551 0.734462 0.734462
0.819059 0.73135 0.73135
0.955581 0.728237 0.728237
1 0.725139 0.725139
0 0.874998 0.749996
0.136492 0.871885 0.746883
0.273014 0.868788 0.743786
0.409522 0.865675 0.740673
0.546029 0.862562 0.73756
0.682551 0.859464 0.734462
0.819059 0.856352 0.73135
0.955581 0.853239 0.728237
1 0.850141 0.725139
0 1 0.749996
0.136492 0.996887 0.746883
0.273014 0.99379 0.743786
0.409522 0.990677 0.740673
0.546029 0.987564 0.73756
0.682551 0.984466 0.734462
0.819059 0.981353 0.73135
0.955581 0.978241 0.728237
1 0.975143 0.725139
0 0 0.874998
0.136492 0 0.871885
0.273014 0 0.868788
0.409522 0 0.865675
0.546029 0 0.862562
0.682551 0 0.859464
0.819059 0 0.856352
0.955581 0 0.853239
1 0 0.850141
0 0.124987 0.874998
0.136492 0.121874 0.871885
0.273014 0.118776 0.868788
0.409522 0.115663 0.865675
0.546029 0.112551 0.862562
0.682551 0.109453 0.859464
0.819059 0.10634 0.856352
0.955581 0.103227 0.853239
1 0.10013 0.850141
0 0.249989 0.874998
0.136492 0.246876 0.871885
0.273014 0.243778 0.868788
0.409522 0.240665 0.865675
0.546029 0.237552 0.862562
0.682551 0.234455 0.859464
0.819059 0.231342 0.856352
0.955581 0.228229 0.853239
1 0.225132 0.850141
0 0.37499 0.874998
0.136492 0.371878 0.871885
0.273014 0.36878 0.868788
0.409522 0.365667 0.865675
0.546029 0.362554 0.862562
0.682551 0.359457 0.859464
0.819059 0.356344 0.856352
0.955581 0.353231 0.853239
1 0.350134 0.850141
0 0.499992 0.874998
0.136492 0.49688 0.871885
0.273014 0.493782 0.868788
0.409522 0.490669 0.865675
0.546029 0.487556 0.862562
0.682551 0.484459 0.859464
0.819059 0.481346 0.856352
0.955581 0.478233 0.853239
1 0.475135 0.850141
0 0.624994 0.874998
0.136492 0.621881 0.871885
0.273014 0.618784 0.868788
0.409522 0.615671 0.865675
0.546029 0.612558 0.862562
0.682551 0.609461 0.859464
0.819059 0.606348 0.856352
0.955581 0.603235 0.853239
1 0.600137 0.850141
0 0.749996 0.874998
0.136492 0.746883 0.871885
0.273014 0.743786 0.868788
0.409522 0.740673 0.865675
0.546029 0.73756 0.862562
0.682551 0.734462 0.859464
0.819059 0.73135 0.856352
0.955581 0.728237 0.853239
1 0.725139 0.850141
0 0.874998 0.874998
0.136492 0.871885 0.871885
0.273014 0.868788 0.868788
0.409522 0.865675 0.865675
0.546029 0.862562 0.862562
0.682551 0.859464 0.859464
0.819059 0.856352 0.856352
0.955581 0.853239 0.853239
1 0.850141 0.850141
0 1 0.874998
0.136492 0.996887 0.871885
0.273014 0.99379 0.868788
0.409522 0.990677 0.865675
0.546029 0.987564 0.862562
0.682551 0.984466 0.859464
0.819059 0.981353 0.856352
0.955581 0.978241 0.853239
1 0.975143 0.850141
0 0 1
0.136492 0 0.996887
0.273014 0 0.99379
0.409522 0 0.990677
0.546029 0 0.987564
0.682551 0 0.984466
0.819059 0 0.981353
0.955581 0 0.978241
1 0 0.975143
0 0.124987 1
0.136492 0.121874 0.996887
0.273014 0.118776 0.99379
0.409522 0.115663 0.990677
0.546029 0.112551 0.987564
0.682551 0.109453 0.984466
0.819059 0.10634 0.981353
0.955581 0.103227 0.978241
1 0.10013 0.975143
0 0.249989 1
0.136492 0.246876 0.996887
0.273014 0.243778 0.99379
0.409522 0.240665 0.990677
0.546029 0.237552 0.987564
0.682551 0.234455 0.984466
0.819059 0.231342 0.981353
0.955581 0.228229 0.978241
1 0.225132 0.975143
0 0.37499 1
0.136492 0.371878 0.996887
0.273014 0.36878 0.99379
0.409522 0.365667 0.990677
0.546029 0.362554 0.987564
0.682551 0.359457 0.984466
0.819059 0.356344 0.981353
0.955581 0.353231 0.978241
1 0.350134 0.975143
0 0.499992 1
0.136492 0.49688 0.996887
0.273014 0.493782 0.99379
0.409522 0.490669 0.990677
0.546029 0.487556 0.987564
0.682551 0.484459 0.984466
0.819059 0.481346 0.981353
0.955581 0.478233 0.978241
1 0.475135 0.975143
0 0.624994 1
0.136492 0.621881 0.996887
0.273014 0.618784 0.99379
0.409522 0.615671 0.990677
0.546029 0.612558 0.987564
0.682551 0.609461 0.984466
0.819059 0.606348 0.981353
0.955581 0.603235 0.978241
1 0.600137 0.975143
0 0.749996 1
0.136492 0.746883 0.996887
0.273014 0.743786 0.99379
0.409522 0.740673 0.990677
0.546029 0.73756 0.987564
0.682551 0.734462 0.984466
0.819059 0.73135 0.981353
0.955581 0.728237 0.978241
1 0.725139 0.975143
0 0.874998 1
0.136492 0.871885 0.996887
0.273014 0.868788 0.99379
0.409522 0.865675 0.990677
0.546029 0.862562 0.987564
0.682551 0.859464 0.984466
0.819059 0.856352 0.981353
0.955581 0.853239 0.978241
1 0.850141 0.975143
0 1 1
0.136492 0.996887 0.996887
0.273014 0.99379 0.99379
0.409522 0.990677 0.990677
0.546029 0.987564 0.987564
0.682551 0.984466 0.984466
0.819059 0.981353 0.981353
0.955581 0.978241 0.978241
1 0.975143 0.975143
