public/LUTS/Autumn/Autumn_06.cube
TITLE "Generated by Resolve"
LUT_3D_SIZE 9
0 0 0
0.136492 0 0
0.273014 0 0
0.409522 0 0
0.546029 0 0
0.682551 0 0
0.819059 0 0
0.955581 0 0
1 0 0
0.00267033 0.120989 0.00267033
0.139162 0.117876 0
0.275685 0.114778 0
0.412192 0.111666 0
0.548699 0.108553 0
0.685222 0.105455 0
0.821729 0.102342 0
0.958251 0.0992294 0
1 0.0961318 0
0.00534066 0.244923 0.00534066
0.141833 0.241825 0.00222782
0.278355 0.238712 0
0.414862 0.235599 0
0.551369 0.232502 0
0.687892 0.229389 0
0.824399 0.226276 0
0.960922 0.223178 0
1 0.220066 0
0.00801099 0.368872 0.00801099
0.144503 0.365759 0.00489815
0.281025 0.362646 0.00180056
0.417533 0.359548 0
0.55404 0.356435 0
0.690562 0.353323 0
0.82707 0.350225 0
0.963592 0.347112 0
1 0.343999 0
0.0106813 0.492805 0.0106813
0.147173 0.489693 0.00756847
0.283696 0.486595 0.00447089
0.420203 0.483482 0.00135805
0.55671 0.480369 0
0.693233 0.477272 0
0.82974 0.474159 0
0.966262 0.471046 0
1 0.467948 0
0.0133516 0.616739 0.0133516
0.149844 0.613642 0.0102388
0.286366 0.610529 0.00714122
0.422873 0.607416 0.00402838
0.55938 0.604318 0.000915541
0.695903 0.601205 0
0.83241 0.598093 0
0.968933 0.594995 0
1 0.591882 0
0.016022 0.740688 0.016022
0.152514 0.737575 0.0129091
0.289036 0.734462 0.00981155
0.425544 0.731365 0.00669871
0.562051 0.728252 0.00358587
0.698573 0.725139 0.00047303
0.835081 0.722042 0
0.971603 0.718929 0
1 0.715816 0
0.0186923 0.864622 0.0186923
0.155184 0.861509 0.0155795
0.291707 0.858412 0.0124819
0.428214 0.855299 0.00936904
0.564721 0.852186 0.0062562
0.701244 0.849088 0.00314336
0.837751 0.845975 4.57771e-05
0.974273 0.842863 0
1 0.839765 0
0.0213626 0.988556 0.0213626
0.157855 0.985458 0.0182498
0.294377 0.982345 0.0151522
0.430884 0.979232 0.0120394
0.567391 0.976135 0.00892653
0.703914 0.973022 0.00581369
0.840421 0.969909 0.00271611
0.976944 0.966812 0
1 0.963699 0
0.000457771 0 0.119051
0.136965 0 0.115938
0.273472 0 0.11284
0.409979 0 0.109728
0.546502 0 0.106615
0.683009 0 0.103502
0.819532 0 0.100404
0.956039 0 0.0972915
1 0 0.0941787
0.0031281 0.121447 0.121721
0.139635 0.118349 0.118608
0.276143 0.115236 0.115511
0.41265 0.112123 0.112398
0.549172 0.109026 0.109285
0.685679 0.105913 0.106172
0.822187 0.1028 0.103075
0.958709 0.0997024 0.0999619
1 0.0965896 0.096849
0.00579843 0.245396 0.124392
0.142306 0.242283 0.121279
0.278813 0.23917 0.118181
0.41532 0.236072 0.115068
0.551843 0.232959 0.111955
0.68835 0.229847 0.108843
0.824857 0.226749 0.105745
0.961379 0.223636 0.102632
1 0.220523 0.0995193
0.00846876 0.369329 0.127062
0.144976 0.366217 0.123949
0.281483 0.363119 0.120836
0.41799 0.360006 0.117739
0.554513 0.356893 0.114626
0.69102 0.353796 0.111513
0.827527 0.350683 0.108415
0.96405 0.34757 0.105303
1 0.344472 0.10219
0.0111391 0.493263 0.129732
0.147646 0.490166 0.126619
0.284153 0.487053 0.123507
0.420661 0.48394 0.120409
0.557183 0.480842 0.117296
0.69369 0.477729 0.114183
0.830198 0.474617 0.111086
0.96672 0.471519 0.107973
1 0.468406 0.10486
0.0138094 0.617212 0.132403
0.150301 0.614099 0.12929
0.286824 0.610986 0.126177
0.423331 0.607889 0.123079
0.559853 0.604776 0.119966
0.696361 0.601663 0.116854
0.832868 0.598566 0.113756
0.96939 0.595453 0.110643
1 0.59234 0.10753
0.0164797 0.741146 0.135073
0.152972 0.738033 0.13196
0.289494 0.734936 0.128847
0.426001 0.731823 0.12575
0.562524 0.72871 0.122637
0.699031 0.725612 0.119524
0.835538 0.722499 0.116426
0.972061 0.719387 0.113313
1 0.716289 0.110201
0.0191501 0.86508 0.137743
0.155642 0.861982 0.13463
0.292165 0.858869 0.131518
0.428672 0.855756 0.12842
0.565194 0.852659 0.125307
0.701701 0.849546 0.122194
0.838209 0.846433 0.119097
0.974731 0.843336 0.115984
1 0.840223 0.112871
0.0218204 0.989029 0.140414
0.158312 0.985916 0.137301
0.294835 0.982803 0.134188
0.431342 0.979706 0.13109
0.567864 0.976593 0.127977
0.704372 0.97348 0.124865
0.840879 0.970382 0.121767
0.977401 0.967269 0.118654
1 0.964157 0.115541
0.0009308 0 0.238117
0.137423 0 0.235004
0.27393 0 0.231891
0.410452 0 0.228794
0.54696 0 0.225681
0.683467 0 0.222568
0.819989 0 0.219471
0.956497 0 0.216358
1 0 0.213245
0.00360113 0.12192 0.240787
0.140093 0.118807 0.237675
0.2766 0.115694 0.234562
0.413123 0.112596 0.231464
0.54963 0.109483 0.228351
0.686137 0.106371 0.225238
0.82266 0.103273 0.222141
0.959167 0.10016 0.219028
1 0.0970474 0.215915
0.00627146 0.245853 0.243458
0.142763 0.242741 0.240345
0.279271 0.239643 0.237232
0.415793 0.23653 0.234134
0.5523 0.233417 0.231022
0.688807 0.23032 0.227909
0.82533 0.227207 0.224811
0.961837 0.224094 0.221698
1 0.220996 0.218585
0.00894179 0.369787 0.246128
0.145434 0.36669 0.243015
0.281941 0.363577 0.239902
0.418463 0.360464 0.236805
0.554971 0.357366 0.233692
0.691478 0.354253 0.230579
0.828 0.351141 0.227481
0.964508 0.348043 0.224369
1 0.34493 0.221256
0.0115969 0.493736 0.248798
0.148104 0.490623 0.245686
0.284611 0.487511 0.242573
0.421134 0.484413 0.239475
0.557641 0.4813 0.236362
0.694148 0.478187 0.233249
0.830671 0.47509 0.230152
0.967178 0.471977 0.227039
1 0.468864 0.223926
0.0142672 0.61767 0.251469
0.150774 0.614557 0.248356
0.287282 0.61146 0.245243
0.423804 0.608347 0.242145
0.560311 0.605234 0.239033
0.696818 0.602136 0.23592
0.833341 0.599023 0.232822
0.969848 0.595911 0.229709
1 0.592813 0.226596
0.0169375 0.741604 0.254139
0.153445 0.738506 0.251026
0.289952 0.735393 0.247913
0.426474 0.73228 0.244816
0.562982 0.729183 0.241703
0.699489 0.72607 0.23859
0.836011 0.722957 0.235492
0.972519 0.71986 0.23238
1 0.716747 0.229267
0.0196078 0.865553 0.256809
0.156115 0.86244 0.253697
0.292622 0.859327 0.250584
0.429145 0.856229 0.247486
0.565652 0.853117 0.244373
0.702159 0.850004 0.24126
0.838682 0.846906 0.238163
0.975189 0.843793 0.23505
1 0.840681 0.231937
0.0222782 0.989487 0.25948
0.158785 0.986374 0.256367
0.295293 0.983276 0.253254
0.431815 0.980163 0.250156
0.568322 0.97705 0.247044
0.704829 0.973953 0.243931
0.841352 0.97084 0.240833
0.977859 0.967727 0.23772
1 0.964614 0.234607
0.00138857 0 0.357183
0.137881 0 0.35407
0.274403 0 0.350958
0.41091 0 0.34786
0.547417 0 0.344747
0.68394 0 0.341634
0.820447 0 0.338537
0.956954 0 0.335424
1 0 0.332311
0.0040589 0.122377 0.359854
0.140551 0.119265 0.356741
0.277058 0.116167 0.353628
0.413581 0.113054 0.35053
0.550088 0.109941 0.347417
0.68661 0.106844 0.344305
0.823117 0.103731 0.341192
0.959625 0.100618 0.338094
1 0.0975204 0.334981
0.00672923 0.246311 0.362524
0.143221 0.243214 0.359411
0.279728 0.240101 0.356298
0.416251 0.236988 0.353201
0.552758 0.23389 0.350088
0.689281 0.230777 0.346975
0.825788 0.227665 0.343862
0.962295 0.224567 0.340764
1 0.221454 0.337652
0.00939956 0.37026 0.365194
0.145892 0.367147 0.362081
0.282399 0.364034 0.358968
0.418921 0.360937 0.355871
0.555428 0.357824 0.352758
0.691951 0.354711 0.349645
0.828458 0.351614 0.346532
0.964965 0.348501 0.343435
1 0.345388 0.340322
0.0120699 0.494194 0.367864
0.148562 0.491081 0.364752
0.285069 0.487984 0.361639
0.421592 0.484871 0.358526
0.558099 0.481758 0.355428
0.694621 0.47866 0.352316
0.831128 0.475547 0.349203
0.967636 0.472435 0.346105
1 0.469322 0.342992
0.0147402 0.618128 0.370535
0.151232 0.61503 0.367422
0.287739 0.611917 0.364309
0.424262 0.608804 0.361196
0.560769 0.605707 0.358099
0.697292 0.602594 0.354986
0.833799 0.599481 0.351873
0.970306 0.596368 0.348775
1 0.593271 0.345663
0.0174105 0.742077 0.373205
0.153903 0.738964 0.370092
0.29041 0.735851 0.366979
0.426932 0.732754 0.363867
0.563439 0.729641 0.360769
0.699962 0.726528 0.357656
0.836469 0.723415 0.354543
0.972976 0.720317 0.351446
1 0.717205 0.348333
0.0200809 0.866011 0.37586
0.156573 0.862898 0.372763
0.29308 0.8598 0.36965
0.429603 0.856687 0.366537
0.56611 0.853574 0.363439
0.702632 0.850462 0.360327
0.839139 0.847364 0.357214
0.975647 0.844251 0.354116
1 0.841138 0.351003
0.0227512 0.989944 0.378531
0.159243 0.986847 0.375433
0.29575 0.983734 0.37232
0.432273 0.980621 0.369207
0.56878 0.977523 0.36611
0.705303 0.974411 0.362997
0.84181 0.971298 0.359884
0.978317 0.968185 0.356786
1 0.965087 0.353674
0.00184634 0 0.476234
0.138338 0 0.473136
0.274861 0 0.470024
0.411368 0 0.466911
0.54789 0 0.463813
0.684398 0 0.4607
0.820905 0 0.457588
0.957427 0 0.45449
1 0 0.451377
0.00451667 0.122835 0.478904
0.141009 0.119738 0.475807
0.277531 0.116625 0.472694
0.414038 0.113512 0.469581
0.550561 0.110414 0.466484
0.687068 0.107301 0.463371
0.823575 0.104189 0.460258
0.960098 0.101076 0.45716
1 0.0979782 0.454047
0.007187 0.246784 0.481575
0.143679 0.243671 0.478477
0.280201 0.240558 0.475364
0.416709 0.237461 0.472251
0.553231 0.234348 0.469154
0.689738 0.231235 0.466041
0.826246 0.228122 0.462928
0.962768 0.225025 0.459831
1 0.221912 0.456718
0.00985733 0.370718 0.484245
0.146349 0.367605 0.481147
0.282872 0.364508 0.478035
0.419379 0.361395 0.474922
0.555901 0.358282 0.471824
0.692409 0.355184 0.468711
0.828916 0.352071 0.465599
0.965438 0.348959 0.462501
1 0.345846 0.459388
0.0125277 0.494652 0.486915
0.14902 0.491554 0.483818
0.285542 0.488441 0.480705
0.422049 0.485328 0.477592
0.558572 0.482231 0.474495
0.695079 0.479118 0.471382
0.831586 0.476005 0.468269
0.968109 0.472892 0.465171
1 0.469795 0.462058
0.015198 0.618601 0.489586
0.15169 0.615488 0.486488
0.288212 0.612375 0.483375
0.42472 0.609277 0.480262
0.561242 0.606165 0.477165
0.697749 0.603052 0.474052
0.834257 0.599939 0.470939
0.970779 0.596841 0.467842
1 0.593729 0.464729
0.0178683 0.742535 0.492256
0.15436 0.739422 0.489158
0.290883 0.736324 0.486046
0.42739 0.733211 0.482933
0.563897 0.730098 0.479835
0.70042 0.726986 0.476722
0.836927 0.723888 0.47361
0.973449 0.720775 0.470512
1 0.717662 0.467399
0.0205386 0.866468 0.494926
0.157031 0.863371 0.491829
0.293553 0.860258 0.488716
0.43006 0.857145 0.485603
0.566567 0.854032 0.482506
0.70309 0.850935 0.479393
0.839597 0.847822 0.47628
0.97612 0.844709 0.473182
1 0.841611 0.470069
0.023209 0.990417 0.497597
0.159701 0.987305 0.494499
0.296223 0.984192 0.491386
0.432731 0.981079 0.488273
0.569238 0.977981 0.485176
0.70576 0.974868 0.482063
0.842268 0.971756 0.47895
0.97879 0.968658 0.475853
1 0.965545 0.47274
0.00230411 0 0.5953
0.138811 0 0.592203
0.275319 0 0.58909
0.411826 0 0.585977
0.548348 0 0.582879
0.684855 0 0.579767
0.821378 0 0.576654
0.957885 0 0.573556
1 0 0.570443
0.00497444 0.123308 0.597971
0.141482 0.120195 0.594873
0.277989 0.117082 0.59176
0.414496 0.113985 0.588647
0.551019 0.110872 0.58555
0.687526 0.107759 0.582437
0.824048 0.104646 0.579324
0.960555 0.101549 0.576211
1 0.098436 0.573114
0.00764477 0.247242 0.600641
0.144152 0.244129 0.597543
0.280659 0.241032 0.59443
0.417166 0.237919 0.591318
0.553689 0.234806 0.58822
0.690196 0.231693 0.585107
0.826719 0.228595 0.581994
0.963226 0.225483 0.578882
1 0.22237 0.575784
0.0103151 0.371176 0.603311
0.146822 0.368078 0.600214
0.28333 0.364965 0.597101
0.419837 0.361852 0.593988
0.556359 0.35874 0.59089
0.692866 0.355642 0.587777
0.829389 0.352529 0.584665
0.965896 0.349416 0.581552
1 0.346319 0.578454
0.0129854 0.495125 0.605982
0.149493 0.492012 0.602884
0.286 0.488899 0.599771
0.422507 0.485786 0.596658
0.55903 0.482689 0.593561
0.695537 0.479576 0.590448
0.832059 0.476463 0.587335
0.968566 0.473365 0.584222
1 0.470253 0.581125
0.0156558 0.619058 0.608652
0.152163 0.615946 0.605554
0.28867 0.612833 0.602441
0.425177 0.609735 0.599329
0.5617 0.606622 0.596231
0.698207 0.60351 0.593118
0.83473 0.600412 0.590005
0.971237 0.597299 0.586892
1 0.594186 0.583795
0.0183261 0.742992 0.611322
0.154833 0.739879 0.608225
0.291341 0.736782 0.605112
0.427848 0.733669 0.601999
0.56437 0.730556 0.598901
0.700877 0.727459 0.595789
0.8374 0.724346 0.592676
0.973907 0.721233 0.589563
1 0.718135 0.586465
0.0209964 0.866926 0.613993
0.157504 0.863828 0.610895
0.294011 0.860716 0.607782
0.430518 0.857603 0.604669
0.567041 0.854505 0.601556
0.703548 0.851392 0.598459
0.84007 0.84828 0.595346
0.976577 0.845182 0.592233
1 0.842069 0.589136
0.0236667 0.990875 0.616663
0.160174 0.987762 0.613565
0.296681 0.984649 0.610452
0.433188 0.981552 0.60734
0.569711 0.978439 0.604227
0.706218 0.975326 0.601129
0.842741 0.972229 0.598016
0.979248 0.969116 0.594903
1 0.966003 0.591806
0.00277714 0 0.714366
0.139269 0 0.711269
0.275776 0 0.708156
0.412299 0 0.705043
0.548806 0 0.70193
0.685328 0 0.698833
0.821836 0 0.69572
0.958343 0 0.692607
1 0 0.689509
0.00544747 0.123766 0.717037
0.141939 0.120653 0.713924
0.278447 0.11754 0.710826
0.414969 0.114443 0.707713
0.551476 0.11133 0.704601
0.687999 0.108217 0.701503
0.824506 0.105119 0.69839
0.961013 0.102007 0.695277
1 0.0988937 0.69218
0.0081178 0.2477 0.719707
0.14461 0.244587 0.716594
0.281117 0.241489 0.713497
0.417639 0.238376 0.710384
0.554147 0.235264 0.707271
0.690654 0.232166 0.704173
0.827176 0.229053 0.70106
0.963684 0.22594 0.697948
1 0.222843 0.69485
0.0107881 0.371633 0.722377
0.14728 0.368536 0.719265
0.283787 0.365423 0.716167
0.42031 0.36231 0.713054
0.556817 0.359213 0.709941
0.693324 0.3561 0.706844
0.829847 0.352987 0.703731
0.966354 0.349889 0.700618
1 0.346777 0.69752
0.0134585 0.495583 0.725048
0.14995 0.49247 0.721935
0.286458 0.489357 0.718837
0.42298 0.486259 0.715724
0.559487 0.483146 0.712612
0.695994 0.480034 0.709514
0.832517 0.476936 0.706401
0.969024 0.473823 0.703288
1 0.47071 0.700191
0.0161288 0.619516 0.727718
0.152621 0.616403 0.724605
0.289128 0.613306 0.721508
0.42565 0.610193 0.718395
0.562158 0.60708 0.715282
0.698665 0.603983 0.712184
0.835187 0.60087 0.709072
0.971695 0.597757 0.705959
1 0.594659 0.702861
0.0187991 0.74345 0.730388
0.155291 0.740353 0.727275
0.291798 0.73724 0.724178
0.428321 0.734127 0.721065
0.564828 0.731029 0.717952
0.701335 0.727916 0.714855
0.837858 0.724804 0.711742
0.974365 0.721706 0.708629
1 0.718593 0.705531
0.0214694 0.867399 0.733059
0.157961 0.864286 0.729946
0.294469 0.861173 0.726848
0.430991 0.858076 0.723735
0.567498 0.854963 0.720623
0.704005 0.85185 0.717525
0.840528 0.848753 0.714412
0.977035 0.84564 0.711299
1 0.842527 0.708202
0.0241398 0.991333 0.735729
0.160632 0.98822 0.732616
0.297139 0.985122 0.729519
0.433661 0.98201 0.726406
0.570169 0.978897 0.723293
0.706676 0.975799 0.720195
0.843198 0.972686 0.717083
0.979706 0.969573 0.71397
1 0.966476 0.710872
0.00323491 0.00030518 0.833432
0.139727 0 0.83032
0.276249 0 0.827222
0.412757 0 0.824109
0.549264 0 0.820996
0.685786 0 0.817899
0.822293 0 0.814786
0.958816 0 0.811673
1 0 0.808576
0.00590524 0.124224 0.836103
0.142397 0.121111 0.83299
0.27892 0.118013 0.829892
0.415427 0.1149 0.82678
0.551934 0.111788 0.823667
0.688457 0.10869 0.820569
0.824964 0.105577 0.817456
0.961486 0.102464 0.814343
1 0.0993668 0.811246
0.00857557 0.248157 0.838773
0.145068 0.24506 0.83566
0.28159 0.241947 0.832563
0.418097 0.238834 0.82945
0.554604 0.235737 0.826337
0.691127 0.232624 0.82324
0.827634 0.229511 0.820127
0.964157 0.226413 0.817014
1 0.223301 0.813916
0.0112459 0.372107 0.841443
0.147738 0.368994 0.838331
0.28426 0.365881 0.835233
0.420768 0.362783 0.83212
0.557275 0.35967 0.829007
0.693797 0.356558 0.82591
0.830304 0.35346 0.822797
0.966827 0.350347 0.819684
1 0.347234 0.816571
0.0139162 0.49604 0.844114
0.150408 0.492927 0.841001
0.286931 0.48983 0.837903
0.423438 0.486717 0.834791
0.559945 0.483604 0.831678
0.696468 0.480507 0.82858
0.832975 0.477394 0.825467
0.969497 0.474281 0.822354
1 0.471183 0.819242
0.0165866 0.619974 0.846784
0.153079 0.616876 0.843671
0.289601 0.613764 0.840574
0.426108 0.610651 0.837461
0.562615 0.607553 0.834348
0.699138 0.60444 0.83125
0.835645 0.601328 0.828138
0.972168 0.59823 0.825025
1 0.595117 0.821912
0.0192569 0.743923 0.849454
0.155749 0.74081 0.846342
0.292271 0.737697 0.843244
0.428779 0.7346 0.840131
0.565286 0.731487 0.837018
0.701808 0.728374 0.833921
0.838315 0.725277 0.830808
0.974838 0.722164 0.827695
1 0.719051 0.824582
0.0219272 0.867857 0.852125
0.158419 0.864744 0.849012
0.294942 0.861646 0.845914
0.431449 0.858534 0.842802
0.567956 0.855421 0.839689
0.704479 0.852323 0.836576
0.840986 0.84921 0.833478
0.977493 0.846098 0.830365
1 0.843 0.827253
0.0245975 0.991791 0.854795
0.161089 0.988693 0.851682
0.297612 0.98558 0.848585
0.434119 0.982467 0.845472
0.570626 0.97937 0.842359
0.707149 0.976257 0.839246
0.843656 0.973144 0.836149
0.980163 0.970047 0.833036
1 0.966934 0.829923
0.00369268 0.000762951 0.952499
0.1402 0 0.949386
0.276707 0 0.946288
0.413214 0 0.943175
0.549737 0 0.940063
0.686244 0 0.93695
0.822751 0 0.933852
0.959274 0 0.930739
1 0 0.927626
0.00636301 0.124681 0.955169
0.14287 0.121584 0.952056
0.279377 0.118471 0.948943
0.415885 0.115358 0.945846
0.552407 0.112261 0.942733
0.688914 0.109148 0.93962
0.825422 0.106035 0.936522
0.961944 0.102937 0.93341
1 0.0998245 0.930297
0.00903334 0.248631 0.957839
0.145541 0.245518 0.954726
0.282048 0.242405 0.951614
0.418555 0.239307 0.948516
0.555077 0.236194 0.945403
0.691585 0.233082 0.94229
0.828092 0.229984 0.939193
0.964614 0.226871 0.93608
1 0.223758 0.932967
0.0117037 0.372564 0.96051
0.148196 0.369451 0.957397
0.284718 0.366354 0.954284
0.421225 0.363241 0.951186
0.557748 0.360128 0.948074
0.694255 0.357031 0.944961
0.830762 0.353918 0.941863
0.967285 0.350805 0.93875
1 0.347707 0.935637
0.014374 0.496498 0.96318
0.150866 0.4934 0.960067
0.287388 0.490288 0.956954
0.423896 0.487175 0.953857
0.560418 0.484077 0.950744
0.696925 0.480964 0.947631
0.833432 0.477852 0.944533
0.969955 0.474754 0.941421
1 0.471641 0.938308
0.0170443 0.620447 0.96585
0.153536 0.617334 0.962737
0.290059 0.614221 0.959625
0.426566 0.611124 0.956527
0.563088 0.608011 0.953414
0.699596 0.604898 0.950301
0.836103 0.601801 0.947204
0.972625 0.598688 0.944091
1 0.595575 0.940978
0.0197147 0.744381 0.968521
0.156207 0.741268 0.965408
0.292729 0.73817 0.962295
0.429236 0.735058 0.959197
0.565759 0.731945 0.956085
0.702266 0.728847 0.952972
0.838773 0.725734 0.949874
0.975296 0.722622 0.946761
1 0.719524 0.943648
0.022385 0.868315 0.971191
0.158877 0.865217 0.968078
0.295399 0.862104 0.964965
0.431907 0.858991 0.961868
0.568429 0.855894 0.958755
0.704936 0.852781 0.955642
0.841443 0.849668 0.952544
0.977966 0.846571 0.949432
1 0.843458 0.946319
0.0250553 0.992264 0.973861
0.161547 0.989151 0.970748
0.29807 0.986038 0.967636
0.434577 0.98294 0.964538
0.571099 0.979828 0.961425
0.707607 0.976715 0.958312
0.844114 0.973617 0.955215
0.980636 0.970504 0.952102
1 0.967391 0.948989
