public/LUTS/Autumn/Autumn_08.cube
TITLE "Generated by Resolve"
LUT_3D_SIZE 5
0 0 0
0.301152 0 0
0.548211 0 0
0.779004 0 0
1 0 0
0.0257115 0.23975 0.0257115
0.326863 0.22594 0.011902
0.573922 0.226734 0.0126955
0.804715 0.231922 0.0178836
1 0.23975 0.0257115
0.0267185 0.489357 0.0267185
0.327871 0.475547 0.0128939
0.574914 0.476341 0.0136873
0.805707 0.481529 0.0188754
1 0.489357 0.0267185
0.0170138 0.743221 0.0170138
0.318166 0.729412 0.00318914
0.565209 0.730205 0.0039826
0.796002 0.735393 0.00917067
1 0.743221 0.0170138
0 1 0
0.301152 0.986191 0
0.548211 0.986984 0
0.779004 0.992172 0
1 1 0
0 0 0.249989
0.301152 0 0.236179
0.548211 0 0.236973
0.779004 0 0.242161
1 0 0.249989
0.0257115 0.23975 0.2757
0.326863 0.22594 0.261891
0.573922 0.226734 0.262684
0.804715 0.231922 0.267872
1 0.23975 0.2757
0.0267185 0.489357 0.276707
0.327871 0.475547 0.262882
0.574914 0.476341 0.263676
0.805707 0.481529 0.268864
1 0.489357 0.276707
0.0170138 0.743221 0.267002
0.318166 0.729412 0.253178
0.565209 0.730205 0.253971
0.796002 0.735393 0.259159
1 0.743221 0.267002
0 1 0.249989
0.301152 0.986191 0.236179
0.548211 0.986984 0.236973
0.779004 0.992172 0.242161
1 1 0.249989
0 0 0.499992
0.301152 0 0.486183
0.548211 0 0.486976
0.779004 0 0.492164
1 0 0.499992
0.0257115 0.23975 0.525704
0.326863 0.22594 0.511894
0.573922 0.226734 0.512688
0.804715 0.231922 0.517876
1 0.23975 0.525704
0.0267185 0.489357 0.526711
0.327871 0.475547 0.512886
0.574914 0.476341 0.51368
0.805707 0.481529 0.518868
1 0.489357 0.526711
0.0170138 0.743221 0.517006
0.318166 0.729412 0.503182
0.565209 0.730205 0.503975
0.796002 0.735393 0.509163
1 0.743221 0.517006
0 1 0.499992
0.301152 0.986191 0.486183
0.548211 0.986984 0.486976
0.779004 0.992172 0.492164
1 1 0.499992
0 0 0.749996
0.301152 0 0.736187
0.548211 0 0.73698
0.779004 0 0.742168
1 0 0.749996
0.0257115 0.23975 0.775708
0.326863 0.22594 0.761898
0.573922 0.226734 0.762692
0.804715 0.231922 0.76788
1 0.23975 0.775708
0.0267185 0.489357 0.776715
0.327871 0.475547 0.76289
0.574914 0.476341 0.763684
0.805707 0.481529 0.768872
1 0.489357 0.776715
0.0170138 0.743221 0.76701
0.318166 0.729412 0.753185
0.565209 0.730205 0.753979
0.796002 0.735393 0.759167
1 0.743221 0.76701
0 1 0.749996
0.301152 0.986191 0.736187
0.548211 0.986984 0.73698
0.779004 0.992172 0.742168
1 1 0.749996
0 0 1
0.301152 0 0.986191
0.548211 0 0.986984
0.779004 0 0.992172
1 0 1
0.0257115 0.23975 1
0.326863 0.22594 1
0.573922 0.226734 1
0.804715 0.231922 1
1 0.23975 1
0.0267185 0.489357 1
0.327871 0.475547 1
0.574914 0.476341 1
0.805707 0.481529 1
1 0.489357 1
0.0170138 0.743221 1
0.318166 0.729412 1
0.565209 0.730205 1
0.796002 0.735393 1
1 0.743221 1
0 1 1
0.301152 0.986191 0.986191
0.548211 0.986984 0.986984
0.779004 0.992172 0.992172
1 1 1
