public/LUTS/Autumn/Autumn_17.cube
TITLE "Generated by Resolve"
LUT_3D_SIZE 5
0.0539559 0.0837262 0.0807507
0.414969 0.107927 0
0.997635 0.0978408 0
1 0.208621 0
1 0.378256 0
0 0.242084 0.0843519
0.439719 0.208682 0
1 0.285206 0
1 0.412085 0
1 0.509926 0
0 0.536599 0.064622
0.244587 0.63389 0
0.985702 0.512184 0
1 0.611292 0
1 0.662013 0
0 0.859602 0.0111086
0.152468 0.904723 0
0.749783 0.923552 0
0.993118 0.802396 0
0.999359 0.788602 0
0 1 0
0.145693 1 0
0.601785 1 0
0.914717 1 0
0.914717 1 0
0 0.21471 0.361395
0.159182 0.189136 0.172122
0.76968 0.2533 0.0226291
1 0.317327 0
1 0.408133 0
0 0.254871 0.314549
0.244434 0.255909 0.224857
0.97673 0.25745 0
1 0.310719 0
1 0.419211 0
0 0.643061 0.422904
0.0202182 0.594217 0.110719
0.880659 0.536797 0
1 0.630838 0
1 0.684108 0
0 0.898451 0.411597
0.0143282 0.883558 0.0175937
0.629679 0.902571 0
0.987274 0.81117 0
0.993057 0.80473 0
0 1 0.454841
0.0251926 1 0.0306554
0.486809 1 0.0096437
0.860822 1 0
0.920714 0.999115 0
0 0.447227 0.788098
0 0.43032 0.528725
0.340337 0.412802 0.0763409
0.969223 0.428977 0.000991836
1 0.56968 0.454597
0 0.465843 0.759625
0 0.472282 0.796567
0.541115 0.418357 0.252018
1 0.486503 0.293721
1 0.563638 0.384573
0 0.519234 0.738811
0 0.586328 0.753063
0.655558 0.61883 0.604074
1 0.635493 0.463539
1 0.630381 0.26746
0 0.891646 0.991073
0 0.910338 0.815274
0.486381 0.87158 0.417563
0.977707 0.817472 0.100252
1 0.821836 0.0254063
0 1 0.992706
0 1 0.757031
0.408988 1 0.318593
0.751232 1 0.239231
0.937972 0.998627 0.145769
0 0.702037 1
0 0.670985 0.917037
0 0.649546 0.754681
0.776379 0.573983 0.502007
1 0.597818 0.553079
0 0.690517 1
0 0.667491 1
0.0690776 0.641993 0.92755
0.862913 0.566873 0.643702
1 0.617197 0.691081
0 0.697261 1
0 0.732204 1
0.246418 0.718608 1
0.923735 0.662501 0.819867
1 0.707729 0.814679
0 0.757504 1
0 0.804059 1
0.191012 0.83473 0.99617
0.88278 0.835935 0.820203
1 0.827695 0.767163
0 0.987182 1
0 1 1
0.0205844 1 0.974105
0.714534 1 0.65359
0.962249 0.999146 0.540917
0 0.908583 1
0 0.890578 1
0 0.870085 1
0.545922 0.773266 1
1 0.694087 0.961822
0 0.877836 1
0 0.857023 1
0 0.847379 1
0.639109 0.750454 1
1 0.684749 0.98439
0 0.869703 1
0 0.867781 1
0 0.86186 1
0.719402 0.76257 1
1 0.713558 1
0 0.87155 1
0 0.883146 1
0 0.912047 1
0.790448 0.838132 1
1 0.806958 0.999771
0 0.904952 1
0 0.933669 1
0 0.958999 1
0.72285 0.937224 1
0.986984 0.99147 0.907271
