public/LUTS/Autumn/Autumn_18.cube
TITLE "Generated by Resolve"
LUT_3D_SIZE 33
0.0620737 0.133806 0.11487
0.122759 0.126513 0.0911727
0.178363 0.128405 0.0704051
0.236484 0.130831 0.0393225
0.299306 0.130449 0.00367742
0.363806 0.131029 0
0.431144 0.134615 0
0.505501 0.137194 0
0.587213 0.137194 0
0.670573 0.136706 0
0.751186 0.135668 0
0.8271 0.134569 0
0.897337 0.133669 0
0.960479 0.132998 0
1 0.132906 0
1 0.133623 0
1 0.135378 0
1 0.138476 0
1 0.143557 0
1 0.15021 0
1 0.159167 0
1 0.169436 0
1 0.180682 0
1 0.193317 0
1 0.207935 0
1 0.224018 0
1 0.243702 0
1 0.265599 0
1 0.287526 0
1 0.309941 0
1 0.332616 0
1 0.34815 0
1 0.355169 0
0.0513008 0.15314 0.115999
0.113985 0.143236 0.0916304
0.177295 0.138476 0.0705882
0.236378 0.140551 0.04094
0.299382 0.140932 0.000991836
0.364996 0.142489 0
0.433326 0.147997 0
0.508522 0.153124 0
0.590631 0.155428 0
0.673854 0.156222 0
0.753979 0.156619 0
0.829465 0.156451 0
0.898894 0.156176 0
0.96141 0.156542 0
0.996262 0.157488 0
1 0.15935 0
1 0.16228 0
1 0.166186 0
1 0.171633 0
1 0.178698 0
1 0.186831 0
1 0.196414 0
1 0.206958 0
1 0.219211 0
1 0.232746 0
1 0.247135 0
1 0.262531 0
1 0.278248 0
1 0.294682 0
1 0.312734 0
1 0.332036 0
1 0.343511 0
1 0.348257 0
0.0400854 0.172808 0.116381
0.0968185 0.169146 0.0980087
0.170687 0.156161 0.0686046
0.237049 0.150423 0.0432441
0.302708 0.150851 0.000167849
0.370031 0.153552 0
0.440192 0.160647 0
0.514641 0.168078 0
0.59707 0.172732 0
0.680079 0.176471 0
0.75877 0.17966 0
0.831449 0.182406 0
0.89836 0.184787 0
0.956924 0.187274 0
0.990646 0.189975 0
1 0.193133 0
1 0.196567 0
1 0.20087 0
1 0.205921 0
1 0.212436 0
1 0.220157 0
1 0.229374 0
1 0.2392 0
1 0.250462 0
1 0.262669 0
1 0.275914 0
1 0.290211 0
1 0.305241 0
1 0.321141 0
1 0.337682 0
1 0.354482 0
1 0.362783 0
1 0.365332 0
0.0291905 0.192554 0.115938
0.0787976 0.191226 0.0993057
0.153094 0.186969 0.0684672
0.233753 0.167651 0.0377508
0.305043 0.162493 0.00280766
0.376013 0.165194 0
0.448798 0.172641 0
0.524834 0.181079 0
0.607584 0.18764 0
0.690501 0.193652 0
0.768704 0.199863 0
0.838209 0.206165 0
0.900969 0.212085 0
0.95584 0.217762 0
0.988983 0.223194 0
1 0.228458 0
1 0.234134 0
1 0.239857 0
1 0.245472 0
1 0.251926 0
1 0.259251 0
1 0.267842 0
1 0.277317 0
1 0.28716 0
1 0.297993 0
1 0.310277 0
1 0.323857 0
1 0.33817 0
1 0.352911 0
1 0.368063 0
1 0.383642 0
1 0.388846 0
1 0.389899 0
0.0197299 0.213016 0.115175
0.062211 0.212375 0.0974594
0.128649 0.215839 0.0699474
0.22034 0.198749 0.0300603
0.303563 0.179263 0.00422675
0.380835 0.178454 0
0.457694 0.185367 0
0.536126 0.193957 0
0.61976 0.201465 0
0.703944 0.208606 0
0.781735 0.21622 0
0.849775 0.224811 0
0.910521 0.233783 0
0.962203 0.242542 0
0.991531 0.251164 0
1 0.260182 0
1 0.269032 0
1 0.277195 0
1 0.285054 0
1 0.292622 0
1 0.301183 0
1 0.310323 0
1 0.319844 0
1 0.32958 0
1 0.339544 0
1 0.351125 0
1 0.363607 0
1 0.376532 0
1 0.390143 0
1 0.40412 0
1 0.416785 0
1 0.419501 0
1 0.420005 0
0.0106661 0.23389 0.114107
0.0460822 0.233906 0.0947127
0.104448 0.242618 0.0664073
0.197162 0.236027 0.0275578
0.294636 0.209003 0.00311284
0.381765 0.196353 0
0.464668 0.200076 0
0.546365 0.208255 0
0.631449 0.216556 0
0.716396 0.224109 0
0.794202 0.232456 0
0.862196 0.242008 0
0.922316 0.251743 0
0.972061 0.262516 0
0.994965 0.273762 0
1 0.28574 0
1 0.297581 0
1 0.308614 0
1 0.319112 0
1 0.330114 0
1 0.341344 0
1 0.35198 0
1 0.362005 0
1 0.372457 0
1 0.383139 0
1 0.3953 0
1 0.407614 0
1 0.42005 0
1 0.432654 0
1 0.444526 0
1 0.454231 0
1 0.455695 0
1 0.455161 0
0.00323491 0.258091 0.111025
0.0289921 0.258976 0.0888685
0.0805371 0.26981 0.0593271
0.167498 0.274449 0.0275273
0.27509 0.254139 0.00201419
0.376394 0.224094 0
0.468421 0.218387 0
0.555123 0.224552 0
0.641672 0.232853 0
0.727031 0.241108 0
0.804181 0.250217 0
0.872969 0.259892 0
0.931563 0.27068 0
0.980468 0.282445 0
0.997284 0.294392 0
1 0.306996 0
1 0.320089 0
1 0.333089 0
1 0.346502 0
1 0.360037 0
1 0.373785 0
1 0.386069 0
1 0.398184 0
1 0.410895 0
1 0.424216 0
1 0.437278 0
1 0.450507 0
1 0.463432 0
1 0.475898 0
1 0.487053 0
1 0.493553 0
1 0.494118 0
1 0.493858 0
0 0.284993 0.10634
0.0117342 0.286656 0.0813611
0.0576028 0.298192 0.0505074
0.137346 0.308354 0.02533
0.24538 0.302907 0.00639353
0.361929 0.26894 0
0.465766 0.244511 0
0.560769 0.243732 0
0.650629 0.250568 0
0.735531 0.259556 0
0.812528 0.269169 0
0.880064 0.280217 0
0.937591 0.291432 0
0.983246 0.30367 0
0.998886 0.316335 0
1 0.329412 0
1 0.343313 0
1 0.357473 0
1 0.371389 0
1 0.385565 0
1 0.399771 0
1 0.414298 0
1 0.429145 0
1 0.443534 0
1 0.457847 0
1 0.471931 0
1 0.486076 0
1 0.500465 0
1 0.515068 0
1 0.524559 0
1 0.528862 0
1 0.52932 0
1 0.528557 0
0 0.313359 0.101823
0.00297551 0.315938 0.0749371
0.0380255 0.32781 0.0443732
0.114885 0.339879 0.0211795
0.21387 0.348241 0.00492866
0.336263 0.327459 0
0.454139 0.287877 0
0.557641 0.27126 0
0.654398 0.272831 0
0.742748 0.279927 0
0.819471 0.290013 0
0.884871 0.301045 0
0.94078 0.312993 0
0.983505 0.326024 0
1 0.339269 0
1 0.353552 0
1 0.368017 0
1 0.382483 0
1 0.396765 0
1 0.411322 0
1 0.425635 0
1 0.440604 0
1 0.455741 0
1 0.470665 0
1 0.485969 0
1 0.501625 0
1 0.516823 0
1 0.532265 0
1 0.545953 0
1 0.552758 0
1 0.555611 0
1 0.556558 0
1 0.556634 0
0 0.343801 0.0976272
9.15541e-05 0.346944 0.0705272
0.025391 0.359152 0.0407416
0.0961166 0.373144 0.0173953
0.189899 0.385595 0.00315862
0.303655 0.385763 0
0.434562 0.350271 0
0.548211 0.312428 0
0.650797 0.301488 0
0.744808 0.304356 0
0.823743 0.311986 0
0.888197 0.323247 0
0.942687 0.335698 0
0.982635 0.348959 0
1 0.363409 0
1 0.377951 0
1 0.392416 0
1 0.407279 0
1 0.422492 0
1 0.43769 0
1 0.452888 0
1 0.467536 0
1 0.482292 0
1 0.497047 0
1 0.512123 0
1 0.527932 0
1 0.54406 0
1 0.55964 0
1 0.571588 0
1 0.574945 0
1 0.576654 0
1 0.578012 0
1 0.578882 0
0 0.377157 0.0943008
0 0.380728 0.0669108
0.0153201 0.393301 0.0360571
0.0785534 0.408377 0.0130922
0.168215 0.422538 0.00170901
0.276127 0.433417 0
0.400687 0.419745 0
0.528801 0.373602 0
0.640452 0.342657 0
0.739834 0.335561 0
0.82237 0.338857 0
0.889097 0.347601 0
0.942809 0.359442 0
0.98143 0.37319 0
1 0.387579 0
1 0.402274 0
1 0.417136 0
1 0.43241 0
1 0.448035 0
1 0.463584 0
1 0.47863 0
1 0.493416 0
1 0.508171 0
1 0.523384 0
1 0.53846 0
1 0.553582 0
1 0.568521 0
1 0.581231 0
1 0.589288 0
1 0.590814 0
1 0.591989 0
1 0.593042 0
1 0.594263 0
0 0.413565 0.0918441
0 0.415824 0.0622873
0.00492866 0.429053 0.0301976
0.0634928 0.444572 0.00793469
0.149569 0.459983 0.000579843
0.253483 0.474205 0
0.369711 0.479591 0
0.497765 0.45182 0
0.620508 0.400092 0
0.728389 0.375616 0
0.81622 0.371313 0
0.885908 0.375891 0
0.940887 0.385351 0
0.980117 0.397757 0
0.999771 0.411887 0
1 0.426856 0
1 0.44213 0
1 0.457786 0
1 0.473167 0
1 0.488334 0
1 0.503456 0
1 0.518441 0
1 0.533333 0
1 0.548623 0
1 0.563043 0
1 0.577768 0
1 0.591775 0
1 0.602106 0
1 0.606058 0
1 0.607584 0
1 0.609216 0
1 0.610559 0
1 0.611627 0
0 0.450233 0.0883192
0 0.452384 0.0570535
6.10361e-05 0.464866 0.023682
0.0506142 0.481376 0.00289921
0.133516 0.498131 3.0518e-05
0.233982 0.513558 0
0.348135 0.52607 0
0.464149 0.524178 0
0.592355 0.475624 0
0.708949 0.42829 0
0.805188 0.410712 0
0.878523 0.4094 0
0.934905 0.414649 0
0.977127 0.424399 0
0.998169 0.436942 0
1 0.45156 0
1 0.467002 0
1 0.482185 0
1 0.497353 0
1 0.512551 0
1 0.527276 0
1 0.542107 0
1 0.557229 0
1 0.57232 0
1 0.586542 0
1 0.600565 0
1 0.613306 0
1 0.621088 0
1 0.622858 0
1 0.624002 0
1 0.625589 0
1 0.626734 0
1 0.627634 0
0 0.48809 0.0835889
0 0.490166 0.0505531
0 0.501686 0.0175479
0.0377203 0.518563 0.00047303
0.120958 0.535912 0
0.218616 0.551675 0
0.329442 0.565667 0
0.44184 0.57229 0
0.558175 0.557351 0
0.680079 0.499748 0
0.786557 0.458396 0
0.865309 0.447669 0
0.924529 0.448585 0
0.969863 0.453681 0
0.993851 0.463645 0
1 0.476646 0
1 0.490929 0
1 0.505562 0
1 0.520867 0
1 0.535592 0
1 0.550256 0
1 0.564904 0
1 0.579599 0
1 0.594064 0
1 0.608011 0
1 0.621469 0
1 0.632792 0
1 0.637858 0
1 0.638758 0
1 0.639704 0
1 0.641001 0
1 0.641962 0
1 0.642878 0
0 0.526223 0.077821
0 0.528725 0.0433509
0.000350958 0.539025 0.0110628
0.0284886 0.555856 0.000701915
0.110307 0.573068 0
0.205692 0.589181 0
0.31342 0.603891 0
0.426886 0.615 0
0.530297 0.613123 0
0.643107 0.586618 0
0.754757 0.522271 0
0.848875 0.490562 0
0.911513 0.485344 0
0.957809 0.48835 0
0.988067 0.493889 0
0.999695 0.502617 0
1 0.515007 0
1 0.528847 0
1 0.54377 0
1 0.557626 0
1 0.572015 0
1 0.586603 0
1 0.600702 0
1 0.614328 0
1 0.627695 0
1 0.641947 0
1 0.650309 0
1 0.653162 0
1 0.653941 0
1 0.654795 0
1 0.655802 0
1 0.656794 0
1 0.65742 0
0 0.564889 0.071046
0 0.567742 0.0356146
0.000717174 0.576547 0.00627146
0.0222934 0.592599 0
0.101549 0.609583 0
0.195041 0.625772 0
0.299474 0.640497 0
0.410422 0.652262 0
0.516564 0.657679 0
0.609995 0.648096 0
0.714794 0.609766 0
0.812924 0.550332 0
0.8925 0.527749 0
0.94374 0.52462 0
0.981445 0.527642 0
0.99736 0.532998 0
1 0.540948 0
1 0.552331 0
1 0.566217 0
1 0.579629 0
1 0.593423 0
1 0.60708 0
1 0.620661 0
1 0.633982 0
1 0.647135 0
1 0.661006 0
1 0.666346 0
1 0.66807 0
1 0.668666 0
1 0.669673 0
1 0.670604 0
1 0.670985 0
1 0.671565 0
0 0.603479 0.0636301
0 0.605768 0.0276036
0 0.613794 0.00416571
0.0190585 0.62858 0
0.0939956 0.645014 0
0.186038 0.661158 0
0.287739 0.675532 0
0.396094 0.687739 0
0.502373 0.695018 0
0.593103 0.693431 0
0.678172 0.678264 0
0.772473 0.631769 0
0.85774 0.584314 0
0.922576 0.565805 0
0.965881 0.563073 0
0.991485 0.566079 0
1 0.571176 0
1 0.578363 0
1 0.588144 0
1 0.600977 0
1 0.613794 0
1 0.6271 0
1 0.640223 0
1 0.652552 0
1 0.665156 0
1 0.677729 0
1 0.681682 0
1 0.682445 0
1 0.683192 0
1 0.683894 0
1 0.684596 0
1 0.684916 0
1 0.685374 0
0 0.641199 0.0559243
0 0.643626 0.0193637
0 0.650385 0.00166323
0.019852 0.66302 0
0.0884413 0.679561 0
0.178561 0.694621 0
0.27805 0.708553 0
0.383139 0.720623 0
0.487922 0.729244 0
0.580316 0.732357 0
0.657511 0.726452 0
0.734585 0.70518 0
0.816785 0.656733 0
0.889021 0.616831 0
0.943999 0.60264 0
0.981689 0.60032 0
0.996857 0.60322 0
1 0.607477 0
1 0.613306 0
1 0.621698 0
1 0.634012 0
1 0.646799 0
1 0.6589 0
1 0.670741 0
1 0.682963 0
1 0.693385 0
1 0.696178 0
1 0.696742 0
1 0.697261 0
1 0.697963 0
1 0.698543 0
1 0.698665 0
1 0.699245 0
0 0.678279 0.0475624
0 0.68072 0.0118868
0 0.685786 0.000320439
0.0187991 0.697673 0
0.0834363 0.712825 0
0.172076 0.727214 0
0.26923 0.740246 0
0.37113 0.751446 0
0.474754 0.760845 0
0.567544 0.765972 0
0.643488 0.765759 0
0.709194 0.755901 0
0.777691 0.727047 0
0.847593 0.683299 0
0.91194 0.650629 0
0.959884 0.63946 0
0.990433 0.636362 0
0.999741 0.63769 0
1 0.641032 0
1 0.64625 0
1 0.654368 0
1 0.665629 0
1 0.676875 0
1 0.688182 0
1 0.699672 0
1 0.708125 0
1 0.710002 0
1 0.710353 0
1 0.710994 0
1 0.711574 0
1 0.71194 0
1 0.712367 0
1 0.712902 0
0 0.715175 0.0385748
0 0.717556 0.00730907
0 0.72105 0
0.0158999 0.730648 0
0.078294 0.744961 0
0.166323 0.758465 0
0.260746 0.770642 0
0.360616 0.781506 0
0.46041 0.790188 0
0.553704 0.796201 0
0.630823 0.797894 0
0.692683 0.794675 0
0.74963 0.781552 0
0.808469 0.751644 0
0.871015 0.711391 0
0.9281 0.686046 0
0.973144 0.674281 0
0.994079 0.670375 0
1 0.670497 0
1 0.672953 0
1 0.67747 0
1 0.68481 0
1 0.694697 0
1 0.705623 0
1 0.716381 0
1 0.722667 0
1 0.723827 0
1 0.724239 0
1 0.724697 0
1 0.725216 0
1 0.725978 0
1 0.726345 0
1 0.726894 0
0 0.751522 0.0296788
0 0.753399 0.00280766
0 0.755093 0
0.011368 0.763134 0
0.0744488 0.775937 0
0.161318 0.788678 0
0.254658 0.80029 0
0.351202 0.809995 0
0.447623 0.817792 0
0.538811 0.823682 0
0.618326 0.826703 0
0.68162 0.82652 0
0.73257 0.821622 0
0.77998 0.807523 0
0.831159 0.777584 0
0.888975 0.741161 0
0.942916 0.718441 0
0.982101 0.706798 0
0.997101 0.701457 0
1 0.700771 0
1 0.702586 0
1 0.706325 0
1 0.712657 0
1 0.72311 0
1 0.732372 0
1 0.736797 0
1 0.737545 0
1 0.737896 0
1 0.738415 0
1 0.739071 0
1 0.739681 0
1 0.740368 0
1 0.740917 0
0 0.787015 0.0218967
0 0.788479 0.000427253
0 0.78819 0
0.0059205 0.794675 0
0.0713054 0.806561 0
0.157397 0.81825 0
0.248844 0.828244 0
0.34284 0.836881 0
0.436103 0.843748 0
0.524102 0.849104 0
0.605097 0.852872 0
0.670314 0.85388 0
0.721157 0.852155 0
0.762982 0.846967 0
0.802838 0.832731 0
0.848997 0.802258 0
0.904601 0.768902 0
0.959045 0.747173 0
0.989761 0.73547 0
0.999573 0.730312 0
1 0.729091 0
1 0.729824 0
1 0.732891 0
1 0.740627 0
1 0.748043 0
1 0.75079 0
1 0.751278 0
1 0.751629 0
1 0.752102 0
1 0.752697 0
1 0.753521 0
1 0.754192 0
1 0.754818 0
0 0.822263 0.0160067
0 0.822919 0
0 0.820813 0
0.00135805 0.825406 0
0.0690318 0.83595 0
0.154452 0.846281 0
0.243839 0.855024 0
0.335561 0.86247 0
0.426108 0.868193 0
0.511666 0.872633 0
0.589654 0.875914 0
0.657084 0.878309 0
0.71075 0.877516 0
0.751934 0.875059 0
0.78735 0.870069 0
0.821057 0.856428 0
0.86244 0.826093 0
0.922988 0.792599 0
0.97641 0.773022 0
0.996139 0.762081 0
0.999969 0.757366 0
1 0.755154 0
1 0.755825 0
1 0.759426 0
1 0.763912 0
1 0.764797 0
1 0.765087 0
1 0.765408 0
1 0.765881 0
1 0.766552 0
1 0.767514 0
1 0.768154 0
1 0.768856 0
0 0.856153 0.0110475
0 0.856504 0.000228885
0 0.852903 0
0.000198367 0.854841 0
0.0669871 0.86421 0
0.1523 0.873045 0
0.240574 0.880354 0
0.32929 0.886778 0
0.417609 0.891325 0
0.499809 0.894942 0
0.574975 0.897398 0
0.641627 0.89984 0
0.697856 0.900664 0
0.741268 0.899596 0
0.776715 0.896895 0
0.808637 0.891035 0
0.839597 0.876341 0
0.877241 0.847883 0
0.942275 0.814969 0
0.985077 0.797498 0
0.998169 0.787549 0
0.998886 0.78201 0
0.999115 0.780011 0
0.9991 0.781979 0
0.999176 0.781399 0
0.999649 0.779736 0
0.999924 0.779019 0
0.999985 0.779278 0
0.999985 0.780026 0
0.999969 0.780667 0
0.999924 0.781781 0
0.999893 0.782483 0
0.999878 0.783062 0
0 0.888518 0.00781262
0 0.888762 7.62951e-05
0 0.88423 0
0.00231937 0.883619 0
0.0667735 0.891035 0
0.150896 0.897978 0
0.238499 0.904128 0
0.325643 0.909148 0
0.409934 0.913054 0
0.489006 0.91603 0
0.560723 0.918379 0
0.624994 0.920241 0
0.681193 0.922057 0
0.727733 0.922438 0
0.764965 0.920745 0
0.797406 0.916884 0
0.828504 0.909636 0
0.858595 0.894209 0
0.895781 0.866392 0
0.957427 0.8365 0
0.981598 0.819593 0
0.9897 0.810193 0
0.99237 0.805783 0
0.993286 0.804334 0
0.994263 0.802655 0
0.997513 0.796887 0
0.998642 0.794079 0
0.998886 0.793439 0
0.998703 0.794034 0
0.998413 0.794827 0
0.997894 0.796124 0
0.997589 0.796719 0
0.997284 0.797269 0
0 0.919631 0.0069276
0 0.919264 0
0 0.913512 0
0.00675975 0.910857 0
0.0677806 0.91603 0
0.151431 0.921736 0
0.236622 0.926574 0
0.321309 0.93051 0
0.402319 0.933761 0
0.477699 0.936294 0
0.546777 0.938552 0
0.608423 0.94049 0
0.662837 0.942367 0
0.710002 0.943938 0
0.749966 0.943587 0
0.784176 0.941192 0
0.816098 0.936416 0
0.847089 0.92781 0
0.876936 0.910903 0
0.919676 0.881727 0
0.957092 0.855985 0
0.972992 0.839918 0
0.97734 0.832471 0
0.979461 0.828717 0
0.982193 0.823926 0
0.985718 0.817685 0
0.989181 0.81149 0
0.990875 0.808576 0
0.991165 0.808133 0
0.990814 0.808728 0
0.98996 0.810178 0
0.989639 0.810742 0
0.989334 0.811292 0
0 0.948409 0.00556954
0 0.947234 0
0 0.940703 0
0.0103914 0.936416 0
0.070222 0.93991 0
0.152758 0.944335 0
0.235615 0.948074 0
0.316762 0.951232 0
0.394415 0.954345 0
0.466346 0.956863 0
0.532052 0.959289 0
0.591318 0.961181 0
0.643412 0.963012 0
0.689601 0.964752 0
0.730831 0.965881 0
0.767742 0.965164 0
0.80174 0.96199 0
0.833982 0.956313 0
0.866255 0.946242 0
0.89807 0.925368 0
0.933043 0.897581 0
0.952804 0.87364 0
0.961547 0.860441 0
0.965499 0.853468 0
0.968582 0.848051 0
0.972183 0.841596 0
0.976074 0.834699 0
0.97969 0.828336 0
0.982147 0.824018 0
0.982834 0.822812 0
0.982071 0.82417 0
0.98175 0.824735 0
0.981323 0.825498 0
0 0.974929 0.00445563
0 0.973022 0
0 0.965698 0
0.0142672 0.960876 0
0.0739605 0.962356 0
0.154513 0.965759 0
0.234958 0.968963 0
0.312596 0.972152 0
0.386847 0.975341 0
