public/LUTS/Autumn/Autumn_06.cube
TITLE "Generated by Resolve"
LUT_3D_SIZE 5
0 0 0
0.273014 0 0
0.546029 0 0
0.819059 0 0
1 0 0
0.00534066 0.244923 0.00534066
0.278355 0.238712 0
0.551369 0.232502 0
0.824399 0.226276 0
1 0.220066 0
0.0106813 0.492805 0.0106813
0.283696 0.486595 0.00447089
0.55671 0.480369 0
0.82974 0.474159 0
1 0.467948 0
0.016022 0.740688 0.016022
0.289036 0.734462 0.00981155
0.562051 0.728252 0.00358587
0.835081 0.722042 0
1 0.715816 0
0.0213626 0.988556 0.0213626
0.294377 0.982345 0.0151522
0.567391 0.976135 0.00892653
0.840421 0.969909 0.00271611
1 0.963699 0
0.0009308 0 0.238117
0.27393 0 0.231891
0.54696 0 0.225681
0.819989 0 0.219471
1 0 0.213245
0.00627146 0.245853 0.243458
0.279271 0.239643 0.237232
0.5523 0.233417 0.231022
0.82533 0.227207 0.224811
1 0.220996 0.218585
0.0115969 0.493736 0.248798
0.284611 0.487511 0.242573
0.557641 0.4813 0.236362
0.830671 0.47509 0.230152
1 0.468864 0.223926
0.0169375 0.741604 0.254139
0.289952 0.735393 0.247913
0.562982 0.729183 0.241703
0.836011 0.722957 0.235492
1 0.716747 0.229267
0.0222782 0.989487 0.25948
0.295293 0.983276 0.253254
0.568322 0.97705 0.247044
0.841352 0.97084 0.240833
1 0.964614 0.234607
0.00184634 0 0.476234
0.274861 0 0.470024
0.54789 0 0.463813
0.820905 0 0.457588
1 0 0.451377
0.007187 0.246784 0.481575
0.280201 0.240558 0.475364
0.553231 0.234348 0.469154
0.826246 0.228122 0.462928
1 0.221912 0.456718
0.0125277 0.494652 0.486915
0.285542 0.488441 0.480705
0.558572 0.482231 0.474495
0.831586 0.476005 0.468269
1 0.469795 0.462058
0.0178683 0.742535 0.492256
0.290883 0.736324 0.486046
0.563897 0.730098 0.479835
0.836927 0.723888 0.47361
1 0.717662 0.467399
0.023209 0.990417 0.497597
0.296223 0.984192 0.491386
0.569238 0.977981 0.485176
0.842268 0.971756 0.47895
1 0.965545 0.47274
0.00277714 0 0.714366
0.275776 0 0.708156
0.548806 0 0.70193
0.821836 0 0.69572
1 0 0.689509
0.0081178 0.2477 0.719707
0.281117 0.241489 0.713497
0.554147 0.235264 0.707271
0.827176 0.229053 0.70106
1 0.222843 0.69485
0.0134585 0.495583 0.725048
0.286458 0.489357 0.718837
0.559487 0.483146 0.712612
0.832517 0.476936 0.706401
1 0.47071 0.700191
0.0187991 0.74345 0.730388
0.291798 0.73724 0.724178
0.564828 0.731029 0.717952
0.837858 0.724804 0.711742
1 0.718593 0.705531
0.0241398 0.991333 0.735729
0.297139 0.985122 0.729519
0.570169 0.978897 0.723293
0.843198 0.972686 0.717083
1 0.966476 0.710872
0.00369268 0.000762951 0.952499
0.276707 0 0.946288
0.549737 0 0.940063
0.822751 0 0.933852
1 0 0.927626
0.00903334 0.248631 0.957839
0.282048 0.242405 0.951614
0.555077 0.236194 0.945403
0.828092 0.229984 0.939193
1 0.223758 0.932967
0.014374 0.496498 0.96318
0.287388 0.490288 0.956954
0.560418 0.484077 0.950744
0.833432 0.477852 0.944533
1 0.471641 0.938308
0.0197147 0.744381 0.968521
0.292729 0.73817 0.962295
0.565759 0.731945 0.956085
0.838773 0.725734 0.949874
1 0.719524 0.943648
0.0250553 0.992264 0.973861
0.29807 0.986038 0.967636
0.571099 0.979828 0.961425
0.844114 0.973617 0.955215
1 0.967391 0.948989
