public/LUTS/Autumn/Autumn_03.cube
TITLE "Generated by Resolve"
LUT_3D_SIZE 33
0 0 0
0.0341192 0 0
0.0682383 0 0
0.102373 0 0
0.136492 0 0
0.170626 0 0
0.204746 0 0
0.23888 0 0
0.273014 0 0
0.307134 0 0
0.341268 0 0
0.375387 0 0
0.409522 0 0
0.443656 0 0
0.477775 0 0
0.51191 0 0
0.546029 0 0
0.580163 0 0
0.614298 0 0
0.648417 0 0
0.682551 0 0
0.71667 0 0
0.750805 0 0
0.784939 0 0
0.819059 0 0
0.853193 0 0
0.887312 0 0
0.921447 0 0
0.955581 0 0
0.9897 0 0
1 0 0
1 0 0
1 0 0
0.000671397 0.0309758 0.000671397
0.0347753 0.0301976 0
0.0689097 0.0294194 0
0.103029 0.0286412 0
0.137163 0.027863 0
0.171298 0.0270848 0
0.205417 0.0263066 0
0.239551 0.0255283 0
0.273671 0.0247501 0
0.307805 0.0239719 0
0.341939 0.0231937 0
0.376059 0.0224155 0
0.410193 0.0216526 0
0.444312 0.0208743 0
0.478447 0.0200961 0
0.512581 0.0193179 0
0.5467 0.0185397 0
0.580835 0.0177615 0
0.614954 0.0169833 0
0.649088 0.0162051 0
0.683223 0.0154269 0
0.717342 0.0146487 0
0.751476 0.0138705 0
0.785595 0.0130922 0
0.81973 0.012314 0
0.853864 0.0115511 0
0.887984 0.0107729 0
0.922118 0.00999466 0
0.956237 0.00921645 0
0.990372 0.00843824 0
1 0.00766003 0
1 0.00688182 0
1 0.00610361 0
0.00132753 0.0619516 0.00132753
0.0354467 0.0611734 0.000564584
0.0695811 0.0603952 0
0.1037 0.059617 0
0.137835 0.058854 0
0.171954 0.0580758 0
0.206088 0.0572976 0
0.240223 0.0565194 0
0.274342 0.0557412 0
0.308476 0.054963 0
0.342596 0.0541848 0
0.37673 0.0534066 0
0.410864 0.0526284 0
0.444984 0.0518502 0
0.479118 0.0510719 0
0.513237 0.0502937 0
0.547372 0.0495155 0
0.581506 0.0487526 0
0.615625 0.0479744 0
0.64976 0.0471962 0
0.683879 0.0464179 0
0.718013 0.0456397 0
0.752148 0.0448615 0
0.786267 0.0440833 0
0.820401 0.0433051 0
0.85452 0.0425269 0
0.888655 0.0417487 0
0.922789 0.0409705 0
0.956909 0.0401923 0
0.991043 0.0394141 0
1 0.0386511 0
1 0.0378729 0
1 0.0370947 0
0.00199893 0.0929427 0.00199893
0.0361181 0.0921645 0.00122072
0.0702373 0.0913863 0.000442512
0.104372 0.0906081 0
0.138506 0.0898299 0
0.172625 0.0890516 0
0.20676 0.0882734 0
0.240879 0.0874952 0
0.275013 0.086717 0
0.309148 0.0859388 0
0.343267 0.0851759 0
0.377401 0.0843977 0
0.411521 0.0836194 0
0.445655 0.0828412 0
0.479774 0.082063 0
0.513909 0.0812848 0
0.548043 0.0805066 0
0.582162 0.0797284 0
0.616297 0.0789502 0
0.650416 0.078172 0
0.68455 0.0773938 0
0.718685 0.0766155 0
0.752804 0.0758373 0
0.786938 0.0750744 0
0.821057 0.0742962 0
0.855192 0.073518 0
0.889326 0.0727398 0
0.923445 0.0719615 0
0.95758 0.0711833 0
0.991699 0.0704051 0
1 0.0696269 0
1 0.0688487 0
1 0.0680705 0
0.00267033 0.123919 0.00267033
0.0367742 0.12314 0.00189212
0.0709087 0.122377 0.00111391
0.105043 0.121599 0.000335698
0.139162 0.120821 0
0.173297 0.120043 0
0.207416 0.119265 0
0.24155 0.118486 0
0.275685 0.117708 0
0.309804 0.11693 0
0.343938 0.116152 0
0.378058 0.115373 0
0.412192 0.114595 0
0.446326 0.113817 0
0.480446 0.113039 0
0.51458 0.112276 0
0.548699 0.111498 0
0.582834 0.110719 0
0.616968 0.109941 0
0.651087 0.109163 0
0.685222 0.108385 0
0.719341 0.107607 0
0.753475 0.106828 0
0.78761 0.10605 0
0.821729 0.105272 0
0.855863 0.104494 0
0.889982 0.103716 0
0.924117 0.102937 0
0.958251 0.102174 0
0.99237 0.101396 0
1 0.100618 0
1 0.0998398 0
1 0.0990616 0
0.00334173 0.15491 0.00334173
0.0374456 0.154131 0.00256352
0.0715801 0.153353 0.00178531
0.105699 0.152575 0.0010071
0.139834 0.151797 0.000228885
0.173968 0.151019 0
0.208087 0.15024 0
0.242222 0.149462 0
0.276341 0.148699 0
0.310475 0.147921 0
0.34461 0.147143 0
0.378729 0.146365 0
0.412863 0.145586 0
0.446983 0.144808 0
0.481117 0.14403 0
0.515251 0.143252 0
0.549371 0.142473 0
0.583505 0.141695 0
0.617624 0.140917 0
0.651759 0.140139 0
0.685893 0.139361 0
0.720012 0.138598 0
0.754147 0.137819 0
0.788266 0.137041 0
0.8224 0.136263 0
0.856535 0.135485 0
0.890654 0.134707 0
0.924788 0.133928 0
0.958907 0.13315 0
0.993042 0.132372 0
1 0.131594 0
1 0.130816 0
1 0.130037 0
0.00399786 0.185885 0.00399786
0.038117 0.185122 0.00323491
0.0722515 0.184344 0.0024567
0.106371 0.183566 0.00167849
0.140505 0.182788 0.000900282
0.174624 0.18201 0.000122072
0.208759 0.181231 0
0.242893 0.180453 0
0.277012 0.179675 0
0.311147 0.178897 0
0.345266 0.178119 0
0.3794 0.17734 0
0.413535 0.176562 0
0.447654 0.175799 0
0.481788 0.175021 0
0.515908 0.174243 0
0.550042 0.173465 0
0.584176 0.172686 0
0.618296 0.171908 0
0.65243 0.17113 0
0.686549 0.170352 0
0.720684 0.169574 0
0.754818 0.168795 0
0.788937 0.168017 0
0.823072 0.167239 0
0.857191 0.166461 0
0.891325 0.165698 0
0.925444 0.16492 0
0.959579 0.164141 0
0.993713 0.163363 0
1 0.162585 0
1 0.161807 0
1 0.161028 0
0.00466926 0.216876 0.00466926
0.0387884 0.216098 0.00389105
0.0729076 0.21532 0.00311284
0.107042 0.214542 0.00233463
0.141176 0.213764 0.00157168
0.175296 0.212985 0.000793469
0.20943 0.212222 1.5259e-05
0.243549 0.211444 0
0.277684 0.210666 0
0.311803 0.209888 0
0.345937 0.20911 0
0.380072 0.208331 0
0.414191 0.207553 0
0.448325 0.206775 0
0.482444 0.205997 0
0.516579 0.205219 0
0.550713 0.20444 0
0.584833 0.203662 0
0.618967 0.202899 0
0.653086 0.202121 0
0.687221 0.201343 0
0.721355 0.200565 0
0.755474 0.199786 0
0.789609 0.199008 0
0.823728 0.19823 0
0.857862 0.197452 0
0.891997 0.196674 0
0.926116 0.195895 0
0.96025 0.195117 0
0.994369 0.194339 0
1 0.193561 0
1 0.192798 0
1 0.19202 0
0.00534066 0.247868 0.00534066
0.0394446 0.247089 0.00456245
0.073579 0.246311 0.00378424
0.107713 0.245533 0.00300603
0.141833 0.244755 0.00222782
0.175967 0.243977 0.00144961
0.210086 0.243198 0.000671397
0.244221 0.24242 0
0.278355 0.241642 0
0.312474 0.240864 0
0.346609 0.240085 0
0.380728 0.239322 0
0.414862 0.238544 0
0.448997 0.237766 0
0.483116 0.236988 0
0.51725 0.23621 0
0.551369 0.235431 0
0.585504 0.234653 0
0.619638 0.233875 0
0.653758 0.233097 0
0.687892 0.232319 0
0.722011 0.23154 0
0.756146 0.230762 0
0.79028 0.229984 0
0.824399 0.229221 0
0.858534 0.228443 0
0.892653 0.227665 0
0.926787 0.226886 0
0.960922 0.226108 0
0.995041 0.22533 0
1 0.224552 0
1 0.223774 0
1 0.222995 0
0.00601205 0.278843 0.00601205
0.040116 0.278065 0.00523384
0.0742504 0.277287 0.00445563
0.10837 0.276509 0.00367742
0.142504 0.275746 0.00289921
0.176638 0.274968 0.002121
0.210758 0.274189 0.00134279
0.244892 0.273411 0.000564584
0.279011 0.272633 0
0.313146 0.271855 0
0.34728 0.271077 0
0.381399 0.270298 0
0.415534 0.26952 0
0.449653 0.268742 0
0.483787 0.267964 0
0.517922 0.267185 0
0.552041 0.266423 0
0.586175 0.265644 0
0.620295 0.264866 0
0.654429 0.264088 0
0.688563 0.26331 0
0.722683 0.262531 0
0.756817 0.261753 0
0.790936 0.260975 0
0.825071 0.260197 0
0.859205 0.259419 0
0.893324 0.25864 0
0.927459 0.257862 0
0.961578 0.257084 0
0.995712 0.256321 0
1 0.255543 0
1 0.254765 0
1 0.253986 0
0.00666819 0.309834 0.00666819
0.0407874 0.309056 0.00590524
0.0749218 0.308278 0.00512703
0.109041 0.3075 0.00434882
0.143175 0.306722 0.00357061
0.177295 0.305943 0.0027924
0.211429 0.305165 0.00201419
0.245563 0.304387 0.00123598
0.279683 0.303609 0.000457771
0.313817 0.302846 0
0.347936 0.302068 0
0.382071 0.301289 0
0.416205 0.300511 0
0.450324 0.299733 0
0.484459 0.298955 0
0.518578 0.298177 0
0.552712 0.297398 0
0.586847 0.29662 0
0.620966 0.295842 0
0.6551 0.295064 0
0.689219 0.294286 0
0.723354 0.293507 0
0.757473 0.292744 0
0.791608 0.291966 0
0.825742 0.291188 0
0.859861 0.29041 0
0.893996 0.289631 0
0.928115 0.288853 0
0.962249 0.288075 0
0.996384 0.287297 0
1 0.286519 0
1 0.28574 0
1 0.284962 0
0.00733959 0.34081 0.00733959
0.0414588 0.340032 0.00656138
0.0755779 0.339269 0.00578317
0.109712 0.338491 0.00500496
0.143832 0.337713 0.00424201
0.177966 0.336934 0.0034638
0.2121 0.336156 0.00268559
0.24622 0.335378 0.00190738
0.280354 0.3346 0.00112917
0.314473 0.333822 0.000350958
0.348608 0.333043 0
0.382742 0.332265 0
0.416861 0.331487 0
0.450996 0.330709 0
0.485115 0.329946 0
0.519249 0.329168 0
0.553384 0.328389 0
0.587503 0.327611 0
0.621637 0.326833 0
0.655756 0.326055 0
0.689891 0.325277 0
0.724025 0.324498 0
0.758144 0.32372 0
0.792279 0.322942 0
0.826398 0.322164 0
0.860533 0.321386 0
0.894667 0.320607 0
0.928786 0.319844 0
0.962921 0.319066 0
0.99704 0.318288 0
1 0.31751 0
1 0.316732 0
1 0.315953 0
0.00801099 0.371801 0.00801099
0.0421149 0.371023 0.00723278
0.0762493 0.370245 0.00645457
0.110384 0.369467 0.00567636
0.144503 0.368688 0.00489815
0.178637 0.36791 0.00411994
0.212757 0.367132 0.00334173
0.246891 0.366369 0.00257877
0.281025 0.365591 0.00180056
0.315145 0.364813 0.00102235
0.349279 0.364034 0.000244144
0.383398 0.363256 0
0.417533 0.362478 0
0.451667 0.3617 0
0.485786 0.360922 0
0.519921 0.360143 0
0.55404 0.359365 0
0.588174 0.358587 0
0.622309 0.357809 0
0.656428 0.357031 0
0.690562 0.356268 0
0.724681 0.355489 0
0.758816 0.354711 0
0.79295 0.353933 0
0.82707 0.353155 0
0.861204 0.352377 0
0.895323 0.351598 0
0.929458 0.35082 0
0.963592 0.350042 0
0.997711 0.349264 0
1 0.348486 0
1 0.347707 0
1 0.346929 0
0.00868238 0.402792 0.00868238
0.0427863 0.402014 0.00790417
0.0769207 0.401236 0.00712596
0.11104 0.400458 0.00634775
0.145174 0.39968 0.00556954
0.179309 0.398901 0.00479133
0.213428 0.398123 0.00401312
0.247562 0.397345 0.00323491
0.281682 0.396567 0.0024567
0.315816 0.395789 0.00167849
0.34995 0.39501 0.000900282
0.38407 0.394232 0.000137331
0.418204 0.393469 0
0.452323 0.392691 0
0.486458 0.391913 0
0.520592 0.391135 0
0.554711 0.390356 0
0.588846 0.389578 0
0.622965 0.3888 0
0.657099 0.388022 0
0.691234 0.387243 0
0.725353 0.386465 0
0.759487 0.385687 0
0.793606 0.384909 0
0.827741 0.384131 0
0.861875 0.383368 0
0.895994 0.382589 0
0.930129 0.381811 0
0.964248 0.381033 0
0.998383 0.380255 0
1 0.379477 0
1 0.378698 0
1 0.37792 0
0.00933852 0.433768 0.00933852
0.0434577 0.43299 0.00857557
0.0775921 0.432212 0.00779736
0.111711 0.431434 0.00701915
0.145846 0.430655 0.00624094
0.179965 0.429892 0.00546273
0.214099 0.429114 0.00468452
0.248234 0.428336 0.00390631
0.282353 0.427558 0.0031281
0.316487 0.42678 0.00234989
0.350607 0.426001 0.00157168
0.384741 0.425223 0.000793469
0.418875 0.424445 1.5259e-05
0.452995 0.423667 0
0.487129 0.422889 0
0.521248 0.42211 0
0.555383 0.421332 0
0.589502 0.420554 0
0.623636 0.419791 0
0.657771 0.419013 0
0.69189 0.418235 0
0.726024 0.417456 0
0.760143 0.416678 0
0.794278 0.4159 0
0.828412 0.415122 0
0.862531 0.414343 0
0.896666 0.413565 0
0.930785 0.412787 0
0.96492 0.412009 0
0.999054 0.411231 0
1 0.410468 0
1 0.409689 0
1 0.408911 0
0.0100099 0.464759 0.0100099
0.0441291 0.463981 0.00923171
0.0782483 0.463203 0.0084535
0.112383 0.462425 0.00767529
0.146502 0.461646 0.00691234
0.180636 0.460868 0.00613413
0.214771 0.46009 0.00535592
0.24889 0.459312 0.00457771
0.283024 0.458534 0.0037995
0.317143 0.457755 0.00302129
0.351278 0.456992 0.00224308
0.385412 0.456214 0.00146487
0.419532 0.455436 0.000686656
0.453666 0.454658 0
0.487785 0.45388 0
0.52192 0.453101 0
0.556054 0.452323 0
0.590173 0.451545 0
0.624308 0.450767 0
0.658427 0.449989 0
0.692561 0.44921 0
0.726696 0.448432 0
0.760815 0.447654 0
0.794949 0.446891 0
0.829068 0.446113 0
0.863203 0.445335 0
0.897337 0.444556 0
0.931456 0.443778 0
0.965591 0.443 0
0.99971 0.442222 0
1 0.441444 0
1 0.440665 0
1 0.439887 0
0.0106813 0.495735 0.0106813
0.0447852 0.494957 0.0099031
0.0789197 0.494179 0.0091249
0.113054 0.493416 0.00834669
0.147173 0.492638 0.00756847
0.181308 0.491859 0.00679026
0.215427 0.491081 0.00601205
0.249561 0.490303 0.0052491
0.283696 0.489525 0.00447089
0.317815 0.488746 0.00369268
0.351949 0.487968 0.00291447
0.386069 0.48719 0.00213626
0.420203 0.486412 0.00135805
0.454337 0.485634 0.000579843
0.488457 0.484855 0
0.522591 0.484077 0
0.55671 0.483314 0
0.590845 0.482536 0
0.624979 0.481758 0
0.659098 0.48098 0
0.693233 0.480201 0
0.727352 0.479423 0
0.761486 0.478645 0
0.795621 0.477867 0
0.82974 0.477089 0
0.863874 0.47631 0
0.897993 0.475532 0
0.932128 0.474754 0
0.966262 0.473991 0
1 0.473213 0
1 0.472435 0
1 0.471656 0
1 0.470878 0
0.0113527 0.526726 0.0113527
0.0454566 0.525948 0.0105745
0.0795911 0.52517 0.00979629
0.11371 0.524392 0.00901808
0.147845 0.523613 0.00823987
0.181979 0.522835 0.00746166
0.216098 0.522057 0.00668345
0.250233 0.521279 0.00590524
0.284352 0.520516 0.00512703
0.318486 0.519738 0.00434882
0.352621 0.518959 0.00357061
0.38674 0.518181 0.00280766
0.420874 0.517403 0.00202945
0.454994 0.516625 0.00125124
0.489128 0.515846 0.00047303
0.523262 0.515068 0
0.557382 0.51429 0
0.591516 0.513512 0
0.625635 0.512734 0
0.65977 0.511955 0
0.693904 0.511177 0
0.728023 0.510414 0
0.762158 0.509636 0
0.796277 0.508858 0
0.830411 0.50808 0
0.864546 0.507301 0
0.898665 0.506523 0
0.932799 0.505745 0
0.966918 0.504967 0
1 0.504189 0
1 0.50341 0
1 0.502632 0
1 0.501854 0
0.0120089 0.557702 0.0120089
0.046128 0.556939 0.0112459
0.0802625 0.556161 0.0104677
0.114382 0.555383 0.00968948
0.148516 0.554604 0.00891127
0.182635 0.553826 0.00813306
0.21677 0.553048 0.00735485
0.250904 0.55227 0.00657664
0.285023 0.551492 0.00579843
0.319158 0.550713 0.00502022
0.353277 0.549935 0.00424201
0.387411 0.549157 0.0034638
0.42153 0.548379 0.00268559
0.455665 0.547601 0.00190738
0.489799 0.546838 0.00114443
0.523919 0.546059 0.000366217
0.558053 0.545281 0
0.592172 0.544503 0
0.626307 0.543725 0
0.660441 0.542947 0
0.69456 0.542168 0
0.728695 0.54139 0
0.762814 0.540612 0
0.796948 0.539834 0
0.831083 0.539055 0
0.865202 0.538277 0
0.899336 0.537514 0
0.933455 0.536736 0
0.96759 0.535958 0
1 0.53518 0
1 0.534401 0
1 0.533623 0
1 0.532845 0
0.0126802 0.588693 0.0126802
0.0467994 0.587915 0.011902
0.0809186 0.587137 0.0111238
0.115053 0.586358 0.0103456
0.149172 0.58558 0.00958267
0.183307 0.584802 0.00880446
0.217441 0.584039 0.00802625
0.25156 0.583261 0.00724804
0.285695 0.582483 0.00646983
0.319814 0.581704 0.00569162
0.353948 0.580926 0.00491341
0.388083 0.580148 0.0041352
0.422202 0.57937 0.00335698
0.456336 0.578592 0.00257877
0.490455 0.577813 0.00180056
0.52459 0.577035 0.00102235
0.558724 0.576257 0.000244144
0.592844 0.575479 0
0.626978 0.574701 0
0.661097 0.573938 0
0.695232 0.573159 0
0.729366 0.572381 0
0.763485 0.571603 0
0.79762 0.570825 0
0.831739 0.570047 0
0.865873 0.569268 0
0.900008 0.56849 0
0.934127 0.567712 0
0.968261 0.566934 0
1 0.566155 0
1 0.565377 0
1 0.564599 0
1 0.563836 0
0.0133516 0.619684 0.0133516
0.0474556 0.618906 0.0125734
0.08159 0.618128 0.0117952
0.115724 0.61735 0.011017
0.149844 0.616571 0.0102388
0.183978 0.615793 0.00946059
0.218097 0.615015 0.00868238
0.252232 0.614237 0.00790417
0.286366 0.613458 0.00714122
0.320485 0.61268 0.00636301
0.35462 0.611902 0.0055848
0.388739 0.611124 0.00480659
0.422873 0.610361 0.00402838
0.457008 0.609583 0.00325017
0.491127 0.608804 0.00247196
0.525261 0.608026 0.00169375
0.55938 0.607248 0.000915541
0.593515 0.60647 0.000137331
0.627649 0.605692 0
0.661768 0.604913 0
0.695903 0.604135 0
0.730022 0.603357 0
0.764157 0.602579 0
0.798291 0.601801 0
0.83241 0.601038 0
0.866545 0.600259 0
0.900664 0.599481 0
0.934798 0.598703 0
0.968933 0.597925 0
1 0.597147 0
1 0.596368 0
1 0.59559 0
1 0.594812 0
0.014023 0.65066 0.014023
0.048127 0.649882 0.0132448
0.0822614 0.649104 0.0124666
0.116381 0.648325 0.0116884
0.150515 0.647562 0.0109102
0.184649 0.646784 0.010132
0.218769 0.646006 0.00935378
0.252903 0.645228 0.00857557
0.287022 0.64445 0.00779736
0.321157 0.643671 0.00701915
0.355291 0.642893 0.00624094
0.38941 0.642115 0.00547799
0.423545 0.641337 0.00469978
0.457664 0.640558 0.00392157
0.491798 0.63978 0.00314336
0.525933 0.639002 0.00236515
0.560052 0.638224 0.00158694
0.594186 0.637461 0.000808728
0.628305 0.636683 3.0518e-05
0.66244 0.635904 0
0.696574 0.635126 0
0.730694 0.634348 0
0.764828 0.63357 0
0.798947 0.632792 0
0.833082 0.632013 0
0.867201 0.631235 0
0.901335 0.630457 0
0.93547 0.629679 0
0.969589 0.628901 0
1 0.628122 0
1 0.627359 0
1 0.626581 0
1 0.625803 0
0.0146792 0.681651 0.0146792
0.0487984 0.680873 0.0139162
0.0829328 0.680095 0.013138
0.117052 0.679316 0.0123598
0.151186 0.678538 0.0115816
0.185306 0.67776 0.0108034
0.21944 0.676982 0.0100252
0.253559 0.676204 0.00924697
0.287694 0.675425 0.00846876
0.321828 0.674647 0.00769055
0.355947 0.673884 0.00691234
0.390082 0.673106 0.00613413
0.424201 0.672328 0.00535592
0.458335 0.67155 0.00457771
0.49247 0.670771 0.00381476
0.526589 0.669993 0.00303655
0.560723 0.669215 0.00225834
0.594842 0.668437 0.00148013
0.628977 0.667659 0.000701915
0.663111 0.66688 0
0.69723 0.666102 0
0.731365 0.665324 0
0.765484 0.664561 0
0.799619 0.663783 0
0.833753 0.663005 0
0.867872 0.662226 0
0.902007 0.661448 0
0.936126 0.66067 0
0.97026 0.659892 0
1 0.659113 0
1 0.658335 0
1 0.657557 0
1 0.656779 0
0.0153506 0.712627 0.0153506
0.0494698 0.711849 0.0145724
0.0835889 0.711086 0.0137942
0.117723 0.710307 0.0130159
0.151843 0.709529 0.0122377
0.185977 0.708751 0.0114748
0.220111 0.707973 0.0106966
0.254231 0.707195 0.00991836
0.288365 0.706416 0.00914015
0.322484 0.705638 0.00836194
0.356619 0.70486 0.00758373
0.390753 0.704082 0.00680552
0.424872 0.703304 0.00602731
0.459007 0.702525 0.0052491
0.493126 0.701747 0.00447089
0.52726 0.700984 0.00369268
0.561395 0.700206 0.00291447
0.595514 0.699428 0.00215152
0.629648 0.69865 0.00137331
0.663767 0.697871 0.000595102
0.697902 0.697093 0
0.732036 0.696315 0
0.766155 0.695537 0
0.80029 0.694759 0
0.834409 0.69398 0
0.868544 0.693202 0
0.902678 0.692424 0
0.936797 0.691646 0
0.970932 0.690883 0
1 0.690105 0
1 0.689326 0
1 0.688548 0
1 0.68777 0
0.016022 0.743618 0.016022
0.0501259 0.74284 0.0152438
0.0842603 0.742061 0.0144656
0.118395 0.741283 0.0136873
0.152514 0.740505 0.0129091
0.186648 0.739727 0.0121309
0.220768 0.738949 0.0113527
0.254902 0.73817 0.0105745
0.289036 0.737408 0.00981155
0.323156 0.736629 0.00903334
0.35729 0.735851 0.00825513
0.391409 0.735073 0.00747692
0.425544 0.734295 0.00669871
0.459678 0.733516 0.0059205
0.493797 0.732738 0.00514229
0.527932 0.73196 0.00436408
0.562051 0.731182 0.00358587
0.596185 0.730404 0.00280766
0.63032 0.729625 0.00202945
0.664439 0.728847 0.00125124
0.698573 0.728084 0.00047303
0.732692 0.727306 0
0.766827 0.726528 0
0.800961 0.72575 0
0.835081 0.724971 0
0.869215 0.724193 0
0.903334 0.723415 0
0.937469 0.722637 0
0.971603 0.721859 0
1 0.72108 0
1 0.720302 0
1 0.719524 0
1 0.718746 0
0.0166934 0.774609 0.0166934
0.0507973 0.773831 0.0159152
0.0849317 0.773053 0.0151369
0.119051 0.772274 0.0143587
0.153185 0.771496 0.0135805
0.18732 0.770718 0.0128023
0.221439 0.76994 0.0120241
0.255573 0.769162 0.0112459
0.289693 0.768383 0.0104677
0.323827 0.767605 0.00968948
0.357961 0.766827 0.00891127
0.392081 0.766049 0.00814832
0.426215 0.76527 0.00737011
0.460334 0.764508 0.0065919
0.494469 0.763729 0.00581369
0.528603 0.762951 0.00503548
0.562722 0.762173 0.00425727
0.596857 0.761395 0.00347906
0.630976 0.760616 0.00270085
0.66511 0.759838 0.00192264
0.699229 0.75906 0.00114443
0.733364 0.758282 0.000366217
0.767498 0.757504 0
0.801617 0.756725 0
0.835752 0.755947 0
0.869871 0.755169 0
0.904005 0.754406 0
0.93814 0.753628 0
0.972259 0.75285 0
1 0.752071 0
1 0.751293 0
1 0.750515 0
1 0.749737 0
0.0173495 0.805585 0.0173495
0.0514687 0.804807 0.0165713
0.0855879 0.804028 0.0158083
0.119722 0.80325 0.0150301
0.153857 0.802472 0.0142519
0.187976 0.801709 0.0134737
0.22211 0.800931 0.0126955
0.256229 0.800153 0.0119173
0.290364 0.799374 0.0111391
0.324498 0.798596 0.0103609
0.358618 0.797818 0.00958267
0.392752 0.79704 0.00880446
0.426871 0.796262 0.00802625
0.461006 0.795483 0.00724804
0.49514 0.794705 0.00648508
0.529259 0.793927 0.00570687
0.563394 0.793149 0.00492866
0.597513 0.79237 0.00415045
0.631647 0.791608 0.00337224
0.665782 0.790829 0.00259403
0.699901 0.790051 0.00181582
0.734035 0.789273 0.00103761
0.768154 0.788495 0.000259403
0.802289 0.787717 0
0.836423 0.786938 0
0.870542 0.78616 0
0.904677 0.785382 0
0.938796 0.784604 0
0.97293 0.783825 0
1 0.783047 0
1 0.782269 0
1 0.781506 0
1 0.780728 0
0.0180209 0.836576 0.0180209
0.0521401 0.835798 0.0172427
0.0862593 0.835019 0.0164645
0.120394 0.834241 0.0156863
0.154513 0.833463 0.0149081
0.188647 0.832685 0.0141451
0.222782 0.831907 0.0133669
0.256901 0.831128 0.0125887
0.291035 0.83035 0.0118105
