public/LUTS/Autumn/Autumn_13.cube
TITLE "Generated by Resolve"
LUT_3D_SIZE 33
0.0561379 0.0773938 0.0809949
0.080293 0.0789807 0.0713207
0.120607 0.0873426 0.0585946
0.165209 0.0947585 0.0413367
0.213367 0.0998245 0.0171817
0.265629 0.103059 0.00163272
0.32079 0.105562 0
0.380224 0.107805 0
0.451514 0.108217 0
0.527916 0.110155 0
0.608087 0.111131 0
0.693294 0.109468 0
0.77908 0.106645 0
0.860517 0.103822 0
0.938094 0.100832 0
0.996384 0.0982834 0
1 0.0969558 0
1 0.0972763 0
1 0.101198 0
1 0.114748 0
1 0.137926 0
1 0.161212 0
1 0.184985 0
1 0.207996 0
1 0.230488 0
1 0.253468 0
1 0.277302 0
1 0.301656 0
1 0.326619 0
1 0.351873 0
1 0.37348 0
1 0.380926 0
1 0.380987 0
0.0541695 0.0831006 0.0807813
0.0786908 0.0818036 0.0718853
0.120592 0.0882582 0.0584421
0.165286 0.095201 0.0413214
0.213794 0.0999619 0.016968
0.266178 0.10309 0.00151064
0.32137 0.105577 0
0.381521 0.107805 0
0.452903 0.108263 0
0.528801 0.11017 0
0.609064 0.111116 0
0.694301 0.109438 0
0.780041 0.106615 0
0.862074 0.103761 0
0.939254 0.100786 0
0.996429 0.0982681 0
1 0.0969558 0
1 0.0973068 0
1 0.101366 0
1 0.115221 0
1 0.138079 0
1 0.161181 0
1 0.184527 0
1 0.207324 0
1 0.22974 0
1 0.252567 0
1 0.276143 0
1 0.300404 0
1 0.325399 0
1 0.350393 0
1 0.371725 0
1 0.378698 0
1 0.378561 0
0.0482185 0.100252 0.0801862
0.0686351 0.0973526 0.0755932
0.114366 0.0959029 0.0593423
0.159335 0.101625 0.0441138
0.21001 0.105425 0.0203098
0.265705 0.106477 0.00210575
0.324544 0.10782 0
0.386801 0.109697 0
0.461357 0.109514 0
0.540032 0.110491 0
0.623178 0.110384 0
0.708644 0.10901 0
0.794171 0.107393 0
0.87335 0.106004 0
0.947295 0.104616 0
0.999863 0.103349 0
1 0.102998 0
1 0.104128 0
1 0.107607 0
1 0.11458 0
1 0.132647 0
1 0.153887 0
1 0.174685 0
1 0.196612 0
1 0.219287 0
1 0.242954 0
1 0.267521 0
1 0.292515 0
1 0.317998 0
1 0.343587 0
1 0.364828 0
1 0.371206 0
1 0.371054 0
0.0411383 0.119097 0.0797742
0.0576028 0.116503 0.0791485
0.103212 0.111742 0.0623636
0.154589 0.109773 0.0441596
0.204456 0.114549 0.0209049
0.259892 0.117861 0.00204471
0.320806 0.118776 0
0.385275 0.120058 0
0.461921 0.119844 0
0.54432 0.120043 0
0.631907 0.119158 0
0.719524 0.117983 0
0.803677 0.117189 0
0.881712 0.116762 0
0.952514 0.116167 0
1 0.11635 0
1 0.117784 0
1 0.120745 0
1 0.125521 0
1 0.132769 0
1 0.142077 0
1 0.153521 0
1 0.169955 0
1 0.189273 0
1 0.210025 0
1 0.233295 0
1 0.25771 0
1 0.282551 0
1 0.3084 0
1 0.334478 0
1 0.355657 0
1 0.361074 0
1 0.360861 0
0.0327153 0.138674 0.0795453
0.0483406 0.135042 0.0796521
0.0859693 0.13492 0.0700542
0.14464 0.124331 0.0460059
0.201556 0.123064 0.022797
0.258396 0.126177 0.00242618
0.31812 0.129198 0
0.380911 0.133974 0
0.454795 0.13872 0
0.538338 0.14316 0
0.623285 0.145968 0
0.709651 0.147021 0
0.795361 0.146273 0
0.874922 0.145556 0
0.947143 0.14522 0
0.999207 0.146441 0
1 0.148394 0
1 0.151949 0
1 0.156634 0
1 0.162921 0
1 0.171633 0
1 0.182544 0
1 0.194812 0
1 0.208621 0
1 0.22446 0
1 0.241474 0
1 0.260456 0
1 0.28159 0
1 0.305241 0
1 0.329671 0
1 0.348989 0
1 0.352636 0
1 0.352544 0
0.0230106 0.158831 0.0796063
0.0388342 0.154467 0.0800488
0.0706951 0.157214 0.0742351
0.126619 0.150301 0.0546731
0.192782 0.137209 0.0272679
0.255497 0.135531 0.00332647
0.318044 0.137957 0
0.383963 0.143313 0
0.461509 0.150164 0
0.545464 0.15613 0
0.630716 0.162463 0
0.714351 0.169085 0
0.794263 0.174609 0
0.86894 0.178332 0
0.936507 0.181659 0
0.989471 0.183581 0
1 0.185657 0
1 0.189334 0
1 0.19408 0
1 0.200687 0
1 0.208988 0
1 0.218601 0
1 0.229618 0
1 0.242756 0
1 0.257755 0
1 0.274189 0
1 0.291417 0
1 0.309255 0
1 0.327764 0
1 0.346517 0
1 0.360555 0
1 0.362112 0
1 0.362264 0
0.0123903 0.1794 0.0801556
0.028275 0.175433 0.07953
0.0563821 0.17763 0.0745556
0.105364 0.181094 0.061387
0.175479 0.167025 0.0342718
0.247501 0.150713 0.0041352
0.317479 0.148775 0
0.387823 0.155001 0
0.466712 0.162493 0
0.55465 0.168856 0
0.643351 0.175708 0
0.728908 0.183154 0
0.808896 0.191608 0
0.879728 0.200778 0
0.941878 0.209339 0
0.988479 0.216815 0
1 0.224598 0
1 0.231159 0
1 0.238178 0
1 0.244984 0
1 0.252903 0
1 0.262379 0
1 0.273487 0
1 0.285924 0
1 0.300084 0
1 0.314916 0
1 0.330877 0
1 0.347585 0
1 0.364721 0
1 0.381094 0
1 0.390906 0
1 0.391257 0
1 0.391119 0
0.00340276 0.200748 0.0813001
0.0165255 0.197177 0.0797436
0.0416266 0.199176 0.0737774
0.0809796 0.20621 0.0636759
0.149447 0.206424 0.0366979
0.230732 0.18265 0.00402838
0.310628 0.166308 0
0.388647 0.168231 0
0.470298 0.176303 0
0.56112 0.18323 0
0.653788 0.190372 0
0.742626 0.198779 0
0.824155 0.207599 0
0.894255 0.217472 0
0.95407 0.228687 0
0.995758 0.240223 0
1 0.251575 0
1 0.26302 0
1 0.275532 0
1 0.287495 0
1 0.298955 0
1 0.310674 0
1 0.322683 0
1 0.336278 0
1 0.349798 0
1 0.363928 0
1 0.378897 0
1 0.394369 0
1 0.410758 0
1 0.423774 0
1 0.428962 0
1 0.428824 0
1 0.428351 0
0 0.222827 0.0834669
0.00546273 0.219654 0.0806439
0.0263371 0.221942 0.0729839
0.0594797 0.230686 0.0592355
0.115984 0.240024 0.0442817
0.205112 0.234501 0.00686656
0.293462 0.198291 3.0518e-05
0.382239 0.187503 0
0.471916 0.191821 0
0.565759 0.199191 0
0.66276 0.206973 0
0.752926 0.215473 0
0.834623 0.225193 0
0.903746 0.236423 0
0.963409 0.247715 0
1 0.260426 0
1 0.274357 0
1 0.289326 0
1 0.302724 0
1 0.315953 0
1 0.330953 0
1 0.347631 0
1 0.36408 0
1 0.381826 0
1 0.398276 0
1 0.413733 0
1 0.429633 0
1 0.446372 0
1 0.461662 0
1 0.472145 0
1 0.474754 0
1 0.474342 0
1 0.474418 0
0 0.248737 0.0839857
0 0.245243 0.0802777
0.0107118 0.247318 0.0710613
0.0352636 0.258488 0.0526131
0.0856336 0.270115 0.0339208
0.162615 0.27895 0.00946059
0.272328 0.263996 0.000228885
0.366522 0.221149 0
0.465522 0.214328 0
0.568582 0.217639 0
0.666575 0.225269 0
0.758389 0.234562 0
0.839902 0.245045 0
0.911254 0.256229 0
0.969238 0.269047 0
1 0.282612 0
1 0.296895 0
1 0.31162 0
1 0.327337 0
1 0.343801 0
1 0.361379 0
1 0.378058 0
1 0.394766 0
1 0.41239 0
1 0.431342 0
1 0.450813 0
1 0.470405 0
1 0.489342 0
1 0.504692 0
1 0.513237 0
1 0.515496 0
1 0.516411 0
1 0.517464 0
0 0.279149 0.0820783
0 0.27602 0.0771038
0.000427253 0.277989 0.066331
0.0109407 0.289265 0.0449836
0.055436 0.302647 0.0237888
0.128191 0.314305 0.00657664
0.224186 0.321614 0.000183108
0.347143 0.287083 0
0.451179 0.249836 0
0.559319 0.244129 0
0.667399 0.246586 0
0.761715 0.255207 0
0.844617 0.266285 0
0.915022 0.279011 0
0.969711 0.292256 0
1 0.305898 0
1 0.320775 0
1 0.336309 0
1 0.352758 0
1 0.370031 0
1 0.387518 0
1 0.405875 0
1 0.424643 0
1 0.443229 0
1 0.462715 0
1 0.482048 0
1 0.501381 0
1 0.520088 0
1 0.533379 0
1 0.539101 0
1 0.542199 0
1 0.544839 0
1 0.547021 0
0 0.312474 0.0804456
0 0.30927 0.0743877
0 0.310979 0.0621653
0 0.321782 0.0395666
0.030457 0.336873 0.0174258
0.0989548 0.350195 0.00291447
0.188891 0.364508 3.0518e-05
0.301167 0.364187 0
0.430671 0.316167 0
0.542855 0.281224 0
0.656931 0.27631 0
0.760433 0.27985 0
0.84654 0.289769 0
0.915145 0.30219 0
0.969619 0.315785 0
1 0.330358 0
1 0.345907 0
1 0.362646 0
1 0.379141 0
1 0.396033 0
1 0.413443 0
1 0.431998 0
1 0.450767 0
1 0.470527 0
1 0.490883 0
1 0.511116 0
1 0.530846 0
1 0.547997 0
1 0.558556 0
1 0.562219 0
1 0.564889 0
1 0.567422 0
1 0.569085 0
0 0.348074 0.0793927
0 0.344701 0.0726177
0 0.346426 0.0594797
0 0.35613 0.038529
0.0137789 0.373449 0.0147555
0.0731518 0.389425 0.00148013
0.157488 0.405097 0
0.26389 0.417884 0
0.388464 0.406165 0
0.52105 0.348684 0
0.637675 0.316579 0
0.747921 0.313832 0
0.841489 0.317327 0
0.912886 0.327077 0
0.968383 0.340383 0
1 0.35581 0
1 0.371984 0
1 0.38851 0
1 0.405203 0
1 0.422461 0
1 0.439994 0
1 0.457893 0
1 0.47686 0
1 0.495781 0
1 0.515724 0
1 0.53579 0
1 0.555718 0
1 0.571435 0
1 0.579522 0
1 0.581994 0
1 0.583978 0
1 0.585901 0
1 0.587381 0
0 0.386725 0.0779431
0 0.383001 0.0711376
0 0.384848 0.0576486
0 0.394095 0.0373693
0.00164797 0.412528 0.011368
0.0497902 0.429847 0.00077821
0.128939 0.44715 0
0.230625 0.463416 0
0.348013 0.47013 0
0.480247 0.445533 0
0.612314 0.384588 0
0.728389 0.356893 0
0.825528 0.354543 0
0.903243 0.358557 0
0.962615 0.367758 0
0.999008 0.382284 0
1 0.39791 0
1 0.414572 0
1 0.431525 0
1 0.448493 0
1 0.466133 0
1 0.483833 0
1 0.501747 0
1 0.520699 0
1 0.539696 0
1 0.558633 0
1 0.578134 0
1 0.591196 0
1 0.596689 0
1 0.598962 0
1 0.60116 0
1 0.603281 0
1 0.6047 0
0 0.427329 0.0755016
0 0.423713 0.0684977
0 0.426154 0.0545205
0 0.434211 0.0344854
0 0.452857 0.00781262
0.0305638 0.471916 9.15541e-05
0.104311 0.490288 0
0.201282 0.508247 0
0.318029 0.522911 0
0.437324 0.521859 0
0.5729 0.485924 0
0.699901 0.422812 0
0.804166 0.398093 0
0.88571 0.397971 0
0.94934 0.40293 0
0.992218 0.411322 0
1 0.424643 0
1 0.440589 0
1 0.45713 0
1 0.474662 0
1 0.492042 0
1 0.50901 0
1 0.526055 0
1 0.544091 0
1 0.562615 0
1 0.581048 0
1 0.59881 0
1 0.610025 0
1 0.61413 0
1 0.616297 0
1 0.618555 0
1 0.620752 0
1 0.621836 0
0 0.469688 0.0721294
0 0.466545 0.0646372
0 0.46862 0.0503548
0 0.475746 0.0302586
0 0.494041 0.00627146
0.0132753 0.514412 0
0.0829633 0.534127 0
0.176486 0.552575 0
0.288975 0.568872 0
0.409491 0.579431 0
0.522408 0.569131 0
0.657725 0.5205 0
0.772274 0.461585 0
0.863905 0.441825 0
0.93106 0.442527 0
0.978698 0.447684 0
1 0.455695 0
1 0.467582 0
1 0.483162 0
1 0.499626 0
1 0.516457 0
1 0.532799 0
1 0.549828 0
1 0.567498 0
1 0.584924 0
1 0.60174 0
1 0.618082 0
1 0.627726 0
1 0.631022 0
1 0.633143 0
1 0.635233 0
1 0.637125 0
1 0.638178 0
0 0.51371 0.0674296
0 0.510124 0.0598154
0 0.512352 0.0449073
0 0.518044 0.0250858
0 0.535729 0.00483711
0.00148013 0.557458 0
0.0638285 0.576974 0
0.154513 0.595819 0
0.262867 0.612375 0
0.382666 0.625925 0
0.496696 0.629358 0
0.606317 0.612955 0
0.726986 0.556069 0
0.830304 0.502373 0
0.909102 0.486 0
0.962188 0.487312 0
0.996414 0.492958 0
1 0.50042 0
1 0.510369 0
1 0.5243 0
1 0.540078 0
1 0.556039 0
1 0.573007 0
1 0.589578 0
1 0.605982 0
1 0.622217 0
1 0.637293 0
1 0.645243 0
1 0.647593 0
1 0.649439 0
1 0.651377 0
1 0.653056 0
1 0.653941 0
0 0.557382 0.0619211
0 0.554009 0.0540627
0 0.556298 0.0384833
0 0.561105 0.0184787
0 0.578347 0.00277714
0 0.599207 0
0.0468605 0.618647 0
0.13521 0.637217 0
0.240131 0.653956 0
0.356847 0.66833 0
0.475074 0.677546 0
0.574334 0.673487 0
0.676555 0.649561 0
0.784878 0.593759 0
0.874235 0.545785 0
0.939101 0.530861 0
0.981277 0.531914 0
1 0.536934 0
1 0.543511 0
1 0.55201 0
1 0.564263 0
1 0.578882 0
1 0.595071 0
1 0.61091 0
1 0.626703 0
1 0.642313 0
1 0.655955 0
1 0.662562 0
1 0.66424 0
1 0.665797 0
1 0.667475 0
1 0.669062 0
1 0.669947 0
0 0.60058 0.0562295
0 0.597604 0.0477607
0 0.600153 0.0313115
0 0.605127 0.011368
0 0.619867 0.000900282
0 0.640284 0
0.0320897 0.659434 0
0.118013 0.677424 0
0.221256 0.69398 0
0.333623 0.707729 0
0.450111 0.718364 0
0.554498 0.722026 0
0.639445 0.714702 0
0.729274 0.6869 0
0.824765 0.632547 0
0.902892 0.590143 0
0.959228 0.574777 0
0.995041 0.574334 0
1 0.579156 0
1 0.585184 0
1 0.592111 0
1 0.602243 0
1 0.616556 0
1 0.631479 0
1 0.646464 0
1 0.662364 0
1 0.674342 0
1 0.679377 0
1 0.680766 0
1 0.682139 0
1 0.683803 0
1 0.685389 0
1 0.686091 0
0 0.643107 0.0499886
0 0.641032 0.0407568
0 0.643946 0.023621
0 0.648447 0.00613413
0 0.660777 0
0 0.680125 0
0.0193027 0.699031 0
0.103807 0.716777 0
0.203555 0.731746 0
0.312352 0.744717 0
0.426337 0.755749 0
0.534325 0.762844 0
0.619852 0.761318 0
0.6925 0.752758 0
0.768734 0.722072 0
0.852857 0.671763 0
0.921767 0.632334 0
0.972717 0.616846 0
0.998611 0.616083 0
1 0.619974 0
1 0.62443 0
1 0.629801 0
1 0.639323 0
1 0.651911 0
1 0.666316 0
1 0.682185 0
1 0.692073 0
1 0.69575 0
1 0.697322 0
1 0.698772 0
1 0.700313 0
1 0.701732 0
1 0.702358 0
0 0.686137 0.043061
0 0.68394 0.033463
0 0.68687 0.0157015
0 0.691127 0.00222782
0 0.701106 0
0 0.718486 0
0.00750744 0.737011 0
0.0894484 0.75317 0
0.187274 0.767468 0
0.292775 0.77966 0
0.403388 0.789807 0
0.510521 0.797742 0
0.603311 0.80061 0
0.672526 0.797543 0
0.733333 0.788266 0
0.798642 0.757443 0
0.870832 0.711208 0
0.933593 0.674983 0
0.982681 0.659052 0
1 0.655955 0
1 0.657481 0
1 0.661311 0
1 0.666728 0
1 0.674922 0
1 0.685924 0
1 0.700893 0
1 0.709377 0
1 0.712123 0
1 0.713832 0
1 0.715541 0
1 0.716991 0
1 0.718288 0
1 0.718822 0
0 0.727871 0.0360723
0 0.726024 0.0257877
0 0.729107 0.00851453
0 0.733288 0
0 0.741451 0
0 0.757 0
0.000106813 0.773266 0
0.0767224 0.78822 0
0.171328 0.801709 0
0.274571 0.813016 0
0.382345 0.822278 0
0.486183 0.829282 0
0.581506 0.833646 0
0.656413 0.833539 0
0.712734 0.829526 0
0.763714 0.820493 0
0.818494 0.792584 0
0.881254 0.750668 0
0.941695 0.715877 0
0.987961 0.698482 0
1 0.693019 0
1 0.693614 0
1 0.697353 0
1 0.701625 0
1 0.708385 0
1 0.719829 0
1 0.726177 0
1 0.728374 0
1 0.730114 0
1 0.731731 0
1 0.733333 0
1 0.734493 0
1 0.735393 0
0 0.769131 0.0285191
0 0.767117 0.0180819
0 0.770382 0.00259403
0 0.774792 0
0 0.781109 0
0 0.793439 0
0 0.808164 0
0.0636454 0.822385 0
0.157137 0.834333 0
0.259022 0.844648 0
0.36289 0.852384 0
0.46363 0.858183 0
0.55761 0.862272 0
0.638193 0.864485 0
0.69807 0.86305 0
0.744533 0.859602 0
0.787106 0.851286 0
0.832181 0.826398 0
0.889479 0.78674 0
0.950423 0.753536 0
0.993088 0.734966 0
0.999695 0.728557 0
1 0.728176 0
1 0.730297 0
1 0.734936 0
1 0.742016 0
1 0.744503 0
1 0.744869 0
1 0.746273 0
1 0.747936 0
1 0.749371 0
1 0.750484 0
1 0.751705 0
0 0.809506 0.0208591
0 0.807904 0.0103761
0 0.811582 0
0 0.815442 0
0 0.819989 0
0 0.829389 0
0 0.842695 0
0.0540017 0.85536 0
0.14638 0.865858 0
0.24445 0.874449 0
0.345663 0.880766 0
0.443809 0.885084 0
0.534646 0.888395 0
0.615366 0.891173 0
0.680919 0.892042 0
0.729122 0.889876 0
0.769177 0.886519 0
0.806058 0.879591 0
0.844587 0.85658 0
0.899184 0.821195 0
0.960723 0.788647 0
0.998276 0.769299 0
0.999985 0.762676 0
1 0.760693 0
1 0.763516 0
1 0.76791 0
1 0.766812 0
1 0.763836 0
1 0.763012 0
1 0.764187 0
1 0.765896 0
1 0.767239 0
1 0.76849 0
0 0.849134 0.013138
0 0.847929 0.0027924
0 0.851408 0
0 0.855055 0
0 0.85803 0
0 0.864637 0
0 0.876326 0
0.0464942 0.886915 0
0.137118 0.895506 0
0.232639 0.902312 0
0.33051 0.907332 0
0.425589 0.910765 0
0.513558 0.91342 0
0.590723 0.915633 0
0.657481 0.917266 0
0.711009 0.91783 0
0.752819 0.915587 0
0.788754 0.912154 0
0.823026 0.905211 0
0.858625 0.885222 0
0.907729 0.85304 0
0.972122 0.820233 0
0.989899 0.802716 0
0.994232 0.795056 0
0.995468 0.793667 0
0.99559 0.794903 0
0.996735 0.792294 0
0.998764 0.787274 0
1 0.782956 0
1 0.781094 0
1 0.781949 0
1 0.783093 0
1 0.784527 0
0 0.887617 0.00575265
0 0.886442 0.000244144
0 0.889784 0
0 0.892958 0
0 0.895369 0
0 0.898573 0
0 0.907744 0
0.039826 0.916381 0
0.129168 0.923232 0
0.222248 0.928283 0
0.317113 0.932601 0
0.408774 0.935744 0
0.492622 0.937819 0
0.566644 0.939834 0
0.631464 0.941772 0
0.686732 0.943633 0
0.732921 0.944213 0
0.770352 0.94229 0
0.804974 0.938262 0
0.838972 0.931136 0
0.872694 0.913344 0
0.918044 0.881193 0
0.961761 0.851392 0
0.976532 0.833463 0
0.98085 0.826322 0
0.982238 0.823835 0
0.984848 0.819257 0
0.988128 0.813397 0
0.990906 0.80763 0
0.993393 0.802396 0
0.995468 0.799039 0
0.99556 0.799268 0
0.994858 0.801038 0
0 0.924163 0.000610361
0 0.923186 6.10361e-05
0 0.925978 0
0 0.929107 0
0 0.930892 0
0 0.930678 0
0 0.937179 0
0.0360723 0.943832 0
0.123369 0.949432 0
0.214313 0.953704 0
0.305028 0.957519 0
0.392157 0.960113 0
0.472084 0.962341 0
0.542672 0.964523 0
0.604562 0.966644 0
0.658778 0.969223 0
0.706554 0.971618 0
0.748058 0.972229 0
0.784192 0.96994 0
0.819501 0.965728 0
0.855634 0.959014 0
0.887648 0.941833 0
0.928496 0.911177 0
0.949096 0.882063 0
0.960067 0.863111 0
0.964538 0.8551 0
0.967849 0.849271 0
0.971496 0.842863 0
0.975341 0.835996 0
0.979339 0.828931 0
0.982971 0.822644 0
0.984665 0.819791 0
0.982834 0.822828 0
0 0.958343 0
0 0.957153 0
0 0.960143 0
0 0.962798 0
0 0.963241 0
0 0.960739 0
0 0.964752 0
0.0349584 0.970367 0
0.119951 0.975158 0
