public/LUTS/Autumn/Autumn_10.cube
TITLE "Generated by Resolve"
LUT_3D_SIZE 5
0.0705882 0.112001 0.124102
0.599603 0.103975 0
1 0.110872 0
1 0.227527 0
1 0.37554 0
0.0019379 0.262074 0.118502
0.6495 0.237186 0
1 0.32546 0
1 0.425696 0
1 0.492744 0
0 0.53196 0.085359
0.538628 0.613123 0
1 0.521141 0
1 0.632944 0
1 0.659327 0
0 0.826719 0.0262455
0.43093 0.869459 0
0.867689 0.82565 0
1 0.767163 0
1 0.770962 0
0 1 0.00720226
0.361746 1 0
0.731014 1 0
0.918853 0.970642 0
0.919066 0.936202 0
0 0.276448 0.475517
0.140261 0.263676 0.199222
0.767147 0.317327 0.0611734
1 0.381506 0
1 0.458991 0
0 0.327169 0.483619
0.293187 0.322454 0.313268
0.960098 0.346609 0.0976425
1 0.399283 0
1 0.441428 0
0 0.625589 0.601724
0.209293 0.604318 0.307546
0.93875 0.573892 0.0686961
1 0.65565 0
1 0.677989 0
0 0.873365 0.64654
0.212421 0.844358 0.205524
0.791882 0.848753 0.0808118
1 0.788998 0
0.998856 0.800656 0
0 1 0.663294
0.226154 1 0.191562
0.62977 1 0.13341
0.939071 0.970733 0.0124361
0.936156 0.92781 0
0 0.505821 0.86688
0 0.485054 0.533578
0.445411 0.45124 0.0293736
0.982116 0.457908 0.0657969
1 0.591485 0.54139
0 0.543267 0.884581
0 0.530648 0.800366
0.62179 0.471107 0.345647
1 0.521569 0.396796
1 0.609827 0.592386
0 0.586465 0.892119
0 0.659709 0.927672
0.756039 0.614115 0.67248
1 0.663752 0.647929
1 0.650309 0.541039
0 0.78645 0.982025
0 0.857832 0.963546
0.719188 0.819928 0.648997
1 0.800748 0.507927
1 0.805631 0.443992
0 1 1
0 1 0.912718
0.602167 0.983673 0.520546
0.938262 0.968978 0.350668
0.983108 0.919768 0.124041
0 0.730327 1
0 0.698848 0.955001
0.0571908 0.670695 0.82533
0.829801 0.593393 0.603998
1 0.608576 0.603571
0 0.733913 1
0 0.706447 1
0.235523 0.660197 0.972625
0.918685 0.589258 0.746258
1 0.630915 0.738918
0 0.759243 1
0 0.786114 1
0.427909 0.718654 1
0.968429 0.665492 0.870695
1 0.698192 0.838193
0 0.797406 1
0 0.834394 1
0.481682 0.823514 0.999069
0.969009 0.79443 0.88571
1 0.799558 0.88304
0 0.909545 1
0 0.947097 1
0.367315 0.958373 1
0.885466 0.948501 0.810971
1 0.936706 0.74757
0 0.911421 1
0 0.890883 1
0 0.873732 1
0.645502 0.767926 1
1 0.697002 0.976806
0 0.884413 1
0 0.8692 1
0 0.860029 1
0.746532 0.753948 1
1 0.689021 1
0 0.876097 1
0 0.87808 1
0.0101778 0.852918 1
0.835142 0.755001 1
1 0.710399 1
0 0.877592 1
0 0.900023 1
0.230686 0.868772 1
0.91696 0.803662 1
1 0.78172 1
0 0.902083 1
0 0.925185 1
0.383352 0.89398 1
0.88275 0.926406 0.993149
1 0.936126 0.954421
