public/LUTS/Autumn/Autumn_12.cube
TITLE "Generated by Resolve"
LUT_3D_SIZE 9
0.105196 0.173663 0.182254
0.445228 0.16144 0.0152743
0.771328 0.16907 0
0.996368 0.165637 0
1 0.176989 0
1 0.208362 0
1 0.257465 0
1 0.319539 0
1 0.356374 0
0.0197299 0.269413 0.154162
0.425849 0.228 0.0106661
0.746654 0.26006 0
0.971084 0.29868 0
1 0.336675 0
1 0.368322 0
1 0.399939 0
1 0.443626 0
1 0.464851 0
1.5259e-05 0.387747 0.122637
0.299489 0.420676 0.0049897
0.742763 0.338018 0
0.965301 0.380545 0
1 0.435142 0
1 0.488762 0
1 0.537881 0
1 0.584649 0
1 0.591089 0
0 0.528176 0.0906539
0.191974 0.573983 0
0.618936 0.570413 0
0.934142 0.48098 0
1 0.521737 0
1 0.575036 0
1 0.626291 0
1 0.654383 0
1 0.656352 0
0 0.672465 0.0551766
0.138506 0.705089 0
0.515694 0.746288 0
0.804761 0.685634 0
0.993164 0.623804 0
1 0.647898 0
1 0.69099 0
1 0.709468 0
1 0.71104 0
0 0.808087 0.0212863
0.102434 0.821363 0
0.437964 0.852415 0
0.707179 0.861509 0
0.864164 0.805341 0
1 0.74345 0
1 0.75079 0
1 0.760739 0
1 0.762585 0
0 0.930358 0.000869764
0.0793011 0.922927 0
0.385702 0.938125 0
0.630396 0.946349 0
0.788128 0.946502 0
0.906203 0.896208 0
0.974212 0.838056 0
0.986038 0.81709 0
0.986389 0.816464 0
0 1 0.000610361
0.0731365 0.998245 0
0.338048 1 0
0.541894 1 0
0.695216 1 0
0.846143 1 0
0.922148 0.975128 0
0.927871 0.920409 0
0.935363 0.907103 0
0 1 0.00108339
0.0711833 1 0
0.304967 1 0
0.494301 1 0
0.651164 1 0
0.805875 1 0
0.915892 1 0
0.915785 1 0
0.915709 1 0
0 0.2486 0.381476
0.249058 0.220691 0.194858
0.554406 0.246662 0.118914
0.887221 0.252995 0.00457771
0.999878 0.278828 0
1 0.310399 0
1 0.34136 0
1 0.382971 0
1 0.407584 0
0 0.290059 0.347494
0.297581 0.267063 0.226474
0.719905 0.238254 0.0333867
0.97554 0.255024 0.000320439
1 0.284642 0
1 0.308721 0
1 0.345037 0
1 0.393423 0
1 0.422095 0
0 0.451682 0.344305
0.147021 0.421408 0.159396
0.662181 0.363638 0.0128176
0.905852 0.405997 0
0.999756 0.459983 0
1 0.503349 0
1 0.538476 0
1 0.571923 0
1 0.578149 0
0 0.579034 0.314061
0.0618143 0.566995 0.120073
0.512062 0.593759 0.00173953
0.878843 0.501289 0
0.994827 0.543145 0
1 0.591241 0
1 0.637705 0
1 0.669566 0
1 0.668223 0
0 0.703899 0.286458
0.0372473 0.699702 0.0696269
0.406439 0.731868 0.00125124
0.735927 0.716762 0
0.95758 0.633936 0
1 0.661311 0
1 0.701961 0
1 0.724926 0
1 0.724025 0
0 0.822232 0.259861
0.031693 0.819562 0.0280003
0.347021 0.837995 0.000289921
0.640421 0.852338 0
0.828733 0.820203 0
0.999496 0.748653 0
1 0.758709 0
1 0.7738 0
1 0.773907 0
0 0.930343 0.241474
0.0262303 0.926116 0.00619516
0.307164 0.926253 0
0.560174 0.93434 0
0.755535 0.939223 0
0.883146 0.907423 0
0.972747 0.840574 0
0.982528 0.823331 0
0.982223 0.823865 0
0 1 0.245212
0.0265202 0.999634 0.00645457
0.277913 0.997543 0.00047303
0.491142 1 1.5259e-05
0.656901 1 0
0.810407 1 0
0.928298 0.977615 0
0.930236 0.916869 0
0.938231 0.901915 0
0 1 0.249226
0.0273289 1 0.021622
0.252003 1 0.00674449
0.447379 1 0.00106813
0.610193 1 0.000564584
0.75845 1 0
0.918334 1 0
0.918837 1 0
0.919417 1 0
0 0.336553 0.582834
0.00987259 0.324666 0.410834
0.347494 0.30013 0.193774
0.658991 0.322057 0.128695
0.888304 0.367971 0.077409
1 0.401297 0.0210575
1 0.429343 0.00201419
1 0.463752 0
1 0.477119 0
0 0.363134 0.545556
0.0205386 0.356085 0.510307
0.442893 0.331426 0.266239
0.747372 0.360021 0.20734
0.971038 0.375906 0.117769
1 0.396872 0.0382391
1 0.425513 0.00631724
1 0.455253 0
1 0.457923 0
0 0.404196 0.511757
0.00679026 0.439734 0.511482
0.507958 0.414755 0.347326
0.83827 0.414267 0.223041
0.996994 0.427817 0.127352
1 0.44445 0.043473
1 0.464973 0
1 0.502144 0
1 0.516716 0
0 0.624903 0.584115
0 0.608331 0.479698
0.354192 0.593744 0.259159
0.797574 0.535988 0.155871
0.955367 0.571817 0.0605478
1 0.613794 0.010132
1 0.647227 0
1 0.672206 0
1 0.669581 0
0 0.754788 0.579293
0 0.725704 0.422675
0.272648 0.722667 0.214923
0.659846 0.733639 0.0877394
0.926955 0.654093 0.00956741
1 0.682414 0
1 0.717418 0
1 0.743114 0
1 0.741039 0
0 0.853697 0.557244
0 0.836027 0.356207
0.25124 0.828 0.157641
0.55787 0.84062 0.0878004
0.795544 0.831708 0.0341955
0.982986 0.761593 0
1 0.773327 0
1 0.791028 0
1 0.790341 0
0 0.941817 0.54226
0 0.93518 0.298512
0.232471 0.918578 0.124147
0.488228 0.921309 0.0863966
0.7066 0.926085 0.0577707
0.862821 0.910735 0.0322728
0.971298 0.84477 0
0.975616 0.835554 0
0.97499 0.836637 0
0 1 0.538552
0 1 0.264408
0.216907 0.994583 0.118471
0.433997 0.994369 0.0997787
0.614267 0.998703 0.0814221
0.769894 0.999985 0.0421607
0.92491 0.978912 0.00796521
0.931624 0.91577 0
0.939696 0.899367 0
0 1 0.54226
0 1 0.24889
0.204562 1 0.124926
0.39765 1 0.114229
0.56817 1 0.091722
0.718578 1 0.0523232
0.898375 1 0.00753796
0.923842 1 0
0.926452 1 0
0 0.434394 0.776532
0 0.423758 0.585794
0.0575265 0.423804 0.388678
0.50869 0.376135 0.133654
0.787091 0.377539 0.0711833
0.965957 0.434562 0.0780957
1 0.49218 0.242786
1 0.532464 0.338872
1 0.548211 0.330526
0 0.4636 0.74377
0 0.454749 0.733715
0.130892 0.439536 0.499306
0.576898 0.400854 0.261524
0.830884 0.421927 0.199481
0.99559 0.468544 0.253422
1 0.511269 0.321462
1 0.530709 0.293873
1 0.535027 0.244434
0 0.475807 0.719432
0 0.510887 0.743572
0.195438 0.485756 0.651759
0.640772 0.475029 0.417197
0.874403 0.504967 0.412619
1 0.521523 0.378882
1 0.528206 0.30985
1 0.541238 0.251698
1 0.528588 0.161517
0 0.524575 0.687831
0 0.558984 0.698116
0.163622 0.591409 0.676188
0.667124 0.582574 0.544305
0.903853 0.583566 0.466011
1 0.593713 0.400076
1 0.596048 0.314427
1 0.609674 0.229923
1 0.609476 0.158251
0 0.721462 0.784146
0 0.764233 0.759091
0.0506294 0.751614 0.624277
0.566964 0.724346 0.432456
0.871107 0.681956 0.356954
0.984024 0.707179 0.28603
1 0.723705 0.178485
1 0.739834 0.101427
1 0.733593 0.0455177
0 0.87126 0.847547
0 0.858244 0.720974
0.0624247 0.846784 0.52372
0.479835 0.826078 0.368887
0.756939 0.831662 0.267887
0.965972 0.766781 0.0975509
1 0.774227 0.0478523
1 0.792981 0.00601205
1 0.792599 0.00251774
0 0.947768 0.830106
0 0.939467 0.685802
0.0897383 0.929412 0.434684
0.433616 0.907591 0.307973
0.657862 0.911788 0.249485
0.84184 0.910903 0.202808
0.997681 0.842542 0
0.998062 0.842618 0
0.996567 0.844877 0
0 1 0.806516
0 1 0.658366
0.118761 0.999146 0.369207
0.399054 0.986938 0.273594
0.578119 0.988861 0.242695
0.733532 0.993072 0.189044
0.90399 0.980423 0.133333
0.951507 0.919493 0
0.954376 0.905379 0
0 1 0.791684
0 1 0.637034
0.145602 1 0.318624
0.3729 1 0.248447
0.531563 1 0.243214
0.677195 1 0.196597
0.853132 1 0.123095
0.930922 1 0.0930648
0.933715 1 0.0876173
0 0.532586 0.936736
0 0.520439 0.750195
0 0.514565 0.572442
0.24181 0.507439 0.328298
0.668177 0.445884 0.157092
0.896681 0.451896 0.130404
1 0.499718 0.263798
1 0.561227 0.463569
1 0.606622 0.602594
0 0.555367 0.910292
0 0.541756 0.9196
0.00517281 0.531456 0.727779
0.352773 0.506249 0.483436
0.69897 0.475029 0.337499
0.932006 0.479576 0.30277
1 0.53283 0.423316
1 0.586252 0.55938
1 0.61236 0.60914
0 0.568612 0.891905
0 0.594751 0.923705
0.0226291 0.57258 0.889479
0.434897 0.528878 0.670619
0.765087 0.524941 0.504097
0.953368 0.550652 0.515892
1 0.592782 0.58732
1 0.614496 0.587533
1 0.614221 0.54406
0 0.582559 0.873747
0 0.619089 0.895125
0.0170901 0.649561 0.904448
0.482521 0.602975 0.783047
0.794354 0.609079 0.635081
0.950469 0.641276 0.652949
1 0.651759 0.614893
1 0.651362 0.559594
1 0.634073 0.492561
0 0.638148 0.85452
0 0.67335 0.866392
0.0110323 0.705684 0.871794
0.465187 0.705882 0.774716
0.799725 0.706371 0.669505
0.946715 0.715938 0.628626
1 0.715572 0.573159
1 0.70988 0.506859
1 0.700374 0.449149
0 0.798062 0.950195
0 0.840024 0.940658
0 0.861372 0.903914
0.342977 0.837461 0.708156
0.717739 0.814038 0.564355
0.930465 0.78085 0.485832
1 0.786892 0.427909
1 0.798184 0.353201
1 0.795117 0.307515
0 0.939116 0.999985
0 0.94728 0.952316
0 0.941604 0.856168
0.326863 0.91429 0.601923
0.631601 0.89308 0.493751
0.815305 0.901305 0.410239
0.999466 0.833616 0.216052
1 0.839002 0.179843
1 0.840742 0.149569
0 1 0.99263
0 1 0.912978
0 1 0.791394
0.334295 0.989685 0.507576
0.567422 0.973114 0.434424
0.708125 0.979782 0.38085
0.883528 0.978393 0.300587
0.977996 0.910643 0.00788891
0.981964 0.900984 0.00297551
0 1 0.983658
0 1 0.884382
0.00404364 1 0.71519
0.335088 1 0.446983
0.518898 1 0.39823
0.646738 1 0.376577
0.806607 1 0.296849
0.940307 1 0.231968
0.941772 1 0.224292
0 0.63154 1
0 0.6159 0.941329
0 0.607187 0.815869
0.0711986 0.596292 0.695994
0.490608 0.561547 0.519097
0.786648 0.536202 0.434852
0.983429 0.535729 0.399939
1 0.570489 0.495781
1 0.615122 0.649042
0 0.643809 1
0 0.625254 1
0 0.618372 0.943465
0.14815 0.59028 0.808576
0.560296 0.549187 0.642527
0.833478 0.542123 0.530663
0.997726 0.550408 0.49987
1 0.588205 0.596429
1 0.624735 0.692348
0 0.656107 0.999939
0 0.666484 1
0 0.654719 0.999664
0.239673 0.61062 0.92398
0.639551 0.56318 0.763546
0.880949 0.567636 0.641489
1 0.589776 0.629541
1 0.625254 0.697108
1 0.649821 0.740627
0 0.664454 0.999725
0 0.693217 1
0 0.71667 1
0.307469 0.664897 0.977951
0.68278 0.627756 0.844022
0.897917 0.631235 0.73283
1 0.659922 0.737377
1 0.682368 0.758312
1 0.687556 0.752102
0 0.681682 0.999496
0 0.710109 0.997162
0 0.742153 0.999939
0.297246 0.739467 0.96643
0.704372 0.71339 0.85655
0.889677 0.717479 0.770306
0.999298 0.735943 0.777203
1 0.735668 0.744701
1 0.730205 0.717067
0 0.727062 0.987976
0 0.760922 0.995254
0 0.788388 0.996094
0.250004 0.7944 0.941665
0.667674 0.792844 0.831418
0.868391 0.796521 0.767727
0.995499 0.794553 0.732372
1 0.784573 0.691661
1 0.779919 0.67071
0 0.865248 1
0 0.894286 1
0 0.921782 1
0.0252842 0.938018 0.968368
0.540764 0.896849 0.778622
0.791074 0.878676 0.677043
0.986786 0.845624 0.589609
1 0.85156 0.555123
1 0.854444 0.535149
0 0.980789 1
0 0.997925 1
0 1 0.997253
0.0478981 0.999329 0.885725
0.509636 0.975677 0.671901
0.707546 0.956771 0.602594
0.855177 0.96614 0.511772
0.99675 0.903914 0.319371
0.999969 0.898283 0.311192
0 1 1
0 1 1
0 1 0.982834
0.0971389 1 0.795377
0.490364 1 0.593942
0.641672 1 0.543786
0.770306 1 0.48893
0.951659 1 0.401938
0.952422 1 0.39968
0 0.733211 1
0 0.716136 1
0 0.707729 0.999802
0 0.698497 0.966827
0.302525 0.652949 0.880339
0.698039 0.600916 0.768963
0.927275 0.596506 0.687083
1 0.609522 0.676158
1 0.620844 0.684153
0 0.732952 1
0 0.713344 1
0 0.705913 1
0.00477607 0.695247 1
0.376318 0.64094 0.935073
0.741909 0.591897 0.823346
0.949706 0.593118 0.737316
1 0.608591 0.711131
1 0.630503 0.737362
0 0.740887 1
0 0.737865 1
0 0.725368 1
0.0450446 0.709209 1
0.457237 0.65359 0.985458
0.787747 0.609308 0.881529
0.967544 0.610544 0.795743
1 0.628031 0.755657
1 0.655955 0.791821
0 0.746715 1
0 0.762325 1
0 0.772747 1
0.082063 0.742016 1
0.515282 0.694865 1
0.814496 0.660899 0.918471
0.972808 0.657725 0.839109
1 0.674556 0.802182
1 0.693385 0.82591
0 0.754253 1
0 0.774136 1
0 0.799252 1
0.0685893 0.799451 1
0.550652 0.747845 1
0.823148 0.725643 0.922667
0.968658 0.721767 0.851682
1 0.732235 0.830686
1 0.740749 0.847166
0 0.772 1
0 0.790616 1
0 0.813352 1
0.0626383 0.823056 1
0.519081 0.807462 0.985946
0.811521 0.794553 0.910262
0.952193 0.789899 0.849195
1 0.792645 0.849928
1 0.793439 0.849531
0 0.817533 1
0 0.834195 1
0 0.85275 1
0.0439765 0.862852 1
0.484291 0.847684 0.964416
0.772351 0.853483 0.879866
0.922179 0.858824 0.827588
1 0.85452 0.79881
1 0.854871 0.791424
0 0.917021 1
0 0.939452 1
0 0.962524 1
0 0.983688 1
0.245335 0.986023 0.979004
0.660014 0.95668 0.824979
0.838148 0.941817 0.743908
1 0.911742 0.6551
1 0.913008 0.647776
0 0.997925 1
0 0.999985 1
0 1 1
0 1 1
0.25391 1 0.903349
0.611856 1 0.742504
0.761944 1 0.67985
0.923003 1 0.60119
0.965026 1 0.586236
0 0.82797 1
0 0.81445 1
0 0.805478 1
0 0.800076 1
0.137362 0.767285 1
0.559487 0.711421 0.989151
0.857023 0.665888 0.932189
1 0.653147 0.881254
1 0.663844 0.855329
0 0.817731 1
0 0.801572 1
0 0.793423 1
0 0.790539 1
0.182544 0.753521 1
0.607431 0.701396 0.999146
0.877043 0.659937 0.951751
1 0.649958 0.898314
1 0.66247 0.870848
0 0.818479 1
0 0.808957 1
0 0.796139 1
0 0.794034 1
0.226566 0.752163 1
0.650553 0.704982 0.999878
0.892973 0.66775 0.970535
1 0.659403 0.916381
1 0.672221 0.885786
0 0.821057 1
0 0.824857 1
0 0.825483 1
0 0.813764 1
0.274037 0.767376 1
0.685527 0.728542 1
0.903441 0.69688 0.983459
1 0.686717 0.931105
1 0.698009 0.899306
0 0.824201 1
0 0.834516 1
0 0.848615 1
0 0.852735 1
0.329183 0.792844 1
0.719249 0.762768 1
0.914366 0.738567 0.985901
1 0.72781 0.936095
1 0.736019 0.910384
0 0.830518 1
0 0.841978 1
0 0.858778 1
0 0.874052 1
0.31902 0.838499 1
0.734035 0.805524 1
0.912306 0.788205 0.981506
1 0.777646 0.931563
1 0.783536 0.914839
0 0.846601 1
0 0.857511 1
0 0.872145 1
0 0.88542 1
0.321477 0.859068 1
0.703243 0.855161 0.997589
0.887388 0.852934 0.955749
0.999496 0.843275 0.913848
1 0.846296 0.914595
0 0.87985 1
0 0.894667 1
0 0.908995 1
0 0.921996 1
0.288991 0.901808 1
0.664408 0.895872 0.987198
0.841871 0.911711 0.919539
0.962783 0.919463 0.866133
1 0.922423 0.858564
0 0.950957 1
0 0.975158 1
0 0.991623 1
0 0.998489 1
0.10724 0.998413 1
0.506981 0.999008 0.987625
0.746517 0.999893 0.884794
0.888563 1 0.801083
0.980713 0.994644 0.757488
0 0.89749 1
0 0.891402 1
0 0.883299 1
0 0.877928 1
0.00047303 0.861051 1
0.432654 0.794171 1
0.772946 0.758953 1
0.964324 0.719951 1
1 0.693355 1
0 0.881621 1
0 0.874296 1
0 0.86772 1
0 0.863737 1
0.00575265 0.845167 1
0.479362 0.778546 1
0.792615 0.749844 1
0.976181 0.711482 1
1 0.689036 1
0 0.876875 1
0 0.869749 1
0 0.860548 1
0 0.857114 1
0.00906386 0.837781 1
0.50454 0.770535 1
0.808972 0.745922 1
0.983078 0.71162 1
1 0.693004 1
0 0.876387 1
0 0.876188 1
0 0.872877 1
0 0.864668 1
0.0233463 0.842023 1
0.530571 0.777707 1
0.82591 0.754116 1
0.990082 0.723674 1
1 0.707851 1
0 0.876631 1
0 0.8822 1
0 0.88867 1
0 0.889738 1
0.101183 0.849317 1
0.600656 0.78999 1
0.855024 0.771176 1
0.999603 0.745327 1
1 0.734173 1
0 0.878172 1
0 0.886397 1
0 0.897322 1
0 0.908003 1
0.154986 0.872557 1
0.664149 0.816251 1
0.874083 0.803082 1
1 0.779171 1
1 0.7729 1
0 0.883482 1
0 0.892363 1
0 0.903868 1
0 0.916655 1
0.174289 0.890227 1
0.642161 0.862364 1
0.862379 0.855634 1
0.993454 0.835782 1
1 0.831312 1
0 0.897047 1
0 0.906111 1
0 0.917082 1
0 0.928435 1
0.197803 0.901381 1
0.623819 0.88455 1
0.819333 0.905913 0.999939
0.94931 0.916793 0.982467
1 0.913481 0.967269
0 0.919524 1
0 0.934493 1
0 0.947768 1
0 0.958999 1
0.186816 0.940261 1
0.582971 0.929107 1
0.789349 0.944244 0.998062
0.911192 0.967453 0.950103
0.986984 0.99147 0.907271
