public/LUTS/Autumn/Autumn_14.cube
TITLE "Generated by Resolve"
LUT_3D_SIZE 9
0.0561379 0.0773938 0.0809949
0.177127 0.0962997 0.0362402
0.402258 0.107881 0
0.728237 0.108324 0
0.998611 0.0974899 0
1 0.128954 0
1 0.224338 0
1 0.322728 0
1 0.380987 0
0.0402533 0.121233 0.0797436
0.166659 0.111818 0.0397955
0.408286 0.121202 0
0.753323 0.119707 0
0.999969 0.119997 0
1 0.141527 0
1 0.2056 0
1 0.302968 0
1 0.359426 0
0.00184634 0.205707 0.0816815
0.0897993 0.212634 0.0603952
0.413352 0.174334 0
0.778683 0.20589 0
0.99884 0.250843 0
1 0.301518 0
1 0.358358 0
1 0.420294 0
1 0.438239 0
0 0.32459 0.0800336
0 0.337133 0.0313878
0.328664 0.372381 0
0.793957 0.293736 0
1 0.34725 0
1 0.415961 0
1 0.494041 0
1 0.566796 0
1 0.576333 0
0 0.490654 0.0701457
0 0.496483 0.0223392
0.20032 0.577585 0
0.6822 0.540551 0
0.989273 0.46949 0
1 0.521157 0
1 0.590295 0
1 0.638849 0
1 0.645701 0
0 0.66894 0.0458839
0 0.673594 0.00146487
0.125292 0.742748 0
0.559548 0.785382 0
0.857404 0.69987 0
1 0.642634 0
1 0.674281 0
1 0.707103 0
1 0.712169 0
0 0.838087 0.0153048
0 0.843717 0
0.076997 0.880781 0
0.467887 0.904692 0
0.738155 0.908766 0
0.900481 0.848112 0
0.997559 0.784787 0
1 0.77731 0
1 0.780133 0
0 0.985489 0
0 0.986007 0
0.0617838 0.990112 0
0.392355 0.99971 0
0.62771 1 0
0.800366 1 0
0.923232 0.966766 0
0.942092 0.895033 0
0.952636 0.876509 0
0 1 0
0 1 0
0.0656138 1 0
0.34136 1 0
0.564599 1 0
0.74609 1 0
0.914717 1 0
0.914839 1 0
0.915129 0.999695 0
0.0221408 0.112978 0.153872
0.127016 0.106569 0.100679
0.379156 0.110384 0.00308232
0.720562 0.106905 0
0.993072 0.119173 0
1 0.161975 0
1 0.23418 0
1 0.325917 0
1 0.381384 0
0.0113222 0.127153 0.140002
0.137179 0.117739 0.0939193
0.395422 0.124743 0
0.742 0.124849 0
1 0.117006 0
1 0.138003 0
1 0.20737 0
1 0.302571 0
1 0.36643 0
0 0.22536 0.145617
0.0664683 0.206775 0.0950027
0.390005 0.176806 0
0.746059 0.2112 0
0.99263 0.250156 0
1 0.287358 0
1 0.328786 0
1 0.385092 0
1 0.41828 0
0 0.338445 0.139742
0 0.327886 0.0701457
0.28838 0.370062 0
0.759716 0.296193 0
0.995331 0.349767 0
1 0.417014 0
1 0.486793 0
1 0.558755 0
1 0.575235 0
0 0.501228 0.121935
0 0.495079 0.0484321
0.161318 0.562875 0
0.63798 0.555047 0
0.974731 0.471717 0
1 0.525521 0
1 0.592325 0
1 0.644709 0
1 0.650004 0
0 0.677256 0.088014
0 0.675547 0.0138857
0.0924086 0.726619 0
0.518425 0.777768 0
0.825574 0.717464 0
1 0.64712 0
1 0.677333 0
1 0.712169 0
1 0.716274 0
0 0.844862 0.0505837
0 0.844541 0.000213626
0.0464027 0.868269 0
0.428183 0.898436 0
0.72018 0.907134 0
0.874678 0.860822 0
0.997299 0.785809 0
0.999939 0.78024 0
1 0.783536 0
0 0.985809 0.0408637
0 0.985336 0
0.0315099 0.983627 0
0.361273 0.99501 0
0.607736 0.999969 0
0.781491 1 0
0.921996 0.967193 0
0.942473 0.894362 0
0.953155 0.875349 0
0 1 0.044831
0 1 0
0.0370336 1 0
0.313252 1 0
0.537881 1 0
0.720027 1 0
0.908644 1 0
0.915038 1 0
0.915206 0.999619 0
0 0.18941 0.312276
0.0133974 0.17583 0.242206
0.209323 0.165515 0.134951
0.473091 0.211292 0.0869764
0.874922 0.223728 0.000167849
1 0.256397 0
1 0.28809 0
1 0.346349 0
1 0.390143 0
0 0.19733 0.289952
0.0118257 0.183658 0.260945
0.233356 0.172 0.13933
0.544015 0.204456 0.0588846
0.921569 0.220752 0
1 0.250492 0
1 0.283772 0
1 0.342916 0
1 0.390555 0
0 0.215732 0.260975
0 0.222736 0.257847
0.297368 0.203967 0.142931
0.706706 0.199023 0.00309758
0.989807 0.213352 0
1 0.23267 0
1 0.270832 0
1 0.331624 0
1 0.38439 0
0 0.417029 0.317784
0 0.369528 0.244923
0.148791 0.368933 0.0872358
0.674464 0.314321 0
0.942275 0.372274 0
1 0.432868 0
1 0.487404 0
1 0.534234 0
1 0.556725 0
0 0.574838 0.301518
0 0.52549 0.214771
0.0443122 0.543038 0.0543374
0.517037 0.581842 0
0.9131 0.485344 0
1 0.540658 0
1 0.604135 0
1 0.656794 0
1 0.66038 0
0 0.729946 0.277668
0 0.692241 0.180987
0.019501 0.708858 0.0116274
0.397574 0.756466 0
0.749554 0.749111 0
0.989929 0.654826 0
1 0.687968 0
1 0.728374 0
1 0.728267 0
0 0.872435 0.253498
0 0.850477 0.14403
0.00903334 0.859434 0
0.328374 0.882719 0
0.652247 0.89691 0
0.8374 0.875257 0
0.996078 0.791897 0
0.998428 0.790204 0
0.99823 0.791363 0
0 0.992538 0.253071
0 0.9841 0.12845
0.00611887 0.983139 0
0.286671 0.983734 0
0.552804 0.992401 0
0.743206 0.997436 0
0.908309 0.972519 0
0.943511 0.892546 0
0.955276 0.871565 0
0 1 0.286946
0 1 0.128527
0.00827039 1 0
0.249744 1 0
0.480507 1 0
0.667918 1 0
0.871595 1 0
0.917372 1 0
0.917403 0.999542 0
0 0.287556 0.515389
0 0.277592 0.421607
0.0040589 0.277104 0.324269
0.271824 0.26656 0.14197
0.635798 0.294804 0.0745251
0.914 0.355871 0.0205234
1 0.393088 0
1 0.433646 0
1 0.475044 0
0 0.29839 0.496178
0 0.284504 0.462699
0.00553903 0.283192 0.347448
0.306157 0.267445 0.153948
0.662531 0.303777 0.0874037
0.938216 0.358404 0.0261845
1 0.393454 0
1 0.435157 0
1 0.468589 0
0 0.304524 0.468727
0 0.312352 0.479484
0.0100252 0.307424 0.433463
0.40763 0.288411 0.213504
0.760571 0.327962 0.138003
0.992935 0.351629 0.0354314
1 0.388022 0
1 0.429969 0
1 0.448737 0
0 0.331548 0.437003
0 0.351553 0.442664
0.00334173 0.387457 0.452857
0.510185 0.365911 0.279652
0.890547 0.368566 0.124971
1 0.389136 0.0271
1 0.41709 0
1 0.46157 0
1 0.495842 0
0 0.584314 0.582116
0 0.609751 0.517922
0 0.584619 0.412879
0.332479 0.586938 0.183017
0.835203 0.52137 0.0529488
0.990494 0.572351 0.000396735
1 0.626764 0
1 0.670405 0
1 0.670207 0
0 0.780728 0.632959
0 0.756054 0.497734
0 0.734127 0.350988
0.249989 0.742367 0.136339
0.669276 0.762692 0.030518
0.952773 0.674586 0
1 0.708232 0
1 0.748363 0
1 0.747204 0
0 0.895186 0.620035
0 0.881544 0.473854
0 0.87393 0.284886
0.224598 0.869108 0.0858625
0.555779 0.881575 0.0307164
0.804913 0.878492 0.00743114
0.989258 0.799847 0
0.991455 0.807584 0
0.991272 0.807904 0
0 0.994415 0.617517
0 0.987442 0.467735
0 0.988602 0.238056
0.202762 0.974258 0.0738842
0.475685 0.979248 0.0486458
0.694423 0.986954 0.0296788
0.880293 0.975219 0.00932326
0.943221 0.893034 0
0.954864 0.872297 0
0 1 0.620676
0 1 0.477363
0 1 0.218738
0.186343 1 0.0864118
0.417487 1 0.0769207
0.617594 1 0.0516518
0.809735 1 0.00759899
0.922621 1 0
0.924727 0.999359 0
0 0.421637 0.749905
0 0.407233 0.62771
0 0.406363 0.502586
0.00450141 0.411612 0.347646
0.448798 0.373526 0.0492103
0.809674 0.364706 0
0.992767 0.443046 0.0327001
1 0.514992 0.288518
1 0.555871 0.370657
0 0.427939 0.735363
0 0.410269 0.688167
0 0.409445 0.540032
0.00946059 0.414664 0.367315
0.479164 0.371527 0.0747692
0.821408 0.37203 0.00352483
0.99649 0.450584 0.0758831
1 0.521508 0.31783
1 0.553841 0.359258
0 0.434424 0.7122
0 0.435065 0.724834
0 0.429801 0.687083
0.0575113 0.425925 0.461692
0.560388 0.378698 0.187579
0.856565 0.408942 0.117678
1 0.473579 0.219821
1 0.522423 0.316365
1 0.540368 0.284581
0 0.439521 0.69366
0 0.44947 0.695018
0 0.487572 0.734569
0.130083 0.466651 0.635874
0.644984 0.447532 0.365698
0.912474 0.488029 0.363592
1 0.51284 0.333501
1 0.528527 0.262989
1 0.530892 0.18819
0 0.480186 0.671733
0 0.499031 0.66125
0 0.545922 0.686809
0.0970321 0.589319 0.679179
0.682551 0.578164 0.530571
0.942107 0.585184 0.444083
1 0.594553 0.356466
1 0.602411 0.252247
1 0.608423 0.15581
0 0.705852 0.818341
0 0.744198 0.790082
0 0.782849 0.755184
0.0259556 0.772564 0.617426
0.558114 0.749294 0.403632
0.902663 0.700343 0.300008
1 0.72639 0.205447
1 0.752178 0.0797284
1 0.750607 0.0159457
0 0.903792 0.943099
0 0.899092 0.839277
0 0.894041 0.71574
0.0427558 0.886336 0.502754
0.469291 0.864698 0.326345
0.762219 0.872251 0.239857
0.98706 0.802228 0.00134279
1 0.812085 0.000167849
1 0.816159 0
0 0.995392 0.926894
0 0.98941 0.816953
0 0.988144 0.683436
0.0672313 0.984085 0.415244
0.419211 0.961532 0.276982
0.644587 0.967468 0.228275
0.848478 0.968277 0.164416
0.965759 0.897414 0
0.968429 0.884627 0
0 1 0.89929
0 1 0.793866
0 1 0.6607
0.0936446 1 0.344106
0.380118 1 0.244755
0.568338 1 0.229892
0.754376 1 0.16054
0.93109 1 0.0928664
0.933944 0.999146 0.0830396
0 0.566613 0.950835
0 0.548043 0.824292
0 0.539254 0.671427
0 0.532647 0.530144
0.139803 0.53283 0.304936
0.673091 0.457938 0.0671702
0.945968 0.464485 0.0691997
1 0.527871 0.306172
1 0.603265 0.580591
0 0.563882 0.941024
0 0.545174 0.893217
0 0.536995 0.723262
0 0.529213 0.563394
0.16585 0.530571 0.337041
0.686168 0.458824 0.119677
0.94818 0.470619 0.118288
1 0.53373 0.346654
1 0.604898 0.592447
0 0.563729 0.925216
0 0.554421 0.931609
0 0.542962 0.903761
0 0.536965 0.710063
0.262776 0.523796 0.470497
0.712856 0.475563 0.292561
0.9729 0.486183 0.268238
1 0.55671 0.466621
1 0.612055 0.63006
0 0.564797 0.913161
0 0.569314 0.909712
0 0.591333 0.946212
0.000167849 0.578408 0.913024
0.384237 0.530632 0.681208
0.782986 0.520928 0.491066
0.988998 0.551232 0.511925
1 0.603052 0.617609
1 0.626444 0.630274
0 0.572625 0.899641
0 0.58117 0.891905
0 0.619394 0.915404
0 0.660838 0.940917
0.460761 0.608804 0.822156
0.824948 0.611765 0.64715
0.986633 0.652506 0.681178
1 0.660227 0.628061
1 0.65127 0.565194
0 0.623438 0.889174
0 0.633936 0.86273
0 0.677043 0.881529
0 0.718242 0.901884
0.44622 0.723445 0.808042
0.822171 0.730694 0.699535
0.983764 0.735698 0.646448
1 0.729259 0.574166
1 0.721233 0.511482
0 0.807614 0.998428
0 0.831647 0.989242
0 0.874128 0.982483
0 0.900984 0.947311
0.288045 0.877699 0.739513
0.720348 0.848966 0.572305
0.967193 0.81146 0.450431
1 0.816236 0.388357
1 0.819532 0.331792
0 0.963668 1
0 0.988266 1
0 0.991852 0.98497
0 0.989761 0.890288
0.29723 0.969146 0.609506
0.624613 0.943404 0.487373
0.814054 0.953613 0.398779
0.99585 0.8851 0.112825
0.997986 0.879469 0.0782788
0 1 1
0 1 1
0 1 0.944625
0 1 0.819867
0.316426 1 0.507149
0.551369 1 0.43212
0.708476 1 0.384878
0.933944 1 0.274525
0.944549 0.999039 0.258991
0 0.703685 1
0 0.686015 1
0 0.671016 0.919539
0 0.660487 0.833768
0 0.648539 0.7476
0.430747 0.610666 0.594903
0.825299 0.572519 0.493446
1 0.577462 0.478828
1 0.610513 0.604196
0 0.694316 1
0 0.679149 1
0 0.665812 0.960189
0 0.657145 0.864851
0.00831617 0.645472 0.773816
0.459495 0.605081 0.625757
0.838071 0.571557 0.516976
1 0.577554 0.500038
1 0.612268 0.627314
0 0.685054 1
0 0.671565 1
0 0.657847 1
0 0.651682 0.973083
0.0552529 0.634913 0.864897
0.53315 0.580102 0.710704
0.87335 0.566018 0.586099
1 0.578714 0.563806
1 0.620935 0.687922
0 0.68304 1
0 0.680888 1
0 0.68484 1
0 0.674647 1
0.146746 0.644007 0.978683
0.626703 0.581186 0.825467
0.917815 0.577783 0.690745
1 0.60325 0.674495
1 0.644129 0.752575
0 0.683574 1
0 0.687877 1
0 0.712764 1
0 0.738293 1
0.234882 0.694575 1
0.687877 0.646891 0.901167
0.935744 0.641535 0.782177
1 0.671 0.771756
1 0.692638 0.799207
0 0.695399 1
0 0.702678 1
0 0.730129 1
0 0.765682 1
0.212421 0.773281 1
0.712093 0.738979 0.905486
0.923995 0.736614 0.8112
1 0.74992 0.807965
1 0.750179 0.793637
0 0.745769 1
0 0.757244 1
0 0.784405 1
0 0.813748 1
0.167376 0.826001 0.988434
0.659571 0.822217 0.875532
0.89424 0.826719 0.796277
1 0.821927 0.755871
1 0.818921 0.737072
0 0.886839 1
0 0.903609 1
0 0.933242 1
0 0.966674 1
0 0.987991 1
0.510018 0.948867 0.809888
0.794553 0.926436 0.692592
0.999695 0.888167 0.574868
1 0.888869 0.554711
0 0.998672 1
0 0.999939 1
0 1 1
0 1 1
0.00166323 1 0.938537
0.486152 1 0.691752
0.698711 1 0.608026
0.893141 1 0.514321
0.958755 0.998917 0.486671
0 0.831159 1
0 0.818845 1
0 0.804471 1
0 0.792477 1
0 0.780438 1
0.233356 0.73518 0.979614
0.716594 0.668482 0.886671
0.977386 0.643687 0.814969
1 0.655741 0.791562
0 0.819242 1
0 0.810056 1
0 0.797101 1
0 0.786282 1
0 0.777371 1
0.259403 0.729259 0.986175
0.731289 0.663828 0.895994
0.982834 0.640757 0.824582
1 0.653513 0.797208
0 0.803067 1
0 0.788983 1
0 0.778012 1
0 0.76939 1
0 0.765576 1
0.326818 0.711177 0.998444
0.767514 0.651774 0.922332
0.994888 0.633036 0.84741
1 0.649149 0.814267
0 0.796307 1
0 0.786908 1
0 0.781018 1
0 0.768673 1
0 0.766262 1
0.396277 0.706462 1
0.805737 0.654475 0.954116
1 0.639399 0.878187
1 0.657328 0.835233
0 0.792935 1
0 0.789487 1
0 0.799771 1
0 0.807172 1
0 0.791272 1
0.461723 0.733166 1
0.833921 0.693812 0.977401
1 0.677119 0.903929
1 0.693355 0.861418
0 0.793515 1
0 0.793683 1
0 0.810376 1
0 0.833432 1
0 0.844877 1
0.515038 0.777478 1
0.849332 0.752758 0.980102
1 0.737331 0.909758
1 0.747005 0.883543
0 0.804669 1
0 0.80885 1
0 0.825666 1
0 0.847639 1
0 0.864729 1
0.486778 0.836866 1
0.836896 0.823865 0.963195
0.995392 0.810987 0.899565
1 0.814466 0.898772
0 0.843488 1
0 0.853468 1
0 0.871641 1
0 0.891234 1
0 0.906752 1
0.447181 0.884474 0.999573
0.78407 0.892042 0.92488
0.952926 0.900298 0.85536
1 0.90222 0.842878
0 0.939345 1
0 0.954726 1
0 0.98024 1
0 0.996689 1
0 1 1
0.221408 1 1
0.654704 1 0.872297
0.853056 0.998383 0.769314
0.976379 0.996124 0.706386
0 0.927337 1
0 0.920729 1
0 0.910018 1
0 0.898024 1
0 0.88838 1
0.0484627 0.857496 1
0.586114 0.78378 1
0.902235 0.739193 0.99968
1 0.701411 0.991531
0 0.914046 1
0 0.910796 1
0 0.901717 1
0 0.891218 1
0 0.883177 1
0.0625315 0.850813 1
0.602625 0.778424 1
0.909834 0.734508 0.999893
1 0.6981 0.995102
0 0.893767 1
0 0.884062 1
0 0.878279 1
0 0.870924 1
0 0.866209 1
0.100069 0.83064 1
0.639155 0.763912 1
0.923171 0.72369 1
1 0.690272 0.998398
0 0.883635 1
0 0.872969 1
0 0.865522 1
0 0.856611 1
0 0.853529 1
0.127947 0.815381 1
0.675593 0.753704 1
0.937652 0.717952 1
1 0.69073 0.99913
0 0.877989 1
0 0.870466 1
0 0.870604 1
0 0.869215 1
0 0.860624 1
0.155947 0.81944 1
0.704631 0.761364 1
0.948348 0.73019 1
1 0.707362 0.999908
0 0.87422 1
0 0.869978 1
0 0.876173 1
0 0.886732 1
0 0.892576 1
0.27155 0.829725 1
0.759045 0.785077 1
0.968399 0.757977 1
1 0.741604 1
0 0.873732 1
0 0.872572 1
0 0.881163 1
0 0.895216 1
0 0.910643 1
0.317327 0.866896 1
0.782162 0.830427 1
0.970642 0.808835 1
1 0.797086 1
0 0.881621 1
0 0.884306 1
0 0.894072 1
0 0.907561 1
0 0.922332 1
0.327626 0.886519 1
0.737118 0.885847 1
0.928862 0.895354 0.996155
1 0.886397 0.979492
0 0.904891 1
0 0.914672 1
0 0.928801 1
0 0.944137 1
0 0.958587 1
0.302998 0.9337 1
0.696468 0.934874 1
0.877607 0.961379 0.964111
0.98674 0.98999 0.906706
