public/LUTS/Autumn/Autumn_01.cube
TITLE "Generated by Resolve"
LUT_3D_SIZE 5
0 0 0
0.264607 0 0
0.529244 0 0
0.793866 0 0
1 0 0
0 0.249989 0
0.264607 0.246036 0
0.529244 0.2421 0
0.793866 0.238148 0
1 0.234195 0
0 0.499992 0
0.264607 0.49604 0
0.529244 0.492103 0
0.793866 0.488151 0
1 0.484199 0
0 0.749996 0
0.264607 0.746044 0
0.529244 0.742107 0
0.793866 0.738155 0
1 0.734203 0
0 1 0
0.264607 0.996048 0
0.529244 0.992111 0
0.793866 0.988159 0
1 0.984207 0
0 0 0.249989
0.264607 0 0.246036
0.529244 0 0.2421
0.793866 0 0.238148
1 0 0.234195
0 0.249989 0.249989
0.264607 0.246036 0.246036
0.529244 0.2421 0.2421
0.793866 0.238148 0.238148
1 0.234195 0.234195
0 0.499992 0.249989
0.264607 0.49604 0.246036
0.529244 0.492103 0.2421
0.793866 0.488151 0.238148
1 0.484199 0.234195
0 0.749996 0.249989
0.264607 0.746044 0.246036
0.529244 0.742107 0.2421
0.793866 0.738155 0.238148
1 0.734203 0.234195
0 1 0.249989
0.264607 0.996048 0.246036
0.529244 0.992111 0.2421
0.793866 0.988159 0.238148
1 0.984207 0.234195
0 0 0.499992
0.264607 0 0.49604
0.529244 0 0.492103
0.793866 0 0.488151
1 0 0.484199
0 0.249989 0.499992
0.264607 0.246036 0.49604
0.529244 0.2421 0.492103
0.793866 0.238148 0.488151
1 0.234195 0.484199
0 0.499992 0.499992
0.264607 0.49604 0.49604
0.529244 0.492103 0.492103
0.793866 0.488151 0.488151
1 0.484199 0.484199
0 0.749996 0.499992
0.264607 0.746044 0.49604
0.529244 0.742107 0.492103
0.793866 0.738155 0.488151
1 0.734203 0.484199
0 1 0.499992
0.264607 0.996048 0.49604
0.529244 0.992111 0.492103
0.793866 0.988159 0.488151
1 0.984207 0.484199
0 0 0.749996
0.264607 0 0.746044
0.529244 0 0.742107
0.793866 0 0.738155
1 0 0.734203
0 0.249989 0.749996
0.264607 0.246036 0.746044
0.529244 0.2421 0.742107
0.793866 0.238148 0.738155
1 0.234195 0.734203
0 0.499992 0.749996
0.264607 0.49604 0.746044
0.529244 0.492103 0.742107
0.793866 0.488151 0.738155
1 0.484199 0.734203
0 0.749996 0.749996
0.264607 0.746044 0.746044
0.529244 0.742107 0.742107
0.793866 0.738155 0.738155
1 0.734203 0.734203
0 1 0.749996
0.264607 0.996048 0.746044
0.529244 0.992111 0.742107
0.793866 0.988159 0.738155
1 0.984207 0.734203
0 0 1
0.264607 0 0.996048
0.529244 0 0.992111
0.793866 0 0.988159
1 0 0.984207
0 0.249989 1
0.264607 0.246036 0.996048
0.529244 0.2421 0.992111
0.793866 0.238148 0.988159
1 0.234195 0.984207
0 0.499992 1
0.264607 0.49604 0.996048
0.529244 0.492103 0.992111
0.793866 0.488151 0.988159
1 0.484199 0.984207
0 0.749996 1
0.264607 0.746044 0.996048
0.529244 0.742107 0.992111
0.793866 0.738155 0.988159
1 0.734203 0.984207
0 1 1
0.264607 0.996048 0.996048
0.529244 0.992111 0.992111
0.793866 0.988159 0.988159
1 0.984207 0.984207
