public/LUTS/Autumn/Autumn_08.cube
TITLE "Generated by Resolve"
LUT_3D_SIZE 33
0 0 0
0.0504616 0 0
0.0913863 0 0
0.129442 0 0
0.165759 0 0
0.200839 0 0
0.235004 0 0
0.268391 0 0
0.301152 0 0
0.333379 0 0
0.365133 0 0
0.39646 0 0
0.427436 0 0
0.458061 0 0
0.48838 0 0
0.518425 0 0
0.548211 0 0
0.577752 0 0
0.607065 0 0
0.636179 0 0
0.665095 0 0
0.693828 0 0
0.722377 0 0
0.750774 0 0
0.779004 0 0
0.80708 0 0
0.835019 0 0
0.862837 0 0
0.890501 0 0
0.918059 0 0
0.94548 0 0
0.972793 0 0
1 0 0
0.007187 0.0283665 0.007187
0.0576486 0.0231785 0.00199893
0.0985733 0.0205692 0
0.136629 0.0187381 0
0.172946 0.0173648 0
0.208026 0.0163272 0
0.242191 0.0155489 0
0.275578 0.0149691 0
0.308339 0.0145571 0
0.340566 0.0142977 0
0.37232 0.0141604 0
0.403647 0.0141299 0
0.434623 0.0142214 0
0.465248 0.0143893 0
0.495567 0.0146334 0
0.525612 0.0149538 0
0.555398 0.0153506 0
0.584939 0.0158236 0
0.614252 0.0163424 0
0.643366 0.0169223 0
0.672282 0.0175479 0
0.701015 0.0182193 0
0.729564 0.0189517 0
0.757961 0.0197299 0
0.786191 0.0205386 0
0.814267 0.0213931 0.000213626
0.842206 0.0222934 0.00109865
0.870024 0.0232242 0.00202945
0.897688 0.0241855 0.00300603
0.925246 0.0251926 0.00399786
0.952667 0.026215 0.00503548
0.97998 0.0272831 0.00608835
1 0.0283665 0.007187
0.0119326 0.0577401 0.0119326
0.0623941 0.0525368 0.00674449
0.103319 0.0499275 0.00411994
0.141375 0.0480964 0.00228885
0.177691 0.0467231 0.0009308
0.212772 0.0456855 0
0.246921 0.0449073 0
0.280324 0.0443275 0
0.313085 0.0439155 0
0.345312 0.0436561 0
0.377066 0.0435187 0
0.408392 0.0435035 0
0.439353 0.0435798 0
0.469993 0.0437476 0
0.500313 0.0439918 0
0.530358 0.0443275 0
0.560143 0.0447242 0
0.589685 0.045182 0
0.618997 0.0457008 0
0.648112 0.0462806 0.00047303
0.677028 0.0469062 0.00109865
0.70576 0.0475929 0.00178531
0.73431 0.0483101 0.00251774
0.762707 0.0490883 0.00328069
0.790936 0.049897 0.00410468
0.819013 0.0507515 0.00495918
0.846952 0.0516518 0.00584421
0.874754 0.0525826 0.00677501
0.902434 0.0535439 0.00773632
0.929976 0.054551 0.00874342
0.957412 0.0555734 0.00978103
0.984726 0.0566415 0.0108339
1 0.0577401 0.0119326
0.01561 0.0875257 0.01561
0.0660868 0.0823224 0.0104219
0.106996 0.0797131 0.00781262
0.145052 0.0778821 0.00598154
0.181369 0.0765087 0.00460822
0.216464 0.0754711 0.00357061
0.250614 0.0746929 0.0027924
0.284001 0.0741131 0.00221256
0.316762 0.0737011 0.00180056
0.348989 0.0734417 0.00154116
0.380743 0.0733043 0.00140383
0.412085 0.0732891 0.00137331
0.443046 0.0733654 0.00144961
0.473671 0.0735332 0.00161746
0.50399 0.0737774 0.00187686
0.534035 0.0740978 0.0021973
0.563821 0.0744945 0.00259403
0.593362 0.0749676 0.0030518
0.62269 0.0754864 0.00357061
0.651789 0.0760662 0.00415045
0.680705 0.0766918 0.00479133
0.709438 0.0773785 0.00546273
0.737987 0.0780957 0.00619516
0.766384 0.0788739 0.00697337
0.794614 0.0796826 0.0077821
0.822705 0.0805371 0.00863661
0.850645 0.0814374 0.00953689
0.878447 0.0823682 0.0104677
0.906111 0.0833295 0.011429
0.933669 0.0843366 0.0124208
0.961089 0.085359 0.0134585
0.988403 0.0864271 0.0145266
1 0.0875257 0.01561
0.0185702 0.117586 0.0185702
0.0690471 0.112398 0.0133822
0.109957 0.109789 0.0107729
0.148013 0.107958 0.00892653
0.184329 0.106584 0.00756847
0.219425 0.105547 0.00653086
0.253574 0.104768 0.00575265
0.286961 0.104189 0.00517281
0.319722 0.103777 0.00476081
0.351949 0.103517 0.00450141
0.383703 0.10338 0.00436408
0.41503 0.103349 0.00433356
0.446006 0.103426 0.00440986
0.476631 0.103593 0.00457771
0.50695 0.103853 0.00483711
0.536995 0.104173 0.00515755
0.566781 0.10457 0.00555428
0.596323 0.105028 0.00601205
0.625635 0.105562 0.00653086
0.654749 0.106126 0.0071107
0.683665 0.106767 0.00775158
0.712398 0.107439 0.00842298
0.740948 0.108171 0.00915541
0.769345 0.108949 0.00993362
0.797574 0.109758 0.0107424
0.82565 0.110613 0.0115969
0.853605 0.111513 0.0124971
0.881407 0.112444 0.0134279
0.909072 0.113405 0.0143893
0.936629 0.114397 0.0153811
0.96405 0.115434 0.0164187
0.991363 0.116503 0.0174868
1 0.117586 0.0185702
0.0209812 0.14789 0.0209812
0.0714427 0.142687 0.0157778
0.112367 0.140078 0.0131685
0.150408 0.138247 0.0113375
0.186725 0.136873 0.00996414
0.22182 0.135836 0.00892653
0.25597 0.135058 0.00814832
0.289372 0.134478 0.00756847
0.322133 0.134066 0.00715648
0.354345 0.133806 0.00689708
0.386099 0.133669 0.00675975
0.417441 0.133654 0.00674449
0.448402 0.13373 0.00682078
0.479026 0.133898 0.00698863
0.509361 0.134142 0.00723278
0.539406 0.134478 0.00756847
0.569177 0.134859 0.00796521
0.598733 0.135332 0.00842298
0.628046 0.135851 0.00894179
0.65716 0.136431 0.00952163
0.686076 0.137057 0.0101472
0.714794 0.137743 0.0108339
0.743358 0.13846 0.0115511
0.77174 0.139239 0.0123293
0.799985 0.140047 0.013138
0.828061 0.140902 0.0139925
0.856001 0.141802 0.0148928
0.883803 0.142733 0.0158236
0.911482 0.143694 0.0167849
0.939025 0.144701 0.017792
0.966461 0.145724 0.0188144
0.993774 0.146792 0.0198825
1 0.14789 0.0209812
0.0229191 0.178363 0.0229191
0.0733959 0.173159 0.017731
0.114321 0.17055 0.0151217
0.152361 0.168719 0.0132906
0.188678 0.167346 0.0119173
0.223774 0.166308 0.0108797
0.257923 0.16553 0.0101015
0.29131 0.16495 0.00952163
0.324071 0.164538 0.00910964
0.356298 0.164279 0.00885023
0.388052 0.164141 0.0087129
0.419394 0.164126 0.00868238
0.450355 0.164202 0.00877394
0.48098 0.16437 0.00894179
0.511299 0.164614 0.00918593
0.541344 0.16495 0.00950637
0.57113 0.165347 0.0099031
0.600671 0.165805 0.0103609
0.629999 0.166323 0.0108949
0.659098 0.166903 0.0114595
0.688014 0.167529 0.0121004
0.716747 0.168215 0.0127718
0.745312 0.168933 0.0135042
0.773693 0.169711 0.0142824
0.801923 0.17052 0.0150912
0.830014 0.171389 0.0159457
0.857954 0.172274 0.016846
0.885756 0.173205 0.0177768
0.913436 0.174166 0.0187381
0.940978 0.175174 0.0197452
0.968414 0.176196 0.0207675
0.995727 0.177264 0.0218357
1 0.178363 0.0229191
0.0244907 0.208988 0.0244907
0.0749523 0.2038 0.0192874
0.115877 0.20119 0.0166781
0.153918 0.199344 0.014847
0.190234 0.197986 0.0134737
0.22533 0.196948 0.0124361
0.25948 0.196155 0.0116579
0.292882 0.195575 0.0110781
0.325643 0.195178 0.0106661
0.35787 0.194903 0.0104067
0.389609 0.194781 0.0102693
0.420951 0.194751 0.0102541
0.451911 0.194827 0.0103304
0.482551 0.194995 0.0104982
0.512871 0.195254 0.0107424
0.542916 0.195575 0.0110781
0.572686 0.195972 0.0114748
0.602243 0.196429 0.0119326
0.631556 0.196948 0.0124514
0.66067 0.197528 0.0130312
0.689586 0.198154 0.0136568
0.718318 0.19884 0.0143435
0.746868 0.199573 0.0150759
0.77525 0.200336 0.0158389
0.803494 0.20116 0.0166629
0.831571 0.202014 0.0175174
0.85951 0.202899 0.0184024
0.887312 0.20383 0.0193332
0.914992 0.204807 0.0202945
0.942535 0.205798 0.0213016
0.96997 0.206836 0.0223392
0.997284 0.207889 0.0233921
1 0.208988 0.0244907
0.0257115 0.23975 0.0257115
0.076173 0.234562 0.0205234
0.117098 0.231952 0.0179141
0.155154 0.230106 0.0160678
0.19147 0.228748 0.0147097
0.226551 0.22771 0.0136721
0.260716 0.226917 0.0128786
0.294102 0.226337 0.012314
0.326863 0.22594 0.011902
0.359091 0.225666 0.0116426
0.390845 0.225544 0.0115053
0.422171 0.225513 0.0114748
0.453147 0.225589 0.0115511
0.483772 0.225757 0.0117189
0.514092 0.226017 0.0119783
0.544137 0.226337 0.0122988
0.573922 0.226734 0.0126955
0.603464 0.227192 0.0131533
0.632776 0.22771 0.0136721
0.661891 0.22829 0.0142519
0.690806 0.228916 0.0148928
0.719539 0.229603 0.0155642
0.748089 0.230335 0.0162966
0.776486 0.231098 0.0170596
0.804715 0.231922 0.0178836
0.832792 0.232776 0.0187381
0.860731 0.233661 0.0196231
0.888548 0.234592 0.0205539
0.916213 0.235569 0.0215305
0.943771 0.236561 0.0225223
0.971191 0.237598 0.0235599
0.998505 0.238651 0.0246281
1 0.23975 0.0257115
0.0266423 0.270634 0.0266423
0.0771038 0.265431 0.0214542
0.118029 0.262821 0.0188296
0.156085 0.26099 0.0169985
0.192401 0.259617 0.0156405
0.227481 0.258579 0.0146029
0.261631 0.257801 0.0138094
0.295033 0.257221 0.0132296
0.327794 0.256809 0.0128328
0.360021 0.25655 0.0125582
0.391775 0.256413 0.0124208
0.423102 0.256397 0.0124056
0.454063 0.256474 0.0124819
0.484703 0.256641 0.0126497
0.515023 0.256886 0.0128939
0.545068 0.257221 0.0132296
0.574853 0.257618 0.0136263
0.604395 0.258076 0.0140841
0.633707 0.258595 0.0146029
0.662821 0.259174 0.0151827
0.691737 0.2598 0.0158083
0.72047 0.260487 0.016495
0.74902 0.261219 0.0172274
0.777417 0.261982 0.0179904
0.805646 0.262806 0.0188144
0.833722 0.263661 0.0196689
0.861662 0.264546 0.0205539
0.889464 0.265476 0.0214847
0.917144 0.266438 0.0224613
0.944686 0.267445 0.0234531
0.972122 0.268482 0.0244907
0.999435 0.269535 0.0255436
1 0.270634 0.0266423
0.0272984 0.301625 0.0272984
0.07776 0.296422 0.0221103
0.118685 0.293812 0.019501
0.156741 0.291981 0.0176547
0.193057 0.290608 0.0162966
0.228138 0.28957 0.015259
0.262303 0.288792 0.0144656
0.295689 0.288212 0.0138857
0.32845 0.2878 0.013489
0.360678 0.287541 0.0132143
0.392432 0.287404 0.0130922
0.423758 0.287388 0.0130617
0.454734 0.287465 0.013138
0.485359 0.287633 0.0133059
0.515679 0.287877 0.0135653
0.545724 0.288212 0.0138857
0.575509 0.288594 0.0142824
0.605051 0.289067 0.0147402
0.634363 0.289586 0.015259
0.663478 0.290166 0.0158389
0.692393 0.290791 0.0164645
0.721126 0.291478 0.0171511
0.749676 0.292195 0.0178836
0.778073 0.292973 0.0186465
0.806302 0.293782 0.0194705
0.834379 0.294636 0.020325
0.862318 0.295537 0.02121
0.890135 0.296468 0.0221408
0.9178 0.297429 0.0231174
0.945357 0.298436 0.0241093
0.972778 0.299458 0.0251469
1 0.300526 0.0261997
1 0.301625 0.0272984
0.0277104 0.332708 0.0277104
0.078172 0.327504 0.0225223
0.119097 0.324895 0.019913
0.157153 0.323064 0.0180667
0.193469 0.321691 0.0167086
0.228565 0.320653 0.015671
0.262715 0.319875 0.0148928
0.296101 0.319295 0.014313
0.328862 0.318883 0.013901
0.361089 0.318624 0.0136416
0.392844 0.318486 0.0135042
0.42417 0.318471 0.0134737
0.455146 0.318547 0.01355
0.485771 0.318715 0.0137179
0.516091 0.318959 0.0139773
0.546136 0.319295 0.0142977
0.575921 0.319692 0.0146944
0.605463 0.32015 0.0151522
0.634775 0.320668 0.015671
0.66389 0.321248 0.0162509
0.692805 0.321874 0.0168917
0.721538 0.32256 0.0175631
0.750088 0.323293 0.0182956
0.778485 0.324056 0.0190738
0.806714 0.32488 0.0198825
0.834791 0.325734 0.020737
0.862745 0.326619 0.0216373
0.890547 0.32755 0.0225681
0.918212 0.328511 0.0235294
0.945769 0.329519 0.0245212
0.97319 0.330556 0.0255589
1 0.331609 0.026627
1 0.332708 0.0277104
0.0279088 0.363882 0.0279088
0.0783703 0.358694 0.0227054
0.119295 0.356069 0.0200961
0.157336 0.354238 0.018265
0.193652 0.352865 0.0168917
0.228748 0.351843 0.0158541
0.262898 0.351049 0.0150759
0.2963 0.350469 0.0144961
0.329061 0.350072 0.0140841
0.361273 0.349798 0.0138247
0.393027 0.34966 0.0136873
0.424369 0.349645 0.0136721
0.455329 0.349722 0.0137484
0.485954 0.349889 0.0139162
0.516289 0.350134 0.0141604
0.546319 0.350469 0.0144808
0.576104 0.350866 0.0148775
0.605646 0.351324 0.0153506
0.634974 0.351843 0.0158694
0.664088 0.352422 0.0164492
0.693004 0.353048 0.0170748
0.721721 0.353735 0.0177615
0.750286 0.354467 0.0184787
0.778668 0.35523 0.0192569
0.806897 0.356054 0.0200656
0.834989 0.356909 0.0209201
0.862928 0.357794 0.0218204
0.89073 0.358724 0.0227512
0.91841 0.359686 0.0237125
0.945953 0.360693 0.0247196
0.973388 0.36173 0.025742
1 0.362783 0.0268101
1 0.363882 0.0279088
0.0278782 0.395132 0.0278782
0.0783551 0.389944 0.0226902
0.11928 0.387335 0.0200809
0.157321 0.385504 0.0182498
0.193637 0.384131 0.0168765
0.228733 0.383093 0.0158389
0.262882 0.382315 0.0150607
0.296269 0.381735 0.0144808
0.32903 0.381323 0.0140688
0.361257 0.381064 0.0138094
0.393011 0.380926 0.0136721
0.424353 0.380896 0.0136416
0.455314 0.380972 0.0137179
0.485939 0.38114 0.0138857
0.516258 0.381399 0.0141451
0.546304 0.38172 0.0144656
0.576089 0.382116 0.0148623
0.605631 0.382574 0.0153201
0.634958 0.383108 0.0158541
0.664057 0.383673 0.0164187
0.692973 0.384314 0.0170596
0.721706 0.384985 0.017731
0.750256 0.385718 0.0184634
0.778653 0.386496 0.0192416
0.806882 0.387304 0.0200504
0.834974 0.388159 0.0209049
0.862913 0.389059 0.0218051
0.890715 0.38999 0.0227359
0.918379 0.390951 0.0236973
0.945937 0.391943 0.0246891
0.973358 0.392981 0.0257267
1 0.394049 0.0267948
1 0.395132 0.0278782
0.0276646 0.426474 0.0276646
0.0781415 0.421286 0.0224765
0.119066 0.418662 0.0198672
0.157107 0.416831 0.0180362
0.193423 0.415473 0.0166629
0.228519 0.414435 0.0156252
0.262669 0.413642 0.014847
0.296056 0.413062 0.0142672
0.328817 0.412665 0.0138552
0.361044 0.41239 0.0135958
0.392798 0.412253 0.0134585
0.42414 0.412238 0.0134279
0.4551 0.412314 0.0135042
0.485725 0.412482 0.0136721
0.516045 0.412726 0.0139315
0.54609 0.413062 0.0142519
0.575875 0.413458 0.0146487
0.605417 0.413916 0.0151064
0.634745 0.414435 0.0156405
0.663844 0.415015 0.0162051
0.69276 0.415641 0.016846
0.721492 0.416327 0.0175174
0.750057 0.41706 0.0182498
0.778439 0.417823 0.019028
0.806668 0.418647 0.0198367
0.83476 0.419501 0.0206912
0.862699 0.420386 0.0215915
0.890501 0.421317 0.0225223
0.918181 0.422293 0.0234836
0.945724 0.423285 0.0244755
0.973159 0.424323 0.0255131
1 0.425376 0.0265812
1 0.426474 0.0276646
0.0272831 0.457877 0.0272831
0.0777447 0.452689 0.0220798
0.118669 0.45008 0.0194705
0.15671 0.448234 0.0176394
0.193027 0.446876 0.0162661
0.228122 0.445838 0.0152285
0.262272 0.44506 0.0144503
0.295674 0.44448 0.0138705
0.328435 0.444068 0.0134585
0.360647 0.443809 0.0131991
0.392401 0.443671 0.0130617
0.423743 0.443641 0.0130465
0.454704 0.443717 0.0131228
0.485328 0.443885 0.0132906
0.515663 0.444144 0.0135348
0.545693 0.444465 0.0138552
0.575479 0.444862 0.0142519
0.60502 0.445319 0.014725
0.634348 0.445838 0.0152438
0.663462 0.446418 0.0158236
0.692378 0.447059 0.0164492
0.721096 0.44773 0.0171359
0.74966 0.448463 0.0178531
0.778042 0.449241 0.0186313
0.806271 0.45005 0.01944
0.834363 0.450904 0.0202945
0.862303 0.451804 0.0211948
0.890105 0.452735 0.0221256
0.917784 0.453696 0.0230869
0.945327 0.454688 0.024094
0.972763 0.455726 0.0251164
1 0.456794 0.0261845
1 0.457877 0.0272831
0.0267185 0.489357 0.0267185
0.0771801 0.484169 0.0215152
0.118105 0.481544 0.0189059
0.156146 0.479713 0.0170748
0.192462 0.478355 0.0157015
0.227558 0.477317 0.0146639
0.261707 0.476524 0.0138857
0.295109 0.475944 0.0133059
0.327871 0.475547 0.0128939
0.360082 0.475273 0.0126345
0.391836 0.475151 0.0124971
0.423178 0.47512 0.0124819
0.454139 0.475196 0.0125582
0.484764 0.475364 0.012726
0.515099 0.475608 0.0129702
0.545129 0.475944 0.0132906
0.574914 0.476341 0.0136873
0.604456 0.476799 0.0141604
0.633783 0.477317 0.0146792
0.662898 0.477897 0.015259
0.691814 0.478523 0.0158846
0.720531 0.47921 0.0165713
0.749096 0.479942 0.0172885
0.777478 0.480705 0.0180667
0.805707 0.481529 0.0188754
0.833799 0.482383 0.0197299
0.861738 0.483268 0.0206302
0.88954 0.484199 0.021561
0.91722 0.485176 0.0225223
0.944762 0.486168 0.0235294
0.972198 0.487205 0.0245518
0.999512 0.488258 0.0256199
1 0.489357 0.0267185
0.0259861 0.520897 0.0259861
0.0764477 0.515709 0.020798
0.117372 0.513085 0.0181888
0.155428 0.511254 0.0163424
0.191745 0.509896 0.0149844
0.226825 0.508858 0.0139467
0.260975 0.508064 0.0131533
0.294377 0.507485 0.0125734
0.327138 0.507088 0.0121767
0.359365 0.506813 0.011902
0.391119 0.506676 0.01178
0.422446 0.506661 0.0117494
0.453422 0.506737 0.0118257
0.484047 0.506905 0.0119936
0.514366 0.507149 0.0122377
0.544411 0.507485 0.0125734
0.574197 0.507881 0.0129702
0.603738 0.508339 0.0134279
0.633051 0.508858 0.0139467
0.662165 0.509438 0.0145266
0.691081 0.510063 0.0151522
0.719814 0.51075 0.0158389
0.748363 0.511482 0.0165713
0.776761 0.512245 0.0173342
0.80499 0.513069 0.0181582
0.833066 0.513924 0.0190127
0.861006 0.514809 0.0198978
0.888808 0.51574 0.0208286
0.916487 0.516716 0.0218051
0.944045 0.517708 0.022797
0.971466 0.518746 0.0238346
0.998779 0.519799 0.0248875
1 0.520897 0.0259861
0.0251011 0.552499 0.0251011
0.0755779 0.547295 0.019913
0.116503 0.544686 0.0173037
0.154543 0.542855 0.0154726
0.19086 0.541482 0.0140993
0.225956 0.540444 0.0130617
0.260105 0.539666 0.0122835
0.293492 0.539086 0.0117037
0.326253 0.538674 0.0112917
0.35848 0.538415 0.0110323
0.390234 0.538277 0.0108949
0.421576 0.538262 0.0108644
0.452537 0.538338 0.010956
0.483162 0.538506 0.0111238
0.513481 0.53875 0.011368
0.543526 0.539086 0.0116884
0.573312 0.539483 0.0120851
0.602853 0.53994 0.0125429
0.632181 0.540459 0.013077
0.66128 0.541039 0.0136416
0.690196 0.541665 0.0142824
0.718929 0.542351 0.0149538
0.747494 0.543084 0.0156863
0.775876 0.543847 0.0164645
0.804105 0.544671 0.0172732
0.832197 0.545525 0.0181277
0.860136 0.54641 0.019028
0.887938 0.547341 0.0199588
0.915618 0.548302 0.0209201
0.94316 0.54931 0.0219272
0.970596 0.550347 0.0229496
0.997909 0.5514 0.0240177
1 0.552499 0.0251011
0.0240787 0.584146 0.0240787
0.0745556 0.578958 0.0188907
0.11548 0.576349 0.0162814
0.153521 0.574517 0.0144503
0.189837 0.573144 0.013077
0.224933 0.572106 0.0120394
0.259083 0.571328 0.0112612
0.29247 0.570748 0.0106813
0.325231 0.570336 0.0102693
0.357458 0.570077 0.0100099
0.389212 0.56994 0.00987259
0.420554 0.569924 0.00984207
0.451514 0.570001 0.00991836
0.482139 0.570169 0.0100862
0.512459 0.570413 0.0103456
0.542504 0.570733 0.0106661
0.57229 0.57113 0.0110628
0.601831 0.571603 0.0115206
0.631159 0.572122 0.0120546
0.660258 0.572702 0.0126192
0.689174 0.573327 0.0132601
0.717906 0.574014 0.0139315
0.746456 0.574731 0.0146639
0.774853 0.575509 0.0154421
0.803082 0.576318 0.0162509
0.831174 0.577173 0.0171054
0.859113 0.578073 0.0180056
0.886915 0.579004 0.0189364
0.91458 0.579965 0.0198978
0.942138 0.580972 0.0208896
0.969573 0.581994 0.0219272
0.996887 0.583062 0.0229953
1 0.584146 0.0240787
0.0229191 0.615869 0.0229191
0.0733959 0.610681 0.017731
0.114305 0.608057 0.0151217
0.152361 0.606226 0.0132753
0.188678 0.604852 0.0119173
0.223774 0.603815 0.0108797
0.257923 0.603037 0.0101015
0.29131 0.602457 0.00952163
0.324071 0.602045 0.00910964
0.356298 0.601785 0.00885023
0.388052 0.601648 0.0087129
0.419379 0.601633 0.00868238
0.450355 0.601709 0.00875868
0.48098 0.601877 0.00892653
0.511299 0.602121 0.00918593
0.541344 0.602457 0.00950637
0.57113 0.602853 0.0099031
0.600671 0.603311 0.0103609
0.629984 0.60383 0.0108797
0.659098 0.60441 0.0114595
0.688014 0.605035 0.0121004
0.716747 0.605722 0.0127718
0.745296 0.606455 0.0135042
0.773693 0.607217 0.0142824
0.801923 0.608042 0.0150912
0.829999 0.608896 0.0159457
0.857954 0.609781 0.016846
0.885756 0.610712 0.0177768
0.91342 0.611673 0.0187381
0.940978 0.61268 0.0197299
0.968399 0.613718 0.0207675
0.995712 0.614771 0.0218357
1 0.615869 0.0229191
0.021622 0.647639 0.021622
0.0720989 0.642435 0.016434
0.113024 0.639826 0.0138247
0.151064 0.637995 0.0119936
0.187381 0.636622 0.0106203
0.222477 0.635584 0.00958267
0.256626 0.634806 0.00880446
0.290013 0.634226 0.00822461
0.322789 0.633814 0.00781262
0.355001 0.633555 0.00755322
0.386755 0.633417 0.00741588
0.418097 0.633402 0.00738537
0.449058 0.633478 0.00747692
0.479683 0.633646 0.00764477
0.510002 0.63389 0.00788891
0.540047 0.634226 0.00820935
0.569833 0.634607 0.00860609
0.599374 0.635081 0.00906386
0.628702 0.635599 0.00959792
0.657801 0.636179 0.0101778
0.686717 0.636805 0.0108034
0.71545 0.637491 0.0114748
0.744015 0.638209 0.0122072
0.772396 0.638987 0.0129854
0.800626 0.639796 0.0137942
0.828717 0.64065 0.0146487
0.856657 0.64155 0.0155489
0.884459 0.642481 0.0164797
0.912139 0.643442 0.0174411
0.939681 0.64445 0.0184482
0.967117 0.645472 0.0194705
0.99443 0.64654 0.0205386
1 0.647639 0.021622
0.0202029 0.679454 0.0202029
0.0706798 0.67425 0.0150149
0.111604 0.671641 0.0124056
0.149645 0.66981 0.0105745
0.185962 0.668437 0.00920119
0.221057 0.667399 0.00816358
0.255207 0.666621 0.00738537
0.288594 0.666041 0.00680552
0.321355 0.665629 0.00639353
0.353582 0.66537 0.00613413
0.385336 0.665232 0.0059968
0.416678 0.665217 0.00596628
0.447639 0.665293 0.00604257
0.478264 0.665461 0.00621042
0.508583 0.665705 0.00646983
0.538628 0.666041 0.00679026
0.568414 0.666438 0.007187
0.597955 0.666896 0.00764477
0.627283 0.667414 0.00817884
0.656382 0.667994 0.00874342
0.685298 0.66862 0.0093843
0.714031 0.669306 0.0100557
0.74258 0.670024 0.0107881
0.770977 0.670802 0.0115663
0.799207 0.671611 0.0123751
0.827298 0.672465 0.0132296
0.855238 0.673365 0.0141299
0.88304 0.674296 0.0150607
0.910704 0.675258 0.016022
0.938262 0.676265 0.0170138
0.965698 0.677287 0.0180514
0.993011 0.678355 0.0191196
1 0.679454 0.0202029
0.0186618 0.711315 0.0186618
0.0691386 0.706127 0.0134737
0.110048 0.703502 0.0108644
0.148104 0.701671 0.00903334
0.184421 0.700313 0.00766003
0.219516 0.699275 0.00662242
0.253666 0.698482 0.00584421
0.287053 0.697902 0.00526436
0.319814 0.697505 0.00485237
0.352041 0.69723 0.00459297
0.383795 0.697093 0.00445563
0.415137 0.697078 0.00442512
0.446097 0.697154 0.00450141
0.476722 0.697322 0.00466926
0.507042 0.697566 0.00492866
0.537087 0.697902 0.0052491
0.566873 0.698299 0.00564584
0.596414 0.698756 0.00610361
0.625742 0.699275 0.00663767
0.654841 0.699855 0.00720226
0.683757 0.700481 0.00784314
0.712489 0.701167 0.00851453
0.741039 0.7019 0.00924697
0.769436 0.702663 0.0100252
0.797665 0.703487 0.0108339
0.825757 0.704341 0.0116884
0.853697 0.705226 0.0125887
0.881498 0.706157 0.0135195
0.909163 0.707134 0.0144808
0.936721 0.708125 0.0154726
0.964141 0.709163 0.0165103
0.99147 0.710216 0.0175784
1 0.711315 0.0186618
0.0170138 0.743221 0.0170138
0.0674754 0.738033 0.0118105
0.1084 0.735424 0.00920119
0.146441 0.733577 0.00737011
0.182757 0.732219 0.0059968
0.217853 0.731182 0.00495918
0.252003 0.730404 0.00418097
0.285405 0.729824 0.00360113
0.318166 0.729412 0.00318914
0.350378 0.729152 0.00292973
0.382132 0.729015 0.0027924
0.413474 0.728985 0.00277714
0.444434 0.729061 0.00285344
0.475059 0.729229 0.00302129
0.505394 0.729488 0.00326543
0.535424 0.729809 0.00360113
0.565209 0.730205 0.0039826
0.594751 0.730663 0.00445563
0.624079 0.731182 0.00497444
0.653193 0.731762 0.00555428
0.682109 0.732403 0.0061799
0.710826 0.733074 0.00686656
0.739391 0.733806 0.00758373
0.767773 0.734585 0.00836194
0.796002 0.735393 0.00917067
0.824094 0.736248 0.0100252
0.852033 0.737148 0.0109255
0.879835 0.738079 0.0118563
0.907515 0.73904 0.0128176
0.935058 0.740032 0.0138247
0.962493 0.74107 0.014847
0.989807 0.742138 0.0159152
1 0.743221 0.0170138
0.0152438 0.775174 0.0152438
0.0657054 0.769985 0.0100404
0.10663 0.767376 0.00743114
0.144671 0.765545 0.00560006
0.180987 0.764172 0.00422675
0.216083 0.763134 0.00318914
0.250233 0.762356 0.00241093
0.283635 0.761776 0.00183108
0.316396 0.761364 0.00141909
0.348608 0.761105 0.00115969
0.380362 0.760967 0.00102235
0.411704 0.760937 0.0010071
0.442664 0.761013 0.00108339
0.473289 0.761181 0.00125124
0.503624 0.76144 0.00149538
0.533654 0.761761 0.00181582
0.563439 0.762158 0.00221256
0.592981 0.762615 0.00268559
0.622309 0.763149 0.00320439
0.651423 0.763714 0.00378424
0.680339 0.764355 0.00440986
0.709056 0.765026 0.00509651
0.737621 0.765759 0.00581369
0.766003 0.766537 0.0065919
0.794232 0.767346 0.00740063
0.822324 0.7682 0.00825513
0.850263 0.7691 0.00915541
0.878065 0.770031 0.0100862
0.905745 0.770993 0.0110475
0.933288 0.771984 0.0120546
0.960723 0.773022 0.013077
0.988037 0.77409 0.0141451
1 0.775174 0.0152438
0.0133516 0.807172 0.0133516
0.0638285 0.801984 0.00816358
0.104753 0.799374 0.00555428
0.142794 0.797543 0.0037232
0.17911 0.79617 0.00234989
0.214206 0.795132 0.00131228
0.248356 0.794354 0.000534066
0.281743 0.793774 0
0.314519 0.793362 0
0.346731 0.793103 0
0.378485 0.792966 0
0.409827 0.792935 0
0.440787 0.793027 0
0.471412 0.793194 0
0.501732 0.793439 0
0.531777 0.793759 0
0.561563 0.794156 0.000335698
0.591104 0.794614 0.000808728
0.620432 0.795148 0.00132753
0.649546 0.795727 0.00190738
0.678447 0.796353 0.002533
0.707179 0.797024 0.00320439
0.735744 0.797757 0.00393683
0.764126 0.798535 0.00471504
0.792355 0.799344 0.00552377
0.820447 0.800198 0.00637827
0.848386 0.801099 0.00727855
0.876188 0.802029 0.00820935
0.903868 0.802991 0.00917067
0.931411 0.803998 0.0101778
0.958846 0.80502 0.0112001
0.98616 0.806088 0.0122683
