public/LUTS/Autumn/Autumn_05.cube
TITLE "Generated by Resolve"
LUT_3D_SIZE 5
0 0 0
0.249546 0 0
0.522576 0 0
0.795605 0 0
1 0 0
0 0.247868 0.00534066
0.254887 0.241642 0
0.527916 0.235431 0
0.800946 0.229221 0
1 0.222995 0
0 0.495735 0.0106813
0.260227 0.489525 0.00447089
0.533257 0.483314 0
0.806287 0.477089 0
1 0.470878 0
0 0.743618 0.016022
0.265568 0.737408 0.00981155
0.538598 0.731182 0.00358587
0.811627 0.724971 0
1 0.718746 0
0 0.991501 0.0213626
0.270909 0.985275 0.0151522
0.543938 0.979065 0.00892653
0.816968 0.972839 0.00271611
1 0.966628 0
0 0.0009308 0.238117
0.250477 0 0.231891
0.523507 0 0.225681
0.796521 0 0.219471
1 0 0.213245
0 0.248783 0.243458
0.255818 0.242573 0.237232
0.528832 0.236347 0.231022
0.801862 0.230137 0.224811
1 0.223926 0.218585
0 0.496666 0.248798
0.261158 0.49044 0.242573
0.534173 0.48423 0.236362
0.807202 0.478019 0.230152
1 0.471794 0.223926
0 0.744533 0.254139
0.266499 0.738323 0.247913
0.539513 0.732113 0.241703
0.812543 0.725887 0.235492
1 0.719676 0.229267
0 0.992416 0.25948
0.271839 0.986206 0.253254
0.544854 0.97998 0.247044
0.817884 0.97377 0.240833
1 0.967559 0.234607
0 0.00184634 0.476234
0.251392 0 0.470024
0.524422 0 0.463813
0.797452 0 0.457588
1 0 0.451377
0 0.249714 0.481575
0.256733 0.243488 0.475364
0.529763 0.237278 0.469154
0.802792 0.231067 0.462928
1 0.224842 0.456718
0 0.497581 0.486915
0.262074 0.491371 0.480705
0.535103 0.485161 0.474495
0.808133 0.478935 0.468269
1 0.472724 0.462058
0 0.745464 0.492256
0.267414 0.739254 0.486046
0.540444 0.733028 0.479835
0.813474 0.726818 0.47361
1 0.720607 0.467399
0 0.993347 0.497597
0.272755 0.987121 0.491386
0.545785 0.980911 0.485176
0.818814 0.974701 0.47895
1 0.968475 0.47274
0 0.00277714 0.714366
0.252323 0 0.708156
0.525353 0 0.70193
0.798367 0 0.69572
1 0 0.689509
0 0.250629 0.719707
0.257664 0.244419 0.713497
0.530694 0.238209 0.707271
0.803708 0.231983 0.70106
1 0.225772 0.69485
0 0.498512 0.725048
0.263005 0.492302 0.718837
0.536034 0.486076 0.712612
0.809049 0.479866 0.706401
1 0.473655 0.700191
0 0.746395 0.730388
0.268345 0.740169 0.724178
0.541375 0.733959 0.717952
0.814389 0.727749 0.711742
1 0.721523 0.705531
0.000671397 0.994263 0.735729
0.273686 0.988052 0.729519
0.546715 0.981842 0.723293
0.81973 0.975616 0.717083
1 0.969406 0.710872
0 0.00369268 0.952499
0.253239 0 0.946288
0.526268 0 0.940063
0.799298 0 0.933852
1 0 0.927626
0 0.25156 0.957839
0.258579 0.24535 0.951614
0.531609 0.239124 0.945403
0.804639 0.232914 0.939193
1 0.226688 0.932967
0 0.499443 0.96318
0.26392 0.493217 0.956954
0.53695 0.487007 0.950744
0.809979 0.480781 0.944533
1 0.474571 0.938308
0 0.747311 0.968521
0.269261 0.7411 0.962295
0.54229 0.734874 0.956085
0.81532 0.728664 0.949874
1 0.722454 0.943648
0.0016022 0.995193 0.973861
0.274601 0.988968 0.967636
0.547631 0.982757 0.961425
0.820661 0.976547 0.955215
1 0.970321 0.948989
