public/LUTS/Autumn/Autumn_08.cube
TITLE "Generated by Resolve"
LUT_3D_SIZE 9
0 0 0
0.165759 0 0
0.301152 0 0
0.427436 0 0
0.548211 0 0
0.665095 0 0
0.779004 0 0
0.890501 0 0
1 0 0
0.0185702 0.117586 0.0185702
0.184329 0.106584 0.00756847
0.319722 0.103777 0.00476081
0.446006 0.103426 0.00440986
0.566781 0.10457 0.00555428
0.683665 0.106767 0.00775158
0.797574 0.109758 0.0107424
0.909072 0.113405 0.0143893
1 0.117586 0.0185702
0.0257115 0.23975 0.0257115
0.19147 0.228748 0.0147097
0.326863 0.22594 0.011902
0.453147 0.225589 0.0115511
0.573922 0.226734 0.0126955
0.690806 0.228916 0.0148928
0.804715 0.231922 0.0178836
0.916213 0.235569 0.0215305
1 0.23975 0.0257115
0.0279088 0.363882 0.0279088
0.193652 0.352865 0.0168917
0.329061 0.350072 0.0140841
0.455329 0.349722 0.0137484
0.576104 0.350866 0.0148775
0.693004 0.353048 0.0170748
0.806897 0.356054 0.0200656
0.91841 0.359686 0.0237125
1 0.363882 0.0279088
0.0267185 0.489357 0.0267185
0.192462 0.478355 0.0157015
0.327871 0.475547 0.0128939
0.454139 0.475196 0.0125582
0.574914 0.476341 0.0136873
0.691814 0.478523 0.0158846
0.805707 0.481529 0.0188754
0.91722 0.485176 0.0225223
1 0.489357 0.0267185
0.0229191 0.615869 0.0229191
0.188678 0.604852 0.0119173
0.324071 0.602045 0.00910964
0.450355 0.601709 0.00875868
0.57113 0.602853 0.0099031
0.688014 0.605035 0.0121004
0.801923 0.608042 0.0150912
0.91342 0.611673 0.0187381
1 0.615869 0.0229191
0.0170138 0.743221 0.0170138
0.182757 0.732219 0.0059968
0.318166 0.729412 0.00318914
0.444434 0.729061 0.00285344
0.565209 0.730205 0.0039826
0.682109 0.732403 0.0061799
0.796002 0.735393 0.00917067
0.907515 0.73904 0.0128176
1 0.743221 0.0170138
0.00929274 0.871305 0.00929274
0.175036 0.860288 0
0.310445 0.857481 0
0.436713 0.857145 0
0.557488 0.858274 0
0.674388 0.860471 0
0.788296 0.863462 0.00146487
0.899794 0.867109 0.00509651
1 0.871305 0.00929274
0 1 0
0.165759 0.988998 0
0.301152 0.986191 0
0.427436 0.98584 0
0.548211 0.986984 0
0.665095 0.989166 0
0.779004 0.992172 0
0.890501 0.995819 0
1 1 0
0 0 0.124987
0.165759 0 0.113985
0.301152 0 0.111177
0.427436 0 0.110826
0.548211 0 0.111971
0.665095 0 0.114153
0.779004 0 0.117159
0.890501 0 0.120806
1 0 0.124987
0.0185702 0.117586 0.143557
0.184329 0.106584 0.132555
0.319722 0.103777 0.129747
0.446006 0.103426 0.129397
0.566781 0.10457 0.130541
0.683665 0.106767 0.132738
0.797574 0.109758 0.135729
0.909072 0.113405 0.139376
1 0.117586 0.143557
0.0257115 0.23975 0.150698
0.19147 0.228748 0.139696
0.326863 0.22594 0.136889
0.453147 0.225589 0.136538
0.573922 0.226734 0.137682
0.690806 0.228916 0.139879
0.804715 0.231922 0.14287
0.916213 0.235569 0.146517
1 0.23975 0.150698
0.0279088 0.363882 0.152895
0.193652 0.352865 0.141878
0.329061 0.350072 0.139071
0.455329 0.349722 0.138735
0.576104 0.350866 0.139864
0.693004 0.353048 0.142061
0.806897 0.356054 0.145052
0.91841 0.359686 0.148699
1 0.363882 0.152895
0.0267185 0.489357 0.151705
0.192462 0.478355 0.140688
0.327871 0.475547 0.137881
0.454139 0.475196 0.137545
0.574914 0.476341 0.138674
0.691814 0.478523 0.140871
0.805707 0.481529 0.143862
0.91722 0.485176 0.147509
1 0.489357 0.151705
0.0229191 0.615869 0.147906
0.188678 0.604852 0.136904
0.324071 0.602045 0.134096
0.450355 0.601709 0.133745
0.57113 0.602853 0.13489
0.688014 0.605035 0.137087
0.801923 0.608042 0.140078
0.91342 0.611673 0.143725
1 0.615869 0.147906
0.0170138 0.743221 0.142
0.182757 0.732219 0.130983
0.318166 0.729412 0.128176
0.444434 0.729061 0.12784
0.565209 0.730205 0.128969
0.682109 0.732403 0.131167
0.796002 0.735393 0.134157
0.907515 0.73904 0.137804
1 0.743221 0.142
0.00929274 0.871305 0.134279
0.175036 0.860288 0.123262
0.310445 0.857481 0.120455
0.436713 0.857145 0.120119
0.557488 0.858274 0.121263
0.674388 0.860471 0.123445
0.788296 0.863462 0.126452
0.899794 0.867109 0.130083
1 0.871305 0.134279
0 1 0.124987
0.165759 0.988998 0.113985
0.301152 0.986191 0.111177
0.427436 0.98584 0.110826
0.548211 0.986984 0.111971
0.665095 0.989166 0.114153
0.779004 0.992172 0.117159
0.890501 0.995819 0.120806
1 1 0.124987
0 0 0.249989
0.165759 0 0.238987
0.301152 0 0.236179
0.427436 0 0.235828
0.548211 0 0.236973
0.665095 0 0.239155
0.779004 0 0.242161
0.890501 0 0.245808
1 0 0.249989
0.0185702 0.117586 0.268559
0.184329 0.106584 0.257557
0.319722 0.103777 0.254749
0.446006 0.103426 0.254398
0.566781 0.10457 0.255543
0.683665 0.106767 0.25774
0.797574 0.109758 0.260731
0.909072 0.113405 0.264378
1 0.117586 0.268559
0.0257115 0.23975 0.2757
0.19147 0.228748 0.264698
0.326863 0.22594 0.261891
0.453147 0.225589 0.26154
0.573922 0.226734 0.262684
0.690806 0.228916 0.264881
0.804715 0.231922 0.267872
0.916213 0.235569 0.271519
1 0.23975 0.2757
0.0279088 0.363882 0.277897
0.193652 0.352865 0.26688
0.329061 0.350072 0.264073
0.455329 0.349722 0.263737
0.576104 0.350866 0.264866
0.693004 0.353048 0.267063
0.806897 0.356054 0.270054
0.91841 0.359686 0.273701
1 0.363882 0.277897
0.0267185 0.489357 0.276707
0.192462 0.478355 0.26569
0.327871 0.475547 0.262882
0.454139 0.475196 0.262547
0.574914 0.476341 0.263676
0.691814 0.478523 0.265873
0.805707 0.481529 0.268864
0.91722 0.485176 0.272511
1 0.489357 0.276707
0.0229191 0.615869 0.272908
0.188678 0.604852 0.261906
0.324071 0.602045 0.259098
0.450355 0.601709 0.258747
0.57113 0.602853 0.259892
0.688014 0.605035 0.262089
0.801923 0.608042 0.26508
0.91342 0.611673 0.268727
1 0.615869 0.272908
0.0170138 0.743221 0.267002
0.182757 0.732219 0.255985
0.318166 0.729412 0.253178
0.444434 0.729061 0.252842
0.565209 0.730205 0.253971
0.682109 0.732403 0.256168
0.796002 0.735393 0.259159
0.907515 0.73904 0.262806
1 0.743221 0.267002
0.00929274 0.871305 0.259281
0.175036 0.860288 0.248264
0.310445 0.857481 0.245457
0.436713 0.857145 0.245121
0.557488 0.858274 0.246265
0.674388 0.860471 0.248447
0.788296 0.863462 0.251453
0.899794 0.867109 0.255085
1 0.871305 0.259281
0 1 0.249989
0.165759 0.988998 0.238987
0.301152 0.986191 0.236179
0.427436 0.98584 0.235828
0.548211 0.986984 0.236973
0.665095 0.989166 0.239155
0.779004 0.992172 0.242161
0.890501 0.995819 0.245808
1 1 0.249989
0 0 0.37499
0.165759 0 0.363989
0.301152 0 0.361181
0.427436 0 0.36083
0.548211 0 0.361975
0.665095 0 0.364157
0.779004 0 0.367163
0.890501 0 0.370809
1 0 0.37499
0.0185702 0.117586 0.393561
0.184329 0.106584 0.382559
0.319722 0.103777 0.379751
0.446006 0.103426 0.3794
0.566781 0.10457 0.380545
0.683665 0.106767 0.382742
0.797574 0.109758 0.385733
0.909072 0.113405 0.38938
1 0.117586 0.393561
0.0257115 0.23975 0.400702
0.19147 0.228748 0.3897
0.326863 0.22594 0.386892
0.453147 0.225589 0.386542
0.573922 0.226734 0.387686
0.690806 0.228916 0.389883
0.804715 0.231922 0.392874
0.916213 0.235569 0.396521
1 0.23975 0.400702
0.0279088 0.363882 0.402899
0.193652 0.352865 0.391882
0.329061 0.350072 0.389075
0.455329 0.349722 0.388739
0.576104 0.350866 0.389868
0.693004 0.353048 0.392065
0.806897 0.356054 0.395056
0.91841 0.359686 0.398703
1 0.363882 0.402899
0.0267185 0.489357 0.401709
0.192462 0.478355 0.390692
0.327871 0.475547 0.387884
0.454139 0.475196 0.387549
0.574914 0.476341 0.388678
0.691814 0.478523 0.390875
0.805707 0.481529 0.393866
0.91722 0.485176 0.397513
1 0.489357 0.401709
0.0229191 0.615869 0.39791
0.188678 0.604852 0.386908
0.324071 0.602045 0.3841
0.450355 0.601709 0.383749
0.57113 0.602853 0.384894
0.688014 0.605035 0.387091
0.801923 0.608042 0.390082
0.91342 0.611673 0.393729
1 0.615869 0.39791
0.0170138 0.743221 0.392004
0.182757 0.732219 0.380987
0.318166 0.729412 0.37818
0.444434 0.729061 0.377844
0.565209 0.730205 0.378973
0.682109 0.732403 0.38117
0.796002 0.735393 0.384161
0.907515 0.73904 0.387808
1 0.743221 0.392004
0.00929274 0.871305 0.384283
0.175036 0.860288 0.373266
0.310445 0.857481 0.370459
0.436713 0.857145 0.370123
0.557488 0.858274 0.371267
0.674388 0.860471 0.373449
0.788296 0.863462 0.376455
0.899794 0.867109 0.380087
1 0.871305 0.384283
0 1 0.37499
0.165759 0.988998 0.363989
0.301152 0.986191 0.361181
0.427436 0.98584 0.36083
0.548211 0.986984 0.361975
0.665095 0.989166 0.364157
0.779004 0.992172 0.367163
0.890501 0.995819 0.370809
1 1 0.37499
0 0 0.499992
0.165759 0 0.488991
0.301152 0 0.486183
0.427436 0 0.485832
0.548211 0 0.486976
0.665095 0 0.489158
0.779004 0 0.492164
0.890501 0 0.495811
1 0 0.499992
0.0185702 0.117586 0.518563
0.184329 0.106584 0.507561
0.319722 0.103777 0.504753
0.446006 0.103426 0.504402
0.566781 0.10457 0.505547
0.683665 0.106767 0.507744
0.797574 0.109758 0.510735
0.909072 0.113405 0.514382
1 0.117586 0.518563
0.0257115 0.23975 0.525704
0.19147 0.228748 0.514702
0.326863 0.22594 0.511894
0.453147 0.225589 0.511543
0.573922 0.226734 0.512688
0.690806 0.228916 0.514885
0.804715 0.231922 0.517876
0.916213 0.235569 0.521523
1 0.23975 0.525704
0.0279088 0.363882 0.527901
0.193652 0.352865 0.516884
0.329061 0.350072 0.514076
0.455329 0.349722 0.513741
0.576104 0.350866 0.51487
0.693004 0.353048 0.517067
0.806897 0.356054 0.520058
0.91841 0.359686 0.523705
1 0.363882 0.527901
0.0267185 0.489357 0.526711
0.192462 0.478355 0.515694
0.327871 0.475547 0.512886
0.454139 0.475196 0.512551
0.574914 0.476341 0.51368
0.691814 0.478523 0.515877
0.805707 0.481529 0.518868
0.91722 0.485176 0.522515
1 0.489357 0.526711
0.0229191 0.615869 0.522911
0.188678 0.604852 0.51191
0.324071 0.602045 0.509102
0.450355 0.601709 0.508751
0.57113 0.602853 0.509896
0.688014 0.605035 0.512093
0.801923 0.608042 0.515084
0.91342 0.611673 0.51873
1 0.615869 0.522911
0.0170138 0.743221 0.517006
0.182757 0.732219 0.505989
0.318166 0.729412 0.503182
0.444434 0.729061 0.502846
0.565209 0.730205 0.503975
0.682109 0.732403 0.506172
0.796002 0.735393 0.509163
0.907515 0.73904 0.51281
1 0.743221 0.517006
0.00929274 0.871305 0.509285
0.175036 0.860288 0.498268
0.310445 0.857481 0.49546
0.436713 0.857145 0.495125
0.557488 0.858274 0.496269
0.674388 0.860471 0.498451
0.788296 0.863462 0.501457
0.899794 0.867109 0.505089
1 0.871305 0.509285
0 1 0.499992
0.165759 0.988998 0.488991
0.301152 0.986191 0.486183
0.427436 0.98584 0.485832
0.548211 0.986984 0.486976
0.665095 0.989166 0.489158
0.779004 0.992172 0.492164
0.890501 0.995819 0.495811
1 1 0.499992
0 0 0.624994
0.165759 0 0.613993
0.301152 0 0.611185
0.427436 0 0.610834
0.548211 0 0.611978
0.665095 0 0.61416
0.779004 0 0.617166
0.890501 0 0.620813
1 0 0.624994
0.0185702 0.117586 0.643565
0.184329 0.106584 0.632563
0.319722 0.103777 0.629755
0.446006 0.103426 0.629404
0.566781 0.10457 0.630549
0.683665 0.106767 0.632746
0.797574 0.109758 0.635737
0.909072 0.113405 0.639384
1 0.117586 0.643565
0.0257115 0.23975 0.650706
0.19147 0.228748 0.639704
0.326863 0.22594 0.636896
0.453147 0.225589 0.636545
0.573922 0.226734 0.63769
0.690806 0.228916 0.639887
0.804715 0.231922 0.642878
0.916213 0.235569 0.646525
1 0.23975 0.650706
0.0279088 0.363882 0.652903
0.193652 0.352865 0.641886
0.329061 0.350072 0.639078
0.455329 0.349722 0.638743
0.576104 0.350866 0.639872
0.693004 0.353048 0.642069
0.806897 0.356054 0.64506
0.91841 0.359686 0.648707
1 0.363882 0.652903
0.0267185 0.489357 0.651713
0.192462 0.478355 0.640696
0.327871 0.475547 0.637888
0.454139 0.475196 0.637552
0.574914 0.476341 0.638682
0.691814 0.478523 0.640879
0.805707 0.481529 0.64387
0.91722 0.485176 0.647517
1 0.489357 0.651713
0.0229191 0.615869 0.647913
0.188678 0.604852 0.636912
0.324071 0.602045 0.634104
0.450355 0.601709 0.633753
0.57113 0.602853 0.634897
0.688014 0.605035 0.637095
0.801923 0.608042 0.640085
0.91342 0.611673 0.643732
1 0.615869 0.647913
0.0170138 0.743221 0.642008
0.182757 0.732219 0.630991
0.318166 0.729412 0.628183
0.444434 0.729061 0.627848
0.565209 0.730205 0.628977
0.682109 0.732403 0.631174
0.796002 0.735393 0.634165
0.907515 0.73904 0.637812
1 0.743221 0.642008
0.00929274 0.871305 0.634287
0.175036 0.860288 0.62327
0.310445 0.857481 0.620462
0.436713 0.857145 0.620127
0.557488 0.858274 0.621271
0.674388 0.860471 0.623453
0.788296 0.863462 0.626459
0.899794 0.867109 0.630091
1 0.871305 0.634287
0 1 0.624994
0.165759 0.988998 0.613993
0.301152 0.986191 0.611185
0.427436 0.98584 0.610834
0.548211 0.986984 0.611978
0.665095 0.989166 0.61416
0.779004 0.992172 0.617166
0.890501 0.995819 0.620813
1 1 0.624994
0 0 0.749996
0.165759 0 0.738994
0.301152 0 0.736187
0.427436 0 0.735836
0.548211 0 0.73698
0.665095 0 0.739162
0.779004 0 0.742168
0.890501 0 0.745815
1 0 0.749996
0.0185702 0.117586 0.768566
0.184329 0.106584 0.757565
0.319722 0.103777 0.754757
0.446006 0.103426 0.754406
0.566781 0.10457 0.75555
0.683665 0.106767 0.757748
0.797574 0.109758 0.760739
0.909072 0.113405 0.764385
1 0.117586 0.768566
0.0257115 0.23975 0.775708
0.19147 0.228748 0.764706
0.326863 0.22594 0.761898
0.453147 0.225589 0.761547
0.573922 0.226734 0.762692
0.690806 0.228916 0.764889
0.804715 0.231922 0.76788
0.916213 0.235569 0.771527
1 0.23975 0.775708
0.0279088 0.363882 0.777905
0.193652 0.352865 0.766888
0.329061 0.350072 0.76408
0.455329 0.349722 0.763745
0.576104 0.350866 0.764874
0.693004 0.353048 0.767071
0.806897 0.356054 0.770062
0.91841 0.359686 0.773709
1 0.363882 0.777905
0.0267185 0.489357 0.776715
0.192462 0.478355 0.765698
0.327871 0.475547 0.76289
0.454139 0.475196 0.762554
0.574914 0.476341 0.763684
0.691814 0.478523 0.765881
0.805707 0.481529 0.768872
0.91722 0.485176 0.772519
1 0.489357 0.776715
0.0229191 0.615869 0.772915
0.188678 0.604852 0.761913
0.324071 0.602045 0.759106
0.450355 0.601709 0.758755
0.57113 0.602853 0.759899
0.688014 0.605035 0.762097
0.801923 0.608042 0.765087
0.91342 0.611673 0.768734
1 0.615869 0.772915
0.0170138 0.743221 0.76701
0.182757 0.732219 0.755993
0.318166 0.729412 0.753185
0.444434 0.729061 0.75285
0.565209 0.730205 0.753979
0.682109 0.732403 0.756176
0.796002 0.735393 0.759167
0.907515 0.73904 0.762814
1 0.743221 0.76701
0.00929274 0.871305 0.759289
0.175036 0.860288 0.748272
0.310445 0.857481 0.745464
0.436713 0.857145 0.745129
0.557488 0.858274 0.746273
0.674388 0.860471 0.748455
0.788296 0.863462 0.751461
0.899794 0.867109 0.755093
1 0.871305 0.759289
0 1 0.749996
0.165759 0.988998 0.738994
0.301152 0.986191 0.736187
0.427436 0.98584 0.735836
0.548211 0.986984 0.73698
0.665095 0.989166 0.739162
0.779004 0.992172 0.742168
0.890501 0.995819 0.745815
1 1 0.749996
0 0 0.874998
0.165759 0 0.863996
0.301152 0 0.861189
0.427436 0 0.860838
0.548211 0 0.861982
0.665095 0 0.864164
0.779004 0 0.86717
0.890501 0 0.870817
1 0 0.874998
0.0185702 0.117586 0.893568
0.184329 0.106584 0.882567
0.319722 0.103777 0.879759
0.446006 0.103426 0.879408
0.566781 0.10457 0.880552
0.683665 0.106767 0.88275
0.797574 0.109758 0.88574
0.909072 0.113405 0.889387
1 0.117586 0.893568
0.0257115 0.23975 0.90071
0.19147 0.228748 0.889708
0.326863 0.22594 0.8869
0.453147 0.225589 0.886549
0.573922 0.226734 0.887694
0.690806 0.228916 0.889891
0.804715 0.231922 0.892882
0.916213 0.235569 0.896529
1 0.23975 0.90071
0.0279088 0.363882 0.902907
0.193652 0.352865 0.89189
0.329061 0.350072 0.889082
0.455329 0.349722 0.888747
0.576104 0.350866 0.889876
0.693004 0.353048 0.892073
0.806897 0.356054 0.895064
0.91841 0.359686 0.898711
1 0.363882 0.902907
0.0267185 0.489357 0.901717
0.192462 0.478355 0.8907
0.327871 0.475547 0.887892
0.454139 0.475196 0.887556
0.574914 0.476341 0.888685
0.691814 0.478523 0.890883
0.805707 0.481529 0.893874
0.91722 0.485176 0.89752
1 0.489357 0.901717
0.0229191 0.615869 0.897917
0.188678 0.604852 0.886915
0.324071 0.602045 0.884108
0.450355 0.601709 0.883757
0.57113 0.602853 0.884901
0.688014 0.605035 0.887098
0.801923 0.608042 0.890089
0.91342 0.611673 0.893736
1 0.615869 0.897917
0.0170138 0.743221 0.892012
0.182757 0.732219 0.880995
0.318166 0.729412 0.878187
0.444434 0.729061 0.877852
0.565209 0.730205 0.878981
0.682109 0.732403 0.881178
0.796002 0.735393 0.884169
0.907515 0.73904 0.887816
1 0.743221 0.892012
0.00929274 0.871305 0.884291
0.175036 0.860288 0.873274
0.310445 0.857481 0.870466
0.436713 0.857145 0.87013
0.557488 0.858274 0.871275
0.674388 0.860471 0.873457
0.788296 0.863462 0.876463
0.899794 0.867109 0.880095
1 0.871305 0.884291
0 1 0.874998
0.165759 0.988998 0.863996
0.301152 0.986191 0.861189
0.427436 0.98584 0.860838
0.548211 0.986984 0.861982
0.665095 0.989166 0.864164
0.779004 0.992172 0.86717
0.890501 0.995819 0.870817
1 1 0.874998
0 0 1
0.165759 0 0.988998
0.301152 0 0.986191
0.427436 0 0.98584
0.548211 0 0.986984
0.665095 0 0.989166
0.779004 0 0.992172
0.890501 0 0.995819
1 0 1
0.0185702 0.117586 1
0.184329 0.106584 1
0.319722 0.103777 1
0.446006 0.103426 1
0.566781 0.10457 1
0.683665 0.106767 1
0.797574 0.109758 1
0.909072 0.113405 1
1 0.117586 1
0.0257115 0.23975 1
0.19147 0.228748 1
0.326863 0.22594 1
0.453147 0.225589 1
0.573922 0.226734 1
0.690806 0.228916 1
0.804715 0.231922 1
0.916213 0.235569 1
1 0.23975 1
0.0279088 0.363882 1
0.193652 0.352865 1
0.329061 0.350072 1
0.455329 0.349722 1
0.576104 0.350866 1
0.693004 0.353048 1
0.806897 0.356054 1
0.91841 0.359686 1
1 0.363882 1
0.0267185 0.489357 1
0.192462 0.478355 1
0.327871 0.475547 1
0.454139 0.475196 1
0.574914 0.476341 1
0.691814 0.478523 1
0.805707 0.481529 1
0.91722 0.485176 1
1 0.489357 1
0.0229191 0.615869 1
0.188678 0.604852 1
0.324071 0.602045 1
0.450355 0.601709 1
0.57113 0.602853 1
0.688014 0.605035 1
0.801923 0.608042 1
0.91342 0.611673 1
1 0.615869 1
0.0170138 0.743221 1
0.182757 0.732219 1
0.318166 0.729412 1
0.444434 0.729061 1
0.565209 0.730205 1
0.682109 0.732403 1
0.796002 0.735393 1
0.907515 0.73904 1
1 0.743221 1
0.00929274 0.871305 1
0.175036 0.860288 0.998276
0.310445 0.857481 0.995468
0.436713 0.857145 0.995132
0.557488 0.858274 0.996277
0.674388 0.860471 0.998459
0.788296 0.863462 1
0.899794 0.867109 1
1 0.871305 1
0 1 1
0.165759 0.988998 0.988998
0.301152 0.986191 0.986191
0.427436 0.98584 0.98584
0.548211 0.986984 0.986984
0.665095 0.989166 0.989166
0.779004 0.992172 0.992172
0.890501 0.995819 0.995819
1 1 1
