public/LUTS/Autumn/Autumn_13.cube
TITLE "Generated by Resolve"
LUT_3D_SIZE 9
0.0561379 0.0773938 0.0809949
0.213367 0.0998245 0.0171817
0.451514 0.108217 0
0.77908 0.106645 0
1 0.0969558 0
1 0.137926 0
1 0.230488 0
1 0.326619 0
1 0.380987 0
0.0327153 0.138674 0.0795453
0.201556 0.123064 0.022797
0.454795 0.13872 0
0.795361 0.146273 0
1 0.148394 0
1 0.171633 0
1 0.22446 0
1 0.305241 0
1 0.352544 0
0 0.222827 0.0834669
0.115984 0.240024 0.0442817
0.471916 0.191821 0
0.834623 0.225193 0
1 0.274357 0
1 0.330953 0
1 0.398276 0
1 0.461662 0
1 0.474418 0
0 0.348074 0.0793927
0.0137789 0.373449 0.0147555
0.388464 0.406165 0
0.841489 0.317327 0
1 0.371984 0
1 0.439994 0
1 0.515724 0
1 0.579522 0
1 0.587381 0
0 0.51371 0.0674296
0 0.535729 0.00483711
0.262867 0.612375 0
0.726986 0.556069 0
0.996414 0.492958 0
1 0.540078 0
1 0.605982 0
1 0.647593 0
1 0.653941 0
0 0.686137 0.043061
0 0.701106 0
0.187274 0.767468 0
0.603311 0.80061 0
0.870832 0.711208 0
1 0.657481 0
1 0.685924 0
1 0.713832 0
1 0.718822 0
0 0.849134 0.013138
0 0.85803 0
0.137118 0.895506 0
0.513558 0.91342 0
0.752819 0.915587 0
0.907729 0.85304 0
0.995468 0.793667 0
1 0.782956 0
1 0.784527 0
0 0.990356 0
0 0.990051 0
0.117922 0.994186 0
0.431098 1 0
0.645151 1 0
0.813931 1 0
0.922393 0.970336 0
0.939803 0.899077 0
0.950027 0.881148 0
0 1 0
0 1 0
0.115084 1 0
0.377646 1 0
0.587732 1 0
0.763058 1 0
0.914717 1 0
0.914885 1 0
0.914763 0.999969 0
0.00787366 0.128054 0.18471
0.140246 0.115465 0.10808
0.378561 0.131624 0.0246281
0.720699 0.145647 0
0.999985 0.143542 0
1 0.171923 0
1 0.239384 0
1 0.329229 0
1 0.381247 0
0.00231937 0.144594 0.16286
0.158373 0.133593 0.104814
0.440131 0.138247 0
0.793164 0.138491 0
1 0.13167 0
1 0.14818 0
1 0.213306 0
1 0.297963 0
1 0.358022 0
0 0.254795 0.173419
0.0733501 0.230304 0.0994736
0.433768 0.19585 0
0.785412 0.233585 0
1 0.278096 0
1 0.319234 0
1 0.358175 0
1 0.4112 0
1 0.441901 0
0 0.374197 0.161776
0 0.359152 0.0695048
0.322789 0.405554 0
0.791562 0.321416 0
0.999985 0.376638 0
1 0.443229 0
1 0.508736 0
1 0.573175 0
1 0.587106 0
0 0.534798 0.139956
0 0.525917 0.0424506
0.197375 0.591318 0
0.660105 0.583108 0
0.974853 0.496864 0
1 0.547143 0
1 0.609888 0
1 0.656321 0
1 0.660121 0
0 0.70161 0.106905
0 0.699031 0.00758373
0.131853 0.746639 0
0.544732 0.791196 0
0.825391 0.735485 0
1 0.664485 0
1 0.690364 0
1 0.721325 0
1 0.724269 0
0 0.859937 0.0731365
0 0.860502 9.15541e-05
0.0884565 0.879469 0
0.456916 0.904921 0
0.727794 0.912947 0
0.872404 0.870481 0
0.994827 0.79501 0
0.999802 0.786618 0
0.999969 0.789288 0
0 0.991638 0.0692454
0 0.9906 0
0.0724804 0.987655 0
0.387701 0.995468 0
0.616999 0.999985 0
0.785626 0.999985 0
0.922347 0.970428 0
0.940658 0.897612 0
0.951034 0.879118 0
0 1 0.0936141
0 1 0
0.0708171 1 0
0.336095 1 0
0.549065 1 0
0.725536 1 0
0.909667 1 0
0.915328 1 0
0.915099 0.999954 0
0 0.205692 0.347036
0.00984207 0.192065 0.259724
0.219791 0.179156 0.142565
0.480201 0.230701 0.103243
0.868421 0.244739 0.00201419
1 0.27921 0
1 0.314763 0
1 0.364797 0
1 0.399939 0
0 0.215656 0.317693
0.00601205 0.204578 0.292485
0.259846 0.18735 0.147051
0.576455 0.224659 0.0761425
0.942336 0.237385 0
1 0.274876 0
1 0.30605 0
1 0.35787 0
1 0.399191 0
0 0.237858 0.292073
0 0.244297 0.288045
0.339574 0.219669 0.158785
0.761563 0.208179 0.00328069
0.998138 0.233463 0
1 0.255909 0
1 0.295537 0
1 0.353124 0
1 0.400443 0
0 0.443656 0.361913
0 0.403037 0.271763
0.163363 0.404334 0.0993515
0.704753 0.344701 0.000762951
0.946883 0.403326 0
1 0.463355 0
1 0.516152 0
1 0.558511 0
1 0.575875 0
0 0.610407 0.356023
0 0.557305 0.238392
0.0635996 0.574212 0.0633707
0.542489 0.610086 0
0.915373 0.512016 0
1 0.563851 0
1 0.622827 0
1 0.670298 0
1 0.672572 0
0 0.75462 0.335332
0 0.716152 0.201678
0.0354162 0.730007 0.0180514
0.426566 0.771679 0
0.757351 0.763882 0
0.989868 0.671641 0
1 0.701442 0
1 0.738003 0
1 0.737697 0
0 0.886503 0.315755
0 0.865888 0.163973
0.0163424 0.870771 0.000885023
0.356802 0.890043 0
0.66099 0.901671 0
0.841489 0.882292 0
0.99263 0.800641 0
0.996399 0.797147 0
0.996246 0.798032 0
0 0.997192 0.317662
0 0.989731 0.146609
0.012604 0.986572 6.10361e-05
0.313085 0.986984 0
0.562707 0.993347 0
0.74641 0.997147 0
0.911376 0.976242 0
0.941817 0.895506 0
0.95317 0.875273 0
0 1 0.345937
0 1 0.143771
0.016907 1 0.00140383
0.273411 1 0.000228885
0.494255 1 0
0.674678 1 0
0.875776 1 0
0.918166 1 0
0.91809 0.999939 0
0 0.306722 0.551415
0 0.296696 0.436225
0.000747692 0.297475 0.334676
0.289906 0.285939 0.130083
0.652033 0.30312 0.0654612
0.911269 0.368933 0.0209506
1 0.413474 0.00444038
1 0.447364 0
1 0.485191 0.00337224
0 0.319722 0.525887
0 0.307485 0.501305
0.00256352 0.30605 0.371237
0.348424 0.282841 0.160769
0.686519 0.318517 0.0924239
0.939681 0.377417 0.0414893
1 0.413336 0.00653086
1 0.449683 0
1 0.478279 1.5259e-05
0 0.324712 0.501747
0 0.339529 0.519905
0.00666819 0.332967 0.469154
0.451194 0.308583 0.229175
0.775982 0.353887 0.171252
0.995682 0.373999 0.0656291
1 0.407568 0.00965896
1 0.445274 0
1 0.459236 0
0 0.360876 0.481254
0 0.379416 0.478645
0.00509651 0.414939 0.48957
0.548653 0.393957 0.317662
0.903548 0.394354 0.173693
1 0.417792 0.065095
1 0.44509 0.00839246
1 0.48455 0
1 0.510246 0
0 0.597253 0.616785
0 0.635447 0.55198
0 0.614115 0.451164
0.365911 0.612741 0.215228
0.841962 0.548775 0.0923934
0.991226 0.595224 0.0191501
1 0.643214 0
1 0.682261 0
1 0.68217 0
0 0.798093 0.687755
0 0.774121 0.532158
0 0.755169 0.386191
0.285145 0.7579 0.167865
0.685054 0.774807 0.0577401
0.953353 0.691478 0
1 0.720729 0
1 0.757137 0
1 0.757183 0
0 0.90457 0.676387
0 0.891844 0.507332
0 0.886992 0.309895
0.256596 0.876448 0.115953
0.57174 0.886961 0.0621653
0.810559 0.884016 0.0272679
0.98822 0.808911 0
0.990539 0.814374 0
0.987564 0.814832 0
0 0.998016 0.671107
0 0.991394 0.49984
0 0.991684 0.255909
0.233265 0.976669 0.102602
0.490669 0.981476 0.079118
0.699519 0.989273 0.0555428
0.883619 0.977752 0.0208591
0.941436 0.896468 0
0.952331 0.876799 0
0 1 0.667796
0 1 0.504814
0 1 0.232807
0.214069 1 0.111238
0.434577 1 0.100069
0.626886 1 0.0705272
0.815335 1 0.0179446
0.923812 1 0.000640879
0.925978 0.999908 0
0 0.44036 0.778897
0 0.425528 0.631189
0 0.423667 0.501671
0.0104219 0.429847 0.335134
0.476295 0.38529 0.0289769
0.824063 0.37319 0
0.994476 0.449607 0.0477302
1 0.519509 0.302098
1 0.570794 0.435813
0 0.447456 0.758587
0 0.429419 0.722545
0 0.427604 0.560952
0.0262608 0.432624 0.367041
0.521065 0.381857 0.0755932
0.841428 0.384237 0.00457771
0.997436 0.459495 0.11284
1 0.528878 0.345281
1 0.565713 0.411597
0 0.451957 0.738781
0 0.45803 0.758068
0 0.451728 0.720623
0.0967269 0.444312 0.477317
0.595056 0.396475 0.210712
0.874983 0.426139 0.150958
1 0.48809 0.275959
1 0.535409 0.3626
1 0.550668 0.330327
0 0.457496 0.721187
0 0.474586 0.728115
0 0.514656 0.764416
0.178729 0.487968 0.659922
0.672389 0.473365 0.403067
0.921355 0.513664 0.422217
1 0.535088 0.387594
1 0.546578 0.316258
1 0.542702 0.23151
0 0.503532 0.706905
0 0.528527 0.695888
0 0.571328 0.717601
0.146593 0.609384 0.702998
0.704463 0.59884 0.555932
0.940642 0.6103 0.476677
1 0.620691 0.395865
1 0.620874 0.287251
1 0.620859 0.197086
0 0.713176 0.841871
0 0.759747 0.813672
0 0.79559 0.780575
0.044892 0.786908 0.637552
0.586862 0.760708 0.430091
0.90576 0.715587 0.32668
0.999985 0.737408 0.241108
1 0.759045 0.125872
1 0.757015 0.0586709
0 0.904021 0.964965
0 0.906981 0.858305
0 0.902266 0.7411
0.0645457 0.892775 0.521508
0.497078 0.869413 0.353124
0.771801 0.877272 0.265339
0.989807 0.808286 0.030869
1 0.816114 0.00588998
1 0.819852 0
0 0.998474 0.957198
0 0.992752 0.833326
0 0.991241 0.705379
0.0969253 0.98613 0.427741
0.444511 0.963333 0.300404
0.654734 0.969451 0.25182
0.852842 0.970687 0.185611
0.968032 0.899504 0
0.970993 0.887572 0
0 1 0.928679
0 1 0.808118
0 1 0.678706
0.133242 1 0.354513
0.402564 1 0.267231
0.58056 1 0.252369
0.761074 1 0.180743
0.932448 1 0.112139
0.934813 0.999802 0.103792
0 0.580163 0.966567
0 0.560128 0.816266
0 0.55172 0.672282
0 0.543633 0.539452
0.174517 0.54107 0.317205
0.693111 0.465812 0.106935
0.946746 0.476921 0.110765
1 0.532036 0.319448
1 0.604898 0.586618
0 0.576043 0.953979
0 0.555322 0.918196
0 0.548348 0.751431
0 0.540017 0.593103
0.217746 0.536461 0.367361
0.707256 0.469017 0.185
0.954147 0.483238 0.176791
1 0.540993 0.380377
1 0.60705 0.60441
0 0.575769 0.940566
0 0.569207 0.951232
0 0.558221 0.934539
0 0.551888 0.748623
0.329473 0.528328 0.514458
0.732052 0.493294 0.359503
0.982116 0.50042 0.331197
1 0.567132 0.507088
1 0.615854 0.645655
0 0.57673 0.929549
0 0.586908 0.929656
0 0.611734 0.96556
0.0118868 0.593637 0.934447
0.43888 0.540871 0.715328
0.808606 0.536065 0.535912
0.993255 0.568597 0.55848
1 0.614038 0.643168
1 0.634043 0.650645
0 0.585916 0.917113
0 0.600443 0.911101
0 0.639796 0.935973
0.0142977 0.677226 0.954009
0.504479 0.625513 0.831632
0.838605 0.629709 0.672724
0.990616 0.666209 0.696376
1 0.673045 0.649744
1 0.664286 0.591333
0 0.635843 0.907591
0 0.660517 0.891493
0 0.698741 0.907805
0.00578317 0.73698 0.920226
0.480476 0.739818 0.815
0.831418 0.741314 0.703914
0.984863 0.750118 0.662028
1 0.740688 0.596216
1 0.730709 0.539696
0 0.811444 0.999771
0 0.842237 0.995163
0 0.882734 0.992477
0 0.904616 0.95465
0.332403 0.88072 0.744244
0.733516 0.853483 0.590494
0.970581 0.817288 0.471931
1 0.821561 0.4159
1 0.824735 0.365759
0 0.959518 1
0 0.989563 1
0 0.994156 0.98378
0 0.992538 0.897383
0.333791 0.970306 0.617716
0.639399 0.94522 0.506874
0.820172 0.955749 0.416785
0.997223 0.887663 0.146136
0.999069 0.881788 0.115465
0 1 1
0 1 1
0 1 0.953124
0 1 0.818921
0.344717 1 0.519921
0.566171 1 0.450004
0.717464 1 0.401205
0.934035 1 0.294743
0.945388 0.999786 0.280339
0 0.71252 1
0 0.693141 0.99379
0 0.678996 0.921447
0 0.66746 0.841962
0.014374 0.654887 0.760464
0.46746 0.612726 0.613626
0.838376 0.57882 0.518029
1 0.585351 0.508751
1 0.611551 0.60766
0 0.699794 1
0 0.682963 1
0 0.670802 0.97734
0 0.662348 0.888731
0.0345159 0.648402 0.799161
0.508034 0.601709 0.656962
0.856764 0.57612 0.551293
1 0.584207 0.536477
1 0.614145 0.641428
0 0.69247 1
0 0.679652 1
0 0.665583 1
0 0.660044 0.987793
0.101976 0.636515 0.891646
0.580331 0.578668 0.742184
0.892561 0.569375 0.621469
1 0.584314 0.599374
1 0.624811 0.705409
0 0.690593 1
0 0.692103 1
0 0.698283 1
0 0.687633 1
0.205905 0.649683 0.985489
0.666209 0.59057 0.846784
0.930587 0.5879 0.721309
1 0.613443 0.700893
1 0.650843 0.765957
0 0.691646 1
0 0.700313 1
0 0.726879 1
0 0.751354 1
0.286336 0.702434 0.999405
0.715221 0.660426 0.906142
0.941726 0.654871 0.797192
1 0.681178 0.782483
1 0.699809 0.806867
0 0.703838 1
0 0.716381 1
0 0.743999 1
0 0.777768 1
0.264408 0.778363 0.997192
0.732219 0.748531 0.905135
0.928038 0.745892 0.818936
1 0.756481 0.813993
1 0.757305 0.804089
0 0.751247 1
0 0.772091 1
0 0.79942 1
0 0.826627 1
0.208331 0.833097 0.988006
0.677684 0.829343 0.876707
0.89865 0.831708 0.800259
1 0.827268 0.764035
1 0.823331 0.746914
0 0.887633 1
0 0.909529 1
0 0.93843 1
0 0.969879 1
0.0111849 0.988113 0.994827
0.539071 0.94966 0.810636
0.801053 0.928664 0.701701
0.999466 0.891814 0.589883
1 0.892149 0.573541
0 0.99884 1
0 1 1
0 1 1
0 1 1
0.0241703 1 0.933318
0.508247 1 0.698421
0.708263 1 0.619608
0.89929 1 0.527169
0.959365 0.999756 0.50309
0 0.835538 1
0 0.822049 1
0 0.807279 1
0 0.796063 1
0 0.783871 1
0.275364 0.733913 0.981155
0.737285 0.669902 0.891005
0.980453 0.646448 0.824277
1 0.658442 0.801251
0 0.819043 1
0 0.808133 1
0 0.79585 1
0 0.786526 1
0 0.778271 1
0.314626 0.724224 0.988174
0.757656 0.662699 0.904509
0.986831 0.641718 0.836469
1 0.654734 0.808194
0 0.805371 1
0 0.790219 1
0 0.7785 1
0 0.771023 1
4.57771e-05 0.766705 1
0.383291 0.706645 0.999771
0.791302 0.651957 0.930785
0.99646 0.635279 0.859831
1 0.651576 0.82591
0 0.79968 1
0 0.791424 1
0 0.786831 1
0 0.774151 1
0.00549325 0.769406 1
0.448524 0.706874 1
0.824735 0.659327 0.960021
1 0.645563 0.887861
1 0.662821 0.845258
0 0.796582 1
0 0.795682 1
0 0.807248 1
0 0.814786 1
0.0153964 0.793973 1
0.507424 0.736522 1
0.847944 0.700999 0.980423
1 0.68542 0.90956
1 0.700206 0.867658
0 0.797482 1
0 0.800839 1
0 0.818036 1
0 0.84033 1
0.0135958 0.846616 1
0.557458 0.780529 1
0.860212 0.758343 0.98143
1 0.74377 0.913191
1 0.752697 0.888121
0 0.808804 1
0 0.816602 1
0 0.833402 1
0 0.854353 1
0.013611 0.866209 1
0.530114 0.838148 1
0.845548 0.828412 0.962066
0.994308 0.816007 0.901656
1 0.81915 0.901656
0 0.845014 1
0 0.860227 1
0 0.878218 1
0 0.896819 1
0.00869764 0.908522 1
0.489219 0.885222 0.999573
0.794919 0.894408 0.923522
0.95436 0.903181 0.858671
1 0.90483 0.846693
0 0.938186 1
0 0.957961 1
0 0.982055 1
0 0.996551 1
0 1 1
0.271183 1 0.999634
0.669993 1 0.873976
0.858228 0.998581 0.774319
0.976806 0.996521 0.714611
0 0.927886 1
0 0.920409 1
0 0.908812 1
0 0.897276 1
0 0.887861 1
0.0751507 0.850568 1
0.614847 0.781018 1
0.911055 0.737728 0.999573
1 0.701503 0.992844
0 0.909133 1
0 0.904784 1
0 0.89601 1
0 0.886748 1
0 0.879835 1
0.108659 0.83975 1
0.637675 0.773175 1
0.919844 0.731289 0.999969
1 0.69659 0.998032
0 0.891783 1
0 0.880217 1
0 0.873854 1
0 0.867033 1
0 0.863294 1
0.161685 0.818998 1
0.670756 0.759564 1
0.934447 0.720516 1
1 0.689464 0.999649
0 0.88307 1
0 0.871992 1
0 0.865049 1
0 0.855863 1
0 0.853605 1
0.188342 0.807095 1
0.703746 0.752392 1
0.946761 0.717601 1
1 0.692409 0.999756
0 0.877684 1
0 0.871061 1
0 0.872541 1
0 0.871778 1
0 0.86334 1
0.225589 0.813428 1
0.732036 0.762631 1
0.95758 0.732311 1
1 0.710887 0.999985
0 0.874464 1
0 0.871611 1
0 0.878904 1
0 0.889845 1
0 0.895338 1
0.348699 0.823819 1
0.782177 0.787762 1
0.975387 0.760723 1
1 0.746014 1
0 0.874434 1
0 0.874968 1
0 0.884337 1
0 0.898482 1
0 0.912978 1
0.385 0.86276 1
0.797009 0.833967 1
0.975555 0.812436 1
1 0.801587 1
0 0.88249 1
0 0.887343 1
0 0.897459 1
0 0.910842 1
0 0.923964 1
0.387488 0.883421 1
0.751812 0.888579 1
0.932403 0.89839 0.995193
1 0.890471 0.978317
0 0.904936 1
0 0.91754 1
0 0.931807 1
0 0.9467 1
0 0.959442 1
0.355093 0.931395 1
0.71281 0.936309 1
0.882765 0.962356 0.962005
0.986908 0.99089 0.907012
