public/LUTS/Autumn/Autumn_02.cube
TITLE "Generated by Resolve"
LUT_3D_SIZE 33
0 0 0
0.0341192 0 0
0.0682383 0 0
0.102373 0 0
0.136492 0 0
0.170626 0 0
0.204746 0 0
0.23888 0 0
0.273014 0 0
0.307134 0 0
0.341268 0 0
0.375387 0 0
0.409522 0 0
0.443656 0 0
0.477775 0 0
0.51191 0 0
0.546029 0 0
0.580163 0 0
0.614298 0 0
0.648417 0 0
0.682551 0 0
0.71667 0 0
0.750805 0 0
0.784939 0 0
0.819059 0 0
0.853193 0 0
0.887312 0 0
0.921447 0 0
0.955581 0 0
0.9897 0 0
1 0 0
1 0 0
1 0 0
0 0.0312352 0
0.0341192 0.030457 0
0.0682383 0.0296788 0
0.102373 0.0289006 0
0.136492 0.0281224 0
0.170626 0.0273442 0
0.204746 0.026566 0
0.23888 0.025803 0
0.273014 0.0250248 0
0.307134 0.0242466 0
0.341268 0.0234684 0
0.375387 0.0226902 0
0.409522 0.021912 0
0.443656 0.0211337 0
0.477775 0.0203555 0
0.51191 0.0195773 0
0.546029 0.0187991 0
0.580163 0.0180209 0
0.614298 0.0172427 0
0.648417 0.0164797 0
0.682551 0.0157015 0
0.71667 0.0149233 0
0.750805 0.0141451 0
0.784939 0.0133669 0
0.819059 0.0125887 0
0.853193 0.0118105 0
0.887312 0.0110323 0
0.921447 0.0102541 0
0.955581 0.00947585 0
0.9897 0.00869764 0
1 0.00791943 0
1 0.00714122 0
1 0.00637827 0
0 0.0624857 0
0.0341192 0.0617075 0
0.0682383 0.0609293 0
0.102373 0.0601511 0
0.136492 0.0593729 0
0.170626 0.0585946 0
0.204746 0.0578164 0
0.23888 0.0570535 0
0.273014 0.0562753 0
0.307134 0.0554971 0
0.341268 0.0547189 0
0.375387 0.0539406 0
0.409522 0.0531624 0
0.443656 0.0523842 0
0.477775 0.051606 0
0.51191 0.0508278 0
0.546029 0.0500496 0
0.580163 0.0492714 0
0.614298 0.0484932 0
0.648417 0.0477302 0
0.682551 0.046952 0
0.71667 0.0461738 0
0.750805 0.0453956 0
0.784939 0.0446174 0
0.819059 0.0438392 0
0.853193 0.043061 0
0.887312 0.0422827 0
0.921447 0.0415045 0
0.955581 0.0407263 0
0.9897 0.0399481 0
1 0.0391699 0
1 0.0383917 0
1 0.0376287 0
0 0.0937362 0
0.0341192 0.092958 0
0.0682383 0.0921798 0
0.102373 0.0914015 0
0.136492 0.0906233 0
0.170626 0.0898451 0
0.204746 0.0890669 0
0.23888 0.088304 0
0.273014 0.0875257 0
0.307134 0.0867475 0
0.341268 0.0859693 0
0.375387 0.0851911 0
0.409522 0.0844129 0
0.443656 0.0836347 0
0.477775 0.0828565 0
0.51191 0.0820783 0
0.546029 0.0813001 0
0.580163 0.0805219 0
0.614298 0.0797436 0
0.648417 0.0789807 0
0.682551 0.0782025 0
0.71667 0.0774243 0
0.750805 0.0766461 0
0.784939 0.0758679 0
0.819059 0.0750896 0
0.853193 0.0743114 0
0.887312 0.0735332 0
0.921447 0.072755 0
0.955581 0.0719768 0
0.9897 0.0711986 0
1 0.0704204 0
1 0.0696422 0
1 0.0688792 0
0 0.124987 0
0.0341192 0.124208 0
0.0682383 0.12343 0
0.102373 0.122652 0
0.136492 0.121874 0
0.170626 0.121096 0
0.204746 0.120317 0
0.23888 0.119554 0
0.273014 0.118776 0
0.307134 0.117998 0
0.341268 0.11722 0
0.375387 0.116442 0
0.409522 0.115663 0
0.443656 0.114885 0
0.477775 0.114107 0
0.51191 0.113329 0
0.546029 0.112551 0
0.580163 0.111772 0
0.614298 0.110994 0
0.648417 0.110231 0
0.682551 0.109453 0
0.71667 0.108675 0
0.750805 0.107897 0
0.784939 0.107118 0
0.819059 0.10634 0
0.853193 0.105562 0
0.887312 0.104784 0
0.921447 0.104005 0
0.955581 0.103227 0
0.9897 0.102449 0
1 0.101671 0
1 0.100893 0
1 0.10013 0
0 0.156237 0
0.0341192 0.155459 0
0.0682383 0.154681 0
0.102373 0.153903 0
0.136492 0.153124 0
0.170626 0.152346 0
0.204746 0.151568 0
0.23888 0.150805 0
0.273014 0.150027 0
0.307134 0.149248 0
0.341268 0.14847 0
0.375387 0.147692 0
0.409522 0.146914 0
0.443656 0.146136 0
0.477775 0.145357 0
0.51191 0.144579 0
0.546029 0.143801 0
0.580163 0.143023 0
0.614298 0.142245 0
0.648417 0.141482 0
0.682551 0.140703 0
0.71667 0.139925 0
0.750805 0.139147 0
0.784939 0.138369 0
0.819059 0.137591 0
0.853193 0.136812 0
0.887312 0.136034 0
0.921447 0.135256 0
0.955581 0.134478 0
0.9897 0.1337 0
1 0.132921 0
1 0.132143 0
1 0.13138 0
0 0.187488 0
0.0341192 0.186709 0
0.0682383 0.185931 0
0.102373 0.185153 0
0.136492 0.184375 0
0.170626 0.183597 0
0.204746 0.182818 0
0.23888 0.182055 0
0.273014 0.181277 0
0.307134 0.180499 0
0.341268 0.179721 0
0.375387 0.178943 0
0.409522 0.178164 0
0.443656 0.177386 0
0.477775 0.176608 0
0.51191 0.17583 0
0.546029 0.175051 0
0.580163 0.174273 0
0.614298 0.173495 0
0.648417 0.172732 0
0.682551 0.171954 0
0.71667 0.171176 0
0.750805 0.170397 0
0.784939 0.169619 0
0.819059 0.168841 0
0.853193 0.168063 0
0.887312 0.167285 0
0.921447 0.166506 0
0.955581 0.165728 0
0.9897 0.16495 0
1 0.164172 0
1 0.163394 0
1 0.162631 0
0 0.218738 0
0.0341192 0.21796 0
0.0682383 0.217182 0
0.102373 0.216403 0
0.136492 0.215625 0
0.170626 0.214847 0
0.204746 0.214069 0
0.23888 0.213306 0
0.273014 0.212528 0
0.307134 0.211749 0
0.341268 0.210971 0
0.375387 0.210193 0
0.409522 0.209415 0
0.443656 0.208637 0
0.477775 0.207858 0
0.51191 0.20708 0
0.546029 0.206302 0
0.580163 0.205524 0
0.614298 0.204746 0
0.648417 0.203983 0
0.682551 0.203204 0
0.71667 0.202426 0
0.750805 0.201648 0
0.784939 0.20087 0
0.819059 0.200092 0
0.853193 0.199313 0
0.887312 0.198535 0
0.921447 0.197757 0
0.955581 0.196979 0
0.9897 0.196201 0
1 0.195422 0
1 0.194644 0
1 0.193881 0
0 0.249989 0
0.0341192 0.24921 0
0.0682383 0.248432 0
0.102373 0.247654 0
0.136492 0.246876 0
0.170626 0.246098 0
0.204746 0.245319 0
0.23888 0.244556 0
0.273014 0.243778 0
0.307134 0.243 0
0.341268 0.242222 0
0.375387 0.241443 0
0.409522 0.240665 0
0.443656 0.239887 0
0.477775 0.239109 0
0.51191 0.238331 0
0.546029 0.237552 0
0.580163 0.236774 0
0.614298 0.235996 0
0.648417 0.235233 0
0.682551 0.234455 0
0.71667 0.233677 0
0.750805 0.232898 0
0.784939 0.23212 0
0.819059 0.231342 0
0.853193 0.230564 0
0.887312 0.229786 0
0.921447 0.229007 0
0.955581 0.228229 0
0.9897 0.227451 0
1 0.226673 0
1 0.225895 0
1 0.225132 0
0 0.281239 0
0.0341192 0.280461 0
0.0682383 0.279683 0
0.102373 0.278904 0
0.136492 0.278126 0
0.170626 0.277348 0
0.204746 0.27657 0
0.23888 0.275807 0
0.273014 0.275029 0
0.307134 0.27425 0
0.341268 0.273472 0
0.375387 0.272694 0
0.409522 0.271916 0
0.443656 0.271138 0
0.477775 0.270359 0
0.51191 0.269581 0
0.546029 0.268803 0
0.580163 0.268025 0
0.614298 0.267247 0
0.648417 0.266484 0
0.682551 0.265705 0
0.71667 0.264927 0
0.750805 0.264149 0
0.784939 0.263371 0
0.819059 0.262592 0
0.853193 0.261814 0
0.887312 0.261036 0
0.921447 0.260258 0
0.955581 0.25948 0
0.9897 0.258701 0
1 0.257923 0
1 0.257145 0
1 0.256382 0
0 0.31249 0
0.0341192 0.311711 0
0.0682383 0.310933 0
0.102373 0.310155 0
0.136492 0.309377 0
0.170626 0.308598 0
0.204746 0.30782 0
0.23888 0.307057 0
0.273014 0.306279 0
0.307134 0.305501 0
0.341268 0.304723 0
0.375387 0.303944 0
0.409522 0.303166 0
0.443656 0.302388 0
0.477775 0.30161 0
0.51191 0.300832 0
0.546029 0.300053 0
0.580163 0.299275 0
0.614298 0.298497 0
0.648417 0.297734 0
0.682551 0.296956 0
0.71667 0.296178 0
0.750805 0.295399 0
0.784939 0.294621 0
0.819059 0.293843 0
0.853193 0.293065 0
0.887312 0.292287 0
0.921447 0.291508 0
0.955581 0.29073 0
0.9897 0.289952 0
1 0.289174 0
1 0.288396 0
1 0.287633 0
0 0.34374 0
0.0341192 0.342962 0
0.0682383 0.342184 0
0.102373 0.341405 0
0.136492 0.340627 0
0.170626 0.339849 0
0.204746 0.339071 0
0.23888 0.338308 0
0.273014 0.33753 0
0.307134 0.336751 0
0.341268 0.335973 0
0.375387 0.335195 0
0.409522 0.334417 0
0.443656 0.333639 0
0.477775 0.33286 0
0.51191 0.332082 0
0.546029 0.331304 0
0.580163 0.330526 0
0.614298 0.329747 0
0.648417 0.328984 0
0.682551 0.328206 0
0.71667 0.327428 0
0.750805 0.32665 0
0.784939 0.325872 0
0.819059 0.325093 0
0.853193 0.324315 0
0.887312 0.323537 0
0.921447 0.322759 0
0.955581 0.321981 0
0.9897 0.321202 0
1 0.320424 0
1 0.319646 0
1 0.318883 0
0 0.37499 0
0.0341192 0.374212 0
0.0682383 0.373434 0
0.102373 0.372656 0
0.136492 0.371878 0
0.170626 0.371099 0
0.204746 0.370321 0
0.23888 0.369558 0
0.273014 0.36878 0
0.307134 0.368002 0
0.341268 0.367224 0
0.375387 0.366445 0
0.409522 0.365667 0
0.443656 0.364889 0
0.477775 0.364111 0
0.51191 0.363333 0
0.546029 0.362554 0
0.580163 0.361776 0
0.614298 0.360998 0
0.648417 0.360235 0
0.682551 0.359457 0
0.71667 0.358679 0
0.750805 0.3579 0
0.784939 0.357122 0
0.819059 0.356344 0
0.853193 0.355566 0
0.887312 0.354788 0
0.921447 0.354009 0
0.955581 0.353231 0
0.9897 0.352453 0
1 0.351675 0
1 0.350896 0
1 0.350134 0
0 0.406241 0
0.0341192 0.405463 0
0.0682383 0.404685 0
0.102373 0.403906 0
0.136492 0.403128 0
0.170626 0.40235 0
0.204746 0.401572 0
0.23888 0.400809 0
0.273014 0.400031 0
0.307134 0.399252 0
0.341268 0.398474 0
0.375387 0.397696 0
0.409522 0.396918 0
0.443656 0.396139 0
0.477775 0.395361 0
0.51191 0.394583 0
0.546029 0.393805 0
0.580163 0.393027 0
0.614298 0.392248 0
0.648417 0.391485 0
0.682551 0.390707 0
0.71667 0.389929 0
0.750805 0.389151 0
0.784939 0.388373 0
0.819059 0.387594 0
0.853193 0.386816 0
0.887312 0.386038 0
0.921447 0.38526 0
0.955581 0.384482 0
0.9897 0.383703 0
1 0.382925 0
1 0.382147 0
1 0.381384 0
0 0.437491 0
0.0341192 0.436713 0
0.0682383 0.435935 0
0.102373 0.435157 0
0.136492 0.434379 0
0.170626 0.4336 0
0.204746 0.432822 0
0.23888 0.432059 0
0.273014 0.431281 0
0.307134 0.430503 0
0.341268 0.429725 0
0.375387 0.428946 0
0.409522 0.428168 0
0.443656 0.42739 0
0.477775 0.426612 0
0.51191 0.425834 0
0.546029 0.425055 0
0.580163 0.424277 0
0.614298 0.423499 0
0.648417 0.422736 0
0.682551 0.421958 0
0.71667 0.42118 0
0.750805 0.420401 0
0.784939 0.419623 0
0.819059 0.418845 0
0.853193 0.418067 0
0.887312 0.417288 0
0.921447 0.41651 0
0.955581 0.415732 0
0.9897 0.414954 0
1 0.414176 0
1 0.413397 0
1 0.412634 0
0 0.468742 0
0.0341192 0.467964 0
0.0682383 0.467185 0
0.102373 0.466407 0
0.136492 0.465629 0
0.170626 0.464851 0
0.204746 0.464073 0
0.23888 0.46331 0
0.273014 0.462531 0
0.307134 0.461753 0
0.341268 0.460975 0
0.375387 0.460197 0
0.409522 0.459419 0
0.443656 0.45864 0
0.477775 0.457862 0
0.51191 0.457084 0
0.546029 0.456306 0
0.580163 0.455528 0
0.614298 0.454749 0
0.648417 0.453986 0
0.682551 0.453208 0
0.71667 0.45243 0
0.750805 0.451652 0
0.784939 0.450874 0
0.819059 0.450095 0
0.853193 0.449317 0
0.887312 0.448539 0
0.921447 0.447761 0
0.955581 0.446983 0
0.9897 0.446204 0
1 0.445426 0
1 0.444648 0
1 0.443885 0
0 0.499992 0
0.0341192 0.499214 0
0.0682383 0.498436 0
0.102373 0.497658 0
0.136492 0.49688 0
0.170626 0.496101 0
0.204746 0.495323 0
0.23888 0.49456 0
0.273014 0.493782 0
0.307134 0.493004 0
0.341268 0.492226 0
0.375387 0.491447 0
0.409522 0.490669 0
0.443656 0.489891 0
0.477775 0.489113 0
0.51191 0.488334 0
0.546029 0.487556 0
0.580163 0.486778 0
0.614298 0.486 0
0.648417 0.485237 0
0.682551 0.484459 0
0.71667 0.48368 0
0.750805 0.482902 0
0.784939 0.482124 0
0.819059 0.481346 0
0.853193 0.480568 0
0.887312 0.479789 0
0.921447 0.479011 0
0.955581 0.478233 0
0.9897 0.477455 0
1 0.476677 0
1 0.475898 0
1 0.475135 0
0 0.531243 0
0.0341192 0.530465 0
0.0682383 0.529686 0
0.102373 0.528908 0
0.136492 0.52813 0
0.170626 0.527352 0
0.204746 0.526574 0
0.23888 0.525811 0
0.273014 0.525032 0
0.307134 0.524254 0
0.341268 0.523476 0
0.375387 0.522698 0
0.409522 0.52192 0
0.443656 0.521141 0
0.477775 0.520363 0
0.51191 0.519585 0
0.546029 0.518807 0
0.580163 0.518029 0
0.614298 0.51725 0
0.648417 0.516487 0
0.682551 0.515709 0
0.71667 0.514931 0
0.750805 0.514153 0
0.784939 0.513375 0
0.819059 0.512596 0
0.853193 0.511818 0
0.887312 0.51104 0
0.921447 0.510262 0
0.955581 0.509483 0
0.9897 0.508705 0
1 0.507927 0
1 0.507149 0
1 0.506386 0
0 0.562493 0
0.0341192 0.561715 0
0.0682383 0.560937 0
0.102373 0.560159 0
0.136492 0.55938 0
0.170626 0.558602 0
0.204746 0.557824 0
0.23888 0.557061 0
0.273014 0.556283 0
0.307134 0.555505 0
0.341268 0.554726 0
0.375387 0.553948 0
0.409522 0.55317 0
0.443656 0.552392 0
0.477775 0.551614 0
0.51191 0.550835 0
0.546029 0.550057 0
0.580163 0.549279 0
0.614298 0.548501 0
0.648417 0.547738 0
0.682551 0.54696 0
0.71667 0.546181 0
0.750805 0.545403 0
0.784939 0.544625 0
0.819059 0.543847 0
0.853193 0.543069 0
0.887312 0.54229 0
0.921447 0.541512 0
0.955581 0.540734 0
0.9897 0.539956 0
1 0.539178 0
1 0.538399 0
1 0.537636 0
0 0.593744 0
0.0341192 0.592966 0
0.0682383 0.592187 0
0.102373 0.591409 0
0.136492 0.590631 0
0.170626 0.589853 0
0.204746 0.589075 0
0.23888 0.588312 0
0.273014 0.587533 0
0.307134 0.586755 0
0.341268 0.585977 0
0.375387 0.585199 0
0.409522 0.584421 0
0.443656 0.583642 0
0.477775 0.582864 0
0.51191 0.582086 0
0.546029 0.581308 0
0.580163 0.58053 0
0.614298 0.579751 0
0.648417 0.578988 0
0.682551 0.57821 0
0.71667 0.577432 0
0.750805 0.576654 0
0.784939 0.575875 0
0.819059 0.575097 0
0.853193 0.574319 0
0.887312 0.573541 0
0.921447 0.572763 0
0.955581 0.571984 0
0.9897 0.571206 0
1 0.570428 0
1 0.56965 0
1 0.568887 0
0 0.624994 0
0.0341192 0.624216 0
0.0682383 0.623438 0
0.102373 0.62266 0
0.136492 0.621881 0
0.170626 0.621103 0
0.204746 0.620325 0
0.23888 0.619562 0
0.273014 0.618784 0
0.307134 0.618006 0
0.341268 0.617227 0
0.375387 0.616449 0
0.409522 0.615671 0
0.443656 0.614893 0
0.477775 0.614115 0
0.51191 0.613336 0
0.546029 0.612558 0
0.580163 0.61178 0
0.614298 0.611002 0
0.648417 0.610239 0
0.682551 0.609461 0
0.71667 0.608682 0
0.750805 0.607904 0
0.784939 0.607126 0
0.819059 0.606348 0
0.853193 0.60557 0
0.887312 0.604791 0
0.921447 0.604013 0
0.955581 0.603235 0
0.9897 0.602457 0
1 0.601678 0
1 0.6009 0
1 0.600137 0
0 0.656245 0
0.0341192 0.655467 0
0.0682383 0.654688 0
0.102373 0.65391 0
0.136492 0.653132 0
0.170626 0.652354 0
0.204746 0.651576 0
0.23888 0.650813 0
0.273014 0.650034 0
0.307134 0.649256 0
0.341268 0.648478 0
0.375387 0.6477 0
0.409522 0.646922 0
0.443656 0.646143 0
0.477775 0.645365 0
0.51191 0.644587 0
0.546029 0.643809 0
0.580163 0.64303 0
0.614298 0.642252 0
0.648417 0.641489 0
0.682551 0.640711 0
0.71667 0.639933 0
0.750805 0.639155 0
0.784939 0.638376 0
0.819059 0.637598 0
0.853193 0.63682 0
0.887312 0.636042 0
0.921447 0.635264 0
0.955581 0.634485 0
0.9897 0.633707 0
1 0.632929 0
1 0.632151 0
1 0.631388 0
0 0.687495 0
0.0341192 0.686717 0
0.0682383 0.685939 0
0.102373 0.685161 0
0.136492 0.684382 0
0.170626 0.683604 0
0.204746 0.682826 0
0.23888 0.682063 0
0.273014 0.681285 0
0.307134 0.680507 0
0.341268 0.679728 0
0.375387 0.67895 0
0.409522 0.678172 0
0.443656 0.677394 0
0.477775 0.676616 0
0.51191 0.675837 0
0.546029 0.675059 0
0.580163 0.674281 0
0.614298 0.673503 0
0.648417 0.67274 0
0.682551 0.671962 0
0.71667 0.671183 0
0.750805 0.670405 0
0.784939 0.669627 0
0.819059 0.668849 0
0.853193 0.66807 0
0.887312 0.667292 0
0.921447 0.666514 0
0.955581 0.665736 0
0.9897 0.664958 0
1 0.664179 0
1 0.663401 0
1 0.662638 0
0 0.718746 0
0.0341192 0.717968 0
0.0682383 0.717189 0
0.102373 0.716411 0
0.136492 0.715633 0
0.170626 0.714855 0
0.204746 0.714092 0
0.23888 0.713314 0
0.273014 0.712535 0
0.307134 0.711757 0
0.341268 0.710979 0
0.375387 0.710201 0
0.409522 0.709422 0
0.443656 0.708644 0
0.477775 0.707866 0
0.51191 0.707088 0
0.546029 0.70631 0
0.580163 0.705531 0
0.614298 0.704753 0
0.648417 0.70399 0
0.682551 0.703212 0
0.71667 0.702434 0
0.750805 0.701656 0
0.784939 0.700877 0
0.819059 0.700099 0
0.853193 0.699321 0
0.887312 0.698543 0
0.921447 0.697765 0
0.955581 0.696986 0
0.9897 0.696208 0
1 0.69543 0
1 0.694652 0
1 0.693889 0
0 0.749996 0
0.0341192 0.749218 0
0.0682383 0.74844 0
0.102373 0.747662 0
0.136492 0.746883 0
0.170626 0.746105 0
0.204746 0.745342 0
0.23888 0.744564 0
0.273014 0.743786 0
0.307134 0.743008 0
0.341268 0.742229 0
0.375387 0.741451 0
0.409522 0.740673 0
0.443656 0.739895 0
0.477775 0.739116 0
0.51191 0.738338 0
0.546029 0.73756 0
0.580163 0.736782 0
0.614298 0.736004 0
0.648417 0.735241 0
0.682551 0.734462 0
0.71667 0.733684 0
0.750805 0.732906 0
0.784939 0.732128 0
0.819059 0.73135 0
0.853193 0.730571 0
0.887312 0.729793 0
0.921447 0.729015 0
0.955581 0.728237 0
0.9897 0.727459 0
1 0.72668 0
1 0.725902 0
1 0.725139 0
0 0.781247 0
0.0341192 0.780468 0
0.0682383 0.77969 0
0.102373 0.778912 0
0.136492 0.778134 0
0.170626 0.777356 0
0.204746 0.776577 0
0.23888 0.775814 0
0.273014 0.775036 0
0.307134 0.774258 0
0.341268 0.77348 0
0.375387 0.772702 0
0.409522 0.771923 0
0.443656 0.771145 0
0.477775 0.770367 0
0.51191 0.769589 0
0.546029 0.768811 0
0.580163 0.768032 0
0.614298 0.767254 0
0.648417 0.766491 0
0.682551 0.765713 0
0.71667 0.764935 0
0.750805 0.764157 0
0.784939 0.763378 0
0.819059 0.7626 0
0.853193 0.761822 0
0.887312 0.761044 0
0.921447 0.760266 0
0.955581 0.759487 0
0.9897 0.758709 0
1 0.757931 0
1 0.757153 0
1 0.75639 0
0 0.812497 0
0.0341192 0.811719 0
0.0682383 0.810941 0
0.102373 0.810162 0
0.136492 0.809384 0
0.170626 0.808606 0
0.204746 0.807828 0
0.23888 0.807065 0
0.273014 0.806287 0
0.307134 0.805508 0
0.341268 0.80473 0
0.375387 0.803952 0
0.409522 0.803174 0
0.443656 0.802396 0
0.477775 0.801617 0
0.51191 0.800839 0
0.546029 0.800061 0
0.580163 0.799283 0
0.614298 0.798505 0
0.648417 0.797742 0
0.682551 0.796963 0
0.71667 0.796185 0
0.750805 0.795407 0
0.784939 0.794629 0
0.819059 0.793851 0
0.853193 0.793072 0
0.887312 0.792294 0
0.921447 0.791516 0
0.955581 0.790738 0
0.9897 0.78996 0
1 0.789181 0
1 0.788403 0
1 0.78764 0
0 0.843748 0
0.0341192 0.842969 0
0.0682383 0.842191 0
0.102373 0.841413 0
0.136492 0.840635 0
0.170626 0.839857 0
0.204746 0.839078 0
0.23888 0.838315 0
0.273014 0.837537 0
