public/LUTS/Autumn/Autumn_09.cube
TITLE "Generated by Resolve"
LUT_3D_SIZE 9
0 0 0
0.165759 0 0
0.301152 0 0
0.427436 0 0
0.548211 0 0
0.665095 0 0
0.779004 0 0
0.890501 0 0
1 0 0
0.0185702 0.117586 0.0185702
0.184329 0.106584 0.00756847
0.319722 0.103777 0.00476081
0.446006 0.103426 0.00440986
0.566781 0.10457 0.00555428
0.683665 0.106767 0.00775158
0.797574 0.109758 0.0107424
0.909072 0.113405 0.0143893
1 0.117586 0.0185702
0.0257115 0.23975 0.0257115
0.19147 0.228748 0.0147097
0.326863 0.22594 0.011902
0.453147 0.225589 0.0115511
0.573922 0.226734 0.0126955
0.690806 0.228916 0.0148928
0.804715 0.231922 0.0178836
0.916213 0.235569 0.0215305
1 0.23975 0.0257115
0.0279088 0.363882 0.0279088
0.193652 0.352865 0.0168917
0.329061 0.350072 0.0140841
0.455329 0.349722 0.0137484
0.576104 0.350866 0.0148775
0.693004 0.353048 0.0170748
0.806897 0.356054 0.0200656
0.91841 0.359686 0.0237125
1 0.363882 0.0279088
0.0267185 0.489357 0.0267185
0.192462 0.478355 0.0157015
0.327871 0.475547 0.0128939
0.454139 0.475196 0.0125582
0.574914 0.476341 0.0136873
0.691814 0.478523 0.0158846
0.805707 0.481529 0.0188754
0.91722 0.485176 0.0225223
1 0.489357 0.0267185
0.0229191 0.615869 0.0229191
0.188678 0.604852 0.0119173
0.324071 0.602045 0.00910964
0.450355 0.601709 0.00875868
0.57113 0.602853 0.0099031
0.688014 0.605035 0.0121004
0.801923 0.608042 0.0150912
0.91342 0.611673 0.0187381
1 0.615869 0.0229191
0.0170138 0.743221 0.0170138
0.182757 0.732219 0.0059968
0.318166 0.729412 0.00318914
0.444434 0.729061 0.00285344
0.565209 0.730205 0.0039826
0.682109 0.732403 0.0061799
0.796002 0.735393 0.00917067
0.907515 0.73904 0.0128176
1 0.743221 0.0170138
0.00929274 0.871305 0.00929274
0.175036 0.860288 0
0.310445 0.857481 0
0.436713 0.857145 0
0.557488 0.858274 0
0.674388 0.860471 0
0.788296 0.863462 0.00146487
0.899794 0.867109 0.00509651
1 0.871305 0.00929274
0 1 0
0.165759 0.988998 0
0.301152 0.986191 0
0.427436 0.98584 0
0.548211 0.986984 0
0.665095 0.989166 0
0.779004 0.992172 0
0.890501 0.995819 0
1 1 0
0.0028687 0.0028687 0.0881208
0.168627 0 0.0771038
0.304021 0 0.0742962
0.430304 0 0.0739605
0.55108 0 0.0751049
0.667964 0 0.0772869
0.781872 0 0.080293
0.89337 0 0.0839246
1 0.0028687 0.0881208
0.0214389 0.120455 0.106691
0.187198 0.109453 0.0956893
0.322591 0.106645 0.0928817
0.448875 0.106294 0.0925307
0.56965 0.107439 0.0936751
0.686534 0.109636 0.0958572
0.800443 0.112627 0.0988632
0.91194 0.116274 0.10251
1 0.120455 0.106691
0.0285801 0.242618 0.113832
0.194339 0.231617 0.102831
0.329732 0.228809 0.100023
0.456016 0.228458 0.0996719
0.576791 0.229603 0.100816
0.693675 0.231785 0.102998
0.807584 0.234791 0.106004
0.919081 0.238437 0.109651
1 0.242618 0.113832
0.0307774 0.366751 0.116014
0.196521 0.355749 0.105013
0.33193 0.352941 0.102205
0.458198 0.35259 0.101854
0.578973 0.353735 0.102998
0.695872 0.355917 0.105196
0.809766 0.358923 0.108186
0.921279 0.36257 0.111833
1 0.366751 0.116014
0.0295872 0.492226 0.114824
0.195331 0.481224 0.103822
0.330739 0.478416 0.101015
0.457008 0.478065 0.100664
0.577783 0.47921 0.101808
0.694682 0.481392 0.104005
0.808576 0.484398 0.106996
0.920089 0.488045 0.110643
1 0.492226 0.114824
0.0257877 0.618738 0.11104
0.191546 0.607721 0.100038
0.32694 0.604913 0.0972305
0.453223 0.604578 0.0968795
0.573999 0.605722 0.098024
0.690883 0.607904 0.100206
0.804791 0.61091 0.103212
0.916289 0.614542 0.106859
1 0.618738 0.11104
0.0198825 0.74609 0.105119
0.185626 0.735088 0.0941176
0.321035 0.73228 0.09131
0.447303 0.731929 0.0909743
0.568078 0.733074 0.0921035
0.684977 0.735271 0.0943008
0.798871 0.738262 0.0972915
0.910384 0.741909 0.100938
1 0.74609 0.105119
0.0121614 0.874174 0.0974136
0.177905 0.863157 0.0863966
0.313313 0.860349 0.0835889
0.439582 0.860014 0.0832532
0.560372 0.861143 0.0843824
0.677256 0.86334 0.0865797
0.791165 0.866331 0.0895705
0.902663 0.869978 0.0932174
1 0.874174 0.0974136
0.0028687 1 0.0881208
0.168627 0.991867 0.0771038
0.304021 0.989059 0.0742962
0.430304 0.988708 0.0739605
0.55108 0.989853 0.0751049
0.667964 0.992035 0.0772869
0.781872 0.995041 0.080293
0.89337 0.998688 0.0839246
1 1 0.0881208
0.0040589 0.0040589 0.197772
0.169818 0 0.186755
0.305211 0 0.183948
0.431495 0 0.183612
0.55227 0 0.184756
0.669154 0 0.186938
0.783062 0 0.189929
0.89456 0 0.193576
1 0.0040589 0.197772
0.0226444 0.12166 0.216342
0.188388 0.110643 0.205341
0.323796 0.107836 0.202533
0.450065 0.1075 0.202182
0.57084 0.108644 0.203326
0.687739 0.110826 0.205509
0.801633 0.113817 0.208515
0.913146 0.117464 0.212161
1 0.12166 0.216342
0.0297704 0.243809 0.223484
0.195529 0.232807 0.212467
0.330938 0.229999 0.209659
0.457206 0.229648 0.209323
0.577981 0.230793 0.210468
0.694865 0.23299 0.21265
0.808774 0.235981 0.215656
0.920287 0.239628 0.219287
1 0.243809 0.223484
0.0319677 0.367941 0.225666
0.197726 0.356939 0.214664
0.33312 0.354131 0.211856
0.459388 0.35378 0.211505
0.580179 0.354925 0.21265
0.697063 0.357122 0.214847
0.810971 0.360113 0.217838
0.922469 0.36376 0.221485
1 0.367941 0.225666
0.0307774 0.493416 0.224475
0.196536 0.482414 0.213474
0.33193 0.479606 0.210666
0.458198 0.479255 0.210315
0.578988 0.4804 0.21146
0.695872 0.482597 0.213657
0.809781 0.485588 0.216648
0.921279 0.489235 0.220295
1 0.493416 0.224475
0.0269932 0.619928 0.220691
0.192737 0.608927 0.209689
0.328145 0.606119 0.206882
0.454414 0.605768 0.206531
0.575189 0.606912 0.207675
0.692088 0.60911 0.209857
0.805982 0.6121 0.212863
0.917494 0.615747 0.21651
1 0.619928 0.220691
0.0210727 0.74728 0.214771
0.186831 0.736278 0.203769
0.322225 0.733471 0.200961
0.448493 0.733135 0.20061
0.569284 0.734264 0.201755
0.686168 0.736461 0.203952
0.800076 0.739452 0.206943
0.911574 0.743099 0.21059
1 0.74728 0.214771
0.0133516 0.875364 0.20705
0.17911 0.864363 0.196048
0.314504 0.861555 0.19324
0.440787 0.861204 0.192905
0.561563 0.862348 0.194034
0.678447 0.86453 0.196231
0.792355 0.867536 0.199222
0.903853 0.871183 0.202869
1 0.875364 0.20705
0.0040589 1 0.197772
0.169818 0.993057 0.186755
0.305211 0.99025 0.183948
0.431495 0.989899 0.183612
0.55227 0.991043 0.184756
0.669154 0.99324 0.186938
0.783062 0.996231 0.189929
0.89456 0.999878 0.193576
1 1 0.197772
0.00447089 0.00447089 0.31754
0.17023 0 0.306538
0.305623 0 0.303731
0.431907 0 0.30338
0.552682 0 0.304524
0.669566 0 0.306706
0.783475 0 0.309712
0.894972 0.000289921 0.313359
1 0.00447089 0.31754
0.0230411 0.122057 0.33611
0.1888 0.111055 0.325109
0.324193 0.108248 0.322301
0.450477 0.107897 0.32195
0.571252 0.109041 0.323095
0.688136 0.111238 0.325292
0.802045 0.114229 0.328283
0.913542 0.117876 0.33193
1 0.122057 0.33611
0.0301823 0.244221 0.343252
0.195941 0.233219 0.33225
0.331334 0.230411 0.329442
0.457618 0.23006 0.329091
0.578393 0.231205 0.330236
0.695277 0.233387 0.332433
0.809186 0.236393 0.335424
0.920684 0.24004 0.339071
1 0.244221 0.343252
0.0323796 0.368353 0.345449
0.198123 0.357336 0.334432
0.333532 0.354528 0.331624
0.4598 0.354192 0.331289
0.580575 0.355337 0.332418
0.697475 0.357519 0.334615
0.811368 0.360525 0.337606
0.922881 0.364157 0.341253
1 0.368353 0.345449
0.0311894 0.493828 0.344244
0.196933 0.482826 0.333242
0.332341 0.480018 0.330434
0.45861 0.479667 0.330098
0.579385 0.480812 0.331228
0.696284 0.482994 0.333425
0.810178 0.486 0.336416
0.921691 0.489647 0.340063
1 0.493828 0.344244
0.0273899 0.62034 0.340459
0.193149 0.609323 0.329458
0.328542 0.606516 0.32665
0.454826 0.60618 0.326299
0.575601 0.607324 0.327443
0.692485 0.609506 0.329641
0.806394 0.612512 0.332631
0.917891 0.616144 0.336278
1 0.62034 0.340459
0.0214847 0.747692 0.334554
0.187228 0.73669 0.323537
0.322637 0.733883 0.320729
0.448905 0.733532 0.320394
0.56968 0.734676 0.321523
0.68658 0.736873 0.32372
0.800473 0.739864 0.326711
0.911986 0.743511 0.330358
1 0.747692 0.334554
0.0137636 0.875776 0.326833
0.179507 0.864759 0.315816
0.314916 0.861952 0.313008
0.441184 0.861616 0.312673
0.561959 0.862745 0.313817
0.678859 0.864942 0.315999
0.792767 0.867933 0.319005
0.904265 0.87158 0.322637
1 0.875776 0.326833
0.00447089 1 0.31754
0.17023 0.993469 0.306538
0.305623 0.990662 0.303731
0.431907 0.990311 0.30338
0.552682 0.991455 0.304524
0.669566 0.993637 0.306706
0.783475 0.996643 0.309712
0.894972 1 0.313359
1 1 0.31754
0.0043183 0.0043183 0.44445
0.170077 0 0.433433
0.30547 0 0.430625
0.431754 0 0.430289
0.552529 0 0.431434
0.669413 0 0.433616
0.783322 0 0.436606
0.89482 0.000137331 0.440253
1 0.0043183 0.44445
0.0228885 0.12192 0.46302
0.188647 0.110903 0.452003
0.324056 0.108095 0.449195
0.450324 0.107759 0.448859
0.571099 0.108888 0.450004
0.687984 0.111086 0.452186
0.801892 0.114076 0.455192
0.913405 0.117723 0.458824
1 0.12192 0.46302
0.0300298 0.244068 0.470161
0.195789 0.233066 0.459144
0.331182 0.230259 0.456336
0.457465 0.229908 0.456001
0.578241 0.231052 0.457145
0.695125 0.233249 0.459327
0.809033 0.23624 0.462333
0.920546 0.239887 0.465965
1 0.244068 0.470161
0.0322271 0.3682 0.472343
0.197986 0.357198 0.461341
0.333379 0.354391 0.458534
0.459648 0.35404 0.458183
0.580438 0.355184 0.459327
0.697322 0.357382 0.461524
0.811231 0.360372 0.464515
0.922728 0.364019 0.468162
1 0.3682 0.472343
0.0310369 0.493675 0.471153
0.19678 0.482673 0.460151
0.332189 0.479866 0.457343
0.458457 0.479515 0.456992
0.579248 0.480659 0.458137
0.696132 0.482856 0.460334
0.81004 0.485847 0.463325
0.921538 0.489494 0.466972
1 0.493675 0.471153
0.0272374 0.620188 0.467369
0.192996 0.609186 0.456352
0.328405 0.606378 0.453544
0.454673 0.606027 0.453208
0.575448 0.607172 0.454353
0.692332 0.609369 0.456535
0.806241 0.61236 0.459541
0.917754 0.616007 0.463172
1 0.620188 0.467369
0.0213321 0.747539 0.461448
0.187091 0.736538 0.450446
0.322484 0.73373 0.447639
0.448753 0.733394 0.447288
0.569543 0.734524 0.448432
0.686427 0.736721 0.450629
0.800336 0.739712 0.45362
0.911833 0.743358 0.457267
1 0.747539 0.461448
0.013611 0.875624 0.453727
0.17937 0.864622 0.442725
0.314763 0.861814 0.439918
0.441047 0.861463 0.439582
0.561822 0.862608 0.440711
0.678706 0.86479 0.442908
0.792615 0.867796 0.445899
0.904112 0.871427 0.449546
1 0.875624 0.453727
0.0043183 1 0.44445
0.170077 0.993317 0.433433
0.30547 0.990509 0.430625
0.431754 0.990158 0.430289
0.552529 0.991302 0.431434
0.669413 0.9935 0.433616
0.783322 0.99649 0.436606
0.89482 1 0.440253
1 1 0.44445
0.00373846 0.00373846 0.576959
0.169497 0 0.565942
0.304891 0 0.563134
0.431174 0 0.562799
0.551949 0 0.563943
0.668833 0 0.566125
0.782742 0 0.569116
0.89424 0 0.572763
1 0.00373846 0.576959
0.0223087 0.121324 0.595529
0.188067 0.110323 0.584512
0.323461 0.107515 0.581704
0.449744 0.107164 0.581369
0.57052 0.108309 0.582513
0.687404 0.110506 0.584695
0.801312 0.113497 0.587701
0.91281 0.117144 0.591333
1 0.121324 0.595529
0.0294499 0.243488 0.60267
0.195209 0.232486 0.591653
0.330602 0.229679 0.588846
0.456886 0.229328 0.58851
0.577661 0.230472 0.589654
0.694545 0.232654 0.591836
0.808454 0.23566 0.594827
0.919951 0.239307 0.598474
1 0.243488 0.60267
0.0316472 0.36762 0.604852
0.197391 0.356603 0.593851
0.332799 0.353811 0.591043
0.459068 0.35346 0.590692
0.579843 0.354604 0.591836
0.696742 0.356786 0.594034
0.810636 0.359792 0.597025
0.922148 0.363424 0.600671
1 0.36762 0.604852
0.030457 0.493095 0.603662
0.196201 0.482094 0.59266
0.331609 0.479286 0.589853
0.457877 0.478935 0.589502
0.578653 0.480079 0.590646
0.695552 0.482261 0.592844
0.809445 0.485267 0.595834
0.920958 0.488914 0.599481
1 0.493095 0.603662
0.0266575 0.619608 0.599878
0.192416 0.608591 0.588861
0.32781 0.605783 0.586053
0.454093 0.605447 0.585718
0.574868 0.606592 0.586862
0.691752 0.608774 0.589044
0.805661 0.61178 0.59205
0.917159 0.615412 0.595682
1 0.619608 0.599878
0.0207523 0.74696 0.593957
0.186496 0.735958 0.582956
0.321904 0.73315 0.580148
0.448173 0.732799 0.579797
0.568948 0.733944 0.580941
0.685847 0.736141 0.583139
0.799741 0.739132 0.58613
0.911254 0.742779 0.589776
1 0.74696 0.593957
0.0130312 0.875044 0.586236
0.178775 0.864027 0.575235
0.314183 0.861219 0.572427
0.440452 0.860883 0.572091
0.561227 0.862013 0.57322
0.678126 0.86421 0.575418
0.792035 0.867201 0.578408
0.903532 0.870848 0.582055
1 0.875044 0.586236
0.00373846 1 0.576959
0.169497 0.992737 0.565942
0.304891 0.989929 0.563134
0.431174 0.989578 0.562799
0.551949 0.990723 0.563943
0.668833 0.992905 0.566125
0.782742 0.995911 0.569116
0.89424 0.999557 0.572763
1 1 0.576959
0.0027924 0.0027924 0.714122
0.168551 0 0.703105
0.303944 0 0.700313
0.430228 0 0.699962
0.551003 0 0.701106
0.667887 0 0.703288
0.781796 0 0.706294
0.893294 0 0.709926
1 0.0027924 0.714122
0.0213626 0.120378 0.732692
0.187121 0.109377 0.721691
0.322515 0.106569 0.718883
0.448798 0.106218 0.718532
0.569574 0.107362 0.719676
0.686458 0.10956 0.721859
0.800366 0.112551 0.724865
0.911864 0.116197 0.728511
1 0.120378 0.732692
0.0285039 0.242542 0.739834
0.194263 0.23154 0.728832
0.329656 0.228733 0.726024
0.45594 0.228382 0.725673
0.576715 0.229526 0.726818
0.693599 0.231708 0.729
0.807507 0.234714 0.732006
0.919005 0.238361 0.735653
1 0.242542 0.739834
0.0307012 0.366674 0.742016
0.196445 0.355657 0.731014
0.331853 0.35285 0.728206
0.458122 0.352514 0.727871
0.578897 0.353658 0.729
0.695796 0.35584 0.731197
0.809689 0.358846 0.734188
0.921202 0.362478 0.737835
1 0.366674 0.742016
0.0294957 0.492149 0.740826
0.195254 0.481147 0.729824
0.330663 0.47834 0.727016
0.456931 0.477989 0.726665
0.577707 0.479133 0.72781
0.694591 0.481315 0.730007
0.808499 0.484321 0.732998
0.920012 0.487968 0.736645
1 0.492149 0.740826
0.0257115 0.618662 0.737041
0.19147 0.607645 0.72604
0.326863 0.604837 0.723232
0.453147 0.604501 0.722881
0.573922 0.605646 0.724025
0.690806 0.607828 0.726207
0.804715 0.610834 0.729213
0.916213 0.614466 0.73286
1 0.618662 0.737041
0.0198062 0.746014 0.731121
0.18555 0.735012 0.720119
0.320958 0.732204 0.717311
0.447227 0.731853 0.716976
0.568002 0.732998 0.718105
0.684901 0.735195 0.720302
0.798795 0.738186 0.723293
0.910307 0.741833 0.72694
1 0.746014 0.731121
0.0120851 0.874098 0.723415
0.177829 0.863081 0.712398
0.313237 0.860273 0.70959
0.439506 0.859937 0.709255
0.560281 0.861067 0.710399
0.67718 0.863264 0.712581
0.791089 0.866255 0.715572
0.902586 0.869902 0.719219
1 0.874098 0.723415
0.0027924 1 0.714122
0.168551 0.991791 0.703105
0.303944 0.988983 0.700313
0.430228 0.988632 0.699962
0.551003 0.989776 0.701106
0.667887 0.991958 0.703288
0.781796 0.994965 0.706294
0.893294 0.998611 0.709926
1 1 0.714122
0.0015259 0.0015259 0.855299
0.167285 0 0.844282
0.302693 0 0.841474
0.428962 0 0.841138
0.549737 0 0.842283
0.666621 0 0.844465
0.780529 0 0.847456
0.892042 0 0.851102
1 0.0015259 0.855299
0.0201114 0.119127 0.873869
0.185855 0.10811 0.862867
0.321263 0.105303 0.860059
0.447532 0.104967 0.859709
0.568307 0.106111 0.860853
0.685206 0.108293 0.863035
0.799115 0.111299 0.866041
0.910613 0.114931 0.869688
1 0.119127 0.873869
0.0272526 0.241276 0.88101
0.192996 0.230274 0.869993
0.328405 0.227466 0.867185
0.454673 0.227131 0.86685
0.575448 0.22826 0.867994
0.692348 0.230457 0.870176
0.806241 0.233448 0.873182
0.917754 0.237095 0.876814
1 0.241276 0.88101
0.0294347 0.365408 0.883192
0.195193 0.354406 0.87219
0.330587 0.351598 0.869383
0.45687 0.351247 0.869032
0.577646 0.352392 0.870176
0.69453 0.354589 0.872374
0.808438 0.35758 0.875364
0.919936 0.361227 0.879011
1 0.365408 0.883192
0.0282444 0.490883 0.882002
0.194003 0.479881 0.871
0.329397 0.477073 0.868193
0.45568 0.476738 0.867842
0.576455 0.477867 0.868986
0.693339 0.480064 0.871183
0.807248 0.483055 0.874174
0.918746 0.486702 0.877821
1 0.490883 0.882002
0.0244602 0.617395 0.878218
0.190204 0.606394 0.867216
0.325612 0.603586 0.864408
0.451881 0.603235 0.864057
0.572656 0.604379 0.865202
0.689555 0.606577 0.867384
0.803464 0.609567 0.87039
0.914961 0.613214 0.874037
1 0.617395 0.878218
0.0185397 0.744762 0.872297
0.184298 0.733745 0.861295
0.319692 0.730938 0.858488
0.445975 0.730602 0.858137
0.566751 0.731746 0.859281
0.683635 0.733928 0.861479
0.797543 0.736919 0.864469
0.909041 0.740566 0.868116
1 0.744762 0.872297
0.0108186 0.872831 0.864591
0.176577 0.86183 0.853574
0.311971 0.859022 0.850767
0.438254 0.858671 0.850431
0.55903 0.859815 0.85156
0.675914 0.861997 0.853758
0.789822 0.865003 0.856748
0.90132 0.86865 0.860395
1 0.872831 0.864591
0.0015259 1 0.855299
0.167285 0.990524 0.844282
0.302693 0.987716 0.841474
0.428962 0.987381 0.841138
0.549737 0.98851 0.842283
0.666621 0.990707 0.844465
0.780529 0.993698 0.847456
0.892042 0.997345 0.851102
1 1 0.855299
0 0 1
0.165759 0 0.988998
0.301152 0 0.986191
0.427436 0 0.98584
0.548211 0 0.986984
0.665095 0 0.989166
0.779004 0 0.992172
0.890501 0 0.995819
1 0 1
0.0185702 0.117586 1
0.184329 0.106584 1
0.319722 0.103777 1
0.446006 0.103426 1
0.566781 0.10457 1
0.683665 0.106767 1
0.797574 0.109758 1
0.909072 0.113405 1
1 0.117586 1
0.0257115 0.23975 1
0.19147 0.228748 1
0.326863 0.22594 1
0.453147 0.225589 1
0.573922 0.226734 1
0.690806 0.228916 1
0.804715 0.231922 1
0.916213 0.235569 1
1 0.23975 1
0.0279088 0.363882 1
0.193652 0.352865 1
0.329061 0.350072 1
0.455329 0.349722 1
0.576104 0.350866 1
0.693004 0.353048 1
0.806897 0.356054 1
0.91841 0.359686 1
1 0.363882 1
0.0267185 0.489357 1
0.192462 0.478355 1
0.327871 0.475547 1
0.454139 0.475196 1
0.574914 0.476341 1
0.691814 0.478523 1
0.805707 0.481529 1
0.91722 0.485176 1
1 0.489357 1
0.0229191 0.615869 1
0.188678 0.604852 1
0.324071 0.602045 1
0.450355 0.601709 1
0.57113 0.602853 1
0.688014 0.605035 1
0.801923 0.608042 1
0.91342 0.611673 1
1 0.615869 1
0.0170138 0.743221 1
0.182757 0.732219 1
0.318166 0.729412 1
0.444434 0.729061 1
0.565209 0.730205 1
0.682109 0.732403 1
0.796002 0.735393 1
0.907515 0.73904 1
1 0.743221 1
0.00929274 0.871305 1
0.175036 0.860288 0.998276
0.310445 0.857481 0.995468
0.436713 0.857145 0.995132
0.557488 0.858274 0.996277
0.674388 0.860471 0.998459
0.788296 0.863462 1
0.899794 0.867109 1
1 0.871305 1
0 1 1
0.165759 0.988998 0.988998
0.301152 0.986191 0.986191
0.427436 0.98584 0.98584
0.548211 0.986984 0.986984
0.665095 0.989166 0.989166
0.779004 0.992172 0.992172
0.890501 0.995819 0.995819
1 1 1
