public/LUTS/Autumn/Autumn_11.cube
TITLE "Generated by Resolve"
LUT_3D_SIZE 5
0.0561379 0.0773938 0.0809949
0.485573 0.109117 0
1 0.0969253 0
1 0.234363 0
1 0.380987 0
0 0.23389 0.0847944
0.512367 0.204776 0
1 0.289799 0
1 0.417426 0
1 0.498573 0
0 0.52813 0.0657359
0.306844 0.633127 0
0.99472 0.507515 0
1 0.615488 0
1 0.658991 0
0 0.855802 0.011841
0.17702 0.903456 0
0.761105 0.919631 0
0.994354 0.79852 0
1 0.787091 0
0 1 0
0.145159 1 0
0.601251 1 0
0.914717 1 0
0.914717 1 0
0 0.216358 0.369894
0.22118 0.192111 0.148455
0.857084 0.261067 0.00825513
1 0.331716 0
1 0.406714 0
0 0.24506 0.304845
0.342458 0.244648 0.180209
0.996704 0.258824 0
1 0.314931 0
1 0.410071 0
0 0.632273 0.392981
0.0838941 0.593912 0.0745251
0.916365 0.530648 0
1 0.634119 0
1 0.679957 0
0 0.894743 0.356909
0.0430457 0.878065 0.00349432
0.665278 0.904524 0
0.99086 0.805615 0
0.994659 0.801968 0
0 1 0.383856
0.0392157 1 0.00830091
0.501915 1 0
0.876646 1 0
0.918715 1 0
0 0.452262 0.797299
0 0.434043 0.498527
0.488014 0.394644 0.0231174
0.997269 0.454093 0.0570077
1 0.580453 0.477653
0 0.462882 0.755627
0 0.465537 0.740185
0.616312 0.409232 0.226764
1 0.497978 0.312261
1 0.556664 0.357031
0 0.509178 0.717174
0 0.590967 0.740505
0.714092 0.613596 0.567651
1 0.632563 0.419028
1 0.632898 0.23537
0 0.906294 0.982208
0 0.906676 0.755688
0.513939 0.872496 0.36817
0.994904 0.81059 0.0434882
1 0.821805 0
0 1 0.94641
0 1 0.688014
0.415 1 0.281117
0.763943 1 0.193469
0.935409 1 0.115526
0 0.718288 1
0 0.683803 0.923125
0.0348211 0.658076 0.768704
0.846265 0.582635 0.533074
1 0.612253 0.610117
0 0.697047 1
0 0.671 1
0.140307 0.63711 0.907637
0.903731 0.571893 0.643107
1 0.627634 0.716838
0 0.696315 1
0 0.735363 1
0.317678 0.707439 0.999237
0.944945 0.663005 0.804959
1 0.704295 0.811994
0 0.752834 1
0 0.806577 1
0.23801 0.835737 0.986481
0.900755 0.835019 0.804059
1 0.824735 0.75259
0 0.998993 1
0 1 1
0.0477302 1 0.928862
0.713222 1 0.626352
0.959808 1 0.511833
0 0.928527 1
0 0.908202 1
0 0.887678 1
0.632166 0.779599 1
1 0.701549 0.993744
0 0.890745 1
0 0.871305 1
0 0.861509 1
0.690532 0.757061 1
1 0.689052 1
0 0.877485 1
0 0.874006 1
0 0.8654 1
0.747448 0.763561 1
1 0.7131 1
0 0.874907 1
0 0.886351 1
0 0.914 1
0.805219 0.836027 1
1 0.804349 1
0 0.904936 1
0 0.933455 1
0 0.959106 1
0.721172 0.936996 1
0.986984 0.99147 0.907271
