public/LUTS/Autumn/Autumn_16.cube
TITLE "Generated by Resolve"
LUT_3D_SIZE 5
0.0539559 0.0837262 0.0807507
0.414969 0.107927 0
0.997635 0.0978408 0
1 0.208621 0
1 0.378256 0
0 0.242084 0.0843519
0.439719 0.208682 0
1 0.285206 0
1 0.412085 0
1 0.509926 0
0 0.536599 0.064622
0.244587 0.63389 0
0.985702 0.512184 0
1 0.611292 0
1 0.662013 0
0 0.859602 0.0111086
0.152468 0.904723 0
0.749783 0.923552 0
0.993118 0.802396 0
0.999359 0.788602 0
0 1 0
0.145693 1 0
0.601785 1 0
0.914717 1 0
0.914717 1 0
0 0.196338 0.32076
0.207523 0.171008 0.140322
0.839155 0.229328 0.000534066
1 0.292302 0
1 0.395483 0
0 0.266163 0.295308
0.304448 0.243519 0.151019
0.966079 0.282582 0
1 0.336568 0
1 0.434073 0
0 0.629541 0.352026
0.0532082 0.594965 0.0581674
0.896529 0.531472 0
1 0.628702 0
1 0.68162 0
0 0.896147 0.333913
0.0276951 0.881102 0.00234989
0.651667 0.907607 0
0.988296 0.811368 0
0.994232 0.802701 0
0 1 0.383627
0.0394598 1 0.00828565
0.502632 1 0
0.87808 1 0
0.91873 1 0
0 0.4177 0.741619
0 0.402411 0.491844
0.426032 0.373953 0.0579232
0.983993 0.430869 0.00454719
1 0.549462 0.361563
0 0.438956 0.711681
0 0.450248 0.748592
0.588022 0.398596 0.251682
1 0.4869 0.289677
1 0.541253 0.275959
0 0.525582 0.714
0 0.603464 0.71873
0.693996 0.613474 0.538659
1 0.650339 0.391165
1 0.65333 0.198276
0 0.912551 0.972381
0 0.908782 0.739513
0.49575 0.875578 0.353079
0.981857 0.818708 0.0277104
1 0.823972 0
0 1 0.946685
0 1 0.688502
0.415732 1 0.28159
0.764965 1 0.193515
0.935439 1 0.115984
0 0.685344 1
0 0.654154 0.886442
0.00706493 0.634104 0.705821
0.793194 0.560693 0.450294
1 0.595422 0.547387
0 0.675593 1
0 0.653529 1
0.0979477 0.624857 0.890654
0.875608 0.561624 0.605631
1 0.617624 0.687556
0 0.683833 1
0 0.72192 1
0.288487 0.707698 1
0.932219 0.664027 0.793698
1 0.708309 0.805341
0 0.759548 1
0 0.810086 1
0.193118 0.844633 0.989517
0.894072 0.836683 0.790234
1 0.830427 0.734981
0 0.998688 1
0 1 1
0.0479744 1 0.929854
0.714122 1 0.626963
0.959884 1 0.512886
0 0.908583 1
0 0.890578 1
0 0.870085 1
0.545922 0.773266 1
1 0.694087 0.961822
0 0.877836 1
0 0.857023 1
0 0.847379 1
0.639109 0.750454 1
1 0.684749 0.98439
0 0.869703 1
0 0.867781 1
0 0.86186 1
0.719402 0.76257 1
1 0.713558 1
0 0.87155 1
0 0.883146 1
0 0.912047 1
0.790448 0.838132 1
1 0.806958 0.999771
0 0.904952 1
0 0.933669 1
0 0.958999 1
0.72285 0.937224 1
0.986984 0.99147 0.907271
