public/LUTS/Autumn/Autumn_18.cube
TITLE "Generated by Resolve"
LUT_3D_SIZE 5
0.0620737 0.133806 0.11487
0.587213 0.137194 0
1 0.135378 0
1 0.207935 0
1 0.355169 0
0 0.313359 0.101823
0.654398 0.272831 0
1 0.368017 0
1 0.485969 0
1 0.556634 0
0 0.603479 0.0636301
0.502373 0.695018 0
1 0.571176 0
1 0.665156 0
1 0.685374 0
0 0.888518 0.00781262
0.409934 0.913054 0
0.828504 0.909636 0
0.994263 0.802655 0
0.997284 0.797269 0
0 1 0.00123598
0.345418 1 0
0.710689 1 0
0.915892 1 0
0.923781 0.990387 0
0 0.281102 0.471656
0.188708 0.259754 0.20087
0.803281 0.319615 0.0649271
1 0.376684 0
1 0.450263 0
0 0.336126 0.456153
0.348592 0.351537 0.335637
0.992569 0.351446 0.0708934
1 0.393057 0
1 0.452338 0
0 0.712215 0.609506
0.189197 0.669429 0.25481
0.931029 0.610666 0.0254673
1 0.692485 0
1 0.716884 0
0 0.914748 0.623972
0.211353 0.889281 0.168933
0.752636 0.895964 0.0771954
0.994018 0.814923 0
0.987396 0.823392 0
0 1 0.645396
0.220508 1 0.175235
0.606317 1 0.129976
0.926436 0.999969 0.0314183
0.938827 0.981933 0.00395209
0 0.501442 0.870054
0 0.479347 0.563943
0.498741 0.436881 0.0286259
0.987808 0.463111 0.109972
1 0.595285 0.553857
0 0.541833 0.869886
0 0.547921 0.878538
0.657984 0.492317 0.428534
1 0.551675 0.490242
1 0.60592 0.544732
0 0.598672 0.872297
0 0.669444 0.904784
0.765576 0.665492 0.690089
1 0.688624 0.619959
1 0.658732 0.48333
0 0.861769 1
0 0.915511 0.955978
0.677684 0.860914 0.595956
1 0.817929 0.419455
1 0.828824 0.339544
0 1 1
0 1 0.862501
0.567147 1 0.480888
0.905684 0.999969 0.338827
0.959945 0.977386 0.281041
0 0.717174 1
0 0.689143 0.977142
0.0863203 0.66096 0.832151
0.844236 0.587701 0.605478
1 0.607217 0.615213
0 0.730999 1
0 0.709453 1
0.285191 0.657557 0.98822
0.934203 0.592416 0.766598
1 0.642329 0.76672
0 0.757366 1
0 0.795483 1
0.458595 0.737636 1
0.969512 0.695048 0.86952
1 0.720058 0.846983
0 0.807858 1
0 0.843229 1
0.488243 0.833036 0.996918
0.955093 0.830121 0.873442
1 0.831418 0.874678
0 0.952483 1
0 0.995743 1
0.276555 0.999878 1
0.842573 0.9935 0.769482
0.986618 0.973617 0.683833
0 0.89778 1
0 0.880247 1
0 0.865827 1
0.661418 0.761074 1
1 0.692836 0.973083
0 0.881102 1
0 0.861448 1
0 0.852445 1
0.76144 0.74789 1
1 0.690105 1
0 0.875792 1
0 0.884901 1
0.0291447 0.857252 1
0.848905 0.762463 1
1 0.722515 1
0 0.879881 1
0 0.902815 1
0.236194 0.8804 1
0.911467 0.829419 1
1 0.809308 1
0 0.914336 1
0 0.939681 1
0.367208 0.91371 1
0.870695 0.940902 0.985351
0.99675 0.976425 0.921477
