public/LUTS/Autumn/Autumn_07.cube
TITLE "Generated by Resolve"
LUT_3D_SIZE 9
0 0 0
0.165759 0 0
0.301152 0 0
0.427436 0 0
0.548211 0 0
0.665095 0 0
0.779004 0 0
0.890501 0 0
1 0 0
0 0.124987 0
0.165759 0.113985 0
0.301152 0.111177 0
0.427436 0.110826 0
0.548211 0.111971 0
0.665095 0.114153 0
0.779004 0.117159 0
0.890501 0.120806 0
1 0.124987 0
0 0.249989 0
0.165759 0.238987 0
0.301152 0.236179 0
0.427436 0.235828 0
0.548211 0.236973 0
0.665095 0.239155 0
0.779004 0.242161 0
0.890501 0.245808 0
1 0.249989 0
0 0.37499 0
0.165759 0.363989 0
0.301152 0.361181 0
0.427436 0.36083 0
0.548211 0.361975 0
0.665095 0.364157 0
0.779004 0.367163 0
0.890501 0.370809 0
1 0.37499 0
0 0.499992 0
0.165759 0.488991 0
0.301152 0.486183 0
0.427436 0.485832 0
0.548211 0.486976 0
0.665095 0.489158 0
0.779004 0.492164 0
0.890501 0.495811 0
1 0.499992 0
0 0.624994 0
0.165759 0.613993 0
0.301152 0.611185 0
0.427436 0.610834 0
0.548211 0.611978 0
0.665095 0.61416 0
0.779004 0.617166 0
0.890501 0.620813 0
1 0.624994 0
0 0.749996 0
0.165759 0.738994 0
0.301152 0.736187 0
0.427436 0.735836 0
0.548211 0.73698 0
0.665095 0.739162 0
0.779004 0.742168 0
0.890501 0.745815 0
1 0.749996 0
0 0.874998 0
0.165759 0.863996 0
0.301152 0.861189 0
0.427436 0.860838 0
0.548211 0.861982 0
0.665095 0.864164 0
0.779004 0.86717 0
0.890501 0.870817 0
1 0.874998 0
0 1 0
0.165759 0.988998 0
0.301152 0.986191 0
0.427436 0.98584 0
0.548211 0.986984 0
0.665095 0.989166 0
0.779004 0.992172 0
0.890501 0.995819 0
1 1 0
0 0 0.124987
0.165759 0 0.113985
0.301152 0 0.111177
0.427436 0 0.110826
0.548211 0 0.111971
0.665095 0 0.114153
0.779004 0 0.117159
0.890501 0 0.120806
1 0 0.124987
0 0.124987 0.124987
0.165759 0.113985 0.113985
0.301152 0.111177 0.111177
0.427436 0.110826 0.110826
0.548211 0.111971 0.111971
0.665095 0.114153 0.114153
0.779004 0.117159 0.117159
0.890501 0.120806 0.120806
1 0.124987 0.124987
0 0.249989 0.124987
0.165759 0.238987 0.113985
0.301152 0.236179 0.111177
0.427436 0.235828 0.110826
0.548211 0.236973 0.111971
0.665095 0.239155 0.114153
0.779004 0.242161 0.117159
0.890501 0.245808 0.120806
1 0.249989 0.124987
0 0.37499 0.124987
0.165759 0.363989 0.113985
0.301152 0.361181 0.111177
0.427436 0.36083 0.110826
0.548211 0.361975 0.111971
0.665095 0.364157 0.114153
0.779004 0.367163 0.117159
0.890501 0.370809 0.120806
1 0.37499 0.124987
0 0.499992 0.124987
0.165759 0.488991 0.113985
0.301152 0.486183 0.111177
0.427436 0.485832 0.110826
0.548211 0.486976 0.111971
0.665095 0.489158 0.114153
0.779004 0.492164 0.117159
0.890501 0.495811 0.120806
1 0.499992 0.124987
0 0.624994 0.124987
0.165759 0.613993 0.113985
0.301152 0.611185 0.111177
0.427436 0.610834 0.110826
0.548211 0.611978 0.111971
0.665095 0.61416 0.114153
0.779004 0.617166 0.117159
0.890501 0.620813 0.120806
1 0.624994 0.124987
0 0.749996 0.124987
0.165759 0.738994 0.113985
0.301152 0.736187 0.111177
0.427436 0.735836 0.110826
0.548211 0.73698 0.111971
0.665095 0.739162 0.114153
0.779004 0.742168 0.117159
0.890501 0.745815 0.120806
1 0.749996 0.124987
0 0.874998 0.124987
0.165759 0.863996 0.113985
0.301152 0.861189 0.111177
0.427436 0.860838 0.110826
0.548211 0.861982 0.111971
0.665095 0.864164 0.114153
0.779004 0.86717 0.117159
0.890501 0.870817 0.120806
1 0.874998 0.124987
0 1 0.124987
0.165759 0.988998 0.113985
0.301152 0.986191 0.111177
0.427436 0.98584 0.110826
0.548211 0.986984 0.111971
0.665095 0.989166 0.114153
0.779004 0.992172 0.117159
0.890501 0.995819 0.120806
1 1 0.124987
0 0 0.249989
0.165759 0 0.238987
0.301152 0 0.236179
0.427436 0 0.235828
0.548211 0 0.236973
0.665095 0 0.239155
0.779004 0 0.242161
0.890501 0 0.245808
1 0 0.249989
0 0.124987 0.249989
0.165759 0.113985 0.238987
0.301152 0.111177 0.236179
0.427436 0.110826 0.235828
0.548211 0.111971 0.236973
0.665095 0.114153 0.239155
0.779004 0.117159 0.242161
0.890501 0.120806 0.245808
1 0.124987 0.249989
0 0.249989 0.249989
0.165759 0.238987 0.238987
0.301152 0.236179 0.236179
0.427436 0.235828 0.235828
0.548211 0.236973 0.236973
0.665095 0.239155 0.239155
0.779004 0.242161 0.242161
0.890501 0.245808 0.245808
1 0.249989 0.249989
0 0.37499 0.249989
0.165759 0.363989 0.238987
0.301152 0.361181 0.236179
0.427436 0.36083 0.235828
0.548211 0.361975 0.236973
0.665095 0.364157 0.239155
0.779004 0.367163 0.242161
0.890501 0.370809 0.245808
1 0.37499 0.249989
0 0.499992 0.249989
0.165759 0.488991 0.238987
0.301152 0.486183 0.236179
0.427436 0.485832 0.235828
0.548211 0.486976 0.236973
0.665095 0.489158 0.239155
0.779004 0.492164 0.242161
0.890501 0.495811 0.245808
1 0.499992 0.249989
0 0.624994 0.249989
0.165759 0.613993 0.238987
0.301152 0.611185 0.236179
0.427436 0.610834 0.235828
0.548211 0.611978 0.236973
0.665095 0.61416 0.239155
0.779004 0.617166 0.242161
0.890501 0.620813 0.245808
1 0.624994 0.249989
0 0.749996 0.249989
0.165759 0.738994 0.238987
0.301152 0.736187 0.236179
0.427436 0.735836 0.235828
0.548211 0.73698 0.236973
0.665095 0.739162 0.239155
0.779004 0.742168 0.242161
0.890501 0.745815 0.245808
1 0.749996 0.249989
0 0.874998 0.249989
0.165759 0.863996 0.238987
0.301152 0.861189 0.236179
0.427436 0.860838 0.235828
0.548211 0.861982 0.236973
0.665095 0.864164 0.239155
0.779004 0.86717 0.242161
0.890501 0.870817 0.245808
1 0.874998 0.249989
0 1 0.249989
0.165759 0.988998 0.238987
0.301152 0.986191 0.236179
0.427436 0.98584 0.235828
0.548211 0.986984 0.236973
0.665095 0.989166 0.239155
0.779004 0.992172 0.242161
0.890501 0.995819 0.245808
1 1 0.249989
0 0 0.37499
0.165759 0 0.363989
0.301152 0 0.361181
0.427436 0 0.36083
0.548211 0 0.361975
0.665095 0 0.364157
0.779004 0 0.367163
0.890501 0 0.370809
1 0 0.37499
0 0.124987 0.37499
0.165759 0.113985 0.363989
0.301152 0.111177 0.361181
0.427436 0.110826 0.36083
0.548211 0.111971 0.361975
0.665095 0.114153 0.364157
0.779004 0.117159 0.367163
0.890501 0.120806 0.370809
1 0.124987 0.37499
0 0.249989 0.37499
0.165759 0.238987 0.363989
0.301152 0.236179 0.361181
0.427436 0.235828 0.36083
0.548211 0.236973 0.361975
0.665095 0.239155 0.364157
0.779004 0.242161 0.367163
0.890501 0.245808 0.370809
1 0.249989 0.37499
0 0.37499 0.37499
0.165759 0.363989 0.363989
0.301152 0.361181 0.361181
0.427436 0.36083 0.36083
0.548211 0.361975 0.361975
0.665095 0.364157 0.364157
0.779004 0.367163 0.367163
0.890501 0.370809 0.370809
1 0.37499 0.37499
0 0.499992 0.37499
0.165759 0.488991 0.363989
0.301152 0.486183 0.361181
0.427436 0.485832 0.36083
0.548211 0.486976 0.361975
0.665095 0.489158 0.364157
0.779004 0.492164 0.367163
0.890501 0.495811 0.370809
1 0.499992 0.37499
0 0.624994 0.37499
0.165759 0.613993 0.363989
0.301152 0.611185 0.361181
0.427436 0.610834 0.36083
0.548211 0.611978 0.361975
0.665095 0.61416 0.364157
0.779004 0.617166 0.367163
0.890501 0.620813 0.370809
1 0.624994 0.37499
0 0.749996 0.37499
0.165759 0.738994 0.363989
0.301152 0.736187 0.361181
0.427436 0.735836 0.36083
0.548211 0.73698 0.361975
0.665095 0.739162 0.364157
0.779004 0.742168 0.367163
0.890501 0.745815 0.370809
1 0.749996 0.37499
0 0.874998 0.37499
0.165759 0.863996 0.363989
0.301152 0.861189 0.361181
0.427436 0.860838 0.36083
0.548211 0.861982 0.361975
0.665095 0.864164 0.364157
0.779004 0.86717 0.367163
0.890501 0.870817 0.370809
1 0.874998 0.37499
0 1 0.37499
0.165759 0.988998 0.363989
0.301152 0.986191 0.361181
0.427436 0.98584 0.36083
0.548211 0.986984 0.361975
0.665095 0.989166 0.364157
0.779004 0.992172 0.367163
0.890501 0.995819 0.370809
1 1 0.37499
0 0 0.499992
0.165759 0 0.488991
0.301152 0 0.486183
0.427436 0 0.485832
0.548211 0 0.486976
0.665095 0 0.489158
0.779004 0 0.492164
0.890501 0 0.495811
1 0 0.499992
0 0.124987 0.499992
0.165759 0.113985 0.488991
0.301152 0.111177 0.486183
0.427436 0.110826 0.485832
0.548211 0.111971 0.486976
0.665095 0.114153 0.489158
0.779004 0.117159 0.492164
0.890501 0.120806 0.495811
1 0.124987 0.499992
0 0.249989 0.499992
0.165759 0.238987 0.488991
0.301152 0.236179 0.486183
0.427436 0.235828 0.485832
0.548211 0.236973 0.486976
0.665095 0.239155 0.489158
0.779004 0.242161 0.492164
0.890501 0.245808 0.495811
1 0.249989 0.499992
0 0.37499 0.499992
0.165759 0.363989 0.488991
0.301152 0.361181 0.486183
0.427436 0.36083 0.485832
0.548211 0.361975 0.486976
0.665095 0.364157 0.489158
0.779004 0.367163 0.492164
0.890501 0.370809 0.495811
1 0.37499 0.499992
0 0.499992 0.499992
0.165759 0.488991 0.488991
0.301152 0.486183 0.486183
0.427436 0.485832 0.485832
0.548211 0.486976 0.486976
0.665095 0.489158 0.489158
0.779004 0.492164 0.492164
0.890501 0.495811 0.495811
1 0.499992 0.499992
0 0.624994 0.499992
0.165759 0.613993 0.488991
0.301152 0.611185 0.486183
0.427436 0.610834 0.485832
0.548211 0.611978 0.486976
0.665095 0.61416 0.489158
0.779004 0.617166 0.492164
0.890501 0.620813 0.495811
1 0.624994 0.499992
0 0.749996 0.499992
0.165759 0.738994 0.488991
0.301152 0.736187 0.486183
0.427436 0.735836 0.485832
0.548211 0.73698 0.486976
0.665095 0.739162 0.489158
0.779004 0.742168 0.492164
0.890501 0.745815 0.495811
1 0.749996 0.499992
0 0.874998 0.499992
0.165759 0.863996 0.488991
0.301152 0.861189 0.486183
0.427436 0.860838 0.485832
0.548211 0.861982 0.486976
0.665095 0.864164 0.489158
0.779004 0.86717 0.492164
0.890501 0.870817 0.495811
1 0.874998 0.499992
0 1 0.499992
0.165759 0.988998 0.488991
0.301152 0.986191 0.486183
0.427436 0.98584 0.485832
0.548211 0.986984 0.486976
0.665095 0.989166 0.489158
0.779004 0.992172 0.492164
0.890501 0.995819 0.495811
1 1 0.499992
0 0 0.624994
0.165759 0 0.613993
0.301152 0 0.611185
0.427436 0 0.610834
0.548211 0 0.611978
0.665095 0 0.61416
0.779004 0 0.617166
0.890501 0 0.620813
1 0 0.624994
0 0.124987 0.624994
0.165759 0.113985 0.613993
0.301152 0.111177 0.611185
0.427436 0.110826 0.610834
0.548211 0.111971 0.611978
0.665095 0.114153 0.61416
0.779004 0.117159 0.617166
0.890501 0.120806 0.620813
1 0.124987 0.624994
0 0.249989 0.624994
0.165759 0.238987 0.613993
0.301152 0.236179 0.611185
0.427436 0.235828 0.610834
0.548211 0.236973 0.611978
0.665095 0.239155 0.61416
0.779004 0.242161 0.617166
0.890501 0.245808 0.620813
1 0.249989 0.624994
0 0.37499 0.624994
0.165759 0.363989 0.613993
0.301152 0.361181 0.611185
0.427436 0.36083 0.610834
0.548211 0.361975 0.611978
0.665095 0.364157 0.61416
0.779004 0.367163 0.617166
0.890501 0.370809 0.620813
1 0.37499 0.624994
0 0.499992 0.624994
0.165759 0.488991 0.613993
0.301152 0.486183 0.611185
0.427436 0.485832 0.610834
0.548211 0.486976 0.611978
0.665095 0.489158 0.61416
0.779004 0.492164 0.617166
0.890501 0.495811 0.620813
1 0.499992 0.624994
0 0.624994 0.624994
0.165759 0.613993 0.613993
0.301152 0.611185 0.611185
0.427436 0.610834 0.610834
0.548211 0.611978 0.611978
0.665095 0.61416 0.61416
0.779004 0.617166 0.617166
0.890501 0.620813 0.620813
1 0.624994 0.624994
0 0.749996 0.624994
0.165759 0.738994 0.613993
0.301152 0.736187 0.611185
0.427436 0.735836 0.610834
0.548211 0.73698 0.611978
0.665095 0.739162 0.61416
0.779004 0.742168 0.617166
0.890501 0.745815 0.620813
1 0.749996 0.624994
0 0.874998 0.624994
0.165759 0.863996 0.613993
0.301152 0.861189 0.611185
0.427436 0.860838 0.610834
0.548211 0.861982 0.611978
0.665095 0.864164 0.61416
0.779004 0.86717 0.617166
0.890501 0.870817 0.620813
1 0.874998 0.624994
0 1 0.624994
0.165759 0.988998 0.613993
0.301152 0.986191 0.611185
0.427436 0.98584 0.610834
0.548211 0.986984 0.611978
0.665095 0.989166 0.61416
0.779004 0.992172 0.617166
0.890501 0.995819 0.620813
1 1 0.624994
0 0 0.749996
0.165759 0 0.738994
0.301152 0 0.736187
0.427436 0 0.735836
0.548211 0 0.73698
0.665095 0 0.739162
0.779004 0 0.742168
0.890501 0 0.745815
1 0 0.749996
0 0.124987 0.749996
0.165759 0.113985 0.738994
0.301152 0.111177 0.736187
0.427436 0.110826 0.735836
0.548211 0.111971 0.73698
0.665095 0.114153 0.739162
0.779004 0.117159 0.742168
0.890501 0.120806 0.745815
1 0.124987 0.749996
0 0.249989 0.749996
0.165759 0.238987 0.738994
0.301152 0.236179 0.736187
0.427436 0.235828 0.735836
0.548211 0.236973 0.73698
0.665095 0.239155 0.739162
0.779004 0.242161 0.742168
0.890501 0.245808 0.745815
1 0.249989 0.749996
0 0.37499 0.749996
0.165759 0.363989 0.738994
0.301152 0.361181 0.736187
0.427436 0.36083 0.735836
0.548211 0.361975 0.73698
0.665095 0.364157 0.739162
0.779004 0.367163 0.742168
0.890501 0.370809 0.745815
1 0.37499 0.749996
0 0.499992 0.749996
0.165759 0.488991 0.738994
0.301152 0.486183 0.736187
0.427436 0.485832 0.735836
0.548211 0.486976 0.73698
0.665095 0.489158 0.739162
0.779004 0.492164 0.742168
0.890501 0.495811 0.745815
1 0.499992 0.749996
0 0.624994 0.749996
0.165759 0.613993 0.738994
0.301152 0.611185 0.736187
0.427436 0.610834 0.735836
0.548211 0.611978 0.73698
0.665095 0.61416 0.739162
0.779004 0.617166 0.742168
0.890501 0.620813 0.745815
1 0.624994 0.749996
0 0.749996 0.749996
0.165759 0.738994 0.738994
0.301152 0.736187 0.736187
0.427436 0.735836 0.735836
0.548211 0.73698 0.73698
0.665095 0.739162 0.739162
0.779004 0.742168 0.742168
0.890501 0.745815 0.745815
1 0.749996 0.749996
0 0.874998 0.749996
0.165759 0.863996 0.738994
0.301152 0.861189 0.736187
0.427436 0.860838 0.735836
0.548211 0.861982 0.73698
0.665095 0.864164 0.739162
0.779004 0.86717 0.742168
0.890501 0.870817 0.745815
1 0.874998 0.749996
0 1 0.749996
0.165759 0.988998 0.738994
0.301152 0.986191 0.736187
0.427436 0.98584 0.735836
0.548211 0.986984 0.73698
0.665095 0.989166 0.739162
0.779004 0.992172 0.742168
0.890501 0.995819 0.745815
1 1 0.749996
0 0 0.874998
0.165759 0 0.863996
0.301152 0 0.861189
0.427436 0 0.860838
0.548211 0 0.861982
0.665095 0 0.864164
0.779004 0 0.86717
0.890501 0 0.870817
1 0 0.874998
0 0.124987 0.874998
0.165759 0.113985 0.863996
0.301152 0.111177 0.861189
0.427436 0.110826 0.860838
0.548211 0.111971 0.861982
0.665095 0.114153 0.864164
0.779004 0.117159 0.86717
0.890501 0.120806 0.870817
1 0.124987 0.874998
0 0.249989 0.874998
0.165759 0.238987 0.863996
0.301152 0.236179 0.861189
0.427436 0.235828 0.860838
0.548211 0.236973 0.861982
0.665095 0.239155 0.864164
0.779004 0.242161 0.86717
0.890501 0.245808 0.870817
1 0.249989 0.874998
0 0.37499 0.874998
0.165759 0.363989 0.863996
0.301152 0.361181 0.861189
0.427436 0.36083 0.860838
0.548211 0.361975 0.861982
0.665095 0.364157 0.864164
0.779004 0.367163 0.86717
0.890501 0.370809 0.870817
1 0.37499 0.874998
0 0.499992 0.874998
0.165759 0.488991 0.863996
0.301152 0.486183 0.861189
0.427436 0.485832 0.860838
0.548211 0.486976 0.861982
0.665095 0.489158 0.864164
0.779004 0.492164 0.86717
0.890501 0.495811 0.870817
1 0.499992 0.874998
0 0.624994 0.874998
0.165759 0.613993 0.863996
0.301152 0.611185 0.861189
0.427436 0.610834 0.860838
0.548211 0.611978 0.861982
0.665095 0.61416 0.864164
0.779004 0.617166 0.86717
0.890501 0.620813 0.870817
1 0.624994 0.874998
0 0.749996 0.874998
0.165759 0.738994 0.863996
0.301152 0.736187 0.861189
0.427436 0.735836 0.860838
0.548211 0.73698 0.861982
0.665095 0.739162 0.864164
0.779004 0.742168 0.86717
0.890501 0.745815 0.870817
1 0.749996 0.874998
0 0.874998 0.874998
0.165759 0.863996 0.863996
0.301152 0.861189 0.861189
0.427436 0.860838 0.860838
0.548211 0.861982 0.861982
0.665095 0.864164 0.864164
0.779004 0.86717 0.86717
0.890501 0.870817 0.870817
1 0.874998 0.874998
0 1 0.874998
0.165759 0.988998 0.863996
0.301152 0.986191 0.861189
0.427436 0.98584 0.860838
0.548211 0.986984 0.861982
0.665095 0.989166 0.864164
0.779004 0.992172 0.86717
0.890501 0.995819 0.870817
1 1 0.874998
0 0 1
0.165759 0 0.988998
0.301152 0 0.986191
0.427436 0 0.98584
0.548211 0 0.986984
0.665095 0 0.989166
0.779004 0 0.992172
0.890501 0 0.995819
1 0 1
0 0.124987 1
0.165759 0.113985 0.988998
0.301152 0.111177 0.986191
0.427436 0.110826 0.98584
0.548211 0.111971 0.986984
0.665095 0.114153 0.989166
0.779004 0.117159 0.992172
0.890501 0.120806 0.995819
1 0.124987 1
0 0.249989 1
0.165759 0.238987 0.988998
0.301152 0.236179 0.986191
0.427436 0.235828 0.98584
0.548211 0.236973 0.986984
0.665095 0.239155 0.989166
0.779004 0.242161 0.992172
0.890501 0.245808 0.995819
1 0.249989 1
0 0.37499 1
0.165759 0.363989 0.988998
0.301152 0.361181 0.986191
0.427436 0.36083 0.98584
0.548211 0.361975 0.986984
0.665095 0.364157 0.989166
0.779004 0.367163 0.992172
0.890501 0.370809 0.995819
1 0.37499 1
0 0.499992 1
0.165759 0.488991 0.988998
0.301152 0.486183 0.986191
0.427436 0.485832 0.98584
0.548211 0.486976 0.986984
0.665095 0.489158 0.989166
0.779004 0.492164 0.992172
0.890501 0.495811 0.995819
1 0.499992 1
0 0.624994 1
0.165759 0.613993 0.988998
0.301152 0.611185 0.986191
0.427436 0.610834 0.98584
0.548211 0.611978 0.986984
0.665095 0.61416 0.989166
0.779004 0.617166 0.992172
0.890501 0.620813 0.995819
1 0.624994 1
0 0.749996 1
0.165759 0.738994 0.988998
0.301152 0.736187 0.986191
0.427436 0.735836 0.98584
0.548211 0.73698 0.986984
0.665095 0.739162 0.989166
0.779004 0.742168 0.992172
0.890501 0.745815 0.995819
1 0.749996 1
0 0.874998 1
0.165759 0.863996 0.988998
0.301152 0.861189 0.986191
0.427436 0.860838 0.98584
0.548211 0.861982 0.986984
0.665095 0.864164 0.989166
0.779004 0.86717 0.992172
0.890501 0.870817 0.995819
1 0.874998 1
0 1 1
0.165759 0.988998 0.988998
0.301152 0.986191 0.986191
0.427436 0.98584 0.98584
0.548211 0.986984 0.986984
0.665095 0.989166 0.989166
0.779004 0.992172 0.992172
0.890501 0.995819 0.995819
1 1 1
