public/LUTS/Autumn/Autumn_16.cube
TITLE "Generated by Resolve"
LUT_3D_SIZE 9
0.0539559 0.0837262 0.0807507
0.193469 0.0983597 0.0281224
0.414969 0.107927 0
0.726574 0.108385 0
0.997635 0.0978408 0
1 0.119036 0
1 0.208621 0
1 0.299687 0
1 0.378256 0
0.024094 0.156741 0.0795605
0.175814 0.135958 0.0329595
0.429099 0.146304 0
0.754757 0.169726 0
0.995102 0.180941 0
1 0.199039 0
1 0.242405 0
1 0.308888 0
1 0.360327 0
0 0.242084 0.0843519
0.0812543 0.260868 0.0395972
0.439719 0.208682 0
0.809674 0.236652 0
1 0.285206 0
1 0.345602 0
1 0.412085 0
1 0.487541 0
1 0.509926 0
0 0.372488 0.0785687
0.0031281 0.397009 0.0147402
0.339742 0.45211 0
0.811154 0.340063 0
1 0.38352 0
1 0.449622 0
1 0.522316 0
1 0.58822 0
1 0.59762 0
0 0.536599 0.064622
0 0.558907 0.00341802
0.244587 0.63389 0
0.684047 0.617563 0
0.985702 0.512184 0
1 0.548363 0
1 0.611292 0
1 0.655558 0
1 0.662013 0
0 0.702663 0.0403296
0 0.719158 0
0.188632 0.782406 0
0.595224 0.814542 0
0.841489 0.749676 0
1 0.670985 0
1 0.691661 0
1 0.719829 0
1 0.725307 0
0 0.859602 0.0111086
0 0.869612 0
0.152468 0.904723 0
0.517159 0.920501 0
0.749783 0.923552 0
0.891112 0.872404 0
0.993118 0.802396 0
1 0.789929 0
0.999359 0.788602 0
0 0.993637 0
0 0.993469 0
0.14342 0.996414 0
0.443946 1 0
0.648341 1 0
0.816434 1 0
0.92137 0.978836 0
0.936706 0.90457 0
0.947494 0.885634 0
0 1 0
0 1 0
0.145693 1 0
0.39939 1 0
0.601785 1 0
0.774807 1 0
0.914717 1 0
0.914885 1 0
0.914717 1 0
0.0130159 0.121736 0.16582
0.132723 0.110719 0.104433
0.363531 0.122362 0.0255131
0.691188 0.126635 0
0.98175 0.13138 0
1 0.157504 0
1 0.220676 0
1 0.305272 0
1 0.381292 0
0 0.170001 0.159319
0.140978 0.142031 0.10045
0.407584 0.146975 0
0.748714 0.156634 0
0.998489 0.155581 0
1 0.172244 0
1 0.215778 0
1 0.282429 0
1 0.351156 0
0 0.270359 0.166278
0.0481727 0.249958 0.0928511
0.406897 0.211017 0
0.761852 0.243671 0
0.993133 0.28957 0
1 0.343175 0
1 0.393194 0
1 0.44419 0
1 0.47953 0
0 0.396887 0.157397
0 0.383658 0.0665904
0.276234 0.441489 0
0.762249 0.343053 0
0.995346 0.388327 0
1 0.454215 0
1 0.519753 0
1 0.58291 0
1 0.598566 0
0 0.557519 0.13785
0 0.549554 0.0385748
0.180346 0.612085 0
0.617761 0.632731 0
0.957809 0.516747 0
1 0.555673 0
1 0.615702 0
1 0.665125 0
1 0.668818 0
0 0.719539 0.109133
0 0.717357 0.00628672
0.129595 0.760555 0
0.529747 0.803632 0
0.79707 0.773312 0
0.996887 0.680049 0
1 0.696239 0
1 0.728115 0
1 0.7308 0
0 0.871366 0.0813458
0 0.872801 0
0.098146 0.887968 0
0.45481 0.911269 0
0.719936 0.919707 0
0.860166 0.889311 0
0.99176 0.804974 0
0.999542 0.792355 0
0.998962 0.793881 0
0 0.995102 0.0857862
0 0.994186 0
0.0907454 0.990707 0
0.394308 0.996429 0
0.615808 0.999771 0
0.781811 0.999893 0
0.922637 0.978607 0
0.937728 0.902831 0
0.948745 0.883207 0
0 1 0.128481
0 1 0
0.0927138 1 0
0.34966 1 0
0.556374 1 0
0.729274 1 0
0.912673 1 0
0.915526 1 0
0.915236 1 0
0 0.196338 0.32076
0.0142061 0.18143 0.247227
0.207523 0.171008 0.140322
0.45539 0.215717 0.0969406
0.839155 0.229328 0.000534066
1 0.25951 0
1 0.292302 0
1 0.337026 0
1 0.395483 0
0 0.207111 0.293873
0.00799573 0.202686 0.291646
0.260761 0.1888 0.154696
0.604944 0.205676 0.0505226
0.944289 0.221515 0
1 0.251682 0
1 0.278676 0
1 0.328313 0
1 0.391073 0
0 0.266163 0.295308
0 0.282673 0.281865
0.304448 0.243519 0.151019
0.698924 0.249851 0.00166323
0.966079 0.282582 0
1 0.308385 0
1 0.336568 0
1 0.38146 0
1 0.434073 0
0 0.475654 0.356497
0 0.423804 0.258946
0.122606 0.430808 0.0946059
0.681605 0.361654 0
0.931411 0.413581 0
1 0.473472 0
1 0.531716 0
1 0.578485 0
1 0.599237 0
0 0.629541 0.352026
0 0.577874 0.232578
0.0532082 0.594965 0.0581674
0.508324 0.639994 0
0.896529 0.531472 0
0.999649 0.571862 0
1 0.628702 0
1 0.679057 0
1 0.68162 0
0 0.769543 0.342031
0 0.732601 0.20148
0.0370794 0.74583 0.0175784
0.413977 0.784497 0
0.73724 0.788693 0
0.973114 0.688197 0
1 0.706874 0
1 0.744915 0
1 0.744198 0
0 0.896147 0.333913
0 0.876799 0.170535
0.0276951 0.881102 0.00234989
0.357183 0.896849 0
0.651667 0.907607 0
0.833616 0.896101 0
0.988296 0.811368 0
0.99443 0.802152 0
0.994232 0.802701 0
0 0.999695 0.348745
0 0.993729 0.157656
0.0316167 0.989609 0.00030518
0.321309 0.989944 0
0.562264 0.995071 0
0.742535 0.997742 0
0.90808 0.983429 0
0.939071 0.900374 0
0.95108 0.879011 0
0 1 0.383627
0 1 0.156741
0.0394598 1 0.00828565
0.288121 1 0.00114443
0.502632 1 0
0.679561 1 0
0.87808 1 0
0.918669 1 0
0.91873 1 0
0 0.290974 0.517388
0 0.28011 0.418616
0.00511177 0.279744 0.322911
0.260578 0.270481 0.144854
0.615656 0.291707 0.077821
0.885222 0.351583 0.0275425
1 0.390402 0
1 0.426276 0
1 0.476173 0
0 0.307393 0.492638
0 0.299977 0.51107
0.00791943 0.296345 0.378332
0.344182 0.276936 0.180148
0.677821 0.314092 0.111055
0.935836 0.361776 0.0480354
1 0.391546 0
1 0.430457 0
1 0.468071 0
0 0.31667 0.476799
0 0.330709 0.490227
0.00848402 0.334447 0.483909
0.454734 0.313741 0.248096
0.796887 0.346914 0.174228
0.999741 0.358999 0.0589609
1 0.392889 0
1 0.424735 0
1 0.449195 0
0 0.38883 0.490196
0 0.415946 0.481315
0 0.464652 0.481315
0.522866 0.418173 0.301595
0.854887 0.440604 0.161868
1 0.470085 0.0664988
1 0.494713 0.00616464
1 0.526192 0
1 0.555138 0
0 0.637446 0.632364
0 0.657816 0.544167
0 0.631571 0.436545
0.33022 0.633738 0.20882
0.830167 0.562417 0.0536812
0.981125 0.602502 0.0118257
1 0.650431 0
1 0.693553 0
1 0.69633 0
0 0.809674 0.689494
0 0.786419 0.527977
0 0.769543 0.37702
0.280629 0.770871 0.16463
0.665644 0.789868 0.0634623
0.935729 0.708095 0
1 0.726009 0
1 0.762463 0
1 0.763424 0
0 0.911711 0.688899
0 0.899962 0.511925
0 0.895888 0.307027
0.260761 0.884306 0.121813
0.565423 0.892989 0.0717937
0.801923 0.893187 0.0407874
0.981826 0.819776 0
0.988663 0.818967 0
0.98497 0.819089 0
0 1 0.693202
0 0.994553 0.512032
0 0.994018 0.263493
0.24445 0.980072 0.116121
0.493645 0.984146 0.0939651
0.696422 0.992264 0.0677195
0.879438 0.983398 0.0307774
0.938903 0.901274 0
0.950256 0.880491 0
0 1 0.696437
0 1 0.521935
0 1 0.246632
0.23093 1 0.127321
0.44567 1 0.114443
0.632364 1 0.0827802
0.818723 1 0.0279393
0.924559 1 0.000976577
0.926894 1 0.000183108
0 0.4177 0.741619
0 0.403372 0.612238
0 0.402411 0.491844
0.00585946 0.408103 0.343496
0.426032 0.373953 0.0579232
0.785794 0.358877 3.0518e-05
0.983993 0.430869 0.00454719
1 0.500359 0.235843
1 0.549462 0.361563
0 0.431373 0.722759
0 0.416114 0.741604
0 0.41445 0.58027
0.0291142 0.417685 0.391699
0.50248 0.372045 0.115358
0.816617 0.378485 0.0421912
1 0.448783 0.0995804
1 0.516304 0.309758
1 0.551385 0.35285
0 0.438956 0.711681
0 0.449928 0.725658
0 0.450248 0.748592
0.0977035 0.438453 0.513008
0.588022 0.398596 0.251682
0.866651 0.428717 0.192615
1 0.4869 0.289677
1 0.52047 0.312184
1 0.541253 0.275959
0 0.451575 0.700496
0 0.467903 0.706035
0 0.509636 0.738369
0.172686 0.496971 0.688243
0.666178 0.488472 0.433707
0.914519 0.525231 0.442283
1 0.534981 0.372335
1 0.542672 0.296284
1 0.537713 0.1906
0 0.525582 0.714
0 0.555566 0.699565
0 0.603464 0.71873
0.0856031 0.651408 0.702358
0.693996 0.613474 0.538659
0.91545 0.634638 0.459709
1 0.650339 0.391165
1 0.651362 0.289693
1 0.65333 0.198276
0 0.736004 0.854826
0 0.785794 0.826169
0 0.808408 0.774136
0.0470741 0.798184 0.620752
0.566354 0.773342 0.422965
0.896071 0.725063 0.286473
0.999954 0.741878 0.229511
1 0.764202 0.113329
1 0.765393 0.0460365
0 0.912551 0.972381
0 0.91339 0.856489
0 0.908782 0.739513
0.0796674 0.898955 0.515465
0.49575 0.875578 0.353079
0.760327 0.883696 0.268605
0.981857 0.818708 0.0277104
1 0.819593 0.000442512
1 0.823972 0
0 1 0.96788
0 0.995499 0.837095
0 0.993866 0.711269
0.11577 0.988571 0.430304
0.45214 0.966476 0.308385
0.654139 0.972274 0.261021
0.84828 0.975052 0.193393
0.967147 0.903838 0
0.970764 0.890288 0
0 1 0.946685
0 1 0.817105
0 1 0.688502
0.155779 1 0.364248
0.415732 1 0.28159
0.587777 1 0.266178
0.764965 1 0.193515
0.933272 1 0.124086
0.935439 1 0.115984
0 0.554833 0.936416
0 0.536751 0.798459
0 0.529458 0.651728
0 0.52398 0.509758
0.134356 0.524712 0.283406
0.648539 0.452628 0.0445869
0.923491 0.452888 0.0458228
1 0.512383 0.247181
1 0.58735 0.527962
0 0.556649 0.923888
0 0.537133 0.934356
0 0.530388 0.768826
0 0.523354 0.595651
0.199802 0.522057 0.364523
0.68246 0.456718 0.168704
0.934722 0.467903 0.14992
1 0.527062 0.343328
1 0.598795 0.579934
0 0.561196 0.916091
0 0.560418 0.922957
0 0.552422 0.95729
0 0.546181 0.772412
0.324559 0.520882 0.537362
0.722454 0.487999 0.366415
0.971695 0.496529 0.339971
1 0.562905 0.50103
1 0.616587 0.643626
0 0.566506 0.910323
0 0.578088 0.909773
0 0.609918 0.942336
0.00106813 0.598474 0.952148
0.432013 0.545571 0.733303
0.800244 0.54316 0.550408
0.985626 0.577111 0.576745
1 0.61886 0.644129
1 0.634546 0.620996
0 0.582681 0.902968
0 0.598306 0.896941
0 0.637125 0.921706
0.00766003 0.677577 0.938811
0.498665 0.637842 0.833463
0.828107 0.643992 0.678798
0.98201 0.676707 0.693446
1 0.678035 0.635096
1 0.668452 0.574807
0 0.650263 0.911971
0 0.678508 0.894987
0 0.717311 0.910353
0.00263981 0.756222 0.920638
0.445792 0.762768 0.813214
0.825345 0.749706 0.687617
0.972686 0.76144 0.646693
1 0.753826 0.586343
1 0.747356 0.532219
0 0.822843 1
0 0.856748 0.997787
0 0.896117 0.995224
0 0.912032 0.950134
0.337301 0.886351 0.732799
0.724102 0.859922 0.585855
0.961929 0.82356 0.45008
1 0.82385 0.407492
1 0.828138 0.353246
0 0.961608 1
0 0.993469 1
0 0.995911 0.982315
0 0.994873 0.894255
0.346761 0.972793 0.61709
0.640665 0.948623 0.509972
0.81529 0.959167 0.421988
0.997452 0.891646 0.15169
0.998764 0.88423 0.119097
0 1 1
0 1 0.99971
0 1 0.957839
0 1 0.815503
0.361395 1 0.528405
0.574716 1 0.460777
0.722683 1 0.411521
0.934798 1 0.306874
0.946014 1 0.293095
0 0.685344 1
0 0.667704 0.983429
0 0.654154 0.886442
0 0.643992 0.796796
0.00706493 0.634104 0.705821
0.403296 0.601282 0.54403
0.793194 0.560693 0.450294
0.994125 0.563317 0.431662
1 0.595422 0.547387
0 0.676249 1
0 0.658885 1
0 0.647578 0.98143
0 0.640711 0.877775
0.0317235 0.629328 0.774502
0.47129 0.588983 0.623957
0.827253 0.562203 0.512291
0.999405 0.567163 0.488594
1 0.601892 0.605753
0 0.675593 1
0 0.666636 1
0 0.653529 1
0 0.648341 0.992325
0.0979477 0.624857 0.890654
0.562158 0.568719 0.734035
0.875608 0.561624 0.605631
1 0.575723 0.5785
1 0.617624 0.687556
0 0.677852 1
0 0.682002 1
0 0.695247 1
0 0.687541 1
0.207843 0.648707 0.995422
0.656672 0.592172 0.848692
0.920729 0.589914 0.719188
1 0.617182 0.703517
1 0.65507 0.765164
0 0.683833 1
0 0.693782 1
0 0.72192 1
0 0.75172 1
0.288487 0.707698 1
0.706691 0.668452 0.903136
0.932219 0.664027 0.793698
1 0.69012 0.783719
1 0.708309 0.805341
0 0.7019 1
0 0.716335 1
0 0.744091 1
0 0.77673 1
0.265492 0.778912 0.997452
0.725185 0.757214 0.899306
0.919234 0.755215 0.816495
1 0.764035 0.810101
1 0.762829 0.792325
0 0.759548 1
0 0.782818 1
0 0.810086 1
0 0.836637 1
0.193118 0.844633 0.989517
0.662196 0.839704 0.874708
0.894072 0.836683 0.790234
1 0.833631 0.753552
1 0.830427 0.734981
0 0.891295 1
0 0.91606 1
0 0.944823 1
0 0.975387 1
0.0196384 0.990784 0.990036
0.544823 0.952499 0.806088
0.798199 0.932067 0.700786
0.999268 0.895262 0.585687
1 0.894057 0.569024
0 0.998688 1
0 1 1
0 1 1
0 1 1
0.0479744 1 0.929854
0.518547 1 0.70396
0.714122 1 0.626963
0.902922 1 0.535363
0.959884 1 0.512886
0 0.808713 1
0 0.796155 1
0 0.78172 1
0 0.770672 1
0 0.758465 0.992355
0.213504 0.717754 0.953063
0.681361 0.654002 0.850675
0.953231 0.630777 0.773754
1 0.643122 0.756268
0 0.79353 1
0 0.780667 1
0 0.769818 1
0 0.760739 1
0 0.754086 1
0.278126 0.70602 0.97969
0.722438 0.645274 0.879332
0.972351 0.625956 0.802243
1 0.640131 0.774639
0 0.786633 1
0 0.773236 1
0 0.7608 1
0 0.753079 1
0 0.749737 1
0.357321 0.693126 0.997909
0.769146 0.637903 0.917983
0.989685 0.623423 0.839277
1 0.640024 0.799435
0 0.785428 1
0 0.779995 1
0 0.780133 1
0 0.768536 1
0.000137331 0.762371 1
0.438178 0.702602 1
0.812345 0.655436 0.95346
0.996475 0.642252 0.877134
1 0.659113 0.829572
0 0.786465 1
0 0.787594 1
0 0.801801 1
0 0.81413 1
0 0.794003 1
0.501839 0.738445 1
0.840314 0.704814 0.974548
0.999802 0.689693 0.902113
1 0.703304 0.861021
0 0.791669 1
0 0.79704 1
0 0.814832 1
0 0.837827 1
0.010605 0.847074 1
0.55494 0.785412 1
0.853559 0.764096 0.974487
1 0.750332 0.906889
1 0.75816 0.88481
0 0.807706 1
0 0.817365 1
0 0.834394 1
0 0.854734 1
0.0199893 0.864759 1
0.532601 0.839246 1
0.840314 0.834058 0.955291
0.991623 0.822538 0.89752
1 0.824933 0.898985
0 0.848035 1
0 0.86508 1
0 0.883116 1
0 0.901259 1
0.0146181 0.911421 1
0.494392 0.889754 0.998505
0.792187 0.898634 0.921141
0.951247 0.906126 0.853895
1 0.908248 0.838743
0 0.937362 1
0 0.95996 1
0 0.983047 1
0 0.996597 1
0 1 1
0.29955 1 0.99617
0.679652 1 0.874754
0.861387 0.998688 0.7776
0.977264 0.996353 0.719631
0 0.908583 1
0 0.901946 1
0 0.890578 1
0 0.879149 1
0 0.870085 1
0.032166 0.843427 1
0.545922 0.773266 1
0.871641 0.728435 0.995422
1 0.694087 0.961822
0 0.890105 1
0 0.882292 1
0 0.874983 1
0 0.866438 1
0 0.860609 1
0.067155 0.829831 1
0.589334 0.76286 1
0.888808 0.721508 0.999695
1 0.689265 0.971862
0 0.877836 1
0 0.865309 1
0 0.857023 1
0 0.850629 1
0 0.847379 1
0.123751 0.810956 1
0.639109 0.750454 1
0.910506 0.712612 1
1 0.684749 0.98439
0 0.872572 1
0 0.86273 1
0 0.857389 1
0 0.847776 1
0 0.844495 1
0.162356 0.803052 1
0.679438 0.747524 1
0.928206 0.714412 1
1 0.691081 0.994827
0 0.869703 1
0 0.864393 1
0 0.867781 1
0 0.869841 1
0 0.86186 1
0.220203 0.811444 1
0.719402 0.76257 1
0.945037 0.733532 1
1 0.713558 1
0 0.869047 1
0 0.867338 1
0 0.875425 1
0 0.887633 1
0 0.895415 1
0.350301 0.826383 1
0.774105 0.791211 1
0.967269 0.765347 1
1 0.750561 1
0 0.87155 1
0 0.873335 1
0 0.883146 1
0 0.897383 1
0 0.912047 1
0.384405 0.864683 1
0.790448 0.838132 1
0.967895 0.817914 1
1 0.806958 0.999771
0 0.882033 1
0 0.888167 1
0 0.898558 1
0 0.911818 1
0 0.923598 1
0.403143 0.883085 1
0.75375 0.889479 1
0.928618 0.902022 0.99263
1 0.89456 0.973602
0 0.904952 1
0 0.919402 1
0 0.933669 1
0 0.948119 1
0 0.958999 1
0.383413 0.930709 1
0.72285 0.937224 1
0.885985 0.962844 0.960708
0.986984 0.99147 0.907271
