public/LUTS/Autumn/Autumn_17.cube
TITLE "Generated by Resolve"
LUT_3D_SIZE 9
0.0539559 0.0837262 0.0807507
0.193469 0.0983597 0.0281224
0.414969 0.107927 0
0.726574 0.108385 0
0.997635 0.0978408 0
1 0.119036 0
1 0.208621 0
1 0.299687 0
1 0.378256 0
0.024094 0.156741 0.0795605
0.175814 0.135958 0.0329595
0.429099 0.146304 0
0.754757 0.169726 0
0.995102 0.180941 0
1 0.199039 0
1 0.242405 0
1 0.308888 0
1 0.360327 0
0 0.242084 0.0843519
0.0812543 0.260868 0.0395972
0.439719 0.208682 0
0.809674 0.236652 0
1 0.285206 0
1 0.345602 0
1 0.412085 0
1 0.487541 0
1 0.509926 0
0 0.372488 0.0785687
0.0031281 0.397009 0.0147402
0.339742 0.45211 0
0.811154 0.340063 0
1 0.38352 0
1 0.449622 0
1 0.522316 0
1 0.58822 0
1 0.59762 0
0 0.536599 0.064622
0 0.558907 0.00341802
0.244587 0.63389 0
0.684047 0.617563 0
0.985702 0.512184 0
1 0.548363 0
1 0.611292 0
1 0.655558 0
1 0.662013 0
0 0.702663 0.0403296
0 0.719158 0
0.188632 0.782406 0
0.595224 0.814542 0
0.841489 0.749676 0
1 0.670985 0
1 0.691661 0
1 0.719829 0
1 0.725307 0
0 0.859602 0.0111086
0 0.869612 0
0.152468 0.904723 0
0.517159 0.920501 0
0.749783 0.923552 0
0.891112 0.872404 0
0.993118 0.802396 0
1 0.789929 0
0.999359 0.788602 0
0 0.993637 0
0 0.993469 0
0.14342 0.996414 0
0.443946 1 0
0.648341 1 0
0.816434 1 0
0.92137 0.978836 0
0.936706 0.90457 0
0.947494 0.885634 0
0 1 0
0 1 0
0.145693 1 0
0.39939 1 0
0.601785 1 0
0.774807 1 0
0.914717 1 0
0.914885 1 0
0.914717 1 0
0.00434882 0.133288 0.190234
0.114946 0.115587 0.119493
0.320394 0.13875 0.060853
0.651881 0.147753 0
0.968994 0.150027 0
1 0.165698 0
1 0.221317 0
1 0.304494 0
1 0.380606 0
0 0.161135 0.171923
0.124865 0.144213 0.126665
0.4 0.14551 0.0034638
0.742687 0.154009 0
0.999252 0.149386 0
1 0.161608 0
1 0.206195 0
1 0.276616 0
1 0.353079 0
0 0.280461 0.188083
0.0391241 0.247669 0.11487
0.390997 0.212711 0.00161746
0.742947 0.245747 0
0.988357 0.290135 0
1 0.339696 0
1 0.383276 0
1 0.429831 0
1 0.470237 0
0 0.40618 0.178378
0 0.381964 0.0863203
0.252659 0.435477 0.000747692
0.742458 0.343633 0
0.988403 0.388434 0
1 0.453849 0
1 0.518013 0
1 0.578439 0
1 0.598093 0
0 0.565759 0.160021
0 0.548272 0.0557107
0.158923 0.604944 0
0.596994 0.633509 0
0.94786 0.516152 0
1 0.555215 0
1 0.615518 0
1 0.666239 0
1 0.669657 0
0 0.724773 0.134157
0 0.716365 0.0180514
0.112703 0.753719 0
0.508049 0.798413 0
0.785489 0.774731 0
0.994659 0.680034 0
1 0.695903 0
1 0.729488 0
1 0.731472 0
0 0.873426 0.109606
0 0.871534 0.000610361
0.083299 0.88307 0
0.436011 0.907591 0
0.710063 0.916991 0
0.854582 0.88954 0
0.991592 0.804623 0
0.999176 0.79263 0
0.999054 0.794003 0
0 0.996033 0.116686
0 0.993301 0
0.0771954 0.987625 0
0.380468 0.994797 0
0.607599 0.999176 0
0.774289 0.999893 0
0.921599 0.977081 0
0.938598 0.901305 0
0.95021 0.880583 0
0 1 0.162997
0 1 0
0.0803845 1 0
0.336873 1 0
0.545129 1 0
0.718685 1 0
0.909987 1 0
0.915923 1 0
0.915923 0.999557 0
0 0.21471 0.361395
0.00129702 0.202167 0.284428
0.159182 0.189136 0.172122
0.409094 0.223713 0.116396
0.76968 0.2533 0.0226291
1 0.276905 0
1 0.317327 0
1 0.359655 0
1 0.408133 0
0 0.227283 0.333822
0.000534066 0.222843 0.339071
0.203403 0.204028 0.191058
0.517357 0.2309 0.107378
0.886351 0.244129 0.00488289
1 0.275532 0
1 0.310613 0
1 0.352117 0
1 0.405737 0
0 0.254871 0.314549
0 0.26656 0.314992
0.244434 0.255909 0.224857
0.687221 0.236835 0.0345464
0.97673 0.25745 0
1 0.285328 0
1 0.310719 0
1 0.359228 0
1 0.419211 0
0 0.469657 0.408118
0 0.445472 0.315465
0.0855726 0.425345 0.164034
0.647623 0.369482 0.00489815
0.91812 0.416648 0
1 0.478782 0
1 0.533272 0
1 0.573861 0
1 0.593927 0
0 0.643061 0.422904
0 0.595666 0.287999
0.0202182 0.594217 0.110719
0.471244 0.636591 0
0.880659 0.536797 0
0.997284 0.575952 0
1 0.630838 0
1 0.679637 0
1 0.684108 0
0 0.7776 0.416739
0 0.74165 0.263798
0.00961318 0.748028 0.0539864
0.381521 0.778576 0.000915541
0.720653 0.788144 0
0.959457 0.689448 0
1 0.708385 0
1 0.74818 0
1 0.747051 0
0 0.898451 0.411597
0 0.87834 0.241123
0.0143282 0.883558 0.0175937
0.330831 0.891752 0
0.629679 0.902571 0
0.825666 0.893156 0
0.987274 0.81117 0
0.992966 0.804746 0
0.993057 0.80473 0
0 0.999649 0.427222
0 0.991577 0.242359
0.0191043 0.990372 0.0126802
0.299367 0.985183 0.000808728
0.545388 0.992432 0
0.731991 0.996078 0
0.900069 0.98233 0
0.939818 0.899046 0
0.952789 0.87602 0
0 1 0.454841
0 1 0.251102
0.0251926 1 0.0306554
0.270604 1 0.0148165
0.486809 1 0.0096437
0.666575 1 0
0.860822 1 0
0.919844 1 0
0.920714 0.999115 0
0 0.317556 0.568612
0 0.306111 0.462425
0 0.305638 0.364858
0.158572 0.307424 0.185321
0.579843 0.2934 0.0770733
0.851377 0.353613 0.0244297
0.999054 0.414206 0.00733959
1 0.445014 0
1 0.487373 0.0134127
0 0.334325 0.54548
0 0.324987 0.564446
0 0.323003 0.427665
0.249149 0.310872 0.204288
0.633448 0.315847 0.116609
0.893202 0.372351 0.0608682
1 0.418036 0.0206455
1 0.449653 0
1 0.488762 0.00335698
0 0.342809 0.531106
0 0.357214 0.545312
0 0.362173 0.550347
0.367422 0.338018 0.287327
0.728496 0.36199 0.208408
0.973434 0.390677 0.125719
1 0.416144 0.0423743
1 0.452201 0.00227359
1 0.472328 0.00364691
0 0.380011 0.516304
0 0.398672 0.513924
0 0.438972 0.534813
0.444938 0.435431 0.397955
0.837034 0.431281 0.265934
1 0.442435 0.161257
1 0.45948 0.0556191
1 0.490303 0.00270085
1 0.523384 0
0 0.597726 0.651667
0 0.652003 0.612619
0 0.646342 0.534783
0.284764 0.627405 0.316548
0.797818 0.571923 0.174731
0.965026 0.608927 0.0884108
1 0.651942 0.0146029
1 0.687358 0
1 0.691356 0
0 0.811185 0.762661
0 0.793545 0.614404
0 0.775448 0.488624
0.241993 0.768963 0.244175
0.638727 0.785565 0.13489
0.92639 0.709728 0.00514229
1 0.726177 0.000213626
1 0.761837 0
1 0.765347 0
0 0.912551 0.765347
0 0.902068 0.599542
0 0.89485 0.438651
0.232731 0.883268 0.183276
0.54168 0.887999 0.129549
0.791318 0.890013 0.0900282
0.983856 0.819791 0
0.995773 0.8206 0
0.992172 0.822293 0
0 0.999756 0.76437
0 0.993439 0.596811
0 0.992401 0.397482
0.222812 0.980224 0.165408
0.476112 0.97789 0.142885
0.683711 0.986679 0.108827
0.87068 0.97995 0.0625162
0.940902 0.901686 0
0.951537 0.88043 0
0 1 0.760479
0 1 0.598611
0 1 0.366598
0.215381 1 0.164843
0.431693 1 0.152972
0.617761 1 0.120531
0.803006 1 0.0603647
0.926375 1 0.0231022
0.928954 0.998764 0.0134279
0 0.447227 0.788098
0 0.431754 0.654551
0 0.43032 0.528725
0 0.433371 0.382239
0.340337 0.412802 0.0763409
0.759747 0.370825 0
0.969223 0.428977 0.000991836
1 0.501549 0.234134
1 0.56968 0.454597
0 0.458457 0.770138
0 0.441749 0.785626
0 0.439765 0.621775
0.00679026 0.441932 0.436759
0.42948 0.407233 0.112459
0.790768 0.384283 0.031754
0.987686 0.449546 0.09691
1 0.517968 0.316625
1 0.5738 0.454917
0 0.465843 0.759625
0 0.473472 0.771099
0 0.472282 0.796567
0.0485695 0.462394 0.568643
0.541115 0.418357 0.252018
0.836316 0.430091 0.195834
1 0.486503 0.293721
1 0.542382 0.409018
1 0.563638 0.384573
0 0.475654 0.749874
0 0.491234 0.753735
0 0.532189 0.787747
0.115206 0.51841 0.753033
0.615167 0.499672 0.469383
0.883452 0.528511 0.465492
1 0.556954 0.459998
1 0.5617 0.382208
1 0.563531 0.308751
0 0.519234 0.738811
0 0.541588 0.726589
0 0.586328 0.753063
0.0802472 0.624979 0.752773
0.655558 0.61883 0.604074
0.907393 0.627771 0.537392
1 0.635493 0.463539
1 0.630945 0.360983
1 0.630381 0.26746
0 0.709957 0.866712
0 0.752224 0.839994
0 0.802075 0.834165
0.0146029 0.805768 0.737621
0.55523 0.764981 0.508446
0.880842 0.729961 0.387366
0.998062 0.747097 0.329091
1 0.763912 0.218143
1 0.762173 0.141863
0 0.891646 0.991073
0 0.913268 0.919036
0 0.910338 0.815274
0.0252384 0.903822 0.643732
0.486381 0.87158 0.417563
0.747936 0.878325 0.3299
0.977707 0.817472 0.100252
1 0.817258 0.0511635
1 0.821836 0.0254063
0 0.999878 0.993408
0 0.994644 0.897459
0 0.993164 0.78323
0.0496223 0.990051 0.553124
0.445167 0.964355 0.353994
0.646006 0.965698 0.310872
0.839689 0.970626 0.238025
0.975219 0.900496 0
0.978912 0.887953 0
0 1 0.992706
0 1 0.872602
0 1 0.757031
0.0986343 1 0.466484
0.408988 1 0.318593
0.578744 1 0.310689
0.751232 1 0.239231
0.935622 1 0.158465
0.937972 0.998627 0.145769
0 0.578912 0.964843
0 0.560586 0.83209
0 0.551659 0.689769
0 0.544274 0.560464
0.093431 0.54519 0.374777
0.603845 0.478279 0.100313
0.896025 0.470741 0.110826
1 0.513924 0.245533
1 0.586831 0.52517
0 0.578347 0.954696
0 0.559075 0.963745
0 0.551141 0.808576
0 0.542962 0.647913
0.155123 0.541787 0.453162
0.648569 0.476768 0.224887
0.909041 0.484276 0.210681
1 0.527611 0.343847
1 0.598123 0.581094
0 0.582147 0.948211
0 0.57937 0.953826
0 0.56997 0.980865
0 0.564034 0.818631
0.266896 0.537743 0.614664
0.690135 0.50544 0.421164
0.953231 0.502846 0.364614
1 0.562264 0.50457
1 0.616983 0.654063
0 0.586862 0.943053
0 0.596597 0.941573
0 0.624704 0.971466
0 0.615763 0.981247
0.382284 0.561547 0.790204
0.775143 0.548424 0.592294
0.976211 0.573907 0.579599
1 0.618708 0.66006
1 0.644404 0.678065
0 0.59997 0.937255
0 0.614206 0.930861
0 0.651698 0.953262
0.00167849 0.692363 0.973129
0.456092 0.647364 0.880644
0.809842 0.639948 0.708324
0.971633 0.675013 0.716915
1 0.684627 0.683238
1 0.681102 0.633249
0 0.646159 0.930602
0 0.668605 0.913024
0 0.70634 0.930816
0.000900282 0.743038 0.945403
0.442466 0.742672 0.85124
0.806104 0.75024 0.73724
0.966018 0.757992 0.702342
1 0.747036 0.638498
1 0.738888 0.586328
0 0.807019 1
0 0.837064 0.99942
0 0.873838 0.999619
0 0.90605 0.991424
0.257237 0.892226 0.823362
0.721172 0.85359 0.647471
0.949996 0.826017 0.531792
1 0.826261 0.485618
1 0.830961 0.436728
0 0.94403 1
0 0.982757 1
0 0.995178 1
0 0.994247 0.949187
0.275853 0.976501 0.705119
0.639872 0.945357 0.555154
0.808499 0.953597 0.47332
0.999405 0.889479 0.237278
0.999939 0.882902 0.206806
0 1 1
0 1 1
0 1 0.987747
0 1 0.885374
0.313726 1 0.601236
0.573037 1 0.491691
0.715755 1 0.451759
0.930892 1 0.345983
0.94902 0.998764 0.329549
0 0.702037 1
0 0.685023 0.997406
0 0.670985 0.917037
0 0.66096 0.835462
0 0.649546 0.754681
0.366171 0.617395 0.619486
0.776379 0.573983 0.502007
0.988266 0.577035 0.487236
1 0.597818 0.553079
0 0.691966 1
0 0.675288 1
0 0.663691 0.994919
0 0.656718 0.911589
0.016495 0.645518 0.819318
0.434806 0.602548 0.685359
0.812222 0.571893 0.55726
0.995331 0.578225 0.537469
1 0.60238 0.608301
0 0.690517 1
0 0.680735 1
0 0.667491 1
0 0.661845 0.998566
0.0690776 0.641993 0.92755
0.527687 0.583261 0.782574
0.862913 0.566873 0.643702
1 0.581964 0.613809
1 0.617197 0.691081
0 0.692317 1
0 0.695018 1
0 0.705928 1
0 0.697536 1
0.167987 0.664378 0.998108
0.625055 0.606455 0.884092
0.909606 0.591928 0.751003
1 0.616663 0.713314
1 0.654307 0.770321
0 0.697261 1
0 0.706249 1
0 0.732204 1
0 0.759701 1
0.246418 0.718608 1
0.680232 0.677363 0.929702
0.923735 0.662501 0.819867
1 0.687236 0.788998
1 0.707729 0.814679
0 0.713069 1
0 0.725978 1
0 0.752453 1
0 0.784436 1
0.220035 0.788113 0.999435
0.70312 0.759411 0.924331
0.912291 0.751141 0.833463
1 0.762722 0.824765
1 0.764187 0.817426
0 0.757504 1
0 0.777218 1
0 0.804059 1
0 0.829984 1
0.191012 0.83473 0.99617
0.664073 0.82739 0.894652
0.88278 0.835935 0.820203
1 0.83151 0.786923
1 0.827695 0.767163
0 0.883223 1
0 0.905623 1
0 0.931991 1
0 0.960693 1
0.00291447 0.987457 1
0.507698 0.953765 0.855375
0.797864 0.928176 0.735348
0.997024 0.896956 0.631815
1 0.896956 0.614801
0 0.987182 1
0 0.999298 1
0 1 1
0 1 1
0.0205844 1 0.974105
0.487129 1 0.750256
0.714534 1 0.65359
0.891188 1 0.569772
0.962249 0.999146 0.540917
0 0.816678 1
0 0.804913 1
0 0.790555 1
0 0.779278 1
0 0.767391 0.997726
0.198459 0.727749 0.973678
0.667369 0.663706 0.874449
0.948348 0.634424 0.794064
1 0.64715 0.772198
0 0.801221 1
0 0.788861 1
0 0.778286 1
0 0.769131 1
0 0.762737 1
0.262379 0.716075 0.993118
0.709941 0.655467 0.898543
0.967468 0.62974 0.820401
1 0.644205 0.790249
0 0.793912 1
0 0.780453 1
0 0.768277 1
0 0.760464 1
0 0.75758 1
0.339147 0.702815 1
0.757931 0.647898 0.932372
0.986801 0.62681 0.855177
1 0.643748 0.81413
0 0.792569 1
0 0.786389 1
0 0.785824 1
0 0.774182 1
0 0.769207 1
0.416739 0.710292 1
0.800793 0.663645 0.965621
0.995056 0.644495 0.890852
1 0.66154 0.841398
0 0.793347 1
0 0.7935 1
0 0.806683 1
0 0.818006 1
0 0.800076 1
0.480491 0.74342 1
0.830396 0.709911 0.983246
0.999146 0.690059 0.914412
1 0.703212 0.867414
0 0.797879 1
0 0.802365 1
0 0.819364 1
0 0.841535 1
0.00627146 0.851499 1
0.537194 0.787839 1
0.846693 0.766384 0.984314
1 0.749447 0.918608
1 0.757076 0.888426
0 0.812253 1
0 0.821088 1
0 0.837583 1
0 0.857603 1
0.013611 0.868879 1
0.517464 0.840986 1
0.835431 0.834165 0.967041
0.990173 0.820584 0.907073
1 0.823255 0.903273
0 0.847562 1
0 0.863096 1
0 0.880903 1
0 0.898482 1
0.0129854 0.908156 1
0.495216 0.88368 0.999527
0.795941 0.891875 0.930587
0.945571 0.905379 0.869307
1 0.907012 0.855497
0 0.934218 1
0 0.955154 1
0 0.978195 1
0 0.994705 1
0 1 1
0.288548 1 0.999634
0.673442 0.999939 0.896422
0.861036 0.998245 0.79382
0.978576 0.995544 0.733425
0 0.908583 1
0 0.901946 1
0 0.890578 1
0 0.879149 1
0 0.870085 1
0.032166 0.843427 1
0.545922 0.773266 1
0.871641 0.728435 0.995422
1 0.694087 0.961822
0 0.890105 1
0 0.882292 1
0 0.874983 1
0 0.866438 1
0 0.860609 1
0.067155 0.829831 1
0.589334 0.76286 1
0.888808 0.721508 0.999695
1 0.689265 0.971862
0 0.877836 1
0 0.865309 1
0 0.857023 1
0 0.850629 1
0 0.847379 1
0.123751 0.810956 1
0.639109 0.750454 1
0.910506 0.712612 1
1 0.684749 0.98439
0 0.872572 1
0 0.86273 1
0 0.857389 1
0 0.847776 1
0 0.844495 1
0.162356 0.803052 1
0.679438 0.747524 1
0.928206 0.714412 1
1 0.691081 0.994827
0 0.869703 1
0 0.864393 1
0 0.867781 1
0 0.869841 1
0 0.86186 1
0.220203 0.811444 1
0.719402 0.76257 1
0.945037 0.733532 1
1 0.713558 1
0 0.869047 1
0 0.867338 1
0 0.875425 1
0 0.887633 1
0 0.895415 1
0.350301 0.826383 1
0.774105 0.791211 1
0.967269 0.765347 1
1 0.750561 1
0 0.87155 1
0 0.873335 1
0 0.883146 1
0 0.897383 1
0 0.912047 1
0.384405 0.864683 1
0.790448 0.838132 1
0.967895 0.817914 1
1 0.806958 0.999771
0 0.882033 1
0 0.888167 1
0 0.898558 1
0 0.911818 1
0 0.923598 1
0.403143 0.883085 1
0.75375 0.889479 1
0.928618 0.902022 0.99263
1 0.89456 0.973602
0 0.904952 1
0 0.919402 1
0 0.933669 1
0 0.948119 1
0 0.958999 1
0.383413 0.930709 1
0.72285 0.937224 1
0.885985 0.962844 0.960708
0.986984 0.99147 0.907271
