public/LUTS/Autumn/Autumn_05.cube
TITLE "Generated by Resolve"
LUT_3D_SIZE 9
0 0 0
0.113039 0 0
0.249546 0 0
0.386069 0 0
0.522576 0 0
0.659083 0 0
0.795605 0 0
0.932113 0 0
1 0 0
0 0.123919 0.00267033
0.115709 0.120821 0
0.252216 0.117708 0
0.388739 0.114595 0
0.525246 0.111498 0
0.661753 0.108385 0
0.798276 0.105272 0
0.934783 0.102174 0
1 0.0990616 0
0 0.247868 0.00534066
0.118379 0.244755 0.00222782
0.254887 0.241642 0
0.391409 0.238544 0
0.527916 0.235431 0
0.664424 0.232319 0
0.800946 0.229221 0
0.937453 0.226108 0
1 0.222995 0
0 0.371801 0.00801099
0.12105 0.368688 0.00489815
0.257557 0.365591 0.00180056
0.39408 0.362478 0
0.530587 0.359365 0
0.667094 0.356268 0
0.803616 0.353155 0
0.940124 0.350042 0
1 0.346929 0
0 0.495735 0.0106813
0.12372 0.492638 0.00756847
0.260227 0.489525 0.00447089
0.39675 0.486412 0.00135805
0.533257 0.483314 0
0.669764 0.480201 0
0.806287 0.477089 0
0.942794 0.473991 0
1 0.470878 0
0 0.619684 0.0133516
0.12639 0.616571 0.0102388
0.262898 0.613458 0.00714122
0.39942 0.610361 0.00402838
0.535927 0.607248 0.000915541
0.672435 0.604135 0
0.808957 0.601038 0
0.945464 0.597925 0
1 0.594812 0
0 0.743618 0.016022
0.129061 0.740505 0.0129091
0.265568 0.737408 0.00981155
0.402075 0.734295 0.00669871
0.538598 0.731182 0.00358587
0.675105 0.728084 0.00047303
0.811627 0.724971 0
0.948135 0.721859 0
1 0.718746 0
0 0.867552 0.0186923
0.131731 0.864454 0.0155795
0.268238 0.861341 0.0124819
0.404746 0.858228 0.00936904
0.541268 0.855131 0.0062562
0.677775 0.852018 0.00314336
0.814298 0.848905 4.57771e-05
0.950805 0.845792 0
1 0.842695 0
0 0.991501 0.0213626
0.134401 0.988388 0.0182498
0.270909 0.985275 0.0151522
0.407416 0.982177 0.0120394
0.543938 0.979065 0.00892653
0.680446 0.975952 0.00581369
0.816968 0.972839 0.00271611
0.953475 0.969741 0
1 0.966628 0
0 0.000457771 0.119051
0.113497 0 0.115938
0.250004 0 0.11284
0.386526 0 0.109728
0.523033 0 0.106615
0.659556 0 0.103502
0.796063 0 0.100404
0.93257 0 0.0972915
1 0 0.0941787
0 0.124392 0.121721
0.116167 0.121279 0.118608
0.252674 0.118166 0.115511
0.389197 0.115068 0.112398
0.525704 0.111955 0.109285
0.662226 0.108843 0.106172
0.798733 0.105745 0.103075
0.935241 0.102632 0.0999619
1 0.0995193 0.096849
0 0.248325 0.124392
0.118837 0.245212 0.121279
0.255344 0.242115 0.118181
0.391867 0.239002 0.115068
0.528374 0.235889 0.111955
0.664897 0.232792 0.108843
0.801404 0.229679 0.105745
0.937911 0.226566 0.102632
1 0.223453 0.0995193
0 0.372259 0.127062
0.121508 0.369162 0.123949
0.258015 0.366049 0.120836
0.394537 0.362936 0.117739
0.531044 0.359838 0.114626
0.667567 0.356725 0.111513
0.804074 0.353613 0.108415
0.940581 0.3505 0.105303
1 0.347402 0.10219
0 0.496208 0.129732
0.124178 0.493095 0.126619
0.260685 0.489982 0.123507
0.397208 0.486885 0.120409
0.533715 0.483772 0.117296
0.670237 0.480659 0.114183
0.806745 0.477546 0.111086
0.943252 0.474449 0.107973
1 0.471336 0.10486
0 0.620142 0.132403
0.126848 0.617029 0.12929
0.263355 0.613931 0.126177
0.399878 0.610819 0.123079
0.536385 0.607706 0.119966
0.672908 0.604593 0.116854
0.809415 0.601495 0.113756
0.945922 0.598383 0.110643
1 0.59527 0.10753
0 0.744076 0.135073
0.129519 0.740978 0.13196
0.266026 0.737865 0.128847
0.402548 0.734752 0.12575
0.539055 0.73164 0.122637
0.675578 0.728542 0.119524
0.812085 0.725429 0.116426
0.948592 0.722316 0.113313
1 0.719219 0.110201
0 0.868025 0.137743
0.132189 0.864912 0.13463
0.268696 0.861799 0.131518
0.405219 0.858686 0.12842
0.541726 0.855589 0.125307
0.678248 0.852476 0.122194
0.814755 0.849363 0.119097
0.951263 0.846265 0.115984
1 0.843153 0.112871
0 0.991958 0.140414
0.134859 0.988846 0.137301
0.271366 0.985733 0.134188
0.407889 0.982635 0.13109
0.544396 0.979522 0.127977
0.680919 0.97641 0.124865
0.817426 0.973312 0.121767
0.953933 0.970199 0.118654
1 0.967086 0.115541
0 0.0009308 0.238117
0.113954 0 0.235004
0.250477 0 0.231891
0.386984 0 0.228794
0.523507 0 0.225681
0.660014 0 0.222568
0.796521 0 0.219471
0.933043 0 0.216358
1 0 0.213245
0 0.124849 0.240787
0.116625 0.121736 0.237675
0.253147 0.118639 0.234562
0.389654 0.115526 0.231464
0.526177 0.112413 0.228351
0.662684 0.1093 0.225238
0.799191 0.106203 0.222141
0.935714 0.10309 0.219028
1 0.0999771 0.215915
0 0.248783 0.243458
0.119295 0.245686 0.240345
0.255818 0.242573 0.237232
0.392325 0.23946 0.234134
0.528832 0.236347 0.231022
0.665354 0.233249 0.227909
0.801862 0.230137 0.224811
0.938384 0.227024 0.221698
1 0.223926 0.218585
0 0.372732 0.246128
0.121965 0.369619 0.243015
0.258488 0.366506 0.239902
0.394995 0.363394 0.236805
0.531502 0.360296 0.233692
0.668025 0.357183 0.230579
0.804532 0.35407 0.227481
0.941054 0.350973 0.224369
1 0.34786 0.221256
0 0.496666 0.248798
0.124636 0.493553 0.245686
0.261158 0.49044 0.242573
0.397665 0.487343 0.239475
0.534173 0.48423 0.236362
0.670695 0.481117 0.233249
0.807202 0.478019 0.230152
0.943725 0.474907 0.227039
1 0.471794 0.223926
0 0.6206 0.251469
0.127306 0.617502 0.248356
0.263828 0.614389 0.245243
0.400336 0.611276 0.242145
0.536843 0.608164 0.239033
0.673365 0.605066 0.23592
0.809873 0.601953 0.232822
0.946395 0.59884 0.229709
1 0.595743 0.226596
0 0.744533 0.254139
0.129976 0.741436 0.251026
0.266499 0.738323 0.247913
0.403006 0.73521 0.244816
0.539513 0.732113 0.241703
0.676036 0.729 0.23859
0.812543 0.725887 0.235492
0.949065 0.722789 0.23238
1 0.719676 0.229267
0 0.868482 0.256809
0.132647 0.86537 0.253697
0.269169 0.862257 0.250584
0.405676 0.859159 0.247486
0.542184 0.856046 0.244373
0.678706 0.852934 0.24126
0.815213 0.849836 0.238163
0.951736 0.846723 0.23505
1 0.84361 0.231937
0 0.992416 0.25948
0.135317 0.989303 0.256367
0.271839 0.986206 0.253254
0.408347 0.983093 0.250156
0.544854 0.97998 0.247044
0.681376 0.976883 0.243931
0.817884 0.97377 0.240833
0.954406 0.970657 0.23772
1 0.967559 0.234607
0 0.00138857 0.357183
0.114427 0 0.35407
0.250935 0 0.350958
0.387442 0 0.34786
0.523964 0 0.344747
0.660471 0 0.341634
0.796994 0 0.338537
0.933501 0 0.335424
1 0 0.332311
0 0.125307 0.359854
0.117098 0.12221 0.356741
0.253605 0.119097 0.353628
0.390112 0.115984 0.35053
0.526635 0.112871 0.347417
0.663142 0.109773 0.344305
0.799664 0.106661 0.341192
0.936172 0.103548 0.338094
1 0.10045 0.334981
0 0.249241 0.362524
0.119768 0.246143 0.359411
0.256275 0.24303 0.356298
0.392782 0.239918 0.353201
0.529305 0.23682 0.350088
0.665812 0.233707 0.346975
0.802335 0.230594 0.343862
0.938842 0.227497 0.340764
1 0.224384 0.337652
0 0.37319 0.365194
0.122438 0.370077 0.362081
0.258946 0.366964 0.358968
0.395453 0.363867 0.355871
0.531975 0.360754 0.352758
0.668482 0.357641 0.349645
0.805005 0.354543 0.346532
0.941512 0.351431 0.343435
1 0.348318 0.340322
0 0.497124 0.367864
0.125109 0.494011 0.364752
0.261616 0.490913 0.361639
0.398123 0.4878 0.358526
0.534646 0.484688 0.355428
0.671153 0.48159 0.352316
0.807675 0.478477 0.349203
0.944183 0.475364 0.346105
1 0.472267 0.342992
0 0.621057 0.370535
0.127779 0.61796 0.367422
0.264286 0.614847 0.364309
0.400793 0.611734 0.361196
0.537316 0.608637 0.358099
0.673823 0.605524 0.354986
0.810346 0.602411 0.351873
0.946853 0.599313 0.348775
1 0.596201 0.345663
0 0.745007 0.373205
0.130449 0.741894 0.370092
0.266957 0.738781 0.366979
0.403464 0.735683 0.363867
0.539986 0.73257 0.360769
0.676493 0.729458 0.357656
0.813016 0.72636 0.354543
0.949523 0.723247 0.351446
1 0.720134 0.348333
0 0.86894 0.37586
0.13312 0.865827 0.372763
0.269627 0.86273 0.36965
0.406134 0.859617 0.366537
0.542657 0.856504 0.363439
0.679164 0.853407 0.360327
0.815671 0.850294 0.357214
0.952193 0.847181 0.354116
1 0.844083 0.351003
0 0.992874 0.378531
0.13579 0.989776 0.375433
0.272297 0.986664 0.37232
0.408804 0.983551 0.369207
0.545327 0.980453 0.36611
0.681834 0.97734 0.362997
0.818341 0.974227 0.359884
0.954864 0.97113 0.356786
1 0.968017 0.353674
0 0.00184634 0.476234
0.114885 0 0.473136
0.251392 0 0.470024
0.387915 0 0.466911
0.524422 0 0.463813
0.660945 0 0.4607
0.797452 0 0.457588
0.933959 0 0.45449
1 0 0.451377
0 0.125765 0.478904
0.117556 0.122667 0.475807
0.254063 0.119554 0.472694
0.390585 0.116442 0.469581
0.527092 0.113344 0.466484
0.6636 0.110231 0.463371
0.800122 0.107118 0.460258
0.936629 0.104021 0.45716
1 0.100908 0.454047
0 0.249714 0.481575
0.120226 0.246601 0.478477
0.256733 0.243488 0.475364
0.393256 0.240391 0.472251
0.529763 0.237278 0.469154
0.66627 0.234165 0.466041
0.802792 0.231067 0.462928
0.9393 0.227955 0.459831
1 0.224842 0.456718
0 0.373648 0.484245
0.122896 0.370535 0.481147
0.259403 0.367437 0.478035
0.395926 0.364324 0.474922
0.532433 0.361212 0.471824
0.66894 0.358114 0.468711
0.805463 0.355001 0.465599
0.94197 0.351888 0.462501
1 0.348791 0.459388
0 0.497581 0.486915
0.125566 0.494484 0.483818
0.262074 0.491371 0.480705
0.398596 0.488258 0.477592
0.535103 0.485161 0.474495
0.671611 0.482048 0.471382
0.808133 0.478935 0.468269
0.94464 0.475837 0.465171
1 0.472724 0.462058
0 0.62153 0.489586
0.128237 0.618418 0.486488
0.264744 0.615305 0.483375
0.401266 0.612207 0.480262
0.537774 0.609094 0.477165
0.674281 0.605982 0.474052
0.810803 0.602884 0.470939
0.947311 0.599771 0.467842
1 0.596658 0.464729
0 0.745464 0.492256
0.130907 0.742351 0.489158
0.267414 0.739254 0.486046
0.403937 0.736141 0.482933
0.540444 0.733028 0.479835
0.676951 0.729931 0.476722
0.813474 0.726818 0.47361
0.949981 0.723705 0.470512
1 0.720607 0.467399
0 0.869398 0.494926
0.133577 0.8663 0.491829
0.270085 0.863188 0.488716
0.406607 0.860075 0.485603
0.543114 0.856977 0.482506
0.679622 0.853864 0.479393
0.816144 0.850752 0.47628
0.952651 0.847654 0.473182
1 0.844541 0.470069
0 0.993347 0.497597
0.136248 0.990234 0.494499
0.272755 0.987121 0.491386
0.409277 0.984024 0.488273
0.545785 0.980911 0.485176
0.682292 0.977798 0.482063
0.818814 0.974701 0.47895
0.955322 0.971588 0.475853
1 0.968475 0.47274
0 0.00230411 0.5953
0.115343 0 0.592203
0.251865 0 0.58909
0.388373 0 0.585977
0.52488 0 0.582879
0.661402 0 0.579767
0.797909 0 0.576654
0.934432 0 0.573556
1 0 0.570443
0 0.126238 0.597971
0.118013 0.123125 0.594873
0.254536 0.120012 0.59176
0.391043 0.116915 0.588647
0.52755 0.113802 0.58555
0.664073 0.110689 0.582437
0.80058 0.107591 0.579324
0.937102 0.104479 0.576211
1 0.101366 0.573114
0 0.250172 0.600641
0.120684 0.247059 0.597543
0.257206 0.243961 0.59443
0.393713 0.240848 0.591318
0.530221 0.237736 0.58822
0.666743 0.234638 0.585107
0.80325 0.231525 0.581994
0.939773 0.228412 0.578882
1 0.225315 0.575784
0 0.374105 0.603311
0.123354 0.371008 0.600214
0.259876 0.367895 0.597101
0.396384 0.364782 0.593988
0.532891 0.361685 0.59089
0.669413 0.358572 0.587777
0.80592 0.355459 0.584665
0.942428 0.352361 0.581552
1 0.349248 0.578454
0 0.498054 0.605982
0.126024 0.494942 0.602884
0.262547 0.491829 0.599771
0.399054 0.488731 0.596658
0.535561 0.485618 0.593561
0.672084 0.482506 0.590448
0.808591 0.479408 0.587335
0.945098 0.476295 0.584222
1 0.473182 0.581125
0 0.621988 0.608652
0.128695 0.618875 0.605554
0.265217 0.615778 0.602441
0.401724 0.612665 0.599329
0.538231 0.609552 0.596231
0.674754 0.606455 0.593118
0.811261 0.603342 0.590005
0.947768 0.600229 0.586892
1 0.597131 0.583795
0 0.745922 0.611322
0.131365 0.742824 0.608225
0.267887 0.739712 0.605112
0.404395 0.736599 0.601999
0.540902 0.733501 0.598886
0.677424 0.730388 0.595789
0.813931 0.727275 0.592676
0.950439 0.724178 0.589563
1 0.721065 0.586465
0 0.869871 0.613993
0.134035 0.866758 0.610895
0.270558 0.863645 0.607782
0.407065 0.860548 0.604669
0.543572 0.857435 0.601556
0.680095 0.854322 0.598459
0.816602 0.851225 0.595346
0.953109 0.848112 0.592233
1 0.844999 0.589136
0.000213626 0.993805 0.616663
0.136706 0.990692 0.613565
0.273213 0.987594 0.610452
0.409735 0.984482 0.60734
0.546242 0.981369 0.604227
0.682765 0.978271 0.601129
0.819272 0.975158 0.598016
0.955779 0.972045 0.594903
1 0.968948 0.591806
0 0.00277714 0.714366
0.115816 0 0.711269
0.252323 0 0.708156
0.38883 0 0.705043
0.525353 0 0.70193
0.66186 0 0.698833
0.798367 0 0.69572
0.93489 0 0.692607
1 0 0.689509
0 0.126696 0.717037
0.118471 0.123583 0.713924
0.254994 0.120485 0.710826
0.391501 0.117372 0.707713
0.528023 0.11426 0.704601
0.66453 0.111162 0.701503
0.801038 0.108049 0.69839
0.93756 0.104936 0.695277
1 0.101839 0.69218
0 0.250629 0.719707
0.121141 0.247532 0.716594
0.257664 0.244419 0.713497
0.394171 0.241306 0.710384
0.530694 0.238209 0.707271
0.667201 0.235096 0.704173
0.803708 0.231983 0.70106
0.94023 0.228885 0.697948
1 0.225772 0.69485
0 0.374578 0.722377
0.123812 0.371466 0.719265
0.260334 0.368353 0.716167
0.396841 0.365255 0.713054
0.533364 0.362142 0.709941
0.669871 0.35903 0.706844
0.806378 0.355932 0.703731
0.942901 0.352819 0.700618
1 0.349706 0.69752
0 0.498512 0.725048
0.126482 0.495399 0.721935
0.263005 0.492302 0.718837
0.399512 0.489189 0.715724
0.536034 0.486076 0.712612
0.672541 0.482979 0.709514
0.809049 0.479866 0.706401
0.945571 0.476753 0.703288
1 0.473655 0.700191
0 0.622446 0.727718
0.129152 0.619348 0.724605
0.265675 0.616236 0.721508
0.402182 0.613123 0.718395
0.538705 0.610025 0.715282
0.675212 0.606912 0.712184
0.811719 0.6038 0.709072
0.948241 0.600702 0.705959
1 0.597589 0.702861
0 0.746395 0.730388
0.131823 0.743282 0.727275
0.268345 0.740169 0.724178
0.404852 0.737072 0.721065
0.541375 0.733959 0.717952
0.677882 0.730846 0.714855
0.814389 0.727749 0.711742
0.950912 0.724636 0.708629
1 0.721523 0.705531
0 0.870329 0.733059
0.134493 0.867216 0.729946
0.271015 0.864118 0.726848
0.407523 0.861006 0.723735
0.544045 0.857893 0.720623
0.680552 0.854795 0.717525
0.81706 0.851682 0.714412
0.953582 0.848569 0.711299
1 0.845457 0.708202
0.000671397 0.994263 0.735729
0.137163 0.991165 0.732616
0.273686 0.988052 0.729519
0.410193 0.984939 0.726406
0.546715 0.981842 0.723293
0.683223 0.978729 0.720195
0.81973 0.975616 0.717083
0.956252 0.972503 0.71397
1 0.969406 0.710872
0 0.00323491 0.833432
0.116274 0.000122072 0.83032
0.252781 0 0.827222
0.389303 0 0.824109
0.525811 0 0.820996
0.662318 0 0.817899
0.79884 0 0.814786
0.935347 0 0.811673
1 0 0.808576
0 0.127153 0.836103
0.118944 0.124056 0.83299
0.255451 0.120943 0.829892
0.391974 0.11783 0.82678
0.528481 0.114733 0.823667
0.664988 0.11162 0.820569
0.801511 0.108507 0.817456
0.938018 0.105409 0.814343
1 0.102296 0.811246
0 0.251102 0.838773
0.121614 0.24799 0.83566
0.258122 0.244877 0.832563
0.394644 0.241779 0.82945
0.531151 0.238666 0.826337
0.667659 0.235554 0.82324
0.804181 0.232456 0.820127
0.940688 0.229343 0.817014
1 0.22623 0.813916
0 0.375036 0.841443
0.124285 0.371923 0.838331
0.260792 0.368826 0.835233
0.397314 0.365713 0.83212
0.533822 0.3626 0.829007
0.670329 0.359503 0.82591
0.806851 0.35639 0.822797
0.943358 0.353277 0.819684
1 0.350164 0.816571
0 0.49897 0.844114
0.126955 0.495872 0.841001
0.263462 0.49276 0.837903
0.399969 0.489647 0.834791
0.536492 0.486549 0.831678
0.672999 0.483436 0.82858
0.809522 0.480323 0.825467
0.946029 0.477211 0.822354
1 0.474113 0.819242
0 0.622919 0.846784
0.129625 0.619806 0.843671
0.266133 0.616693 0.840574
0.40264 0.613596 0.837461
0.539162 0.610483 0.834348
0.675669 0.60737 0.83125
0.812192 0.604257 0.828138
0.948699 0.60116 0.825025
1 0.598047 0.821912
0 0.746853 0.849454
0.132296 0.74374 0.846342
0.268803 0.740642 0.843244
0.40531 0.73753 0.840131
0.541833 0.734417 0.837018
0.67834 0.731304 0.833921
0.814862 0.728206 0.830808
0.95137 0.725093 0.827695
1 0.721981 0.824582
0 0.870787 0.852125
0.134966 0.867689 0.849012
0.271473 0.864576 0.845914
0.40798 0.861463 0.842802
0.544503 0.858351 0.839689
0.68101 0.855253 0.836576
0.817533 0.85214 0.833478
0.95404 0.849027 0.830365
1 0.84593 0.827253
0.00112917 0.994736 0.854795
0.137636 0.991623 0.851682
0.274144 0.98851 0.848585
0.410651 0.985412 0.845472
0.547173 0.9823 0.842359
0.68368 0.979187 0.839246
0.820203 0.976074 0.836149
0.95671 0.972976 0.833036
1 0.969863 0.829923
0 0.00369268 0.952499
0.116732 0.000595102 0.949386
0.253239 0 0.946288
0.389761 0 0.943175
0.526268 0 0.940063
0.662791 0 0.93695
0.799298 0 0.933852
0.935805 0 0.930739
1 0 0.927626
0 0.127626 0.955169
0.119402 0.124514 0.952056
0.255909 0.121401 0.948943
0.392432 0.118303 0.945846
0.528939 0.11519 0.942733
0.665461 0.112078 0.93962
0.801968 0.108965 0.936522
0.938476 0.105867 0.93341
1 0.102754 0.930297
0 0.25156 0.957839
0.122072 0.248447 0.954726
0.258579 0.24535 0.951614
0.395102 0.242237 0.948516
0.531609 0.239124 0.945403
0.668132 0.236011 0.94229
0.804639 0.232914 0.939193
0.941146 0.229801 0.93608
1 0.226688 0.932967
0 0.375494 0.96051
0.124743 0.372396 0.957397
0.26125 0.369284 0.954284
0.397772 0.366171 0.951186
0.534279 0.363073 0.948074
0.670802 0.35996 0.944961
0.807309 0.356847 0.941863
0.943816 0.353735 0.93875
1 0.350637 0.935637
0 0.499443 0.96318
0.127413 0.49633 0.960067
0.26392 0.493217 0.956954
0.400443 0.49012 0.953857
0.53695 0.487007 0.950744
0.673472 0.483894 0.947631
0.809979 0.480781 0.944533
0.946487 0.477684 0.941421
1 0.474571 0.938308
0 0.623377 0.96585
0.130083 0.620264 0.962737
0.26659 0.617166 0.959625
0.403113 0.614054 0.956527
0.53962 0.610941 0.953414
0.676143 0.607828 0.950301
0.81265 0.60473 0.947204
0.949157 0.601617 0.944091
1 0.598505 0.940978
0 0.747311 0.968521
0.132753 0.744213 0.965408
0.269261 0.7411 0.962295
0.405783 0.737987 0.959197
0.54229 0.734874 0.956085
0.678813 0.731777 0.952972
0.81532 0.728664 0.949874
0.951827 0.725551 0.946761
1 0.722454 0.943648
0 0.871244 0.971191
0.135424 0.868147 0.968078
0.271931 0.865034 0.964965
0.408453 0.861921 0.961868
0.544961 0.858824 0.958755
0.681483 0.855711 0.955642
0.81799 0.852598 0.952544
0.954498 0.8495 0.949432
1 0.846387 0.946319
0.0016022 0.995193 0.973861
0.138094 0.992081 0.970748
0.274601 0.988968 0.967636
0.411124 0.98587 0.964538
0.547631 0.982757 0.961425
0.684153 0.979644 0.958312
0.820661 0.976547 0.955215
0.957168 0.973434 0.952102
1 0.970321 0.948989
