public/LUTS/Autumn/Autumn_15.cube
TITLE "Generated by Resolve"
LUT_3D_SIZE 33
0.0561379 0.0773938 0.0809949
0.0561379 0.0773938 0.0809949
0.0683604 0.0782025 0.0760967
0.105165 0.084184 0.0637369
0.146792 0.0923781 0.0491951
0.194568 0.0981308 0.0274968
0.246433 0.102052 0.00572213
0.301823 0.104723 0
0.361868 0.107164 0
0.432853 0.107988 0
0.510155 0.109773 0
0.592172 0.111376 0
0.681331 0.109865 0
0.771084 0.10692 0
0.856794 0.10396 0
0.938384 0.100832 0
0.996612 0.0982071 0
1 0.0969558 0
1 0.0977035 0
1 0.103853 0
1 0.120851 0
1 0.145281 0
1 0.169848 0
1 0.194812 0
1 0.21886 0
1 0.242527 0
1 0.267369 0
1 0.292744 0
1 0.319173 0
1 0.345693 0
1 0.371969 0
1 0.380713 0
1 0.380987 0
0.0561379 0.0773938 0.0809949
0.0561379 0.0773938 0.0809949
0.068864 0.078233 0.0758984
0.105516 0.0842603 0.0636301
0.14725 0.0924392 0.0489967
0.195056 0.0981765 0.0272221
0.246983 0.102083 0.00560006
0.302998 0.104768 0
0.362936 0.107195 0
0.433371 0.107988 0
0.510994 0.109789 0
0.593149 0.11136 0
0.682322 0.109834 0
0.772686 0.106859 0
0.85803 0.103914 0
0.938964 0.100801 0
0.996658 0.0981918 0
1 0.0969406 0
1 0.0977493 0
1 0.104128 0
1 0.121035 0
1 0.145571 0
1 0.170138 0
1 0.194995 0
1 0.219135 0
1 0.24303 0
1 0.267674 0
1 0.293065 0
1 0.319493 0
1 0.346014 0
1 0.372122 0
1 0.38085 0
1 0.380987 0
0.0561379 0.0773938 0.0809949
0.0561379 0.0773938 0.0809949
0.068864 0.078233 0.0758984
0.105516 0.0842603 0.0636301
0.14725 0.0924392 0.0489967
0.194903 0.0981613 0.0273136
0.247349 0.102098 0.00552377
0.3028 0.104768 0
0.362936 0.107195 0
0.433371 0.107988 0
0.510704 0.109789 0
0.592828 0.11136 0
0.682994 0.109819 0
0.772686 0.106859 0
0.85803 0.103914 0
0.938964 0.100801 0
0.996658 0.0981918 0
1 0.0969406 0
1 0.0977646 0
1 0.104128 0
1 0.121035 0
1 0.145571 0
1 0.170138 0
1 0.195193 0
1 0.219226 0
1 0.242924 0
1 0.267674 0
1 0.292958 0
1 0.319493 0
1 0.346242 0
1 0.372152 0
1 0.38085 0
1 0.380987 0
0.0527657 0.0871901 0.0806134
0.0536812 0.084535 0.0807202
0.0661326 0.0835889 0.0764324
0.103655 0.086656 0.0638132
0.145632 0.0939498 0.0497292
0.194125 0.0995041 0.027863
0.247074 0.102861 0.00588998
0.303136 0.105211 0
0.3635 0.107515 0
0.434577 0.108217 0
0.512963 0.109895 0
0.595758 0.111238 0
0.685283 0.109712 0
0.774899 0.106966 0
0.859968 0.10428 0
0.940383 0.101472 0
0.997314 0.0991684 0
1 0.0982223 0
1 0.0992905 0
1 0.105135 0
1 0.12047 0
1 0.143694 0
1 0.167773 0
1 0.191791 0
1 0.215534 0
1 0.239353 0
1 0.264149 0
1 0.289647 0
1 0.31632 0
1 0.342809 0
1 0.368658 0
1 0.376898 0
1 0.376898 0
0.0462043 0.105943 0.0800183
0.0472877 0.102892 0.0801099
0.0572671 0.10132 0.0783093
0.094728 0.0988937 0.0655833
0.139956 0.101015 0.0513771
0.188678 0.106523 0.0306706
0.244053 0.108949 0.00755322
0.303319 0.110155 0
0.366842 0.111772 0
0.441337 0.112001 0
0.523064 0.112749 0
0.610071 0.112642 0
0.700282 0.111299 0
0.789075 0.10988 0
0.871519 0.108827 0
0.94902 0.10779 0
1 0.107012 0
1 0.107408 0
1 0.109514 0
1 0.114061 0
1 0.123735 0
1 0.140841 0
1 0.15996 0
1 0.180957 0
1 0.203647 0
1 0.227512 0
1 0.253925 0
1 0.280308 0
1 0.30753 0
1 0.334722 0
1 0.361044 0
1 0.368414 0
1 0.368307 0
0.0382544 0.126116 0.0796826
0.0395514 0.122942 0.0797284
0.0478676 0.121416 0.0794995
0.0796216 0.120562 0.0719463
0.131441 0.11313 0.0510719
0.183902 0.115297 0.031754
0.23888 0.119341 0.0081178
0.298939 0.121569 0
0.364126 0.123903 0
0.439155 0.125628 0
0.523049 0.127352 0
0.612512 0.12781 0
0.704219 0.127382 0
0.793561 0.126894 0
0.876265 0.126543 0
0.950881 0.126284 0
0.999771 0.126818 0
1 0.128832 0
1 0.13225 0
1 0.138018 0
1 0.145998 0
1 0.156161 0
1 0.168963 0
1 0.185336 0
1 0.204044 0
1 0.224491 0
1 0.246723 0
1 0.270054 0
1 0.296223 0
1 0.323796 0
1 0.350301 0
1 0.356237 0
1 0.356237 0
0.0288243 0.147204 0.0794385
0.0302892 0.143984 0.0794842
0.0384375 0.141787 0.0797131
0.0640879 0.143252 0.0769513
0.113512 0.138338 0.0592966
0.176501 0.127626 0.0336309
0.236301 0.128542 0.010071
0.297795 0.131518 0
0.362661 0.136019 0
0.436667 0.141756 0
0.521523 0.14728 0
0.609888 0.151934 0
0.699702 0.155657 0
0.787533 0.157733 0
0.868894 0.158907 0
0.942824 0.160327 0
0.995468 0.161639 0
1 0.163897 0
1 0.168185 0
1 0.17351 0
1 0.180575 0
1 0.190188 0
1 0.201312 0
1 0.214298 0
1 0.229908 0
1 0.246799 0
1 0.264942 0
1 0.284657 0
1 0.306203 0
1 0.328908 0
1 0.349706 0
1 0.352041 0
1 0.351492 0
0.0179294 0.168719 0.0798352
0.0196536 0.165377 0.0797589
0.0279698 0.163012 0.0797436
0.0515145 0.163638 0.0769818
0.0919051 0.166903 0.0689097
0.160067 0.155276 0.0403754
0.229099 0.143145 0.0133059
0.296025 0.141909 0
0.365164 0.146593 0
0.442252 0.153765 0
0.529778 0.160311 0
0.621225 0.167285 0
0.710277 0.174624 0
0.794263 0.181918 0
0.870466 0.188525 0
0.938659 0.194598 0
0.989593 0.199634 0
1 0.205097 0
1 0.210544 0
1 0.216648 0
1 0.223682 0
1 0.232502 0
1 0.242954 0
1 0.255573 0
1 0.269749 0
1 0.285313 0
1 0.302144 0
1 0.320317 0
1 0.338964 0
1 0.358221 0
1 0.373526 0
1 0.374411 0
1 0.37435 0
0.00654612 0.190753 0.0805371
0.00827039 0.187304 0.080415
0.016434 0.185199 0.0799115
0.0384985 0.185229 0.076997
0.0714733 0.191424 0.0683452
0.133989 0.191531 0.049012
0.213107 0.173495 0.0140078
0.289433 0.158907 0
0.365805 0.159823 0
0.446265 0.16733 0
0.537652 0.174716 0
0.632609 0.181827 0
0.724895 0.190082 0
0.809979 0.198993 0
0.884184 0.208911 0
0.948348 0.219516 0
0.993027 0.229999 0
1 0.240085 0
1 0.250004 0
1 0.260594 0
1 0.271275 0
1 0.282246 0
1 0.293767 0
1 0.305776 0
1 0.319081 0
1 0.333623 0
1 0.349248 0
1 0.366262 0
1 0.383169 0
1 0.400458 0
1 0.409827 0
1 0.409781 0
1 0.409628 0
0 0.213672 0.0823682
0.000488289 0.21001 0.082002
0.00584421 0.208148 0.0809644
0.0244907 0.208453 0.0769818
0.0514839 0.215747 0.0658885
0.104494 0.222995 0.0518196
0.185382 0.218097 0.0201419
0.273793 0.191943 0
0.359915 0.178805 0
0.448798 0.183108 0
0.542519 0.190616 0
0.642313 0.198291 0
0.73695 0.206973 0
0.82359 0.216632 0
0.897307 0.228107 0
0.960037 0.239887 0
0.998596 0.252766 0
1 0.266361 0
1 0.280751 0
1 0.294408 0
1 0.308217 0
1 0.32314 0
1 0.339193 0
1 0.356023 0
1 0.373739 0
1 0.389838 0
1 0.40502 0
1 0.420966 0
1 0.436973 0
1 0.450965 0
1 0.45478 0
1 0.454627 0
1 0.454444 0
0 0.238773 0.084535
0 0.234119 0.0847791
0.000335698 0.232563 0.082887
0.00999466 0.233051 0.0770886
0.0309148 0.241672 0.0628367
0.0748455 0.253483 0.0446479
0.147417 0.261143 0.0211337
0.2477 0.248173 0.00177005
0.345892 0.21503 0
0.443061 0.205142 0
0.545785 0.208774 0
0.647868 0.216693 0
0.744442 0.226017 0
0.831495 0.236912 0
0.90605 0.248569 0
0.967605 0.261311 0
1 0.275288 0
1 0.290242 0
1 0.305867 0
1 0.322072 0
1 0.338888 0
1 0.356558 0
1 0.373739 0
1 0.391226 0
1 0.4103 0
1 0.430747 0
1 0.451484 0
1 0.47187 0
1 0.490288 0
1 0.502937 0
1 0.505791 0
1 0.505333 0
1 0.505074 0
0 0.270207 0.0827039
0 0.265064 0.0830549
0 0.263005 0.0806592
0.000518807 0.2636 0.0731975
0.00593576 0.271931 0.0575418
0.0431525 0.286244 0.0337682
0.111391 0.298482 0.0146792
0.204242 0.30425 0.00209049
0.321309 0.276265 0
0.428809 0.241184 0
0.538323 0.234775 0
0.649668 0.237598 0
0.749752 0.247333 0
0.836835 0.258762 0
0.911192 0.271489 0
0.969467 0.285145 0
1 0.29955 0
1 0.315343 0
1 0.331716 0
1 0.348959 0
1 0.366873 0
1 0.385733 0
1 0.40502 0
1 0.425055 0
1 0.444526 0
1 0.464439 0
1 0.484352 0
1 0.504936 0
1 0.523537 0
1 0.532036 0
1 0.535027 0
1 0.537865 0
1 0.540047 0
0 0.304784 0.080705
0 0.299184 0.0809033
0 0.29723 0.0779889
0 0.298207 0.0686961
4.57771e-05 0.304601 0.0525216
0.0143893 0.322026 0.0244297
0.0797589 0.335363 0.00875868
0.166094 0.348745 0.000656138
0.276982 0.350088 0
0.405936 0.307622 0
0.521263 0.271672 0
0.641047 0.26772 0
0.749935 0.271702 0
0.839414 0.282445 0
0.911971 0.295674 0
0.96939 0.30988 0
1 0.325414 0
1 0.341741 0
1 0.358984 0
1 0.376364 0
1 0.394278 0
1 0.41297 0
1 0.433112 0
1 0.453254 0
1 0.474311 0
1 0.495842 0
1 0.516869 0
1 0.536461 0
1 0.551797 0
1 0.556481 0
1 0.559426 0
1 0.562341 0
1 0.56434 0
0 0.341878 0.0795605
0 0.335821 0.0797131
0 0.333776 0.0762951
0 0.335393 0.0652476
0 0.340002 0.049958
0.00643931 0.358328 0.0227359
0.0526284 0.37464 0.00598154
0.134035 0.390723 1.5259e-05
0.23743 0.404883 0
0.362661 0.400687 0
0.501091 0.340612 0
0.620539 0.306096 0
0.737087 0.30605 0
0.836286 0.309865 0
0.91078 0.320943 0
0.969024 0.335927 0
1 0.352178 0
1 0.368933 0
1 0.386328 0
1 0.404028 0
1 0.422705 0
1 0.441398 0
1 0.460533 0
1 0.480385 0
1 0.500801 0
1 0.522301 0
1 0.544106 0
1 0.563668 0
1 0.575967 0
1 0.578805 0
1 0.580865 0
1 0.583169 0
1 0.584665 0
0 0.382284 0.0781415
0 0.375708 0.0784314
0 0.3738 0.0749065
0 0.37554 0.0635538
0 0.379873 0.0483253
0.000747692 0.39794 0.0217136
0.0288396 0.416922 0.00328069
0.105516 0.434638 0
0.204181 0.452293 0
0.320317 0.463294 0
0.456168 0.447349 0
0.595041 0.37525 0
0.718181 0.34876 0
0.820371 0.348928 0
0.902647 0.35346 0
0.964202 0.363943 0
0.999695 0.37966 0
1 0.396368 0
1 0.413962 0
1 0.43212 0
1 0.450248 0
1 0.468635 0
1 0.487358 0
1 0.506889 0
1 0.527123 0
1 0.547509 0
1 0.567758 0
1 0.586007 0
1 0.594003 0
1 0.59649 0
1 0.59881 0
1 0.601175 0
1 0.602701 0
0 0.425116 0.0756542
0 0.418677 0.076112
0 0.41651 0.0725109
0 0.418402 0.060853
0 0.423026 0.044892
0 0.439628 0.0188296
0.0167544 0.460792 0.000366217
0.0802319 0.480171 0
0.17377 0.498894 0
0.289937 0.515862 0
0.409522 0.521157 0
0.553216 0.492561 0
0.687938 0.419562 0
0.798795 0.394568 0
0.883604 0.394888 0
0.950576 0.400229 0
0.9935 0.409689 0
1 0.424491 0
1 0.441855 0
1 0.459419 0
1 0.477638 0
1 0.495933 0
1 0.513863 0
1 0.532555 0
1 0.55201 0
1 0.57145 0
1 0.590509 0
1 0.607019 0
1 0.612634 0
1 0.614969 0
1 0.617426 0
1 0.619791 0
1 0.620966 0
0 0.470176 0.0720836
0 0.463081 0.0726787
0 0.46096 0.0688945
0 0.463264 0.056733
0 0.467964 0.0401465
0 0.483207 0.0154116
0.00724804 0.505394 0
0.057557 0.525704 0
0.148196 0.545541 0
0.258701 0.563302 0
0.38468 0.577737 0
0.49749 0.576059 0
0.642847 0.528389 0
0.763638 0.462867 0
0.860624 0.44123 0
0.931075 0.442039 0
0.98024 0.447913 0
1 0.456992 0
1 0.470283 0
1 0.486458 0
1 0.50396 0
1 0.521645 0
1 0.539208 0
1 0.557488 0
1 0.575936 0
1 0.594003 0
1 0.611612 0
1 0.626322 0
1 0.630655 0
1 0.632746 0
1 0.635035 0
1 0.63711 0
1 0.638193 0
0 0.516594 0.0670939
0 0.5093 0.0679484
0 0.507134 0.0640879
0 0.509499 0.0512245
0 0.514321 0.0341497
0 0.52694 0.0117342
0.000762951 0.55021 0
0.039292 0.570764 0
0.125917 0.59086 0
0.232166 0.609216 0
0.355673 0.62562 0
0.476646 0.632486 0
0.5879 0.622705 0
0.714061 0.566629 0
0.824018 0.507561 0
0.907393 0.488807 0
0.963699 0.489952 0
0.996078 0.495949 0
1 0.503853 0
1 0.5149 0
1 0.529763 0
1 0.546807 0
1 0.563836 0
1 0.581476 0
1 0.598703 0
1 0.6159 0
1 0.632807 0
1 0.645609 0
1 0.648157 0
1 0.650019 0
1 0.65211 0
1 0.654032 0
1 0.655009 0
0 0.562692 0.0612192
0 0.555383 0.0621805
0 0.553506 0.0581521
0 0.556313 0.0445716
0 0.560876 0.0270085
0 0.57142 0.00665293
0 0.594598 0
0.0278172 0.615061 0
0.106752 0.635172 0
0.210101 0.653468 0
0.327581 0.669276 0
0.45388 0.68159 0
0.558907 0.680262 0
0.661479 0.661891 0
0.773861 0.607782 0
0.869398 0.555245 0
0.938277 0.536706 0
0.98175 0.536889 0
1 0.542092 0
1 0.54934 0
1 0.558984 0
1 0.571908 0
1 0.587304 0
1 0.604395 0
1 0.620859 0
1 0.637491 0
1 0.653437 0
1 0.664012 0
1 0.665888 0
1 0.66743 0
1 0.669169 0
1 0.671077 0
1 0.671901 0
0 0.608347 0.0552071
0 0.601404 0.0561227
0 0.599771 0.0516518
0 0.602731 0.0372625
0 0.607294 0.0190738
0 0.616602 0.00180056
0 0.637781 0
0.0186313 0.658686 0
0.0895399 0.677897 0
0.190784 0.69543 0
0.30399 0.71046 0
0.42565 0.723018 0
0.539895 0.729244 0
0.628687 0.724239 0
0.717693 0.701686 0
0.81442 0.64831 0
0.898375 0.601968 0
0.957916 0.582834 0
0.993484 0.581842 0
1 0.586908 0
1 0.593057 0
1 0.600626 0
1 0.611551 0
1 0.62649 0
1 0.642496 0
1 0.658534 0
1 0.673991 0
1 0.681758 0
1 0.683314 0
1 0.684779 0
1 0.686717 0
1 0.688319 0
1 0.688991 0
0 0.653529 0.0483864
0 0.646693 0.0494392
0 0.645182 0.0447395
0 0.6486 0.0295567
0 0.653086 0.0110018
0 0.661402 0
0 0.680217 0
0.0103914 0.700191 0
0.0740368 0.718898 0
0.172519 0.735225 0
0.282506 0.749081 0
0.400641 0.761761 0
0.516976 0.770657 0
0.609735 0.770947 0
0.683909 0.76437 0
0.758892 0.739574 0
0.843 0.690089 0
0.916442 0.647791 0
0.970321 0.628138 0
0.998169 0.625589 0
1 0.629129 0
1 0.633692 0
1 0.639994 0
1 0.650156 0
1 0.663508 0
1 0.679103 0
1 0.693935 0
1 0.699123 0
1 0.700969 0
1 0.702556 0
1 0.70399 0
1 0.705669 0
1 0.706233 0
0 0.698848 0.0409705
0 0.691875 0.0421302
0 0.69041 0.037232
0 0.693935 0.0212863
0 0.698573 0.0024567
0 0.705943 0
0 0.721477 0
0.00276188 0.7402 0
0.0601358 0.757382 0
0.156207 0.772869 0
0.263523 0.786419 0
0.3776 0.797513 0
0.489769 0.805814 0
0.590249 0.810346 0
0.664866 0.80827 0
0.726329 0.801068 0
0.790463 0.776074 0
0.860075 0.732494 0
0.928222 0.692073 0
0.97821 0.672175 0
1 0.667323 0
1 0.668376 0
1 0.672786 0
1 0.678508 0
1 0.686564 0
1 0.698741 0
1 0.713039 0
1 0.716564 0
1 0.718318 0
1 0.720211 0
1 0.721813 0
1 0.723247 0
1 0.723766 0
0 0.742596 0.0334783
0 0.73579 0.0347295
0 0.734569 0.0294041
0 0.738552 0.012314
0 0.74316 0
0 0.749432 0
0 0.761883 0
3.0518e-05 0.778592 0
0.0488594 0.794568 0
0.14107 0.809277 0
0.245762 0.821485 0
0.355596 0.831022 0
0.464805 0.838422 0
0.565225 0.843336 0
0.648295 0.844862 0
0.707652 0.841581 0
0.759075 0.83473 0
0.81033 0.813352 0
0.87071 0.772503 0
0.936233 0.733928 0
0.983169 0.713329 0
1 0.706279 0
1 0.706142 0
1 0.709514 0
1 0.714107 0
1 0.721721 0
1 0.731334 0
1 0.733486 0
1 0.735317 0
1 0.73698 0
1 0.738888 0
1 0.740139 0
1 0.741344 0
0 0.785962 0.02533
0 0.779355 0.0265965
0 0.778317 0.0211643
0 0.782269 0.00369268
0 0.786603 0
0 0.792203 0
0 0.801511 0
0 0.815991 0
0.040177 0.831037 0
0.127733 0.843626 0
0.22948 0.854368 0
0.337087 0.862516 0
0.442359 0.868315 0
0.540398 0.872663 0
0.626291 0.875761 0
0.692454 0.875334 0
0.740688 0.871809 0
0.783246 0.866056 0
0.82594 0.847837 0
0.879072 0.810498 0
0.945357 0.773358 0
0.990539 0.750942 0
1 0.74287 0
1 0.741299 0
1 0.743816 0
1 0.74963 0
1 0.75378 0
1 0.751766 0
1 0.75259 0
1 0.75433 0
1 0.756024 0
1 0.757305 0
1 0.758587 0
0 0.828244 0.0172274
0 0.822034 0.0184482
0 0.821118 0.0130465
0 0.825299 0.00146487
0 0.829694 0
0 0.833906 0
0 0.840665 0
0 0.853147 0
0.033814 0.865812 0
0.117678 0.876738 0
0.216403 0.885481 0
0.319875 0.892195 0
0.423575 0.896574 0
0.517693 0.899596 0
0.600397 0.902358 0
0.670756 0.903853 0
0.724132 0.903044 0
0.765576 0.899825 0
0.80322 0.89453 0
0.840848 0.878187 0
0.889357 0.845197 0
0.95552 0.809125 0
0.999908 0.786007 0
0.999908 0.778073 0
0.999695 0.775982 0
0.999527 0.779202 0
0.999405 0.780636 0
0.999634 0.775387 0
1 0.771756 0
1 0.771832 0
1 0.773419 0
1 0.774746 0
1 0.776104 0
0 0.86981 0.00915541
0 0.863539 0.0103609
0 0.862638 0.00555428
0 0.866865 0
0 0.87097 0
0 0.875257 0
0 0.878904 0
0 0.887999 0
0.0277256 0.898772 0
0.108049 0.907622 0
0.205371 0.914458 0
0.306844 0.919722 0
0.405173 0.9234 0
0.495048 0.925856 0
0.574685 0.927916 0
0.644083 0.929885 0
0.702113 0.931548 0
0.747509 0.930694 0
0.78497 0.92726 0
0.820874 0.921843 0
0.855314 0.907134 0
0.900893 0.876112 0
0.958602 0.841596 0
0.9841 0.820264 0
0.989029 0.811902 0
0.990295 0.809598 0
0.990936 0.808545 0
0.994018 0.803021 0
0.996735 0.797162 0
0.997391 0.791989 0
0.998215 0.790784 0
0.998169 0.791485 0
0.997757 0.793149 0
0 0.909285 0.00256352
0 0.903166 0.00337224
0 0.902571 0.00190738
0 0.906706 0
0 0.91078 0
0 0.914031 0
0 0.915648 0
0 0.921218 0
0.0238804 0.929519 0
0.102052 0.936568 0
0.195987 0.941634 0
0.292653 0.946166 0
0.387488 0.949035 0
0.473732 0.95137 0
0.549645 0.953796 0
0.616083 0.956146 0
0.673762 0.958404 0
0.723064 0.960342 0
0.764157 0.959213 0
0.800732 0.955474 0
0.837659 0.949752 0
0.8719 0.935332 0
0.908354 0.906386 0
0.952377 0.873411 0
0.966201 0.852277 0
0.971054 0.843626 0
0.973465 0.839307 0
0.977356 0.832517 0
0.981079 0.82591 0
0.984848 0.819181 0
0.988617 0.81265 0
0.989746 0.810773 0
0.98819 0.813519 0
0 0.946487 0
0 0.940749 0
0 0.940475 0
0 0.944152 0
0 0.947601 0
0 0.950347 0
0 0.949401 0
0 0.951858 0
0.0228428 0.958419 0
