public/LUTS/Autumn/Autumn_03.cube
TITLE "Generated by Resolve"
LUT_3D_SIZE 9
0 0 0
0.136492 0 0
0.273014 0 0
0.409522 0 0
0.546029 0 0
0.682551 0 0
0.819059 0 0
0.955581 0 0
1 0 0
0.00267033 0.123919 0.00267033
0.139162 0.120821 0
0.275685 0.117708 0
0.412192 0.114595 0
0.548699 0.111498 0
0.685222 0.108385 0
0.821729 0.105272 0
0.958251 0.102174 0
1 0.0990616 0
0.00534066 0.247868 0.00534066
0.141833 0.244755 0.00222782
0.278355 0.241642 0
0.414862 0.238544 0
0.551369 0.235431 0
0.687892 0.232319 0
0.824399 0.229221 0
0.960922 0.226108 0
1 0.222995 0
0.00801099 0.371801 0.00801099
0.144503 0.368688 0.00489815
0.281025 0.365591 0.00180056
0.417533 0.362478 0
0.55404 0.359365 0
0.690562 0.356268 0
0.82707 0.353155 0
0.963592 0.350042 0
1 0.346929 0
0.0106813 0.495735 0.0106813
0.147173 0.492638 0.00756847
0.283696 0.489525 0.00447089
0.420203 0.486412 0.00135805
0.55671 0.483314 0
0.693233 0.480201 0
0.82974 0.477089 0
0.966262 0.473991 0
1 0.470878 0
0.0133516 0.619684 0.0133516
0.149844 0.616571 0.0102388
0.286366 0.613458 0.00714122
0.422873 0.610361 0.00402838
0.55938 0.607248 0.000915541
0.695903 0.604135 0
0.83241 0.601038 0
0.968933 0.597925 0
1 0.594812 0
0.016022 0.743618 0.016022
0.152514 0.740505 0.0129091
0.289036 0.737408 0.00981155
0.425544 0.734295 0.00669871
0.562051 0.731182 0.00358587
0.698573 0.728084 0.00047303
0.835081 0.724971 0
0.971603 0.721859 0
1 0.718746 0
0.0186923 0.867552 0.0186923
0.155184 0.864454 0.0155795
0.291707 0.861341 0.0124819
0.428214 0.858228 0.00936904
0.564721 0.855131 0.0062562
0.701244 0.852018 0.00314336
0.837751 0.848905 4.57771e-05
0.974273 0.845792 0
1 0.842695 0
0.0213626 0.991501 0.0213626
0.157855 0.988388 0.0182498
0.294377 0.985275 0.0151522
0.430884 0.982177 0.0120394
0.567391 0.979065 0.00892653
0.703914 0.975952 0.00581369
0.840421 0.972839 0.00271611
0.976944 0.969741 0
1 0.966628 0
0 0 0.124987
0.136492 0 0.121874
0.273014 0 0.118776
0.409522 0 0.115663
0.546029 0 0.112551
0.682551 0 0.109453
0.819059 0 0.10634
0.955581 0 0.103227
1 0 0.10013
0.00267033 0.123919 0.127657
0.139162 0.120821 0.124544
0.275685 0.117708 0.121447
0.412192 0.114595 0.118334
0.548699 0.111498 0.115221
0.685222 0.108385 0.112123
0.821729 0.105272 0.10901
0.958251 0.102174 0.105898
1 0.0990616 0.102785
0.00534066 0.247868 0.130327
0.141833 0.244755 0.127214
0.278355 0.241642 0.124117
0.414862 0.238544 0.121004
0.551369 0.235431 0.117891
0.687892 0.232319 0.114794
0.824399 0.229221 0.111681
0.960922 0.226108 0.108568
1 0.222995 0.105455
0.00801099 0.371801 0.132998
0.144503 0.368688 0.129885
0.281025 0.365591 0.126787
0.417533 0.362478 0.123674
0.55404 0.359365 0.120562
0.690562 0.356268 0.117464
0.82707 0.353155 0.114351
0.963592 0.350042 0.111238
1 0.346929 0.108125
0.0106813 0.495735 0.135668
0.147173 0.492638 0.132555
0.283696 0.489525 0.129458
0.420203 0.486412 0.126345
0.55671 0.483314 0.123232
0.693233 0.480201 0.120134
0.82974 0.477089 0.117021
0.966262 0.473991 0.113909
1 0.470878 0.110796
0.0133516 0.619684 0.138338
0.149844 0.616571 0.135225
0.286366 0.613458 0.132128
0.422873 0.610361 0.129015
0.55938 0.607248 0.125902
0.695903 0.604135 0.122789
0.83241 0.601038 0.119692
0.968933 0.597925 0.116579
1 0.594812 0.113466
0.016022 0.743618 0.141009
0.152514 0.740505 0.137896
0.289036 0.737408 0.134798
0.425544 0.734295 0.131685
0.562051 0.731182 0.128573
0.698573 0.728084 0.12546
0.835081 0.724971 0.122362
0.971603 0.721859 0.119249
1 0.718746 0.116136
0.0186923 0.867552 0.143679
0.155184 0.864454 0.140566
0.291707 0.861341 0.137469
0.428214 0.858228 0.134356
0.564721 0.855131 0.131243
0.701244 0.852018 0.12813
0.837751 0.848905 0.125032
0.974273 0.845792 0.12192
1 0.842695 0.118807
0.0213626 0.991501 0.146349
0.157855 0.988388 0.143236
0.294377 0.985275 0.140139
0.430884 0.982177 0.137026
0.567391 0.979065 0.133913
0.703914 0.975952 0.1308
0.840421 0.972839 0.127703
0.976928 0.969741 0.12459
1 0.966628 0.121477
0 0 0.249989
0.136492 0 0.246876
0.273014 0 0.243778
0.409522 0 0.240665
0.546029 0 0.237552
0.682551 0 0.234455
0.819059 0 0.231342
0.955581 0 0.228229
1 0 0.225132
0.00267033 0.123919 0.252659
0.139162 0.120821 0.249546
0.275685 0.117708 0.246448
0.412192 0.114595 0.243336
0.548699 0.111498 0.240223
0.685222 0.108385 0.237125
0.821729 0.105272 0.234012
0.958251 0.102174 0.2309
1 0.0990616 0.227787
0.00534066 0.247868 0.255329
0.141833 0.244755 0.252216
0.278355 0.241642 0.249119
0.414862 0.238544 0.246006
0.551369 0.235431 0.242893
0.687892 0.232319 0.239796
0.824399 0.229221 0.236683
0.960922 0.226108 0.23357
1 0.222995 0.230457
0.00801099 0.371801 0.258
0.144503 0.368688 0.254887
0.281025 0.365591 0.251789
0.417533 0.362478 0.248676
0.55404 0.359365 0.245563
0.690562 0.356268 0.242466
0.82707 0.353155 0.239353
0.963592 0.350042 0.23624
1 0.346929 0.233127
0.0106813 0.495735 0.26067
0.147173 0.492638 0.257557
0.283696 0.489525 0.254459
0.420203 0.486412 0.251347
0.55671 0.483314 0.248234
0.693233 0.480201 0.245136
0.82974 0.477089 0.242023
0.966262 0.473991 0.238911
1 0.470878 0.235798
0.0133516 0.619684 0.26334
0.149844 0.616571 0.260227
0.286366 0.613458 0.25713
0.422873 0.610361 0.254017
0.55938 0.607248 0.250904
0.695903 0.604135 0.247807
0.83241 0.601038 0.244694
0.968933 0.597925 0.241581
1 0.594812 0.238468
0.016022 0.743618 0.266011
0.152514 0.740505 0.262898
0.289036 0.737408 0.2598
0.425544 0.734295 0.256687
0.562051 0.731182 0.253574
0.698573 0.728084 0.250462
0.835081 0.724971 0.247364
0.971603 0.721859 0.244251
1 0.718746 0.241138
0.0186923 0.867552 0.268681
0.155184 0.864454 0.265568
0.291707 0.861341 0.26247
0.428214 0.858228 0.259358
0.564721 0.855131 0.256245
0.701244 0.852018 0.253132
0.837751 0.848905 0.250034
0.974273 0.845792 0.246921
1 0.842695 0.243809
0.0213626 0.991501 0.271351
0.157855 0.988388 0.268238
0.294377 0.985275 0.265141
0.430884 0.982177 0.262028
0.567391 0.979065 0.258915
0.703914 0.975952 0.255802
0.840421 0.972839 0.252705
0.976928 0.969741 0.249592
1 0.966628 0.246479
0 0 0.37499
0.136492 0 0.371878
0.273014 0 0.36878
0.409522 0 0.365667
0.546029 0 0.362554
0.682551 0 0.359457
0.819059 0 0.356344
0.955581 0 0.353231
1 0 0.350134
0.00267033 0.123919 0.377661
0.139162 0.120821 0.374548
0.275685 0.117708 0.37145
0.412192 0.114595 0.368338
0.548699 0.111498 0.365225
0.685222 0.108385 0.362127
0.821729 0.105272 0.359014
0.958251 0.102174 0.355901
1 0.0990616 0.352804
0.00534066 0.247868 0.380331
0.141833 0.244755 0.377218
0.278355 0.241642 0.374121
0.414862 0.238544 0.371008
0.551369 0.235431 0.367895
0.687892 0.232319 0.364797
0.824399 0.229221 0.361685
0.960922 0.226108 0.358572
1 0.222995 0.355459
0.00801099 0.371801 0.383001
0.144503 0.368688 0.379889
0.281025 0.365591 0.376791
0.417533 0.362478 0.373678
0.55404 0.359365 0.370565
0.690562 0.356268 0.367468
0.82707 0.353155 0.364355
0.963592 0.350042 0.361242
1 0.346929 0.358129
0.0106813 0.495735 0.385672
0.147173 0.492638 0.382559
0.283696 0.489525 0.379461
0.420203 0.486412 0.376349
0.55671 0.483314 0.373236
0.693233 0.480201 0.370138
0.82974 0.477089 0.367025
0.966262 0.473991 0.363912
1 0.470878 0.3608
0.0133516 0.619684 0.388342
0.149844 0.616571 0.385229
0.286366 0.613458 0.382132
0.422873 0.610361 0.379019
0.55938 0.607248 0.375906
0.695903 0.604135 0.372808
0.83241 0.601038 0.369696
0.968933 0.597925 0.366583
1 0.594812 0.36347
0.016022 0.743618 0.391012
0.152514 0.740505 0.3879
0.289036 0.737408 0.384802
0.425544 0.734295 0.381689
0.562051 0.731182 0.378576
0.698573 0.728084 0.375463
0.835081 0.724971 0.372366
0.971603 0.721859 0.369253
1 0.718746 0.36614
0.0186923 0.867552 0.393683
0.155184 0.864454 0.39057
0.291707 0.861341 0.387472
0.428214 0.858228 0.38436
0.564721 0.855131 0.381247
0.701244 0.852018 0.378134
0.837751 0.848905 0.375036
0.974273 0.845792 0.371923
1 0.842695 0.368811
0.0213626 0.991501 0.396353
0.157855 0.988388 0.39324
0.294377 0.985275 0.390143
0.430884 0.982177 0.38703
0.567391 0.979065 0.383917
0.703914 0.975952 0.380804
0.840421 0.972839 0.377707
0.976928 0.969741 0.374594
1 0.966628 0.371481
0 0 0.499992
0.136492 0 0.49688
0.273014 0 0.493782
0.409522 0 0.490669
0.546029 0 0.487556
0.682551 0 0.484459
0.819059 0 0.481346
0.955581 0 0.478233
1 0 0.475135
0.00267033 0.123919 0.502663
0.139162 0.120821 0.49955
0.275685 0.117708 0.496452
0.412192 0.114595 0.493339
0.548699 0.111498 0.490227
0.685222 0.108385 0.487129
0.821729 0.105272 0.484016
0.958251 0.102174 0.480903
1 0.0990616 0.477791
0.00534066 0.247868 0.505333
0.141833 0.244755 0.50222
0.278355 0.241642 0.499123
0.414862 0.238544 0.49601
0.551369 0.235431 0.492897
0.687892 0.232319 0.489799
0.824399 0.229221 0.486686
0.960922 0.226108 0.483574
1 0.222995 0.480461
0.00801099 0.371801 0.508003
0.144503 0.368688 0.504891
0.281025 0.365591 0.501793
0.417533 0.362478 0.49868
0.55404 0.359365 0.495567
0.690562 0.356268 0.49247
0.82707 0.353155 0.489357
0.963592 0.350042 0.486244
1 0.346929 0.483131
0.0106813 0.495735 0.510674
0.147173 0.492638 0.507561
0.283696 0.489525 0.504463
0.420203 0.486412 0.50135
0.55671 0.483314 0.498238
0.693233 0.480201 0.49514
0.82974 0.477089 0.492027
0.966262 0.473991 0.488914
1 0.470878 0.485801
0.0133516 0.619684 0.513344
0.149844 0.616571 0.510231
0.286366 0.613458 0.507134
0.422873 0.610361 0.504021
0.55938 0.607248 0.500908
0.695903 0.604135 0.49781
0.83241 0.601038 0.494697
0.968933 0.597925 0.491585
1 0.594812 0.488472
0.016022 0.743618 0.516014
0.152514 0.740505 0.512901
0.289036 0.737408 0.509804
0.425544 0.734295 0.506691
0.562051 0.731182 0.503578
0.698573 0.728084 0.500465
0.835081 0.724971 0.497368
0.971603 0.721859 0.494255
1 0.718746 0.491142
0.0186923 0.867552 0.518685
0.155184 0.864454 0.515572
0.291707 0.861341 0.512474
0.428214 0.858228 0.509361
0.564721 0.855131 0.506249
0.701244 0.852018 0.503136
0.837751 0.848905 0.500038
0.974273 0.845792 0.496925
1 0.842695 0.493812
0.0213626 0.991501 0.521355
0.157855 0.988388 0.518242
0.294377 0.985275 0.515145
0.430884 0.982177 0.512032
0.567391 0.979065 0.508919
0.703914 0.975952 0.505806
0.840421 0.972839 0.502708
0.976928 0.969741 0.499596
1 0.966628 0.496483
0 0 0.624994
0.136492 0 0.621881
0.273014 0 0.618784
0.409522 0 0.615671
0.546029 0 0.612558
0.682551 0 0.609461
0.819059 0 0.606348
0.955581 0 0.603235
1 0 0.600137
0.00267033 0.123919 0.627665
0.139162 0.120821 0.624552
0.275685 0.117708 0.621454
0.412192 0.114595 0.618341
0.548699 0.111498 0.615228
0.685222 0.108385 0.612131
0.821729 0.105272 0.609018
0.958251 0.102174 0.605905
1 0.0990616 0.602808
0.00534066 0.247868 0.630335
0.141833 0.244755 0.627222
0.278355 0.241642 0.624125
0.414862 0.238544 0.621012
0.551369 0.235431 0.617899
0.687892 0.232319 0.614801
0.824399 0.229221 0.611688
0.960922 0.226108 0.608576
1 0.222995 0.605463
0.00801099 0.371801 0.633005
0.144503 0.368688 0.629892
0.281025 0.365591 0.626795
0.417533 0.362478 0.623682
0.55404 0.359365 0.620569
0.690562 0.356268 0.617472
0.82707 0.353155 0.614359
0.963592 0.350042 0.611246
1 0.346929 0.608133
0.0106813 0.495735 0.635676
0.147173 0.492638 0.632563
0.283696 0.489525 0.629465
0.420203 0.486412 0.626352
0.55671 0.483314 0.62324
0.693233 0.480201 0.620142
0.82974 0.477089 0.617029
0.966262 0.473991 0.613916
1 0.470878 0.610803
0.0133516 0.619684 0.638346
0.149844 0.616571 0.635233
0.286366 0.613458 0.632136
0.422873 0.610361 0.629023
0.55938 0.607248 0.62591
0.695903 0.604135 0.622812
0.83241 0.601038 0.619699
0.968933 0.597925 0.616587
1 0.594812 0.613474
0.016022 0.743618 0.641016
0.152514 0.740505 0.637903
0.289036 0.737408 0.634806
0.425544 0.734295 0.631693
0.562051 0.731182 0.62858
0.698573 0.728084 0.625467
0.835081 0.724971 0.62237
0.971603 0.721859 0.619257
1 0.718746 0.616144
0.0186923 0.867552 0.643687
0.155184 0.864454 0.640574
0.291707 0.861341 0.637476
0.428214 0.858228 0.634363
0.564721 0.855131 0.631251
0.701244 0.852018 0.628138
0.837751 0.848905 0.62504
0.974273 0.845792 0.621927
1 0.842695 0.618814
0.0213626 0.991501 0.646357
0.157855 0.988388 0.643244
0.294377 0.985275 0.640146
0.430884 0.982177 0.637034
0.567391 0.979065 0.633921
0.703914 0.975952 0.630808
0.840421 0.972839 0.62771
0.976928 0.969741 0.624598
1 0.966628 0.621485
0 0 0.749996
0.136492 0 0.746883
0.273014 0 0.743786
0.409522 0 0.740673
0.546029 0 0.73756
0.682551 0 0.734462
0.819059 0 0.73135
0.955581 0 0.728237
1 0 0.725139
0.00267033 0.123919 0.752667
0.139162 0.120821 0.749554
0.275685 0.117708 0.746456
0.412192 0.114595 0.743343
0.548699 0.111498 0.74023
0.685222 0.108385 0.737133
0.821729 0.105272 0.73402
0.958251 0.102174 0.730907
1 0.0990616 0.72781
0.00534066 0.247868 0.755337
0.141833 0.244755 0.752224
0.278355 0.241642 0.749126
0.414862 0.238544 0.746014
0.551369 0.235431 0.742901
0.687892 0.232319 0.739803
0.824399 0.229221 0.73669
0.960922 0.226108 0.733577
1 0.222995 0.730465
0.00801099 0.371801 0.758007
0.144503 0.368688 0.754894
0.281025 0.365591 0.751797
0.417533 0.362478 0.748684
0.55404 0.359365 0.745571
0.690562 0.356268 0.742473
0.82707 0.353155 0.739361
0.963592 0.350042 0.736248
1 0.346944 0.733135
0.0106813 0.495735 0.760678
0.147173 0.492638 0.757565
0.283696 0.489525 0.754467
0.420203 0.486412 0.751354
0.55671 0.483314 0.748241
0.693233 0.480201 0.745144
0.82974 0.477089 0.742031
0.966262 0.473991 0.738918
1 0.470878 0.735805
0.0133516 0.619684 0.763348
0.149844 0.616571 0.760235
0.286366 0.613458 0.757137
0.422873 0.610361 0.754025
0.55938 0.607248 0.750912
0.695903 0.604135 0.747814
0.83241 0.601038 0.744701
0.968933 0.597925 0.741588
1 0.594812 0.738476
0.016022 0.743618 0.766018
0.152514 0.740505 0.762905
0.289036 0.737408 0.759808
0.425544 0.734295 0.756695
0.562051 0.731182 0.753582
0.698573 0.728084 0.750469
0.835081 0.724971 0.747372
0.971603 0.721859 0.744259
1 0.718746 0.741146
0.0186923 0.867552 0.768688
0.155184 0.864454 0.765576
0.291707 0.861341 0.762478
0.428214 0.858228 0.759365
0.564721 0.855131 0.756252
0.701244 0.852018 0.75314
0.837751 0.848905 0.750042
0.974273 0.845792 0.746929
1 0.842695 0.743816
0.0213626 0.991501 0.771359
0.157855 0.988388 0.768246
0.294377 0.985275 0.765148
0.430884 0.982177 0.762036
0.567391 0.979065 0.758923
0.703914 0.975952 0.75581
0.840421 0.972839 0.752712
0.976928 0.969741 0.749599
1 0.966628 0.746487
0 0 0.874998
0.136492 0 0.871885
0.273014 0 0.868788
0.409522 0 0.865675
0.546029 0 0.862562
0.682551 0 0.859464
0.819059 0 0.856352
0.955581 0 0.853239
1 0 0.850141
0.00267033 0.123919 0.877668
0.139162 0.120821 0.874556
0.275685 0.117708 0.871458
0.412192 0.114595 0.868345
0.548699 0.111498 0.865232
0.685222 0.108385 0.862135
0.821729 0.105272 0.859022
0.958251 0.102174 0.855909
1 0.0990616 0.852811
0.00534066 0.247868 0.880339
0.141833 0.244755 0.877226
0.278355 0.241642 0.874128
0.414862 0.238544 0.871015
0.551369 0.235431 0.867903
0.687892 0.232319 0.864805
0.824399 0.229221 0.861692
0.960922 0.226108 0.858579
1 0.222995 0.855467
0.00801099 0.371801 0.883009
0.144503 0.368688 0.879896
0.281025 0.365591 0.876799
0.417533 0.362478 0.873686
0.55404 0.359365 0.870573
0.690562 0.356268 0.867475
0.82707 0.353155 0.864363
0.963592 0.350042 0.86125
1 0.346944 0.858137
0.0106813 0.495735 0.885679
0.147173 0.492638 0.882567
0.283696 0.489525 0.879469
0.420203 0.486412 0.876356
0.55671 0.483314 0.873243
0.693233 0.480201 0.870146
0.82974 0.477089 0.867033
0.966262 0.473991 0.86392
1 0.470878 0.860807
0.0133516 0.619684 0.88835
0.149844 0.616571 0.885237
0.286366 0.613458 0.882139
0.422873 0.610361 0.879026
0.55938 0.607248 0.875914
0.695903 0.604135 0.872816
0.83241 0.601038 0.869703
0.968933 0.597925 0.86659
1 0.594812 0.863478
0.016022 0.743618 0.89102
0.152514 0.740505 0.887907
0.289036 0.737408 0.88481
0.425544 0.734295 0.881697
0.562051 0.731182 0.878584
0.698573 0.728084 0.875471
0.835081 0.724971 0.872374
0.971603 0.721859 0.869261
1 0.718746 0.866148
0.0186923 0.867552 0.89369
0.155184 0.864454 0.890578
0.291707 0.861341 0.88748
0.428214 0.858228 0.884367
0.564721 0.855131 0.881254
0.701244 0.852018 0.878141
0.837751 0.848905 0.875044
0.974273 0.845792 0.871931
1 0.842695 0.868818
0.0213626 0.991501 0.896361
0.157855 0.988388 0.893248
0.294377 0.985275 0.89015
0.430884 0.982177 0.887037
0.567391 0.979065 0.883925
0.703914 0.975952 0.880812
0.840421 0.972839 0.877714
0.976944 0.969741 0.874601
1 0.966628 0.871489
0 0 1
0.136492 0 0.996887
0.273014 0 0.99379
0.409522 0 0.990677
0.546029 0 0.987564
0.682551 0 0.984466
0.819059 0 0.981353
0.955581 0 0.978241
1 0 0.975143
0.00267033 0.123919 1
0.139162 0.120821 0.999557
0.275685 0.117708 0.99646
0.412192 0.114595 0.993347
0.548699 0.111498 0.990234
0.685222 0.108385 0.987137
0.821729 0.105272 0.984024
0.958251 0.102174 0.980911
1 0.0990616 0.977813
0.00534066 0.247868 1
0.141833 0.244755 1
0.278355 0.241642 0.99913
0.414862 0.238544 0.996017
0.551369 0.235431 0.992905
0.687892 0.232319 0.989807
0.824399 0.229221 0.986694
0.960922 0.226108 0.983581
1 0.222995 0.980468
0.00801099 0.371801 1
0.144503 0.368688 1
0.281025 0.365591 1
0.417533 0.362478 0.998688
0.55404 0.359365 0.995575
0.690562 0.356268 0.992477
0.82707 0.353155 0.989364
0.963592 0.350042 0.986252
1 0.346944 0.983139
0.0106813 0.495735 1
0.147173 0.492638 1
0.283696 0.489525 1
0.420203 0.486412 1
0.55671 0.483314 0.998245
0.693233 0.480201 0.995148
0.82974 0.477089 0.992035
0.966262 0.473991 0.988922
1 0.470878 0.985809
0.0133516 0.619684 1
0.149844 0.616571 1
0.286366 0.613458 1
0.422873 0.610361 1
0.55938 0.607248 1
0.695903 0.604135 0.997818
0.83241 0.601038 0.994705
0.968933 0.597925 0.991592
1 0.594812 0.988479
0.016022 0.743618 1
0.152514 0.740505 1
0.289036 0.737408 1
0.425544 0.734295 1
0.562051 0.731182 1
0.698573 0.728084 1
0.835081 0.724971 0.997375
0.971603 0.721859 0.994263
1 0.718746 0.99115
0.0186923 0.867552 1
0.155184 0.864454 1
0.291707 0.861341 1
0.428214 0.858228 1
0.564721 0.855131 1
0.701244 0.852018 1
0.837751 0.848905 1
0.974273 0.845792 0.996933
1 0.842695 0.99382
0.0213626 0.991501 1
0.157855 0.988388 1
0.294377 0.985275 1
0.430884 0.982177 1
0.567391 0.979065 1
0.703914 0.975952 1
0.840421 0.972839 1
0.976928 0.969741 0.999603
1 0.966628 0.99649
