public/LUTS/Autumn/Autumn_16.cube
TITLE "Generated by Resolve"
LUT_3D_SIZE 33
0.0539559 0.0837262 0.0807507
0.0685893 0.0816815 0.0756847
0.106294 0.0856947 0.0632029
0.147601 0.0931258 0.0488594
0.193469 0.0983597 0.0281224
0.242924 0.10193 0.00650034
0.295583 0.104448 0
0.350958 0.106737 0
0.414969 0.107927 0
0.486686 0.109148 0
0.562127 0.110811 0
0.642847 0.110582 0
0.726574 0.108385 0
0.808545 0.105653 0
0.886625 0.102815 0
0.960464 0.0999771 0
0.997635 0.0978408 0
1 0.0969253 0
1 0.098024 0
1 0.104036 0
1 0.119036 0
1 0.141238 0
1 0.163638 0
1 0.186496 0
1 0.208621 0
1 0.23035 0
1 0.252811 0
1 0.275776 0
1 0.299687 0
1 0.324056 0
1 0.348394 0
1 0.370672 0
1 0.378256 0
0.0483101 0.0999619 0.0802014
0.0611887 0.0970779 0.0773938
0.100801 0.0945602 0.0635386
0.143175 0.0994125 0.0507362
0.189914 0.104356 0.0305028
0.242817 0.10605 0.00830091
0.298695 0.107118 0
0.357397 0.108858 0
0.424231 0.109514 0
0.498756 0.110048 0
0.577585 0.110567 0
0.659892 0.109834 0
0.743328 0.108339 0
0.824521 0.106874 0
0.900053 0.105531 0
0.969314 0.104173 0
0.999924 0.103182 0
1 0.103273 0
1 0.104967 0
1 0.109209 0
1 0.118486 0
1 0.136614 0
1 0.157061 0
1 0.177493 0
1 0.198901 0
1 0.220996 0
1 0.244388 0
1 0.268238 0
1 0.292836 0
1 0.317708 0
1 0.342535 0
1 0.364248 0
1 0.370962 0
0.0414588 0.118288 0.0797894
0.0526436 0.115633 0.0793774
0.0893263 0.112276 0.067277
0.139818 0.107439 0.0495766
0.186725 0.11252 0.0304112
0.238346 0.116365 0.0080415
0.29604 0.118029 0
0.356863 0.119066 0
0.426474 0.119509 0
0.503624 0.119646 0
0.586175 0.119295 0
0.671489 0.118196 0
0.756802 0.117235 0
0.836133 0.116701 0
0.910063 0.116152 0
0.974365 0.115801 0
1 0.11635 0
1 0.118059 0
1 0.121416 0
1 0.126696 0
1 0.134417 0
1 0.14406 0
1 0.155856 0
1 0.172534 0
1 0.192004 0
1 0.212329 0
1 0.235706 0
1 0.259586 0
1 0.284077 0
1 0.309407 0
1 0.334676 0
1 0.355673 0
1 0.36112 0
0.0333867 0.137224 0.0795605
0.04448 0.133867 0.0795911
0.0729229 0.135882 0.0763409
0.128588 0.124208 0.0504616
0.184482 0.120729 0.0312352
0.238483 0.124392 0.00862135
0.295613 0.127382 0
0.355169 0.131121 0
0.422904 0.1355 0
0.499977 0.139712 0
0.582528 0.143069 0
0.666255 0.144839 0
0.751186 0.144732 0
0.831937 0.144076 0
0.90631 0.143587 0
0.973312 0.143771 0
0.999649 0.145159 0
1 0.147723 0
1 0.151476 0
1 0.156466 0
1 0.163424 0
1 0.172366 0
1 0.183444 0
1 0.195819 0
1 0.209598 0
1 0.225467 0
1 0.242451 0
1 0.260822 0
1 0.282597 0
1 0.306264 0
1 0.330251 0
1 0.348974 0
1 0.352682 0
0.024094 0.156741 0.0795605
0.035874 0.152758 0.079942
0.0612497 0.154345 0.0762951
0.110613 0.152377 0.0632334
0.175814 0.135958 0.0329595
0.236637 0.133669 0.0107271
0.296376 0.135958 0
0.358679 0.140246 0
0.429099 0.146304 0
0.508553 0.1523 0
0.591653 0.158145 0
0.674006 0.164172 0
0.754757 0.169726 0
0.830564 0.173373 0
0.899962 0.176669 0
0.964599 0.179187 0
0.995102 0.180941 0
1 0.183474 0
1 0.187289 0
1 0.192294 0
1 0.199039 0
1 0.208042 0
1 0.217914 0
1 0.229129 0
1 0.242405 0
1 0.257527 0
1 0.27393 0
1 0.291051 0
1 0.308888 0
1 0.32726 0
1 0.345602 0
1 0.358648 0
1 0.360327 0
0.0138857 0.176516 0.0800641
0.0262303 0.172625 0.0796521
0.0504158 0.173388 0.0761578
0.0930953 0.177508 0.0663462
0.159564 0.168521 0.0417639
0.228901 0.150378 0.0128786
0.295949 0.146654 0
0.362707 0.150942 0
0.43624 0.158129 0
0.518807 0.16463 0
0.604913 0.171069 0
0.689677 0.177981 0
0.770596 0.185565 0
0.844266 0.193881 0
0.909667 0.202258 0
0.966781 0.209308 0
0.994644 0.216358 0
1 0.223102 0
1 0.229313 0
1 0.235523 0
1 0.242329 0
1 0.250217 0
1 0.259892 0
1 0.271122 0
1 0.283436 0
1 0.29781 0
1 0.312718 0
1 0.328939 0
1 0.345434 0
1 0.362646 0
1 0.378103 0
1 0.387213 0
1 0.387778 0
0.00459297 0.196948 0.0810101
0.0157778 0.193591 0.0798657
0.0384833 0.193942 0.0758831
0.0734569 0.200839 0.0661173
0.135256 0.20206 0.0453956
0.213581 0.183474 0.0110475
0.289784 0.165347 0
0.364797 0.164492 0
0.441474 0.171267 0
0.526802 0.178317 0
0.616632 0.18497 0
0.704173 0.19263 0
0.787518 0.200916 0
0.861006 0.210056 0
0.924437 0.22034 0
0.97792 0.231174 0
0.997833 0.241917 0
1 0.252216 0
1 0.263676 0
1 0.275639 0
1 0.287022 0
1 0.298009 0
1 0.308568 0
1 0.3196 0
1 0.33257 0
1 0.345769 0
1 0.359487 0
1 0.374548 0
1 0.390234 0
1 0.406653 0
1 0.41825 0
1 0.423072 0
1 0.423041 0
0 0.218372 0.0829328
0.00572213 0.215122 0.080827
0.02533 0.215717 0.0753643
0.0555428 0.223804 0.0627298
0.107515 0.231891 0.0493172
0.188617 0.22826 0.0174716
0.275151 0.198947 0
0.358846 0.184024 0
0.444266 0.186572 0
0.532891 0.193454 0
0.626413 0.200732 0
0.717281 0.208774 0
0.801602 0.217548 0
0.873198 0.228031 0
0.936584 0.238819 0
0.986679 0.250385 0
0.999817 0.263157 0
1 0.277302 0
1 0.290898 0
1 0.303487 0
1 0.316732 0
1 0.331777 0
1 0.348074 0
1 0.364569 0
1 0.381903 0
1 0.397177 0
1 0.410681 0
1 0.425483 0
1 0.441382 0
1 0.455879 0
1 0.46421 0
1 0.466194 0
1 0.466011 0
0 0.242084 0.0843519
0 0.238437 0.0815442
0.0112917 0.23917 0.0743877
0.0355383 0.249195 0.0577859
0.0812543 0.260868 0.0395972
0.153292 0.268788 0.0160372
0.253712 0.255634 0.00161746
0.346639 0.219928 0
0.439719 0.208682 0
0.537606 0.211124 0
0.634424 0.218235 0
0.726055 0.226825 0
0.809674 0.236652 0
0.882872 0.247135 0
0.946441 0.25864 0
0.990677 0.271473 0
1 0.285206 0
1 0.299321 0
1 0.314 0
1 0.329458 0
1 0.345602 0
1 0.362341 0
1 0.3785 0
1 0.394629 0
1 0.412085 0
1 0.430854 0
1 0.450141 0
1 0.469505 0
1 0.487541 0
1 0.501381 0
1 0.508034 0
1 0.50959 0
1 0.509926 0
0 0.270939 0.0826581
0 0.267231 0.0785534
0.00030518 0.268193 0.0695659
0.0109407 0.278935 0.0502632
0.0532235 0.29189 0.0288396
0.122118 0.303151 0.0109255
0.213977 0.30811 0.00135805
0.327459 0.27779 0
0.428595 0.243275 0
0.532479 0.236622 0
0.638025 0.238529 0
0.732555 0.246479 0
0.817014 0.256809 0
0.890013 0.268376 0
0.951095 0.281254 0
0.992416 0.294179 0
1 0.308263 0
1 0.322896 0
1 0.338521 0
1 0.35494 0
1 0.372015 0
1 0.389578 0
1 0.407584 0
1 0.425925 0
1 0.443839 0
1 0.462562 0
1 0.481102 0
1 0.500206 0
1 0.518639 0
1 0.529534 0
1 0.534386 0
1 0.537163 0
1 0.539742 0
0 0.302312 0.0807965
0 0.299214 0.0756085
0 0.300404 0.0645914
0.000335698 0.309972 0.0437018
0.0283513 0.325017 0.0206455
0.0951858 0.337469 0.0059205
0.181277 0.34992 0.000411994
0.289403 0.348119 0
0.411994 0.303792 0
0.519402 0.271168 0
0.631571 0.266667 0
0.734524 0.269703 0
0.821897 0.278904 0
0.893782 0.291081 0
0.952926 0.304112 0
0.9935 0.317769 0
1 0.332418 0
1 0.34815 0
1 0.364202 0
1 0.380835 0
1 0.397528 0
1 0.415137 0
1 0.433494 0
1 0.452293 0
1 0.471901 0
1 0.492103 0
1 0.511711 0
1 0.530236 0
1 0.546212 0
1 0.553475 0
1 0.557076 0
1 0.559762 0
1 0.562188 0
0 0.336233 0.0797131
0 0.33283 0.0733654
0 0.334142 0.060914
0 0.342809 0.0411994
0.0153964 0.359396 0.0177768
0.0716259 0.374334 0.00344854
0.154131 0.389593 3.0518e-05
0.255604 0.40116 0
0.376516 0.388907 0
0.503929 0.33193 0
0.616663 0.30277 0
0.725856 0.301503 0
0.822293 0.305058 0
0.895048 0.314748 0
0.954192 0.327688 0
0.994659 0.342458 0
1 0.357641 0
1 0.373999 0
1 0.390021 0
1 0.406729 0
1 0.423865 0
1 0.441184 0
1 0.459312 0
1 0.47805 0
1 0.496941 0
1 0.517143 0
1 0.537255 0
1 0.55668 0
1 0.57055 0
1 0.575494 0
1 0.577691 0
1 0.579782 0
1 0.581552 0
0 0.372488 0.0785687
0 0.368826 0.0720073
0 0.370459 0.0590829
0 0.378973 0.039765
0.0031281 0.397009 0.0147402
0.0504768 0.413901 0.00178531
0.128756 0.430228 0
0.226703 0.445716 0
0.339742 0.45211 0
0.470451 0.425071 0
0.598077 0.36112 0
0.713237 0.33991 0
0.811154 0.340063 0
0.890135 0.344137 0
0.951385 0.353414 0
0.995453 0.36788 0
1 0.38352 0
1 0.399603 0
1 0.416159 0
1 0.432761 0
1 0.449622 0
1 0.466743 0
1 0.484764 0
1 0.503258 0
1 0.522316 0
1 0.540795 0
1 0.559533 0
1 0.578668 0
1 0.58822 0
1 0.591653 0
1 0.593866 0
1 0.595804 0
1 0.59762 0
0 0.411444 0.0766155
0 0.407858 0.069688
0 0.409598 0.0562295
0 0.417975 0.0366827
0.000213626 0.436316 0.0100862
0.0341802 0.454582 0.000350958
0.106264 0.472084 0
0.199939 0.489204 0
0.313542 0.503288 0
0.429709 0.501442 0
0.568139 0.460807 0
0.691066 0.397192 0
0.795468 0.379583 0
0.876616 0.38117 0
0.941268 0.386542 0
0.991455 0.395636 0
0.999435 0.409476 0
1 0.425452 0
1 0.441703 0
1 0.458473 0
1 0.475853 0
1 0.492927 0
1 0.509773 0
1 0.527062 0
1 0.545205 0
1 0.563684 0
1 0.582391 0
1 0.600214 0
1 0.606287 0
1 0.608682 0
1 0.610925 0
1 0.61323 0
1 0.61503 0
0 0.451667 0.0736553
0 0.448295 0.0661021
0 0.45095 0.0520943
0 0.458534 0.0322271
0 0.476478 0.00743114
0.0187839 0.49604 3.0518e-05
0.0861067 0.514824 0
0.176944 0.532891 0
0.28748 0.549142 0
0.406424 0.558556 0
0.518181 0.546502 0
0.657435 0.4907 0
0.769085 0.433524 0
0.859846 0.422019 0
0.926162 0.424826 0
0.978286 0.430259 0
0.998474 0.438697 0
1 0.451514 0
1 0.467308 0
1 0.48394 0
1 0.500648 0
1 0.517067 0
1 0.533486 0
1 0.550591 0
1 0.568261 0
1 0.585763 0
1 0.602045 0
1 0.61799 0
1 0.622965 0
1 0.625284 0
1 0.627405 0
1 0.629557 0
1 0.631128 0
0 0.493706 0.0697948
0 0.490898 0.0615396
0 0.492988 0.046891
0 0.499245 0.0272984
0 0.51725 0.00550851
0.00453193 0.537758 0
0.0689097 0.557076 0
0.158022 0.576043 0
0.264546 0.592233 0
0.383444 0.605692 0
0.493568 0.606134 0
0.608469 0.585779 0
0.731441 0.52192 0
0.831861 0.472358 0
0.909453 0.464836 0
0.961807 0.468452 0
0.998199 0.474342 0
1 0.482506 0
1 0.493599 0
1 0.508492 0
1 0.524407 0
1 0.540413 0
1 0.556878 0
1 0.573632 0
1 0.590005 0
1 0.606256 0
1 0.622477 0
1 0.636454 0
1 0.639536 0
1 0.641428 0
1 0.643488 0
1 0.645365 0
1 0.646708 0
0 0.536599 0.064622
0 0.533578 0.0558022
0 0.535805 0.040528
0 0.541024 0.0206912
0 0.558907 0.00341802
0.000366217 0.579873 0
0.0540627 0.598947 0
0.141527 0.617258 0
0.244587 0.63389 0
0.360616 0.647944 0
0.477424 0.655955 0
0.576104 0.649546 0
0.684047 0.617563 0
0.795224 0.555871 0
0.881575 0.5149 0
0.943679 0.507897 0
0.985702 0.512184 0
0.999115 0.517937 0
1 0.525277 0
1 0.534691 0
1 0.548363 0
1 0.563302 0
1 0.579293 0
1 0.595407 0
1 0.611292 0
1 0.627008 0
1 0.641657 0
1 0.653376 0
1 0.655558 0
1 0.657282 0
1 0.659083 0
1 0.660807 0
1 0.662013 0
0 0.578607 0.0591287
0 0.576242 0.0496223
0 0.578592 0.0335241
0 0.583413 0.0131991
0 0.600336 0.00137331
0 0.620539 0
0.0399634 0.639414 0
0.126192 0.657267 0
0.227939 0.673564 0
0.339849 0.687648 0
0.456474 0.6981 0
0.557 0.699245 0
0.645594 0.688243 0
0.742596 0.651331 0
0.84126 0.592279 0
0.91426 0.5579 0
0.966888 0.551247 0
0.998672 0.554406 0
1 0.559853 0
1 0.566354 0
1 0.574548 0
1 0.586419 0
1 0.601099 0
1 0.61648 0
1 0.631418 0
1 0.646525 0
1 0.66096 0
1 0.670573 0
1 0.672206 0
1 0.673426 0
1 0.674922 0
1 0.676539 0
1 0.677775 0
0 0.620142 0.0534981
0 0.618097 0.042771
0 0.621149 0.0257115
0 0.626078 0.00650034
0 0.640757 0.00015259
0 0.66038 0
0.0279698 0.679042 0
0.114061 0.696498 0
0.213901 0.712047 0
0.322484 0.725231 0
0.435859 0.736049 0
0.541695 0.742199 0
0.624384 0.738064 0
0.70161 0.724498 0
0.785794 0.682979 0
0.873106 0.63064 0
0.936355 0.599191 0
0.984604 0.592203 0
0.998962 0.595239 0
1 0.600336 0
1 0.605829 0
1 0.612345 0
1 0.623087 0
1 0.636683 0
1 0.651148 0
1 0.666407 0
1 0.680201 0
1 0.686519 0
1 0.687922 0
1 0.689189 0
1 0.690883 0
1 0.692561 0
1 0.693538 0
0 0.661234 0.0471504
0 0.660471 0.0352331
0 0.663386 0.0176089
0 0.667735 0.00309758
0 0.680156 0
0 0.698756 0
0.0180819 0.716884 0
0.103029 0.7337 0
0.2009 0.748089 0
0.306416 0.760296 0
0.416724 0.770886 0
0.522484 0.778195 0
0.610788 0.779171 0
0.679545 0.774182 0
0.745342 0.758297 0
0.819471 0.716182 0
0.894789 0.668528 0
0.95198 0.639506 0
0.995041 0.632685 0
0.999664 0.634363 0
1 0.63801 0
1 0.64239 0
1 0.6486 0
1 0.658213 0
1 0.670939 0
1 0.68571 0
1 0.698116 0
1 0.702434 0
1 0.704097 0
1 0.705653 0
1 0.706996 0
1 0.708476 0
1 0.709331 0
0 0.702663 0.0403296
0 0.702083 0.0273747
0 0.704921 0.0089723
0 0.709163 0.000366217
0 0.719158 0
0 0.7364 0
0.00936904 0.753491 0
0.0934157 0.76875 0
0.188632 0.782406 0
0.29163 0.793957 0
0.39881 0.803357 0
0.502754 0.81088 0
0.595224 0.814542 0
0.665064 0.812726 0
0.721813 0.806775 0
0.778042 0.789303 0
0.841489 0.749676 0
0.908888 0.7066 0
0.964279 0.680156 0
0.997681 0.672023 0
1 0.670985 0
1 0.673671 0
1 0.678035 0
1 0.683726 0
1 0.691661 0
1 0.704143 0
1 0.715373 0
1 0.718242 0
1 0.719829 0
1 0.721721 0
1 0.723262 0
1 0.724575 0
1 0.725307 0
0 0.742916 0.0334173
0 0.742626 0.0192111
0 0.745739 0.00416571
0 0.749813 0
0 0.757855 0
0 0.773236 0
0.0074464 0.788418 0
0.0825666 0.802701 0
0.175814 0.815183 0
0.277043 0.825635 0
0.38143 0.83415 0
0.482322 0.84062 0
0.574716 0.844739 0
0.651118 0.845563 0
0.706722 0.84242 0
0.754482 0.836912 0
0.801495 0.820584 0
0.854673 0.783932 0
0.919173 0.742702 0
0.973251 0.717937 0
0.997177 0.708339 0
1 0.705898 0
1 0.708171 0
1 0.711528 0
1 0.716518 0
1 0.724743 0
1 0.731792 0
1 0.733928 0
1 0.735653 0
1 0.737148 0
1 0.738918 0
1 0.740124 0
1 0.741207 0
0 0.782589 0.0259861
0 0.782208 0.0113069
0 0.78555 0.000396735
0 0.789776 0
0 0.795941 0
0 0.808225 0
0.00791943 0.822416 0
0.073579 0.835462 0
0.166354 0.846372 0
0.265583 0.855924 0
0.36669 0.862806 0
0.46424 0.867857 0
0.555032 0.871626 0
0.633585 0.87396 0
0.694453 0.873365 0
0.739651 0.870085 0
0.77998 0.86482 0
0.819837 0.849882 0
0.865919 0.815305 0
0.930449 0.77705 0
0.983536 0.752804 0
0.998184 0.742351 0
1 0.739193 0
1 0.739879 0
1 0.743618 0
1 0.749081 0
1 0.751675 0
1 0.750347 0
1 0.7514 0
1 0.753063 0
1 0.754543 0
1 0.755703 0
1 0.757 0
0 0.821439 0.0185702
0 0.821927 0.00538643
0 0.825559 0
0 0.829206 0
0 0.832914 0
0 0.843046 0
0.00822461 0.855772 0
0.0679332 0.867201 0
0.159579 0.876707 0
0.255314 0.884184 0
0.353445 0.889723 0
0.448539 0.893385 0
0.536019 0.896284 0
0.613001 0.898909 0
0.677241 0.899931 0
0.726024 0.898634 0
0.765042 0.895415 0
0.800671 0.890257 0
0.836057 0.875181 0
0.87953 0.844633 0
0.941711 0.809552 0
0.993561 0.784756 0
0.999969 0.775006 0
1 0.770764 0
1 0.771984 0
1 0.775692 0
1 0.775128 0
1 0.770764 0
1 0.768093 0
1 0.768856 0
1 0.770657 0
1 0.771954 0
1 0.773205 0
0 0.859602 0.0111086
0 0.860578 0.000228885
0 0.863767 0
0 0.867231 0
0 0.869612 0
0 0.876295 0
0.00801099 0.887556 0
0.0625772 0.897169 0
0.152468 0.904723 0
0.246601 0.910552 0
0.341833 0.915007 0
0.433005 0.918059 0
0.517159 0.920501 0
0.591119 0.922454 0
0.655161 0.924208 0
0.70779 0.925017 0
0.749783 0.923552 0
0.784863 0.920378 0
0.818738 0.914763 0
0.852232 0.900542 0
0.891112 0.872404 0
0.95552 0.837736 0
0.982986 0.815885 0
0.990936 0.805844 0
0.993118 0.802396 0
0.993561 0.802365 0
0.994888 0.800259 0
0.997726 0.7953 0
1 0.789929 0
0.999878 0.785809 0
0.999741 0.786221 0
0.999603 0.787167 0
0.999359 0.788602 0
0 0.896498 0.00424201
0 0.897536 0
0 0.900481 0
0 0.903578 0
0 0.905104 0
0 0.908522 0
0.00813306 0.91751 0
0.0594034 0.924987 0
0.147631 0.930907 0
0.238895 0.935485 0
0.331289 0.939269 0
0.418967 0.942016 0
0.498985 0.944152 0
0.569604 0.946197 0
0.631632 0.948119 0
0.684733 0.949935 0
0.730297 0.950912 0
0.767834 0.949477 0
0.801831 0.945541 0
0.83566 0.939727 0
0.869245 0.926207 0
0.903273 0.897383 0
0.951415 0.865507 0
0.970138 0.844312 0
0.975967 0.834989 0
0.977966 0.831388 0
0.98056 0.82678 0
0.984054 0.820661 0
0.987289 0.814862 0
0.9906 0.809018 0
0.993744 0.803571 0
0.993835 0.803479 0
0.992889 0.80531 0
0 0.931487 0
0 0.932616 0
0 0.935058 0
0 0.938216 0
0 0.938369 0
0 0.938537 0
0.00854505 0.94519 0
0.0585184 0.95108 0
0.144961 0.956024 0
0.234226 0.960067 0
0.322072 0.96347 0
0.404868 0.965911 0
0.480827 0.968093 0
0.547997 0.970153 0
0.607156 0.972381 0
0.659175 0.975143 0
0.705165 0.977508 0
0.746303 0.978286 0
0.782162 0.976608 0
0.817136 0.972396 0
0.85301 0.966583 0
0.887083 0.953765 0
0.922011 0.92462 0
0.942367 0.894118 0
0.955093 0.871916 0
0.960479 0.862287 0
0.963836 0.856382 0
0.967514 0.849912 0
0.971344 0.843076 0
0.975387 0.835904 0
0.979522 0.828733 0
0.981918 0.824674 0
0.980117 0.827665 0
0 0.964202 0
0 0.964996 0
0 0.96759 0
0 0.970001 0
0 0.968597 0
0 0.966674 0
0.00936904 0.971542 0
0.0593271 0.976654 0
0.144594 0.98114 0
