public/LUTS/Autumn/Autumn_03.cube
TITLE "Generated by Resolve"
LUT_3D_SIZE 5
0 0 0
0.273014 0 0
0.546029 0 0
0.819059 0 0
1 0 0
0.00534066 0.247868 0.00534066
0.278355 0.241642 0
0.551369 0.235431 0
0.824399 0.229221 0
1 0.222995 0
0.0106813 0.495735 0.0106813
0.283696 0.489525 0.00447089
0.55671 0.483314 0
0.82974 0.477089 0
1 0.470878 0
0.016022 0.743618 0.016022
0.289036 0.737408 0.00981155
0.562051 0.731182 0.00358587
0.835081 0.724971 0
1 0.718746 0
0.0213626 0.991501 0.0213626
0.294377 0.985275 0.0151522
0.567391 0.979065 0.00892653
0.840421 0.972839 0.00271611
1 0.966628 0
0 0 0.249989
0.273014 0 0.243778
0.546029 0 0.237552
0.819059 0 0.231342
1 0 0.225132
0.00534066 0.247868 0.255329
0.278355 0.241642 0.249119
0.551369 0.235431 0.242893
0.824399 0.229221 0.236683
1 0.222995 0.230457
0.0106813 0.495735 0.26067
0.283696 0.489525 0.254459
0.55671 0.483314 0.248234
0.82974 0.477089 0.242023
1 0.470878 0.235798
0.016022 0.743618 0.266011
0.289036 0.737408 0.2598
0.562051 0.731182 0.253574
0.835081 0.724971 0.247364
1 0.718746 0.241138
0.0213626 0.991501 0.271351
0.294377 0.985275 0.265141
0.567391 0.979065 0.258915
0.840421 0.972839 0.252705
1 0.966628 0.246479
0 0 0.499992
0.273014 0 0.493782
0.546029 0 0.487556
0.819059 0 0.481346
1 0 0.475135
0.00534066 0.247868 0.505333
0.278355 0.241642 0.499123
0.551369 0.235431 0.492897
0.824399 0.229221 0.486686
1 0.222995 0.480461
0.0106813 0.495735 0.510674
0.283696 0.489525 0.504463
0.55671 0.483314 0.498238
0.82974 0.477089 0.492027
1 0.470878 0.485801
0.016022 0.743618 0.516014
0.289036 0.737408 0.509804
0.562051 0.731182 0.503578
0.835081 0.724971 0.497368
1 0.718746 0.491142
0.0213626 0.991501 0.521355
0.294377 0.985275 0.515145
0.567391 0.979065 0.508919
0.840421 0.972839 0.502708
1 0.966628 0.496483
0 0 0.749996
0.273014 0 0.743786
0.546029 0 0.73756
0.819059 0 0.73135
1 0 0.725139
0.00534066 0.247868 0.755337
0.278355 0.241642 0.749126
0.551369 0.235431 0.742901
0.824399 0.229221 0.73669
1 0.222995 0.730465
0.0106813 0.495735 0.760678
0.283696 0.489525 0.754467
0.55671 0.483314 0.748241
0.82974 0.477089 0.742031
1 0.470878 0.735805
0.016022 0.743618 0.766018
0.289036 0.737408 0.759808
0.562051 0.731182 0.753582
0.835081 0.724971 0.747372
1 0.718746 0.741146
0.0213626 0.991501 0.771359
0.294377 0.985275 0.765148
0.567391 0.979065 0.758923
0.840421 0.972839 0.752712
1 0.966628 0.746487
0 0 1
0.273014 0 0.99379
0.546029 0 0.987564
0.819059 0 0.981353
1 0 0.975143
0.00534066 0.247868 1
0.278355 0.241642 0.99913
0.551369 0.235431 0.992905
0.824399 0.229221 0.986694
1 0.222995 0.980468
0.0106813 0.495735 1
0.283696 0.489525 1
0.55671 0.483314 0.998245
0.82974 0.477089 0.992035
1 0.470878 0.985809
0.016022 0.743618 1
0.289036 0.737408 1
0.562051 0.731182 1
0.835081 0.724971 0.997375
1 0.718746 0.99115
0.0213626 0.991501 1
0.294377 0.985275 1
0.567391 0.979065 1
0.840421 0.972839 1
1 0.966628 0.99649
