public/LUTS/Autumn/Autumn_07.cube
TITLE "Generated by Resolve"
LUT_3D_SIZE 33
0 0 0
0.0504616 0 0
0.0913863 0 0
0.129442 0 0
0.165759 0 0
0.200839 0 0
0.235004 0 0
0.268391 0 0
0.301152 0 0
0.333379 0 0
0.365133 0 0
0.39646 0 0
0.427436 0 0
0.458061 0 0
0.48838 0 0
0.518425 0 0
0.548211 0 0
0.577752 0 0
0.607065 0 0
0.636179 0 0
0.665095 0 0
0.693828 0 0
0.722377 0 0
0.750774 0 0
0.779004 0 0
0.80708 0 0
0.835019 0 0
0.862837 0 0
0.890501 0 0
0.918059 0 0
0.94548 0 0
0.972793 0 0
1 0 0
0 0.0312352 0
0.0504616 0.0260471 0
0.0913863 0.0234379 0
0.129442 0.0215915 0
0.165759 0.0202335 0
0.200839 0.0191958 0
0.235004 0.0184024 0
0.268391 0.0178225 0
0.301152 0.0174258 0
0.333379 0.0171511 0
0.365133 0.0170291 0
0.39646 0.0169985 0
0.427436 0.0170748 0
0.458061 0.0172427 0
0.48838 0.0175021 0
0.518425 0.0178225 0
0.548211 0.0182193 0
0.577752 0.018677 0
0.607065 0.0191958 0
0.636179 0.0197757 0
0.665095 0.0204013 0
0.693828 0.021088 0
0.722377 0.0218204 0
0.750774 0.0225834 0
0.779004 0.0234073 0
0.80708 0.0242618 0
0.835019 0.0251469 0
0.862837 0.0260777 0
0.890501 0.0270542 0
0.918059 0.0280461 0
0.94548 0.0290837 0
0.972793 0.0301366 0
1 0.0312352 0
0 0.0624857 0
0.0504616 0.0572976 0
0.0913863 0.0546883 0
0.129442 0.052842 0
0.165759 0.0514839 0
0.200839 0.0504463 0
0.235004 0.0496529 0
0.268391 0.049073 0
0.301152 0.0486763 0
0.333379 0.0484016 0
0.365133 0.0482795 0
0.39646 0.048249 0
0.427436 0.0483253 0
0.458061 0.0484932 0
0.48838 0.0487526 0
0.518425 0.049073 0
0.548211 0.0494698 0
0.577752 0.0499275 0
0.607065 0.0504463 0
0.636179 0.0510262 0
0.665095 0.0516518 0
0.693828 0.0523384 0
0.722377 0.0530709 0
0.750774 0.0538338 0
0.779004 0.0546578 0
0.80708 0.0555123 0
0.835019 0.0563973 0
0.862837 0.0573281 0
0.890501 0.0583047 0
0.918059 0.0592966 0
0.94548 0.0603342 0
0.972793 0.061387 0
1 0.0624857 0
0 0.0937362 0
0.0504616 0.0885481 0
0.0913863 0.0859388 0
0.129442 0.0840925 0
0.165759 0.0827344 0
0.200839 0.0816968 0
0.235004 0.0809033 0
0.268391 0.0803235 0
0.301152 0.0799268 0
0.333379 0.0796521 0
0.365133 0.07953 0
0.39646 0.0794995 0
0.427436 0.0795758 0
0.458061 0.0797436 0
0.48838 0.0800031 0
0.518425 0.0803235 0
0.548211 0.0807202 0
0.577752 0.081178 0
0.607065 0.0816968 0
0.636179 0.0822766 0
0.665095 0.0829023 0
0.693828 0.0835889 0
0.722377 0.0843214 0
0.750774 0.0850843 0
0.779004 0.0859083 0
0.80708 0.0867628 0
0.835019 0.0876478 0
0.862837 0.0885786 0
0.890501 0.0895552 0
0.918059 0.090547 0
0.94548 0.0915847 0
0.972793 0.0926375 0
1 0.0937362 0
0 0.124987 0
0.0504616 0.119799 0
0.0913863 0.117189 0
0.129442 0.115343 0
0.165759 0.113985 0
0.200839 0.112947 0
0.235004 0.112154 0
0.268391 0.111574 0
0.301152 0.111177 0
0.333379 0.110903 0
0.365133 0.11078 0
0.39646 0.11075 0
0.427436 0.110826 0
0.458061 0.110994 0
0.48838 0.111254 0
0.518425 0.111574 0
0.548211 0.111971 0
0.577752 0.112428 0
0.607065 0.112947 0
0.636179 0.113527 0
0.665095 0.114153 0
0.693828 0.114839 0
0.722377 0.115572 0
0.750774 0.116335 0
0.779004 0.117159 0
0.80708 0.118013 0
0.835019 0.118898 0
0.862837 0.119829 0
0.890501 0.120806 0
0.918059 0.121798 0
0.94548 0.122835 0
0.972793 0.123888 0
1 0.124987 0
0 0.156237 0
0.0504616 0.151049 0
0.0913863 0.14844 0
0.129442 0.146593 0
0.165759 0.145235 0
0.200839 0.144198 0
0.235004 0.143404 0
0.268391 0.142824 0
0.301152 0.142428 0
0.333379 0.142153 0
0.365133 0.142031 0
0.39646 0.142 0
0.427436 0.142077 0
0.458061 0.142245 0
0.48838 0.142504 0
0.518425 0.142824 0
0.548211 0.143221 0
0.577752 0.143679 0
0.607065 0.144198 0
0.636179 0.144778 0
0.665095 0.145403 0
0.693828 0.14609 0
0.722377 0.146822 0
0.750774 0.147585 0
0.779004 0.148409 0
0.80708 0.149264 0
0.835019 0.150149 0
0.862837 0.15108 0
0.890501 0.152056 0
0.918059 0.153048 0
0.94548 0.154086 0
0.972793 0.155138 0
1 0.156237 0
0 0.187488 0
0.0504616 0.1823 0
0.0913863 0.17969 0
0.129442 0.177844 0
0.165759 0.176486 0
0.200839 0.175448 0
0.235004 0.174655 0
0.268391 0.174075 0
0.301152 0.173678 0
0.333379 0.173404 0
0.365133 0.173281 0
0.39646 0.173251 0
0.427436 0.173327 0
0.458061 0.173495 0
0.48838 0.173754 0
0.518425 0.174075 0
0.548211 0.174472 0
0.577752 0.174929 0
0.607065 0.175448 0
0.636179 0.176028 0
0.665095 0.176654 0
0.693828 0.17734 0
0.722377 0.178073 0
0.750774 0.178836 0
0.779004 0.17966 0
0.80708 0.180514 0
0.835019 0.181399 0
0.862837 0.18233 0
0.890501 0.183307 0
0.918059 0.184298 0
0.94548 0.185336 0
0.972793 0.186389 0
1 0.187488 0
0 0.218738 0
0.0504616 0.21355 0
0.0913863 0.210941 0
0.129442 0.209094 0
0.165759 0.207736 0
0.200839 0.206699 0
0.235004 0.205905 0
0.268391 0.205325 0
0.301152 0.204929 0
0.333379 0.204654 0
0.365133 0.204532 0
0.39646 0.204501 0
0.427436 0.204578 0
0.458061 0.204746 0
0.48838 0.205005 0
0.518425 0.205325 0
0.548211 0.205722 0
0.577752 0.20618 0
0.607065 0.206699 0
0.636179 0.207279 0
0.665095 0.207904 0
0.693828 0.208591 0
0.722377 0.209323 0
0.750774 0.210086 0
0.779004 0.21091 0
0.80708 0.211765 0
0.835019 0.21265 0
0.862837 0.213581 0
0.890501 0.214557 0
0.918059 0.215549 0
0.94548 0.216587 0
0.972793 0.217639 0
1 0.218738 0
0 0.249989 0
0.0504616 0.2448 0
0.0913863 0.242191 0
0.129442 0.240345 0
0.165759 0.238987 0
0.200839 0.237949 0
0.235004 0.237156 0
0.268391 0.236576 0
0.301152 0.236179 0
0.333379 0.235904 0
0.365133 0.235782 0
0.39646 0.235752 0
0.427436 0.235828 0
0.458061 0.235996 0
0.48838 0.236255 0
0.518425 0.236576 0
0.548211 0.236973 0
0.577752 0.23743 0
0.607065 0.237949 0
0.636179 0.238529 0
0.665095 0.239155 0
0.693828 0.239841 0
0.722377 0.240574 0
0.750774 0.241337 0
0.779004 0.242161 0
0.80708 0.243015 0
0.835019 0.2439 0
0.862837 0.244831 0
0.890501 0.245808 0
0.918059 0.246799 0
0.94548 0.247837 0
0.972793 0.24889 0
1 0.249989 0
0 0.281239 0
0.0504616 0.276051 0
0.0913863 0.273442 0
0.129442 0.271595 0
0.165759 0.270237 0
0.200839 0.2692 0
0.235004 0.268406 0
0.268391 0.267826 0
0.301152 0.26743 0
0.333379 0.267155 0
0.365133 0.267033 0
0.39646 0.267002 0
0.427436 0.267079 0
0.458061 0.267247 0
0.48838 0.267506 0
0.518425 0.267826 0
0.548211 0.268223 0
0.577752 0.268681 0
0.607065 0.2692 0
0.636179 0.26978 0
0.665095 0.270405 0
0.693828 0.271092 0
0.722377 0.271824 0
0.750774 0.272587 0
0.779004 0.273411 0
0.80708 0.274266 0
0.835019 0.275151 0
0.862837 0.276081 0
0.890501 0.277058 0
0.918059 0.27805 0
0.94548 0.279088 0
0.972793 0.28014 0
1 0.281239 0
0 0.31249 0
0.0504616 0.307301 0
0.0913863 0.304692 0
0.129442 0.302846 0
0.165759 0.301488 0
0.200839 0.30045 0
0.235004 0.299657 0
0.268391 0.299077 0
0.301152 0.29868 0
0.333379 0.298405 0
0.365133 0.298283 0
0.39646 0.298253 0
0.427436 0.298329 0
0.458061 0.298497 0
0.48838 0.298756 0
0.518425 0.299077 0
0.548211 0.299474 0
0.577752 0.299931 0
0.607065 0.30045 0
0.636179 0.30103 0
0.665095 0.301656 0
0.693828 0.302342 0
0.722377 0.303075 0
0.750774 0.303838 0
0.779004 0.304662 0
0.80708 0.305516 0
0.835019 0.306401 0
0.862837 0.307332 0
0.890501 0.308309 0
0.918059 0.3093 0
0.94548 0.310338 0
0.972793 0.311391 0
1 0.31249 0
0 0.34374 0
0.0504616 0.338552 0
0.0913863 0.335943 0
0.129442 0.334096 0
0.165759 0.332738 0
0.200839 0.331701 0
0.235004 0.330907 0
0.268391 0.330327 0
0.301152 0.329931 0
0.333379 0.329656 0
0.365133 0.329534 0
0.39646 0.329503 0
0.427436 0.32958 0
0.458061 0.329747 0
0.48838 0.330007 0
0.518425 0.330327 0
0.548211 0.330724 0
0.577752 0.331182 0
0.607065 0.331701 0
0.636179 0.33228 0
0.665095 0.332906 0
0.693828 0.333593 0
0.722377 0.334325 0
0.750774 0.335088 0
0.779004 0.335912 0
0.80708 0.336767 0
0.835019 0.337652 0
0.862837 0.338582 0
0.890501 0.339559 0
0.918059 0.340551 0
0.94548 0.341588 0
0.972793 0.342641 0
1 0.34374 0
0 0.37499 0
0.0504616 0.369802 0
0.0913863 0.367193 0
0.129442 0.365347 0
0.165759 0.363989 0
0.200839 0.362951 0
0.235004 0.362158 0
0.268391 0.361578 0
0.301152 0.361181 0
0.333379 0.360906 0
0.365133 0.360784 0
0.39646 0.360754 0
0.427436 0.36083 0
0.458061 0.360998 0
0.48838 0.361257 0
0.518425 0.361578 0
0.548211 0.361975 0
0.577752 0.362432 0
0.607065 0.362951 0
0.636179 0.363531 0
0.665095 0.364157 0
0.693828 0.364843 0
0.722377 0.365576 0
0.750774 0.366339 0
0.779004 0.367163 0
0.80708 0.368017 0
0.835019 0.368902 0
0.862837 0.369833 0
0.890501 0.370809 0
0.918059 0.371801 0
0.94548 0.372839 0
0.972793 0.373892 0
1 0.37499 0
0 0.406241 0
0.0504616 0.401053 0
0.0913863 0.398444 0
0.129442 0.396597 0
0.165759 0.395239 0
0.200839 0.394202 0
0.235004 0.393408 0
0.268391 0.392828 0
0.301152 0.392432 0
0.333379 0.392157 0
0.365133 0.392035 0
0.39646 0.392004 0
0.427436 0.392081 0
0.458061 0.392248 0
0.48838 0.392508 0
0.518425 0.392828 0
0.548211 0.393225 0
0.577752 0.393683 0
0.607065 0.394202 0
0.636179 0.394781 0
0.665095 0.395407 0
0.693828 0.396094 0
0.722377 0.396826 0
0.750774 0.397589 0
0.779004 0.398413 0
0.80708 0.399268 0
0.835019 0.400153 0
0.862837 0.401083 0
0.890501 0.40206 0
0.918059 0.403052 0
0.94548 0.404089 0
0.972793 0.405142 0
1 0.406241 0
0 0.437491 0
0.0504616 0.432303 0
0.0913863 0.429694 0
0.129442 0.427848 0
0.165759 0.42649 0
0.200839 0.425452 0
0.235004 0.424659 0
0.268391 0.424079 0
0.301152 0.423682 0
0.333379 0.423407 0
0.365133 0.423285 0
0.39646 0.423255 0
0.427436 0.423331 0
0.458061 0.423499 0
0.48838 0.423758 0
0.518425 0.424079 0
0.548211 0.424475 0
0.577752 0.424933 0
0.607065 0.425452 0
0.636179 0.426032 0
0.665095 0.426657 0
0.693828 0.427344 0
0.722377 0.428077 0
0.750774 0.42884 0
0.779004 0.429664 0
0.80708 0.430518 0
0.835019 0.431403 0
0.862837 0.432334 0
0.890501 0.43331 0
0.918059 0.434302 0
0.94548 0.43534 0
0.972793 0.436393 0
1 0.437491 0
0 0.468742 0
0.0504616 0.463554 0
0.0913863 0.460945 0
0.129442 0.459098 0
0.165759 0.45774 0
0.200839 0.456703 0
0.235004 0.455909 0
0.268391 0.455329 0
0.301152 0.454932 0
0.333379 0.454658 0
0.365133 0.454536 0
0.39646 0.454505 0
0.427436 0.454582 0
0.458061 0.454749 0
0.48838 0.455009 0
0.518425 0.455329 0
0.548211 0.455726 0
0.577752 0.456184 0
0.607065 0.456703 0
0.636179 0.457282 0
0.665095 0.457908 0
0.693828 0.458595 0
0.722377 0.459327 0
0.750774 0.46009 0
0.779004 0.460914 0
0.80708 0.461769 0
0.835019 0.462654 0
0.862837 0.463584 0
0.890501 0.464561 0
0.918059 0.465553 0
0.94548 0.46659 0
0.972793 0.467643 0
1 0.468742 0
0 0.499992 0
0.0504616 0.494804 0
0.0913863 0.492195 0
0.129442 0.490349 0
0.165759 0.488991 0
0.200839 0.487953 0
0.235004 0.48716 0
0.268391 0.48658 0
0.301152 0.486183 0
0.333379 0.485908 0
0.365133 0.485786 0
0.39646 0.485756 0
0.427436 0.485832 0
0.458061 0.486 0
0.48838 0.486259 0
0.518425 0.48658 0
0.548211 0.486976 0
0.577752 0.487434 0
0.607065 0.487953 0
0.636179 0.488533 0
0.665095 0.489158 0
0.693828 0.489845 0
0.722377 0.490578 0
0.750774 0.491341 0
0.779004 0.492164 0
0.80708 0.493019 0
0.835019 0.493904 0
0.862837 0.494835 0
0.890501 0.495811 0
0.918059 0.496803 0
0.94548 0.497841 0
0.972793 0.498894 0
1 0.499992 0
0 0.531243 0
0.0504616 0.526055 0
0.0913863 0.523445 0
0.129442 0.521599 0
0.165759 0.520241 0
0.200839 0.519203 0
0.235004 0.51841 0
0.268391 0.51783 0
0.301152 0.517433 0
0.333379 0.517159 0
0.365133 0.517037 0
0.39646 0.517006 0
0.427436 0.517082 0
0.458061 0.51725 0
0.48838 0.51751 0
0.518425 0.51783 0
0.548211 0.518227 0
0.577752 0.518685 0
0.607065 0.519203 0
0.636179 0.519783 0
0.665095 0.520409 0
0.693828 0.521096 0
0.722377 0.521828 0
0.750774 0.522591 0
0.779004 0.523415 0
0.80708 0.524269 0
0.835019 0.525154 0
0.862837 0.526085 0
0.890501 0.527062 0
0.918059 0.528054 0
0.94548 0.529091 0
0.972793 0.530144 0
1 0.531243 0
0 0.562493 0
0.0504616 0.557305 0
0.0913863 0.554696 0
0.129442 0.55285 0
0.165759 0.551492 0
0.200839 0.550454 0
0.235004 0.549661 0
0.268391 0.549081 0
0.301152 0.548684 0
0.333379 0.548409 0
0.365133 0.548287 0
0.39646 0.548257 0
0.427436 0.548333 0
0.458061 0.548501 0
0.48838 0.54876 0
0.518425 0.549081 0
0.548211 0.549477 0
0.577752 0.549935 0
0.607065 0.550454 0
0.636179 0.551034 0
0.665095 0.551659 0
0.693828 0.552346 0
0.722377 0.553079 0
0.750774 0.553841 0
0.779004 0.554665 0
0.80708 0.55552 0
0.835019 0.556405 0
0.862837 0.557336 0
0.890501 0.558312 0
0.918059 0.559304 0
0.94548 0.560342 0
0.972793 0.561395 0
1 0.562493 0
0 0.593744 0
0.0504616 0.588556 0
0.0913863 0.585946 0
0.129442 0.5841 0
0.165759 0.582742 0
0.200839 0.581704 0
0.235004 0.580911 0
0.268391 0.580331 0
0.301152 0.579934 0
0.333379 0.57966 0
0.365133 0.579538 0
0.39646 0.579507 0
0.427436 0.579583 0
0.458061 0.579751 0
0.48838 0.580011 0
0.518425 0.580331 0
0.548211 0.580728 0
0.577752 0.581186 0
0.607065 0.581704 0
0.636179 0.582284 0
0.665095 0.58291 0
0.693828 0.583597 0
0.722377 0.584329 0
0.750774 0.585092 0
0.779004 0.585916 0
0.80708 0.58677 0
0.835019 0.587655 0
0.862837 0.588586 0
0.890501 0.589563 0
0.918059 0.590555 0
0.94548 0.591592 0
0.972793 0.592645 0
1 0.593744 0
0 0.624994 0
0.0504616 0.619806 0
0.0913863 0.617197 0
0.129442 0.615351 0
0.165759 0.613993 0
0.200839 0.612955 0
0.235004 0.612161 0
0.268391 0.611582 0
0.301152 0.611185 0
0.333379 0.61091 0
0.365133 0.610788 0
0.39646 0.610758 0
0.427436 0.610834 0
0.458061 0.611002 0
0.48838 0.611261 0
0.518425 0.611582 0
0.548211 0.611978 0
0.577752 0.612436 0
0.607065 0.612955 0
0.636179 0.613535 0
0.665095 0.61416 0
0.693828 0.614847 0
0.722377 0.615579 0
0.750774 0.616342 0
0.779004 0.617166 0
0.80708 0.618021 0
0.835019 0.618906 0
0.862837 0.619837 0
0.890501 0.620813 0
0.918059 0.621805 0
0.94548 0.622843 0
0.972793 0.623896 0
1 0.624994 0
0 0.656245 0
0.0504616 0.651057 0
0.0913863 0.648447 0
0.129442 0.646601 0
0.165759 0.645243 0
0.200839 0.644205 0
0.235004 0.643412 0
0.268391 0.642832 0
0.301152 0.642435 0
0.333379 0.642161 0
0.365133 0.642039 0
0.39646 0.642008 0
0.427436 0.642084 0
0.458061 0.642252 0
0.48838 0.642512 0
0.518425 0.642832 0
0.548211 0.643229 0
0.577752 0.643687 0
0.607065 0.644205 0
0.636179 0.644785 0
0.665095 0.645411 0
0.693828 0.646097 0
0.722377 0.64683 0
0.750774 0.647593 0
0.779004 0.648417 0
0.80708 0.649271 0
0.835019 0.650156 0
0.862837 0.651087 0
0.890501 0.652064 0
0.918059 0.653056 0
0.94548 0.654093 0
0.972793 0.655146 0
1 0.656245 0
0 0.687495 0
0.0504616 0.682307 0
0.0913863 0.679698 0
0.129442 0.677852 0
0.165759 0.676493 0
0.200839 0.675456 0
0.235004 0.674662 0
0.268391 0.674083 0
0.301152 0.673686 0
0.333379 0.673411 0
0.365133 0.673289 0
0.39646 0.673259 0
0.427436 0.673335 0
0.458061 0.673503 0
0.48838 0.673762 0
0.518425 0.674083 0
0.548211 0.674479 0
0.577752 0.674937 0
0.607065 0.675456 0
0.636179 0.676036 0
0.665095 0.676661 0
0.693828 0.677348 0
0.722377 0.67808 0
0.750774 0.678843 0
0.779004 0.679667 0
0.80708 0.680522 0
0.835019 0.681407 0
0.862837 0.682338 0
0.890501 0.683314 0
0.918059 0.684306 0
0.94548 0.685344 0
0.972793 0.686397 0
1 0.687495 0
0 0.718746 0
0.0504616 0.713558 0
0.0913863 0.710948 0
0.129442 0.709102 0
0.165759 0.707744 0
0.200839 0.706706 0
0.235004 0.705913 0
0.268391 0.705333 0
0.301152 0.704936 0
0.333379 0.704662 0
0.365133 0.70454 0
0.39646 0.704509 0
0.427436 0.704585 0
0.458061 0.704753 0
0.48838 0.705013 0
0.518425 0.705333 0
0.548211 0.70573 0
0.577752 0.706188 0
0.607065 0.706706 0
0.636179 0.707286 0
0.665095 0.707912 0
0.693828 0.708598 0
0.722377 0.709331 0
0.750774 0.710094 0
0.779004 0.710918 0
0.80708 0.711772 0
0.835019 0.712657 0
0.862837 0.713588 0
0.890501 0.714565 0
0.918059 0.715557 0
0.94548 0.716594 0
0.972793 0.717647 0
1 0.718746 0
0 0.749996 0
0.0504616 0.744808 0
0.0913863 0.742199 0
0.129442 0.740353 0
0.165759 0.738994 0
0.200839 0.737957 0
0.235004 0.737163 0
0.268391 0.736584 0
0.301152 0.736187 0
0.333379 0.735912 0
0.365133 0.73579 0
0.39646 0.735759 0
0.427436 0.735836 0
0.458061 0.736004 0
0.48838 0.736263 0
0.518425 0.736584 0
0.548211 0.73698 0
0.577752 0.737438 0
0.607065 0.737957 0
0.636179 0.738537 0
0.665095 0.739162 0
0.693828 0.739849 0
0.722377 0.740581 0
0.750774 0.741344 0
0.779004 0.742168 0
0.80708 0.743023 0
0.835019 0.743908 0
0.862837 0.744839 0
0.890501 0.745815 0
0.918059 0.746807 0
0.94548 0.747845 0
0.972793 0.748898 0
1 0.749996 0
0 0.781247 0
0.0504616 0.776059 0
0.0913863 0.773449 0
0.129442 0.771603 0
0.165759 0.770245 0
0.200839 0.769207 0
0.235004 0.768414 0
0.268391 0.767834 0
0.301152 0.767437 0
0.333379 0.767163 0
0.365133 0.76704 0
0.39646 0.76701 0
0.427436 0.767086 0
0.458061 0.767254 0
0.48838 0.767514 0
0.518425 0.767834 0
0.548211 0.768231 0
0.577752 0.768688 0
0.607065 0.769207 0
0.636179 0.769787 0
0.665095 0.770413 0
0.693828 0.771099 0
0.722377 0.771832 0
0.750774 0.772595 0
0.779004 0.773419 0
0.80708 0.774273 0
0.835019 0.775158 0
0.862837 0.776089 0
0.890501 0.777066 0
0.918059 0.778058 0
0.94548 0.779095 0
0.972793 0.780148 0
1 0.781247 0
0 0.812497 0
0.0504616 0.807309 0
0.0913863 0.8047 0
0.129442 0.802853 0
0.165759 0.801495 0
0.200839 0.800458 0
0.235004 0.799664 0
0.268391 0.799084 0
0.301152 0.798688 0
0.333379 0.798413 0
0.365133 0.798291 0
0.39646 0.79826 0
0.427436 0.798337 0
0.458061 0.798505 0
0.48838 0.798764 0
0.518425 0.799084 0
0.548211 0.799481 0
0.577752 0.799939 0
0.607065 0.800458 0
0.636179 0.801038 0
0.665095 0.801663 0
0.693828 0.80235 0
0.722377 0.803082 0
0.750774 0.803845 0
0.779004 0.804669 0
0.80708 0.805524 0
0.835019 0.806409 0
0.862837 0.80734 0
0.890501 0.808316 0
0.918059 0.809308 0
0.94548 0.810346 0
0.972793 0.811399 0
1 0.812497 0
0 0.843748 0
0.0504616 0.83856 0
0.0913863 0.83595 0
0.129442 0.834104 0
0.165759 0.832746 0
0.200839 0.831708 0
0.235004 0.830915 0
0.268391 0.830335 0
0.301152 0.829938 0
