public/LUTS/Autumn/Autumn_11.cube
TITLE "Generated by Resolve"
LUT_3D_SIZE 9
0.0561379 0.0773938 0.0809949
0.238392 0.101625 0.00743114
0.485573 0.109117 0
0.811109 0.105562 0
1 0.0969253 0
1 0.143725 0
1 0.234363 0
1 0.329107 0
1 0.380987 0
0.0275273 0.150042 0.079408
0.225834 0.130282 0.0142214
0.495109 0.147677 0
0.824369 0.163073 0
1 0.170474 0
1 0.194583 0
1 0.244907 0
1 0.316899 0
1 0.351095 0
0 0.23389 0.0847944
0.136385 0.257649 0.0271
0.512367 0.204776 0
0.864622 0.239048 0
1 0.289799 0
1 0.349981 0
1 0.417426 0
1 0.487465 0
1 0.498573 0
0 0.363012 0.0789807
0.0261387 0.397971 0.00575265
0.430259 0.415778 0
0.864729 0.334478 0
1 0.387533 0
1 0.454749 0
1 0.528756 0
1 0.586435 0
1 0.594095 0
0 0.52813 0.0657359
0.000213626 0.561334 0
0.306844 0.633127 0
0.751934 0.565011 0
0.99472 0.507515 0
1 0.551568 0
1 0.615488 0
1 0.65301 0
1 0.658991 0
0 0.696635 0.0413519
0 0.719341 0
0.228717 0.781781 0
0.625986 0.808499 0
0.876997 0.719448 0
1 0.666514 0
1 0.692393 0
1 0.718013 0
1 0.722805 0
0 0.855802 0.011841
0 0.867414 0
0.17702 0.903456 0
0.539498 0.918379 0
0.761105 0.919631 0
0.914458 0.855726 0
0.994354 0.79852 0
1 0.786206 0
1 0.787091 0
0 0.993271 0
0 0.991882 0
0.154116 0.996033 0
0.453635 1 0
0.655634 1 0
0.822492 1 0
0.922057 0.973007 0
0.938613 0.901183 0
0.948653 0.883589 0
0 1 0
0 1 0
0.145159 1 0
0.399207 1 0
0.601251 1 0
0.774121 1 0
0.914717 1 0
0.914885 1 0
0.914717 1 0
0 0.138048 0.205509
0.146807 0.123125 0.11574
0.37818 0.146059 0.0466163
0.734218 0.156695 0
0.999252 0.160098 0
1 0.184771 0
1 0.243305 0
1 0.331411 0
1 0.381064 0
0 0.149859 0.173022
0.169696 0.144503 0.116793
0.470893 0.144518 0
0.822797 0.146502 0
1 0.144533 0
1 0.166476 0
1 0.219806 0
1 0.296407 0
1 0.352377 0
0 0.275624 0.19147
0.0773327 0.24715 0.101152
0.461204 0.210559 0
0.804608 0.249805 0
1 0.294072 0
1 0.338399 0
1 0.378698 0
1 0.427222 0
1 0.456275 0
0 0.398199 0.177646
0.0027924 0.380743 0.0710765
0.347753 0.421027 0
0.804944 0.340597 0
0.998474 0.394598 0
1 0.460075 0
1 0.523217 0
1 0.582513 0
1 0.594644 0
0 0.556848 0.154299
0 0.546227 0.0397345
0.222538 0.608835 0
0.672847 0.595102 0
0.974319 0.512856 0
1 0.560067 0
1 0.620325 0
1 0.663661 0
1 0.666484 0
0 0.717311 0.12221
0 0.714046 0.00746166
0.15787 0.757946 0
0.558923 0.798886 0
0.823987 0.746212 0
1 0.674769 0
1 0.697932 0
1 0.726848 0
1 0.728969 0
0 0.869017 0.0909285
0 0.869718 0
0.116091 0.885588 0
0.472511 0.908644 0
0.73022 0.916136 0
0.874693 0.874952 0
0.9935 0.800046 0
0.99968 0.790097 0
0.999893 0.79263 0
0 0.994995 0.0904555
0 0.992889 0
0.0988937 0.989166 0
0.40209 0.995804 0
0.621958 0.99971 0
0.787442 0.999695 0
0.925261 0.973068 0
0.93962 0.899474 0
0.949996 0.880995 0
0 1 0.129274
0 1 0
0.0922713 1 0
0.349187 1 0
0.555657 1 0
0.728725 1 0
0.912139 1 0
0.915541 1 0
0.915236 1 0
0 0.216358 0.369894
0.00946059 0.203525 0.270726
0.22118 0.192111 0.148455
0.493065 0.2383 0.102586
0.857084 0.261067 0.00825513
1 0.29044 0
1 0.331716 0
1 0.378592 0
1 0.406714 0
0 0.227359 0.336004
0.0065156 0.218982 0.314
0.270237 0.203204 0.161288
0.599908 0.236301 0.0812085
0.943679 0.251118 0
1 0.285405 0
1 0.32195 0
1 0.367514 0
1 0.404822 0
0 0.24506 0.304845
0.0010071 0.26627 0.312413
0.342458 0.244648 0.180209
0.764813 0.234455 0.0137484
0.996704 0.258824 0
1 0.28455 0
1 0.314931 0
1 0.366003 0
1 0.410071 0
0 0.468162 0.398428
0 0.426398 0.289693
0.184741 0.425345 0.111635
0.718517 0.365652 0.00166323
0.95172 0.42182 0
1 0.481895 0
1 0.533486 0
1 0.574945 0
1 0.587533 0
0 0.632273 0.392981
0 0.578363 0.252979
0.0838941 0.593912 0.0745251
0.557809 0.624598 0
0.916365 0.530648 0
1 0.578302 0
1 0.634119 0
1 0.678843 0
1 0.679957 0
0 0.769345 0.374411
0 0.730938 0.214755
0.0582742 0.74406 0.0280919
0.442908 0.781109 0
0.761547 0.770596 0
0.983505 0.682292 0
1 0.709468 0
1 0.744137 0
1 0.743252 0
0 0.894743 0.356909
0 0.874846 0.17734
0.0430457 0.878065 0.00349432
0.373007 0.894224 0
0.665278 0.904524 0
0.844221 0.884153 0
0.99086 0.805615 0
0.994675 0.801389 0
0.994659 0.801968 0
0 0.999756 0.360555
0 0.992309 0.160647
0.0386358 0.987747 0.000274662
0.328145 0.988388 0
0.568322 0.994095 0
0.74902 0.996948 0
0.913222 0.97911 0
0.940948 0.897047 0
0.952285 0.87689 0
0 1 0.383856
0 1 0.155932
0.0392157 1 0.00830091
0.287678 1 0.00112917
0.501915 1 0
0.678996 1 0
0.876646 1 0
0.918685 1 0
0.918715 1 0
0 0.319097 0.574548
0 0.309743 0.445075
0.00213626 0.310475 0.338201
0.297398 0.297917 0.130068
0.66244 0.3084 0.0581521
0.912612 0.374121 0.0153353
1 0.426566 0.0103761
1 0.456001 0
1 0.49102 0.00544747
0 0.332937 0.54519
0 0.323018 0.527565
0.00798047 0.321035 0.38526
0.367758 0.296559 0.1673
0.703792 0.327672 0.0963607
0.945068 0.384756 0.0445106
1 0.425116 0.0128023
1 0.458396 0
1 0.485954 0
0 0.337484 0.522866
0 0.357259 0.546502
0.0209201 0.349905 0.490745
0.471122 0.326818 0.245319
0.794263 0.365087 0.183017
0.996429 0.388785 0.0889143
1 0.419608 0.0220951
1 0.456397 0
1 0.465232 0
0 0.368414 0.495308
0 0.40296 0.507424
0.00654612 0.442847 0.514244
0.551995 0.421546 0.341085
0.893065 0.426719 0.213291
1 0.442924 0.108675
1 0.461845 0.0196078
1 0.497475 0
1 0.523705 0
0 0.603647 0.638376
0 0.650904 0.574762
0 0.632456 0.471412
0.39118 0.627359 0.239597
0.844556 0.56582 0.123033
0.986969 0.608865 0.0408637
1 0.653208 0
1 0.690532 0
1 0.690257 0
0 0.808774 0.722713
0 0.784695 0.553292
0 0.768444 0.399527
0.307149 0.767758 0.189425
0.692287 0.781323 0.0809491
0.953033 0.701854 0
1 0.727504 0
1 0.762264 0
1 0.763119 0
0 0.910109 0.711727
0 0.89781 0.527932
0 0.89308 0.320668
0.276402 0.881422 0.136126
0.581323 0.889967 0.0838178
0.813886 0.885695 0.0479133
0.99173 0.813947 0
0.990143 0.818677 0
0.985168 0.818784 0
0 1 0.704326
0 0.993271 0.519051
0 0.992874 0.269245
0.251423 0.97818 0.122316
0.499931 0.982361 0.0996414
0.703059 0.990417 0.0711528
0.885512 0.979416 0.0322576
0.94052 0.898344 0
0.951019 0.879133 0
0 1 0.696345
0 1 0.520867
0 1 0.246189
0.230274 1 0.126986
0.444938 1 0.114229
0.631937 1 0.0826276
0.817502 1 0.0282139
0.924559 1 0.00103761
0.926879 1 0
0 0.452262 0.797299
0 0.437201 0.631952
0 0.434043 0.498527
0.0187839 0.440864 0.323018
0.488014 0.394644 0.0231174
0.833173 0.379721 0
0.997269 0.454093 0.0570077
1 0.522576 0.311635
1 0.580453 0.477653
0 0.459236 0.773663
0 0.441459 0.745007
0 0.43856 0.574197
0.0509194 0.443122 0.366827
0.543023 0.390646 0.0775769
0.852277 0.392523 0.0112612
0.998688 0.464927 0.138109
1 0.535042 0.370382
1 0.572534 0.442496
0 0.462882 0.755627
0 0.47245 0.778408
0 0.465537 0.740185
0.129091 0.455772 0.487327
0.616312 0.409232 0.226764
0.886671 0.437171 0.187976
1 0.497978 0.312261
1 0.544106 0.394278
1 0.556664 0.357031
0 0.46833 0.738506
0 0.490394 0.747906
0 0.52987 0.782757
0.212573 0.501823 0.673655
0.685435 0.49192 0.434226
0.926085 0.528542 0.452155
1 0.549386 0.420752
1 0.558068 0.347738
1 0.553094 0.270298
0 0.509178 0.717174
0 0.546731 0.716899
0 0.590967 0.740505
0.176516 0.625834 0.715694
0.714092 0.613596 0.567651
0.938277 0.625788 0.497169
1 0.632563 0.419028
1 0.630625 0.315129
1 0.632898 0.23537
0 0.717678 0.856321
0 0.768887 0.827695
0 0.802716 0.795789
0.0831159 0.794186 0.647639
0.605173 0.767544 0.444923
0.907988 0.723903 0.342824
0.999985 0.743847 0.26453
1 0.763928 0.150362
1 0.761166 0.0733501
0 0.906294 0.982208
0 0.91165 0.869917
0 0.906676 0.755688
0.0964065 0.895857 0.53228
0.513939 0.872496 0.36817
0.775952 0.879133 0.281651
0.994904 0.81059 0.0434882
1 0.818372 0.00404364
1 0.821805 0
0 1 0.976135
0 0.994385 0.842908
0 0.992782 0.718303
0.123552 0.986694 0.436637
0.459525 0.964508 0.314687
0.661234 0.970352 0.265751
0.855756 0.972091 0.19852
0.969635 0.900572 0
0.972732 0.889082 0
0 1 0.94641
0 1 0.816114
0 1 0.688014
0.15494 1 0.363928
0.415 1 0.281117
0.587366 1 0.265736
0.763943 1 0.193469
0.933257 1 0.123781
0.935409 1 0.115526
0 0.589029 0.976852
0 0.567636 0.811627
0 0.559228 0.674205
0 0.551156 0.546578
0.200732 0.545663 0.325063
0.701457 0.472633 0.131563
0.947814 0.484199 0.135119
1 0.534691 0.327855
1 0.606043 0.590875
0 0.583368 0.962646
0 0.561746 0.935454
0 0.5552 0.771557
0 0.54844 0.615442
0.25452 0.539239 0.390768
0.716808 0.477562 0.226947
0.960571 0.48864 0.207553
1 0.545541 0.401801
1 0.608179 0.612207
0 0.583124 0.950347
0 0.57879 0.963561
0 0.568139 0.950118
0.000106813 0.56054 0.773068
0.369833 0.530785 0.547463
0.750469 0.501564 0.394461
0.988418 0.508782 0.366476
1 0.573007 0.531029
1 0.618433 0.656138
0 0.584207 0.939773
0 0.597818 0.941527
0 0.623133 0.976959
0.0277714 0.602335 0.943725
0.472541 0.548562 0.734401
0.821973 0.545922 0.562203
0.996918 0.579004 0.584909
1 0.621653 0.661616
1 0.638834 0.662974
0 0.593744 0.927977
0 0.61236 0.923156
0 0.652094 0.948318
0.0269627 0.684901 0.959548
0.530846 0.636011 0.835813
0.84509 0.640574 0.687388
0.993378 0.675441 0.709178
1 0.681056 0.662577
1 0.672724 0.608164
0 0.639124 0.913451
0 0.672663 0.903868
0 0.711055 0.922545
0.00720226 0.746654 0.928664
0.504692 0.747143 0.816541
0.835386 0.748608 0.711894
0.98735 0.755718 0.672969
1 0.744778 0.608789
1 0.735271 0.557153
0 0.813413 1
0 0.848478 0.997726
0 0.886976 0.99556
0 0.9084 0.960678
0.357336 0.882582 0.748074
0.741695 0.856275 0.600793
0.974227 0.819287 0.48716
1 0.824704 0.434531
1 0.828092 0.386328
0 0.956451 1
0 0.99144 1
0 0.995285 0.985473
0 0.994049 0.900069
0.353979 0.970672 0.624567
0.647486 0.946761 0.516762
0.823148 0.957107 0.427558
0.998459 0.888563 0.167178
1 0.882841 0.13843
0 1 1
0 1 0.99968
0 1 0.957107
0 1 0.814893
0.360784 1 0.527947
0.574319 1 0.459998
0.721767 1 0.411185
0.934417 1 0.306203
0.945968 1 0.292271
0 0.718288 1
0 0.697566 0.992432
0 0.683803 0.923125
0 0.671656 0.8477
0.0348211 0.658076 0.768704
0.48983 0.613642 0.627878
0.846265 0.582635 0.533074
1 0.590356 0.527749
1 0.612253 0.610117
0 0.703349 1
0 0.68513 1
0 0.67364 0.985626
0 0.665125 0.904646
0.0654002 0.6486 0.815625
0.534096 0.599207 0.676768
0.868254 0.57792 0.571786
1 0.587762 0.55761
1 0.615518 0.650599
0 0.697047 1
0 0.684855 1
0 0.671 1
0 0.665644 0.992401
0.140307 0.63711 0.907637
0.606729 0.57882 0.759899
0.903731 0.571893 0.643107
1 0.587289 0.617716
1 0.627634 0.716838
0 0.695064 1
0 0.698878 1
0 0.706188 1
0 0.696223 1
0.243687 0.653407 0.988281
0.686458 0.597223 0.857969
0.937331 0.594675 0.739101
1 0.619715 0.715557
1 0.654871 0.773632
0 0.696315 1
0 0.707942 1
0 0.735363 1
0 0.758862 1
0.317678 0.707439 0.999237
0.729519 0.668193 0.908949
0.944945 0.663005 0.804959
1 0.687266 0.788769
1 0.704295 0.811994
0 0.708797 1
0 0.724437 1
0 0.752453 1
0 0.785031 1
0.295308 0.781353 0.99469
0.741772 0.753948 0.905547
0.930236 0.751278 0.822003
1 0.760861 0.819257
1 0.761395 0.809903
0 0.752834 1
0 0.779538 1
0 0.806577 1
0 0.832883 1
0.23801 0.835737 0.986481
0.689189 0.831922 0.876387
0.900755 0.835019 0.804059
1 0.829557 0.76936
1 0.824735 0.75259
0 0.887892 1
0 0.912932 1
0 0.941131 1
0 0.971023 1
0.0212711 0.988602 0.990158
0.552407 0.950149 0.812619
0.804593 0.929549 0.707942
0.999359 0.89369 0.599557
1 0.893965 0.584924
0 0.998993 1
0 1 1
0 1 1
0 1 1
0.0477302 1 0.928862
0.518425 1 0.702998
0.713222 1 0.626352
0.901747 1 0.534844
0.959808 1 0.511833
0 0.838376 1
0 0.823835 1
0 0.808988 1
0 0.798123 1
0 0.786114 1
0.303639 0.732494 0.981491
0.750103 0.671031 0.894072
0.982696 0.648188 0.830076
1 0.659983 0.806668
0 0.818906 1
0 0.806363 1
0 0.794629 1
0 0.785992 1
0 0.777783 1
0.349447 0.720363 0.989639
0.773251 0.661585 0.909422
0.989029 0.642054 0.843503
1 0.655283 0.814557
0 0.806622 1
0 0.790921 1
0 0.779095 1
0 0.772229 1
0.000671397 0.765835 1
0.415335 0.70454 0.998245
0.80592 0.651972 0.935607
0.99762 0.636591 0.866468
1 0.652888 0.831769
0 0.801404 1
0 0.794049 1
0 0.790311 1
0 0.778256 1
0.0125429 0.769635 1
0.479103 0.708003 1
0.835569 0.66244 0.963272
1 0.649348 0.89337
1 0.665949 0.850477
0 0.798566 1
0 0.799374 1
0 0.811643 1
0 0.819165 1
0.0363012 0.794507 1
0.532921 0.739101 1
0.856031 0.705379 0.982696
1 0.690257 0.912673
1 0.704234 0.871061
0 0.799634 1
0 0.80528 1
0 0.822599 1
0 0.844312 1
0.0288548 0.845945 1
0.580438 0.782956 1
0.866499 0.761639 0.982513
1 0.7476 0.915145
1 0.755978 0.89073
0 0.811063 1
0 0.821256 1
0 0.837934 1
0 0.858061 1
0.0323339 0.865705 1
0.552422 0.839506 0.999512
0.850736 0.831327 0.961257
0.993988 0.818799 0.902525
1 0.821851 0.903197
0 0.845533 1
0 0.863966 1
0 0.881727 1
0 0.899657 1
0.0200504 0.908049 1
0.5122 0.88571 0.997818
0.801633 0.895232 0.922637
0.955139 0.904799 0.860716
1 0.906096 0.848905
0 0.93753 1
0 0.960082 1
0 0.983047 1
0 0.996643 1
0 1 1
0.298283 1 0.996201
0.678126 1 0.874296
0.860731 0.998642 0.776974
0.977142 0.996414 0.718273
0 0.928527 1
0 0.920089 1
0 0.908202 1
0 0.897002 1
0 0.887678 1
0.110658 0.846113 1
0.632166 0.779599 1
0.916075 0.737179 0.999603
1 0.701549 0.993744
0 0.906508 1
0 0.900801 1
0 0.89247 1
0 0.883787 1
0 0.877424 1
0.150256 0.832639 1
0.656168 0.770291 1
0.925765 0.729198 1
1 0.695537 0.99971
0 0.890745 1
0 0.87805 1
0 0.871305 1
0 0.864927 1
0 0.861509 1
0.202441 0.812192 1
0.690532 0.757061 1
0.940291 0.718791 1
1 0.689052 1
0 0.882689 1
0 0.871641 1
0 0.865187 1
0 0.856031 1
0 0.853941 1
0.227924 0.80238 1
0.719814 0.751919 1
0.951644 0.717647 1
1 0.693477 1
0 0.877485 1
0 0.871656 1
0 0.874006 1
0 0.873503 1
0 0.8654 1
0.267918 0.810086 1
0.747448 0.763561 1
0.962448 0.733776 1
1 0.7131 1
0 0.874632 1
0 0.872786 1
0 0.880659 1
0 0.891768 1
0 0.896757 1
0.390982 0.821469 1
0.79501 0.789456 1
0.979126 0.762448 1
1 0.748653 1
0 0.874907 1
0 0.876616 1
0 0.886351 1
0 0.900404 1
0 0.914 1
0.418799 0.86154 1
0.805219 0.836027 1
0.978317 0.814694 1
1 0.804349 1
0 0.88307 1
0 0.88922 1
0 0.899489 1
0 0.912734 1
0 0.923919 1
0.417472 0.882673 1
0.759823 0.89015 1
0.934249 0.90013 0.99469
1 0.892409 0.977783
0 0.904936 1
0 0.919341 1
0 0.933455 1
0 0.948104 1
0 0.959106 1
0.381415 0.930785 1
0.721172 0.936996 1
0.885191 0.962844 0.960967
0.986984 0.99147 0.907271
