public/LUTS/Autumn/Autumn_02.cube
TITLE "Generated by Resolve"
LUT_3D_SIZE 5
0 0 0
0.273014 0 0
0.546029 0 0
0.819059 0 0
1 0 0
0 0.249989 0
0.273014 0.243778 0
0.546029 0.237552 0
0.819059 0.231342 0
1 0.225132 0
0 0.499992 0
0.273014 0.493782 0
0.546029 0.487556 0
0.819059 0.481346 0
1 0.475135 0
0 0.749996 0
0.273014 0.743786 0
0.546029 0.73756 0
0.819059 0.73135 0
1 0.725139 0
0 1 0
0.273014 0.99379 0
0.546029 0.987564 0
0.819059 0.981353 0
1 0.975143 0
0 0 0.249989
0.273014 0 0.243778
0.546029 0 0.237552
0.819059 0 0.231342
1 0 0.225132
0 0.249989 0.249989
0.273014 0.243778 0.243778
0.546029 0.237552 0.237552
0.819059 0.231342 0.231342
1 0.225132 0.225132
0 0.499992 0.249989
0.273014 0.493782 0.243778
0.546029 0.487556 0.237552
0.819059 0.481346 0.231342
1 0.475135 0.225132
0 0.749996 0.249989
0.273014 0.743786 0.243778
0.546029 0.73756 0.237552
0.819059 0.73135 0.231342
1 0.725139 0.225132
0 1 0.249989
0.273014 0.99379 0.243778
0.546029 0.987564 0.237552
0.819059 0.981353 0.231342
1 0.975143 0.225132
0 0 0.499992
0.273014 0 0.493782
0.546029 0 0.487556
0.819059 0 0.481346
1 0 0.475135
0 0.249989 0.499992
0.273014 0.243778 0.493782
0.546029 0.237552 0.487556
0.819059 0.231342 0.481346
1 0.225132 0.475135
0 0.499992 0.499992
0.273014 0.493782 0.493782
0.546029 0.487556 0.487556
0.819059 0.481346 0.481346
1 0.475135 0.475135
0 0.749996 0.499992
0.273014 0.743786 0.493782
0.546029 0.73756 0.487556
0.819059 0.73135 0.481346
1 0.725139 0.475135
0 1 0.499992
0.273014 0.99379 0.493782
0.546029 0.987564 0.487556
0.819059 0.981353 0.481346
1 0.975143 0.475135
0 0 0.749996
0.273014 0 0.743786
0.546029 0 0.73756
0.819059 0 0.73135
1 0 0.725139
0 0.249989 0.749996
0.273014 0.243778 0.743786
0.546029 0.237552 0.73756
0.819059 0.231342 0.73135
1 0.225132 0.725139
0 0.499992 0.749996
0.273014 0.493782 0.743786
0.546029 0.487556 0.73756
0.819059 0.481346 0.73135
1 0.475135 0.725139
0 0.749996 0.749996
0.273014 0.743786 0.743786
0.546029 0.73756 0.73756
0.819059 0.73135 0.73135
1 0.725139 0.725139
0 1 0.749996
0.273014 0.99379 0.743786
0.546029 0.987564 0.73756
0.819059 0.981353 0.73135
1 0.975143 0.725139
0 0 1
0.273014 0 0.99379
0.546029 0 0.987564
0.819059 0 0.981353
1 0 0.975143
0 0.249989 1
0.273014 0.243778 0.99379
0.546029 0.237552 0.987564
0.819059 0.231342 0.981353
1 0.225132 0.975143
0 0.499992 1
0.273014 0.493782 0.99379
0.546029 0.487556 0.987564
0.819059 0.481346 0.981353
1 0.475135 0.975143
0 0.749996 1
0.273014 0.743786 0.99379
0.546029 0.73756 0.987564
0.819059 0.73135 0.981353
1 0.725139 0.975143
0 1 1
0.273014 0.99379 0.99379
0.546029 0.987564 0.987564
0.819059 0.981353 0.981353
1 0.975143 0.975143
