public/LUTS/Autumn/Autumn_06.cube
TITLE "Generated by Resolve"
LUT_3D_SIZE 33
0 0 0
0.0341192 0 0
0.0682383 0 0
0.102373 0 0
0.136492 0 0
0.170626 0 0
0.204746 0 0
0.23888 0 0
0.273014 0 0
0.307134 0 0
0.341268 0 0
0.375387 0 0
0.409522 0 0
0.443656 0 0
0.477775 0 0
0.51191 0 0
0.546029 0 0
0.580163 0 0
0.614298 0 0
0.648417 0 0
0.682551 0 0
0.71667 0 0
0.750805 0 0
0.784939 0 0
0.819059 0 0
0.853193 0 0
0.887312 0 0
0.921447 0 0
0.955581 0 0
0.9897 0 0
1 0 0
1 0 0
1 0 0
0.000671397 0.0280308 0.000671397
0.0347753 0.0272679 0
0.0689097 0.0264897 0
0.103029 0.0257115 0
0.137163 0.0249332 0
0.171298 0.024155 0
0.205417 0.0233768 0
0.239551 0.0225986 0
0.273671 0.0218204 0
0.307805 0.0210422 0
0.341939 0.020264 0
0.376059 0.0194858 0
0.410193 0.0187076 0
0.444312 0.0179294 0
0.478447 0.0171664 0
0.512581 0.0163882 0
0.5467 0.01561 0
0.580835 0.0148318 0
0.614954 0.0140536 0
0.649088 0.0132753 0
0.683223 0.0124971 0
0.717342 0.0117189 0
0.751476 0.0109407 0
0.785595 0.0101625 0
0.81973 0.0093843 0
0.853864 0.00860609 0
0.887984 0.00782788 0
0.922118 0.00706493 0
0.956237 0.00628672 0
0.990372 0.00550851 0
1 0.0047303 0
1 0.00395209 0
1 0.00317388 0
0.00132753 0.0590219 0.00132753
0.0354467 0.0582437 0.000564584
0.0695811 0.0574655 0
0.1037 0.0566873 0
0.137835 0.0559091 0
0.171954 0.0551308 0
0.206088 0.0543526 0
0.240223 0.0535897 0
0.274342 0.0528115 0
0.308476 0.0520333 0
0.342596 0.0512551 0
0.37673 0.0504768 0
0.410864 0.0496986 0
0.444984 0.0489204 0
0.479118 0.0481422 0
0.513237 0.047364 0
0.547372 0.0465858 0
0.581506 0.0458076 0
0.615625 0.0450294 0
0.64976 0.0442512 0
0.683879 0.0434882 0
0.718013 0.04271 0
0.752148 0.0419318 0
0.786267 0.0411536 0
0.820401 0.0403754 0
0.85452 0.0395972 0
0.888655 0.038819 0
0.922789 0.0380407 0
0.956909 0.0372625 0
0.991043 0.0364843 0
1 0.0357061 0
1 0.0349279 0
1 0.034165 0
0.00199893 0.090013 0.00199893
0.0361181 0.0892348 0.00122072
0.0702373 0.0884565 0.000442512
0.104372 0.0876783 0
0.138506 0.0869001 0
0.172625 0.0861219 0
0.20676 0.0853437 0
0.240879 0.0845655 0
0.275013 0.0837873 0
0.309148 0.0830091 0
0.343267 0.0822309 0
0.377401 0.0814527 0
0.411521 0.0806897 0
0.445655 0.0799115 0
0.479774 0.0791333 0
0.513909 0.0783551 0
0.548043 0.0775769 0
0.582162 0.0767987 0
0.616297 0.0760204 0
0.650416 0.0752422 0
0.68455 0.074464 0
0.718685 0.0736858 0
0.752804 0.0729076 0
0.786938 0.0721294 0
0.821057 0.0713512 0
0.855192 0.0705882 0
0.889326 0.06981 0
0.923445 0.0690318 0
0.95758 0.0682536 0
0.991699 0.0674754 0
1 0.0666972 0
1 0.065919 0
1 0.0651408 0
0.00267033 0.120989 0.00267033
0.0367742 0.120211 0.00189212
0.0709087 0.119432 0.00111391
0.105043 0.118654 0.000335698
0.139162 0.117876 0
0.173297 0.117113 0
0.207416 0.116335 0
0.24155 0.115557 0
0.275685 0.114778 0
0.309804 0.114 0
0.343938 0.113222 0
0.378058 0.112444 0
0.412192 0.111666 0
0.446326 0.110887 0
0.480446 0.110109 0
0.51458 0.109331 0
0.548699 0.108553 0
0.582834 0.10779 0
0.616968 0.107012 0
0.651087 0.106233 0
0.685222 0.105455 0
0.719341 0.104677 0
0.753475 0.103899 0
0.78761 0.10312 0
0.821729 0.102342 0
0.855863 0.101564 0
0.889982 0.100786 0
0.924117 0.100008 0
0.958251 0.0992294 0
0.99237 0.0984512 0
1 0.0976883 0
1 0.09691 0
1 0.0961318 0
0.00334173 0.15198 0.00334173
0.0374456 0.151202 0.00256352
0.0715801 0.150423 0.00178531
0.105699 0.149645 0.0010071
0.139834 0.148867 0.000228885
0.173968 0.148089 0
0.208087 0.147311 0
0.242222 0.146532 0
0.276341 0.145754 0
0.310475 0.144976 0
0.34461 0.144213 0
0.378729 0.143435 0
0.412863 0.142657 0
0.446983 0.141878 0
0.481117 0.1411 0
0.515251 0.140322 0
0.549371 0.139544 0
0.583505 0.138766 0
0.617624 0.137987 0
0.651759 0.137209 0
0.685893 0.136431 0
0.720012 0.135653 0
0.754147 0.134874 0
0.788266 0.134112 0
0.8224 0.133333 0
0.856535 0.132555 0
0.890654 0.131777 0
0.924788 0.130999 0
0.958907 0.13022 0
0.993042 0.129442 0
1 0.128664 0
1 0.127886 0
1 0.127108 0
0.00399786 0.182956 0.00399786
0.038117 0.182177 0.00323491
0.0722515 0.181399 0.0024567
0.106371 0.180636 0.00167849
0.140505 0.179858 0.000900282
0.174624 0.17908 0.000122072
0.208759 0.178302 0
0.242893 0.177523 0
0.277012 0.176745 0
0.311147 0.175967 0
0.345266 0.175189 0
0.3794 0.174411 0
0.413535 0.173632 0
0.447654 0.172854 0
0.481788 0.172076 0
0.515908 0.171313 0
0.550042 0.170535 0
0.584176 0.169757 0
0.618296 0.168978 0
0.65243 0.1682 0
0.686549 0.167422 0
0.720684 0.166644 0
0.754818 0.165866 0
0.788937 0.165087 0
0.823072 0.164309 0
0.857191 0.163531 0
0.891325 0.162753 0
0.925444 0.161975 0
0.959579 0.161212 0
0.993713 0.160433 0
1 0.159655 0
1 0.158877 0
1 0.158099 0
0.00466926 0.213947 0.00466926
0.0387884 0.213169 0.00389105
0.0729076 0.21239 0.00311284
0.107042 0.211612 0.00233463
0.141176 0.210834 0.00157168
0.175296 0.210056 0.000793469
0.20943 0.209277 1.5259e-05
0.243549 0.208499 0
0.277684 0.207736 0
0.311803 0.206958 0
0.345937 0.20618 0
0.380072 0.205402 0
0.414191 0.204623 0
0.448325 0.203845 0
0.482444 0.203067 0
0.516579 0.202289 0
0.550713 0.201511 0
0.584833 0.200732 0
0.618967 0.199954 0
0.653086 0.199176 0
0.687221 0.198398 0
0.721355 0.197635 0
0.755474 0.196857 0
0.789609 0.196078 0
0.823728 0.1953 0
0.857862 0.194522 0
0.891997 0.193744 0
0.926116 0.192966 0
0.96025 0.192187 0
0.994369 0.191409 0
1 0.190631 0
1 0.189853 0
1 0.189075 0
0.00534066 0.244923 0.00534066
0.0394446 0.24416 0.00456245
0.073579 0.243381 0.00378424
0.107713 0.242603 0.00300603
0.141833 0.241825 0.00222782
0.175967 0.241047 0.00144961
0.210086 0.240269 0.000671397
0.244221 0.23949 0
0.278355 0.238712 0
0.312474 0.237934 0
0.346609 0.237156 0
0.380728 0.236378 0
0.414862 0.235599 0
0.448997 0.234836 0
0.483116 0.234058 0
0.51725 0.23328 0
0.551369 0.232502 0
0.585504 0.231724 0
0.619638 0.230945 0
0.653758 0.230167 0
0.687892 0.229389 0
0.722011 0.228611 0
0.756146 0.227832 0
0.79028 0.227054 0
0.824399 0.226276 0
0.858534 0.225498 0
0.892653 0.224735 0
0.926787 0.223957 0
0.960922 0.223178 0
0.995041 0.2224 0
1 0.221622 0
1 0.220844 0
1 0.220066 0
0.00601205 0.275914 0.00601205
0.040116 0.275135 0.00523384
0.0742504 0.274357 0.00445563
0.10837 0.273579 0.00367742
0.142504 0.272801 0.00289921
0.176638 0.272023 0.002121
0.210758 0.27126 0.00134279
0.244892 0.270481 0.000564584
0.279011 0.269703 0
0.313146 0.268925 0
0.34728 0.268147 0
0.381399 0.267369 0
0.415534 0.26659 0
0.449653 0.265812 0
0.483787 0.265034 0
0.517922 0.264256 0
0.552041 0.263478 0
0.586175 0.262699 0
0.620295 0.261921 0
0.654429 0.261158 0
0.688563 0.26038 0
0.722683 0.259602 0
0.756817 0.258824 0
0.790936 0.258045 0
0.825071 0.257267 0
0.859205 0.256489 0
0.893324 0.255711 0
0.927459 0.254932 0
0.961578 0.254154 0
0.995712 0.253376 0
1 0.252598 0
1 0.25182 0
1 0.251057 0
0.00666819 0.306905 0.00666819
0.0407874 0.306127 0.00590524
0.0749218 0.305348 0.00512703
0.109041 0.30457 0.00434882
0.143175 0.303792 0.00357061
0.177295 0.303014 0.0027924
0.211429 0.302235 0.00201419
0.245563 0.301457 0.00123598
0.279683 0.300679 0.000457771
0.313817 0.299901 0
0.347936 0.299123 0
0.382071 0.29836 0
0.416205 0.297581 0
0.450324 0.296803 0
0.484459 0.296025 0
0.518578 0.295247 0
0.552712 0.294469 0
0.586847 0.29369 0
0.620966 0.292912 0
0.6551 0.292134 0
0.689219 0.291356 0
0.723354 0.290578 0
0.757473 0.289799 0
0.791608 0.289021 0
0.825742 0.288258 0
0.859861 0.28748 0
0.893996 0.286702 0
0.928115 0.285924 0
0.962249 0.285145 0
0.996384 0.284367 0
1 0.283589 0
1 0.282811 0
1 0.282032 0
0.00733959 0.337881 0.00733959
0.0414588 0.337102 0.00656138
0.0755779 0.336324 0.00578317
0.109712 0.335546 0.00500496
0.143832 0.334783 0.00424201
0.177966 0.334005 0.0034638
0.2121 0.333227 0.00268559
0.24622 0.332448 0.00190738
0.280354 0.33167 0.00112917
0.314473 0.330892 0.000350958
0.348608 0.330114 0
0.382742 0.329335 0
0.416861 0.328557 0
0.450996 0.327779 0
0.485115 0.327001 0
0.519249 0.326223 0
0.553384 0.325444 0
0.587503 0.324681 0
0.621637 0.323903 0
0.655756 0.323125 0
0.689891 0.322347 0
0.724025 0.321569 0
0.758144 0.32079 0
0.792279 0.320012 0
0.826398 0.319234 0
0.860533 0.318456 0
0.894667 0.317678 0
0.928786 0.316899 0
0.962921 0.316121 0
0.99704 0.315358 0
1 0.31458 0
1 0.313802 0
1 0.313024 0
0.00801099 0.368872 0.00801099
0.0421149 0.368093 0.00723278
0.0762493 0.367315 0.00645457
0.110384 0.366537 0.00567636
0.144503 0.365759 0.00489815
0.178637 0.364981 0.00411994
0.212757 0.364202 0.00334173
0.246891 0.363424 0.00257877
0.281025 0.362646 0.00180056
0.315145 0.361883 0.00102235
0.349279 0.361105 0.000244144
0.383398 0.360327 0
0.417533 0.359548 0
0.451667 0.35877 0
0.485786 0.357992 0
0.519921 0.357214 0
0.55404 0.356435 0
0.588174 0.355657 0
0.622309 0.354879 0
0.656428 0.354101 0
0.690562 0.353323 0
0.724681 0.352544 0
0.758816 0.351781 0
0.79295 0.351003 0
0.82707 0.350225 0
0.861204 0.349447 0
0.895323 0.348669 0
0.929458 0.34789 0
0.963592 0.347112 0
0.997711 0.346334 0
1 0.345556 0
1 0.344778 0
1 0.343999 0
0.00868238 0.399847 0.00868238
0.0427863 0.399069 0.00790417
0.0769207 0.398306 0.00712596
0.11104 0.397528 0.00634775
0.145174 0.39675 0.00556954
0.179309 0.395972 0.00479133
0.213428 0.395193 0.00401312
0.247562 0.394415 0.00323491
0.281682 0.393637 0.0024567
0.315816 0.392859 0.00167849
0.34995 0.392081 0.000900282
0.38407 0.391302 0.000137331
0.418204 0.390524 0
0.452323 0.389746 0
0.486458 0.388968 0
0.520592 0.388205 0
0.554711 0.387427 0
0.588846 0.386648 0
0.622965 0.38587 0
0.657099 0.385092 0
0.691234 0.384314 0
0.725353 0.383536 0
0.759487 0.382757 0
0.793606 0.381979 0
0.827741 0.381201 0
0.861875 0.380423 0
0.895994 0.379644 0
0.930129 0.378882 0
0.964248 0.378103 0
0.998383 0.377325 0
1 0.376547 0
1 0.375769 0
1 0.37499 0
0.00933852 0.430838 0.00933852
0.0434577 0.43006 0.00857557
0.0775921 0.429282 0.00779736
0.111711 0.428504 0.00701915
0.145846 0.427726 0.00624094
0.179965 0.426947 0.00546273
0.214099 0.426169 0.00468452
0.248234 0.425406 0.00390631
0.282353 0.424628 0.0031281
0.316487 0.42385 0.00234989
0.350607 0.423072 0.00157168
0.384741 0.422293 0.000793469
0.418875 0.421515 1.5259e-05
0.452995 0.420737 0
0.487129 0.419959 0
0.521248 0.419181 0
0.555383 0.418402 0
0.589502 0.417624 0
0.623636 0.416846 0
0.657771 0.416068 0
0.69189 0.415305 0
0.726024 0.414527 0
0.760143 0.413748 0
0.794278 0.41297 0
0.828412 0.412192 0
0.862531 0.411414 0
0.896666 0.410636 0
0.930785 0.409857 0
0.96492 0.409079 0
0.999054 0.408301 0
1 0.407523 0
1 0.406744 0
1 0.405966 0
0.0100099 0.46183 0.0100099
0.0441291 0.461051 0.00923171
0.0782483 0.460273 0.0084535
0.112383 0.459495 0.00767529
0.146502 0.458717 0.00691234
0.180636 0.457938 0.00613413
0.214771 0.45716 0.00535592
0.24889 0.456382 0.00457771
0.283024 0.455604 0.0037995
0.317143 0.454826 0.00302129
0.351278 0.454047 0.00224308
0.385412 0.453269 0.00146487
0.419532 0.452491 0.000686656
0.453666 0.451728 0
0.487785 0.45095 0
0.52192 0.450172 0
0.556054 0.449393 0
0.590173 0.448615 0
0.624308 0.447837 0
0.658427 0.447059 0
0.692561 0.446281 0
0.726696 0.445502 0
0.760815 0.444724 0
0.794949 0.443946 0
0.829068 0.443168 0
0.863203 0.442405 0
0.897337 0.441627 0
0.931456 0.440848 0
0.965591 0.44007 0
0.99971 0.439292 0
1 0.438514 0
1 0.437736 0
1 0.436957 0
0.0106813 0.492805 0.0106813
0.0447852 0.492027 0.0099031
0.0789197 0.491249 0.0091249
0.113054 0.490471 0.00834669
0.147173 0.489693 0.00756847
0.181308 0.48893 0.00679026
0.215427 0.488151 0.00601205
0.249561 0.487373 0.00523384
0.283696 0.486595 0.00447089
0.317815 0.485817 0.00369268
0.351949 0.485039 0.00291447
0.386069 0.48426 0.00213626
0.420203 0.483482 0.00135805
0.454337 0.482704 0.000579843
0.488457 0.481926 0
0.522591 0.481147 0
0.55671 0.480369 0
0.590845 0.479591 0
0.624979 0.478828 0
0.659098 0.47805 0
0.693233 0.477272 0
0.727352 0.476493 0
0.761486 0.475715 0
0.795621 0.474937 0
0.82974 0.474159 0
0.863874 0.473381 0
0.897993 0.472602 0
0.932128 0.471824 0
0.966262 0.471046 0
1 0.470268 0
1 0.46949 0
1 0.468727 0
1 0.467948 0
0.0113527 0.523796 0.0113527
0.0454566 0.523018 0.0105745
0.0795911 0.52224 0.00979629
0.11371 0.521462 0.00901808
0.147845 0.520684 0.00823987
0.181979 0.519905 0.00746166
0.216098 0.519127 0.00668345
0.250233 0.518349 0.00590524
0.284352 0.517571 0.00512703
0.318486 0.516793 0.00434882
0.352621 0.516014 0.00357061
0.38674 0.515251 0.00280766
0.420874 0.514473 0.00202945
0.454994 0.513695 0.00125124
0.489128 0.512917 0.00047303
0.523262 0.512139 0
0.557382 0.51136 0
0.591516 0.510582 0
0.625635 0.509804 0
0.65977 0.509026 0
0.693904 0.508247 0
0.728023 0.507469 0
0.762158 0.506691 0
0.796277 0.505928 0
0.830411 0.50515 0
0.864546 0.504372 0
0.898665 0.503594 0
0.932799 0.502815 0
0.966918 0.502037 0
1 0.501259 0
1 0.500481 0
1 0.499702 0
1 0.498924 0
0.0120089 0.554772 0.0120089
0.046128 0.553994 0.0112459
0.0802625 0.553216 0.0104677
0.114382 0.552453 0.00968948
0.148516 0.551675 0.00891127
0.182635 0.550896 0.00813306
0.21677 0.550118 0.00735485
0.250904 0.54934 0.00657664
0.285023 0.548562 0.00579843
0.319158 0.547784 0.00502022
0.353277 0.547005 0.00424201
0.387411 0.546227 0.0034638
0.42153 0.545449 0.00268559
0.455665 0.544671 0.00190738
0.489799 0.543893 0.00114443
0.523919 0.543114 0.000366217
0.558053 0.542351 0
0.592172 0.541573 0
0.626307 0.540795 0
0.660441 0.540017 0
0.69456 0.539239 0
0.728695 0.53846 0
0.762814 0.537682 0
0.796948 0.536904 0
0.831083 0.536126 0
0.865202 0.535348 0
0.899336 0.534569 0
0.933455 0.533791 0
0.96759 0.533013 0
1 0.53225 0
1 0.531472 0
1 0.530694 0
1 0.529915 0
0.0126802 0.585763 0.0126802
0.0467994 0.584985 0.011902
0.0809186 0.584207 0.0111238
0.115053 0.583429 0.0103456
0.149172 0.58265 0.00958267
0.183307 0.581872 0.00880446
0.217441 0.581094 0.00802625
0.25156 0.580316 0.00724804
0.285695 0.579538 0.00646983
0.319814 0.578775 0.00569162
0.353948 0.577996 0.00491341
0.388083 0.577218 0.0041352
0.422202 0.57644 0.00335698
0.456336 0.575662 0.00257877
0.490455 0.574884 0.00180056
0.52459 0.574105 0.00102235
0.558724 0.573327 0.000244144
0.592844 0.572549 0
0.626978 0.571771 0
0.661097 0.570993 0
0.695232 0.570214 0
0.729366 0.569451 0
0.763485 0.568673 0
0.79762 0.567895 0
0.831739 0.567117 0
0.865873 0.566339 0
0.900008 0.56556 0
0.934127 0.564782 0
0.968261 0.564004 0
1 0.563226 0
1 0.562448 0
1 0.561669 0
1 0.560891 0
0.0133516 0.616739 0.0133516
0.0474556 0.615976 0.0125734
0.08159 0.615198 0.0117952
0.115724 0.61442 0.011017
0.149844 0.613642 0.0102388
0.183978 0.612863 0.00946059
0.218097 0.612085 0.00868238
0.252232 0.611307 0.00790417
0.286366 0.610529 0.00714122
0.320485 0.609751 0.00636301
0.35462 0.608972 0.0055848
0.388739 0.608194 0.00480659
0.422873 0.607416 0.00402838
0.457008 0.606638 0.00325017
0.491127 0.605875 0.00247196
0.525261 0.605097 0.00169375
0.55938 0.604318 0.000915541
0.593515 0.60354 0.000137331
0.627649 0.602762 0
0.661768 0.601984 0
0.695903 0.601205 0
0.730022 0.600427 0
0.764157 0.599649 0
0.798291 0.598871 0
0.83241 0.598093 0
0.866545 0.597314 0
0.900664 0.596536 0
0.934798 0.595773 0
0.968933 0.594995 0
1 0.594217 0
1 0.593439 0
1 0.59266 0
1 0.591882 0
0.014023 0.64773 0.014023
0.048127 0.646952 0.0132448
0.0822614 0.646174 0.0124666
0.116381 0.645396 0.0116884
0.150515 0.644617 0.0109102
0.184649 0.643839 0.010132
0.218769 0.643061 0.00935378
0.252903 0.642298 0.00857557
0.287022 0.64152 0.00779736
0.321157 0.640742 0.00701915
0.355291 0.639963 0.00624094
0.38941 0.639185 0.00547799
0.423545 0.638407 0.00469978
0.457664 0.637629 0.00392157
0.491798 0.636851 0.00314336
0.525933 0.636072 0.00236515
0.560052 0.635294 0.00158694
0.594186 0.634516 0.000808728
0.628305 0.633738 3.0518e-05
0.66244 0.632975 0
0.696574 0.632197 0
0.730694 0.631418 0
0.764828 0.63064 0
0.798947 0.629862 0
0.833082 0.629084 0
0.867201 0.628305 0
0.901335 0.627527 0
0.93547 0.626749 0
0.969589 0.625971 0
1 0.625193 0
1 0.624414 0
1 0.623636 0
1 0.622873 0
0.0146792 0.678721 0.0146792
0.0487984 0.677943 0.0139162
0.0829328 0.677165 0.013138
0.117052 0.676387 0.0123598
0.151186 0.675608 0.0115816
0.185306 0.67483 0.0108034
0.21944 0.674052 0.0100252
0.253574 0.673274 0.00924697
0.287694 0.672496 0.00846876
0.321828 0.671717 0.00769055
0.355947 0.670939 0.00691234
0.390082 0.670161 0.00613413
0.424201 0.669398 0.00535592
0.458335 0.66862 0.00457771
0.49247 0.667842 0.00381476
0.526589 0.667063 0.00303655
0.560723 0.666285 0.00225834
0.594842 0.665507 0.00148013
0.628977 0.664729 0.000701915
0.663111 0.663951 0
0.69723 0.663172 0
0.731365 0.662394 0
0.765484 0.661616 0
0.799619 0.660838 0
0.833753 0.66006 0
0.867872 0.659297 0
0.902007 0.658518 0
0.936126 0.65774 0
0.97026 0.656962 0
1 0.656184 0
1 0.655406 0
1 0.654627 0
1 0.653849 0
0.0153506 0.709697 0.0153506
0.0494698 0.708919 0.0145724
0.0835889 0.708141 0.0137942
0.117723 0.707362 0.0130159
0.151843 0.706584 0.0122377
0.185977 0.705821 0.0114748
0.220111 0.705043 0.0106966
0.254231 0.704265 0.00991836
0.288365 0.703487 0.00914015
0.322484 0.702708 0.00836194
0.356619 0.70193 0.00758373
0.390753 0.701152 0.00680552
0.424872 0.700374 0.00602731
0.459007 0.699596 0.0052491
0.493126 0.698817 0.00447089
0.52726 0.698039 0.00369268
0.561395 0.697261 0.00291447
0.595514 0.696498 0.00215152
0.629648 0.69572 0.00137331
0.663767 0.694942 0.000595102
0.697902 0.694163 0
0.732036 0.693385 0
0.766155 0.692607 0
0.80029 0.691829 0
0.834409 0.691051 0
0.868544 0.690272 0
0.902678 0.689494 0
0.936797 0.688716 0
0.970932 0.687938 0
1 0.68716 0
1 0.686397 0
1 0.685618 0
1 0.68484 0
0.016022 0.740688 0.016022
0.0501259 0.73991 0.0152438
0.0842603 0.739132 0.0144656
0.118395 0.738354 0.0136873
0.152514 0.737575 0.0129091
0.186648 0.736797 0.0121309
0.220768 0.736019 0.0113527
0.254902 0.735241 0.0105745
0.289036 0.734462 0.00981155
0.323156 0.733684 0.00903334
0.35729 0.732921 0.00825513
0.391409 0.732143 0.00747692
0.425544 0.731365 0.00669871
0.459678 0.730587 0.0059205
0.493797 0.729809 0.00514229
0.527932 0.72903 0.00436408
0.562051 0.728252 0.00358587
0.596185 0.727474 0.00280766
0.63032 0.726696 0.00202945
0.664439 0.725917 0.00125124
0.698573 0.725139 0.00047303
0.732692 0.724361 0
0.766827 0.723583 0
0.800961 0.72282 0
0.835081 0.722042 0
0.869215 0.721263 0
0.903334 0.720485 0
0.937469 0.719707 0
0.971603 0.718929 0
1 0.718151 0
1 0.717372 0
1 0.716594 0
1 0.715816 0
0.0166934 0.771664 0.0166934
0.0507973 0.770886 0.0159152
0.0849317 0.770123 0.0151369
0.119051 0.769345 0.0143587
0.153185 0.768566 0.0135805
0.18732 0.767788 0.0128023
0.221439 0.76701 0.0120241
0.255573 0.766232 0.0112459
0.289693 0.765454 0.0104677
0.323827 0.764675 0.00968948
0.357961 0.763897 0.00891127
0.392081 0.763119 0.00814832
0.426215 0.762341 0.00737011
0.460334 0.761563 0.0065919
0.494469 0.760784 0.00581369
0.528603 0.760021 0.00503548
0.562722 0.759243 0.00425727
0.596857 0.758465 0.00347906
0.630976 0.757687 0.00270085
0.66511 0.756909 0.00192264
0.699229 0.75613 0.00114443
0.733364 0.755352 0.000366217
0.767498 0.754574 0
0.801617 0.753796 0
0.835752 0.753017 0
0.869871 0.752239 0
0.904005 0.751461 0
0.93814 0.750683 0
0.972259 0.74992 0
1 0.749142 0
1 0.748363 0
1 0.747585 0
1 0.746807 0
0.0173495 0.802655 0.0173495
0.0514687 0.801877 0.0165713
0.0855879 0.801099 0.0158083
0.119722 0.80032 0.0150301
0.153857 0.799542 0.0142519
0.187976 0.798764 0.0134737
0.22211 0.797986 0.0126955
0.256229 0.797208 0.0119173
0.290364 0.796445 0.0111391
0.324498 0.795666 0.0103609
0.358618 0.794888 0.00958267
0.392752 0.79411 0.00880446
0.426871 0.793332 0.00802625
0.461006 0.792554 0.00724804
0.49514 0.791775 0.00648508
0.529259 0.790997 0.00570687
0.563394 0.790219 0.00492866
0.597513 0.789441 0.00415045
0.631647 0.788663 0.00337224
0.665782 0.787884 0.00259403
0.699901 0.787106 0.00181582
0.734035 0.786343 0.00103761
0.768154 0.785565 0.000259403
0.802289 0.784787 0
0.836423 0.784009 0
0.870542 0.78323 0
0.904677 0.782452 0
0.938796 0.781674 0
0.97293 0.780896 0
1 0.780118 0
1 0.779339 0
1 0.778561 0
1 0.777783 0
0.0180209 0.833631 0.0180209
0.0521401 0.832868 0.0172427
0.0862593 0.83209 0.0164645
0.120394 0.831312 0.0156863
0.154513 0.830533 0.0149081
0.188647 0.829755 0.0141451
0.222782 0.828977 0.0133669
0.256901 0.828199 0.0125887
0.291035 0.82742 0.0118105
