public/LUTS/Autumn/Autumn_07.cube
TITLE "Generated by Resolve"
LUT_3D_SIZE 5
0 0 0
0.301152 0 0
0.548211 0 0
0.779004 0 0
1 0 0
0 0.249989 0
0.301152 0.236179 0
0.548211 0.236973 0
0.779004 0.242161 0
1 0.249989 0
0 0.499992 0
0.301152 0.486183 0
0.548211 0.486976 0
0.779004 0.492164 0
1 0.499992 0
0 0.749996 0
0.301152 0.736187 0
0.548211 0.73698 0
0.779004 0.742168 0
1 0.749996 0
0 1 0
0.301152 0.986191 0
0.548211 0.986984 0
0.779004 0.992172 0
1 1 0
0 0 0.249989
0.301152 0 0.236179
0.548211 0 0.236973
0.779004 0 0.242161
1 0 0.249989
0 0.249989 0.249989
0.301152 0.236179 0.236179
0.548211 0.236973 0.236973
0.779004 0.242161 0.242161
1 0.249989 0.249989
0 0.499992 0.249989
0.301152 0.486183 0.236179
0.548211 0.486976 0.236973
0.779004 0.492164 0.242161
1 0.499992 0.249989
0 0.749996 0.249989
0.301152 0.736187 0.236179
0.548211 0.73698 0.236973
0.779004 0.742168 0.242161
1 0.749996 0.249989
0 1 0.249989
0.301152 0.986191 0.236179
0.548211 0.986984 0.236973
0.779004 0.992172 0.242161
1 1 0.249989
0 0 0.499992
0.301152 0 0.486183
0.548211 0 0.486976
0.779004 0 0.492164
1 0 0.499992
0 0.249989 0.499992
0.301152 0.236179 0.486183
0.548211 0.236973 0.486976
0.779004 0.242161 0.492164
1 0.249989 0.499992
0 0.499992 0.499992
0.301152 0.486183 0.486183
0.548211 0.486976 0.486976
0.779004 0.492164 0.492164
1 0.499992 0.499992
0 0.749996 0.499992
0.301152 0.736187 0.486183
0.548211 0.73698 0.486976
0.779004 0.742168 0.492164
1 0.749996 0.499992
0 1 0.499992
0.301152 0.986191 0.486183
0.548211 0.986984 0.486976
0.779004 0.992172 0.492164
1 1 0.499992
0 0 0.749996
0.301152 0 0.736187
0.548211 0 0.73698
0.779004 0 0.742168
1 0 0.749996
0 0.249989 0.749996
0.301152 0.236179 0.736187
0.548211 0.236973 0.73698
0.779004 0.242161 0.742168
1 0.249989 0.749996
0 0.499992 0.749996
0.301152 0.486183 0.736187
0.548211 0.486976 0.73698
0.779004 0.492164 0.742168
1 0.499992 0.749996
0 0.749996 0.749996
0.301152 0.736187 0.736187
0.548211 0.73698 0.73698
0.779004 0.742168 0.742168
1 0.749996 0.749996
0 1 0.749996
0.301152 0.986191 0.736187
0.548211 0.986984 0.73698
0.779004 0.992172 0.742168
1 1 0.749996
0 0 1
0.301152 0 0.986191
0.548211 0 0.986984
0.779004 0 0.992172
1 0 1
0 0.249989 1
0.301152 0.236179 0.986191
0.548211 0.236973 0.986984
0.779004 0.242161 0.992172
1 0.249989 1
0 0.499992 1
0.301152 0.486183 0.986191
0.548211 0.486976 0.986984
0.779004 0.492164 0.992172
1 0.499992 1
0 0.749996 1
0.301152 0.736187 0.986191
0.548211 0.73698 0.986984
0.779004 0.742168 0.992172
1 0.749996 1
0 1 1
0.301152 0.986191 0.986191
0.548211 0.986984 0.986984
0.779004 0.992172 0.992172
1 1 1
