public/LUTS/Autumn/Autumn_04.cube
TITLE "Generated by Resolve"
LUT_3D_SIZE 9
0 0 0
0.136492 0 0
0.273014 0 0
0.409522 0 0
0.546029 0 0
0.682551 0 0
0.819059 0 0
0.955581 0 0
1 0 0
0.00267033 0.123919 0.00267033
0.139162 0.120821 0
0.275685 0.117708 0
0.412192 0.114595 0
0.548699 0.111498 0
0.685222 0.108385 0
0.821729 0.105272 0
0.958251 0.102174 0
1 0.0990616 0
0.00534066 0.247868 0.00534066
0.141833 0.244755 0.00222782
0.278355 0.241642 0
0.414862 0.238544 0
0.551369 0.235431 0
0.687892 0.232319 0
0.824399 0.229221 0
0.960922 0.226108 0
1 0.222995 0
0.00801099 0.371801 0.00801099
0.144503 0.368688 0.00489815
0.281025 0.365591 0.00180056
0.417533 0.362478 0
0.55404 0.359365 0
0.690562 0.356268 0
0.82707 0.353155 0
0.963592 0.350042 0
1 0.346929 0
0.0106813 0.495735 0.0106813
0.147173 0.492638 0.00756847
0.283696 0.489525 0.00447089
0.420203 0.486412 0.00135805
0.55671 0.483314 0
0.693233 0.480201 0
0.82974 0.477089 0
0.966262 0.473991 0
1 0.470878 0
0.0133516 0.619684 0.0133516
0.149844 0.616571 0.0102388
0.286366 0.613458 0.00714122
0.422873 0.610361 0.00402838
0.55938 0.607248 0.000915541
0.695903 0.604135 0
0.83241 0.601038 0
0.968933 0.597925 0
1 0.594812 0
0.016022 0.743618 0.016022
0.152514 0.740505 0.0129091
0.289036 0.737408 0.00981155
0.425544 0.734295 0.00669871
0.562051 0.731182 0.00358587
0.698573 0.728084 0.00047303
0.835081 0.724971 0
0.971603 0.721859 0
1 0.718746 0
0.0186923 0.867552 0.0186923
0.155184 0.864454 0.0155795
0.291707 0.861341 0.0124819
0.428214 0.858228 0.00936904
0.564721 0.855131 0.0062562
0.701244 0.852018 0.00314336
0.837751 0.848905 4.57771e-05
0.974273 0.845792 0
1 0.842695 0
0.0213626 0.991501 0.0213626
0.157855 0.988388 0.0182498
0.294377 0.985275 0.0151522
0.430884 0.982177 0.0120394
0.567391 0.979065 0.00892653
0.703914 0.975952 0.00581369
0.840421 0.972839 0.00271611
0.976944 0.969741 0
1 0.966628 0
0.000457771 0.000457771 0.119051
0.136965 0 0.115938
0.273472 0 0.11284
0.409979 0 0.109728
0.546502 0 0.106615
0.683009 0 0.103502
0.819532 0 0.100404
0.956039 0 0.0972915
1 0 0.0941787
0.0031281 0.124392 0.121721
0.139635 0.121279 0.118608
0.276143 0.118166 0.115511
0.41265 0.115068 0.112398
0.549172 0.111955 0.109285
0.685679 0.108843 0.106172
0.822187 0.105745 0.103075
0.958709 0.102632 0.0999619
1 0.0995193 0.096849
0.00579843 0.248325 0.124392
0.142306 0.245212 0.121279
0.278813 0.242115 0.118181
0.41532 0.239002 0.115068
0.551843 0.235889 0.111955
0.68835 0.232792 0.108843
0.824857 0.229679 0.105745
0.961379 0.226566 0.102632
1 0.223453 0.0995193
0.00846876 0.372259 0.127062
0.144976 0.369162 0.123949
0.281483 0.366049 0.120836
0.41799 0.362936 0.117739
0.554513 0.359838 0.114626
0.69102 0.356725 0.111513
0.827527 0.353613 0.108415
0.96405 0.3505 0.105303
1 0.347402 0.10219
0.0111391 0.496208 0.129732
0.147646 0.493095 0.126619
0.284153 0.489982 0.123507
0.420661 0.486885 0.120409
0.557183 0.483772 0.117296
0.69369 0.480659 0.114183
0.830198 0.477546 0.111086
0.96672 0.474449 0.107973
1 0.471336 0.10486
0.0138094 0.620142 0.132403
0.150301 0.617029 0.12929
0.286824 0.613931 0.126177
0.423331 0.610819 0.123079
0.559853 0.607706 0.119966
0.696361 0.604593 0.116854
0.832868 0.601495 0.113756
0.96939 0.598383 0.110643
1 0.59527 0.10753
0.0164797 0.744076 0.135073
0.152972 0.740978 0.13196
0.289494 0.737865 0.128847
0.426001 0.734752 0.12575
0.562524 0.73164 0.122637
0.699031 0.728542 0.119524
0.835538 0.725429 0.116426
0.972061 0.722316 0.113313
1 0.719219 0.110201
0.0191501 0.868025 0.137743
0.155642 0.864912 0.13463
0.292165 0.861799 0.131518
0.428672 0.858686 0.12842
0.565194 0.855589 0.125307
0.701701 0.852476 0.122194
0.838209 0.849363 0.119097
0.974731 0.846265 0.115984
1 0.843153 0.112871
0.0218204 0.991958 0.140414
0.158312 0.988846 0.137301
0.294835 0.985733 0.134188
0.431342 0.982635 0.13109
0.567864 0.979522 0.127977
0.704372 0.97641 0.124865
0.840879 0.973312 0.121767
0.977401 0.970199 0.118654
1 0.967086 0.115541
0.0009308 0.0009308 0.238117
0.137423 0 0.235004
0.27393 0 0.231891
0.410452 0 0.228794
0.54696 0 0.225681
0.683467 0 0.222568
0.819989 0 0.219471
0.956497 0 0.216358
1 0 0.213245
0.00360113 0.124849 0.240787
0.140093 0.121736 0.237675
0.2766 0.118639 0.234562
0.413123 0.115526 0.231464
0.54963 0.112413 0.228351
0.686137 0.1093 0.225238
0.82266 0.106203 0.222141
0.959167 0.10309 0.219028
1 0.0999771 0.215915
0.00627146 0.248783 0.243458
0.142763 0.245686 0.240345
0.279271 0.242573 0.237232
0.415793 0.23946 0.234134
0.5523 0.236347 0.231022
0.688807 0.233249 0.227909
0.82533 0.230137 0.224811
0.961837 0.227024 0.221698
1 0.223926 0.218585
0.00894179 0.372732 0.246128
0.145434 0.369619 0.243015
0.281941 0.366506 0.239902
0.418463 0.363394 0.236805
0.554971 0.360296 0.233692
0.691478 0.357183 0.230579
0.828 0.35407 0.227481
0.964508 0.350973 0.224369
1 0.34786 0.221256
0.0115969 0.496666 0.248798
0.148104 0.493553 0.245686
0.284611 0.490455 0.242573
0.421134 0.487343 0.239475
0.557641 0.48423 0.236362
0.694148 0.481117 0.233249
0.830671 0.478019 0.230152
0.967178 0.474907 0.227039
1 0.471794 0.223926
0.0142672 0.6206 0.251469
0.150774 0.617502 0.248356
0.287282 0.614389 0.245243
0.423804 0.611276 0.242145
0.560311 0.608164 0.239033
0.696818 0.605066 0.23592
0.833341 0.601953 0.232822
0.969848 0.59884 0.229709
1 0.595743 0.226596
0.0169375 0.744533 0.254139
0.153445 0.741436 0.251026
0.289952 0.738323 0.247913
0.426474 0.73521 0.244816
0.562982 0.732113 0.241703
0.699489 0.729 0.23859
0.836011 0.725887 0.235492
0.972519 0.722789 0.23238
1 0.719676 0.229267
0.0196078 0.868482 0.256809
0.156115 0.86537 0.253697
0.292622 0.862257 0.250584
0.429145 0.859159 0.247486
0.565652 0.856046 0.244373
0.702159 0.852934 0.24126
0.838682 0.849836 0.238163
0.975189 0.846723 0.23505
1 0.84361 0.231937
0.0222782 0.992416 0.25948
0.158785 0.989303 0.256367
0.295293 0.986206 0.253254
0.431815 0.983093 0.250156
0.568322 0.97998 0.247044
0.704829 0.976883 0.243931
0.841352 0.97377 0.240833
0.977859 0.970657 0.23772
1 0.967559 0.234607
0.00138857 0.00138857 0.357183
0.137881 0 0.35407
0.274403 0 0.350958
0.41091 0 0.34786
0.547417 0 0.344747
0.68394 0 0.341634
0.820447 0 0.338537
0.956954 0 0.335424
1 0 0.332311
0.0040589 0.125307 0.359854
0.140551 0.12221 0.356741
0.277058 0.119097 0.353628
0.413581 0.115984 0.35053
0.550088 0.112871 0.347417
0.68661 0.109773 0.344305
0.823117 0.106661 0.341192
0.959625 0.103548 0.338094
1 0.10045 0.334981
0.00672923 0.249241 0.362524
0.143221 0.246143 0.359411
0.279728 0.24303 0.356298
0.416251 0.239918 0.353201
0.552758 0.23682 0.350088
0.689281 0.233707 0.346975
0.825788 0.230594 0.343862
0.962295 0.227497 0.340764
1 0.224384 0.337652
0.00939956 0.37319 0.365194
0.145892 0.370077 0.362081
0.282399 0.366964 0.358968
0.418921 0.363867 0.355871
0.555428 0.360754 0.352758
0.691951 0.357641 0.349645
0.828458 0.354543 0.346532
0.964965 0.351431 0.343435
1 0.348318 0.340322
0.0120699 0.497124 0.367864
0.148562 0.494011 0.364752
0.285069 0.490913 0.361639
0.421592 0.4878 0.358526
0.558099 0.484688 0.355428
0.694621 0.48159 0.352316
0.831128 0.478477 0.349203
0.967636 0.475364 0.346105
1 0.472267 0.342992
0.0147402 0.621057 0.370535
0.151232 0.61796 0.367422
0.287739 0.614847 0.364309
0.424262 0.611734 0.361196
0.560769 0.608637 0.358099
0.697292 0.605524 0.354986
0.833799 0.602411 0.351873
0.970306 0.599313 0.348775
1 0.596201 0.345663
0.0174105 0.745007 0.373205
0.153903 0.741894 0.370092
0.29041 0.738781 0.366979
0.426932 0.735683 0.363867
0.563439 0.73257 0.360769
0.699962 0.729458 0.357656
0.836469 0.72636 0.354543
0.972976 0.723247 0.351446
1 0.720134 0.348333
0.0200809 0.86894 0.37586
0.156573 0.865827 0.372763
0.29308 0.86273 0.36965
0.429603 0.859617 0.366537
0.56611 0.856504 0.363439
0.702632 0.853407 0.360327
0.839139 0.850294 0.357214
0.975647 0.847181 0.354116
1 0.844083 0.351003
0.0227512 0.992874 0.378531
0.159243 0.989776 0.375433
0.29575 0.986664 0.37232
0.432273 0.983551 0.369207
0.56878 0.980453 0.36611
0.705303 0.97734 0.362997
0.84181 0.974227 0.359884
0.978317 0.97113 0.356786
1 0.968017 0.353674
0.00184634 0.00184634 0.476234
0.138338 0 0.473136
0.274861 0 0.470024
0.411368 0 0.466911
0.54789 0 0.463813
0.684398 0 0.4607
0.820905 0 0.457588
0.957427 0 0.45449
1 0 0.451377
0.00451667 0.125765 0.478904
0.141009 0.122667 0.475807
0.277531 0.119554 0.472694
0.414038 0.116442 0.469581
0.550561 0.113344 0.466484
0.687068 0.110231 0.463371
0.823575 0.107118 0.460258
0.960098 0.104021 0.45716
1 0.100908 0.454047
0.007187 0.249714 0.481575
0.143679 0.246601 0.478477
0.280201 0.243488 0.475364
0.416709 0.240391 0.472251
0.553231 0.237278 0.469154
0.689738 0.234165 0.466041
0.826246 0.231067 0.462928
0.962768 0.227955 0.459831
1 0.224842 0.456718
0.00985733 0.373648 0.484245
0.146349 0.370535 0.481147
0.282872 0.367437 0.478035
0.419379 0.364324 0.474922
0.555901 0.361212 0.471824
0.692409 0.358114 0.468711
0.828916 0.355001 0.465599
0.965438 0.351888 0.462501
1 0.348791 0.459388
0.0125277 0.497581 0.486915
0.14902 0.494484 0.483818
0.285542 0.491371 0.480705
0.422049 0.488258 0.477592
0.558572 0.485161 0.474495
0.695079 0.482048 0.471382
0.831586 0.478935 0.468269
0.968109 0.475837 0.465171
1 0.472724 0.462058
0.015198 0.62153 0.489586
0.15169 0.618418 0.486488
0.288212 0.615305 0.483375
0.42472 0.612207 0.480262
0.561227 0.609094 0.477165
0.697749 0.605982 0.474052
0.834257 0.602884 0.470939
0.970779 0.599771 0.467842
1 0.596658 0.464729
0.0178683 0.745464 0.492256
0.15436 0.742351 0.489158
0.290883 0.739254 0.486046
0.42739 0.736141 0.482933
0.563897 0.733028 0.479835
0.70042 0.729931 0.476722
0.836927 0.726818 0.47361
0.973449 0.723705 0.470512
1 0.720607 0.467399
0.0205386 0.869398 0.494926
0.157031 0.8663 0.491829
0.293553 0.863188 0.488716
0.43006 0.860075 0.485603
0.566567 0.856977 0.482506
0.70309 0.853864 0.479393
0.839597 0.850752 0.47628
0.97612 0.847654 0.473182
1 0.844541 0.470069
0.023209 0.993347 0.497597
0.159701 0.990234 0.494499
0.296223 0.987121 0.491386
0.432731 0.984024 0.488273
0.569238 0.980911 0.485176
0.70576 0.977798 0.482063
0.842268 0.974701 0.47895
0.97879 0.971588 0.475853
1 0.968475 0.47274
0.00230411 0.00230411 0.5953
0.138811 0 0.592203
0.275319 0 0.58909
0.411826 0 0.585977
0.548348 0 0.582879
0.684855 0 0.579767
0.821378 0 0.576654
0.957885 0 0.573556
1 0 0.570443
0.00497444 0.126238 0.597971
0.141482 0.123125 0.594873
0.277989 0.120012 0.59176
0.414496 0.116915 0.588647
0.551019 0.113802 0.58555
0.687526 0.110689 0.582437
0.824048 0.107591 0.579324
0.960555 0.104479 0.576211
1 0.101366 0.573114
0.00764477 0.250172 0.600641
0.144152 0.247059 0.597543
0.280659 0.243961 0.59443
0.417166 0.240848 0.591318
0.553689 0.237736 0.58822
0.690196 0.234638 0.585107
0.826719 0.231525 0.581994
0.963226 0.228412 0.578882
1 0.225315 0.575784
0.0103151 0.374105 0.603311
0.146822 0.371008 0.600214
0.28333 0.367895 0.597101
0.419837 0.364782 0.593988
0.556359 0.361685 0.59089
0.692866 0.358572 0.587777
0.829389 0.355459 0.584665
0.965896 0.352361 0.581552
1 0.349248 0.578454
0.0129854 0.498054 0.605982
0.149493 0.494942 0.602884
0.286 0.491829 0.599771
0.422507 0.488731 0.596658
0.55903 0.485618 0.593561
0.695537 0.482506 0.590448
0.832059 0.479408 0.587335
0.968566 0.476295 0.584222
1 0.473182 0.581125
0.0156558 0.621988 0.608652
0.152163 0.618875 0.605554
0.28867 0.615778 0.602441
0.425177 0.612665 0.599329
0.5617 0.609552 0.596231
0.698207 0.606455 0.593118
0.83473 0.603342 0.590005
0.971237 0.600229 0.586892
1 0.597131 0.583795
0.0183261 0.745922 0.611322
0.154833 0.742824 0.608225
0.291341 0.739712 0.605112
0.427848 0.736599 0.601999
0.56437 0.733501 0.598886
0.700877 0.730388 0.595789
0.8374 0.727275 0.592676
0.973907 0.724178 0.589563
1 0.721065 0.586465
0.0209964 0.869871 0.613993
0.157504 0.866758 0.610895
0.294011 0.863645 0.607782
0.430518 0.860548 0.604669
0.567041 0.857435 0.601556
0.703548 0.854322 0.598459
0.84007 0.851225 0.595346
0.976577 0.848112 0.592233
1 0.844999 0.589136
0.0236667 0.993805 0.616663
0.160174 0.990692 0.613565
0.296681 0.987594 0.610452
0.433188 0.984482 0.60734
0.569711 0.981369 0.604227
0.706218 0.978271 0.601129
0.842741 0.975158 0.598016
0.979248 0.972045 0.594903
1 0.968948 0.591806
0.00277714 0.00277714 0.714366
0.139269 0 0.711269
0.275776 0 0.708156
0.412299 0 0.705043
0.548806 0 0.70193
0.685328 0 0.698833
0.821836 0 0.69572
0.958343 0 0.692607
1 0 0.689509
0.00544747 0.126696 0.717037
0.141939 0.123583 0.713924
0.278447 0.120485 0.710826
0.414969 0.117372 0.707713
0.551476 0.11426 0.704601
0.687999 0.111162 0.701503
0.824506 0.108049 0.69839
0.961013 0.104936 0.695277
1 0.101839 0.69218
0.0081178 0.250629 0.719707
0.14461 0.247532 0.716594
0.281117 0.244419 0.713497
0.417639 0.241306 0.710384
0.554147 0.238209 0.707271
0.690654 0.235096 0.704173
0.827176 0.231983 0.70106
0.963684 0.228885 0.697948
1 0.225772 0.69485
0.0107881 0.374578 0.722377
0.14728 0.371466 0.719265
0.283787 0.368353 0.716167
0.42031 0.365255 0.713054
0.556817 0.362142 0.709941
0.693324 0.35903 0.706844
0.829847 0.355932 0.703731
0.966354 0.352819 0.700618
1 0.349706 0.69752
0.0134585 0.498512 0.725048
0.14995 0.495399 0.721935
0.286458 0.492302 0.718837
0.42298 0.489189 0.715724
0.559487 0.486076 0.712612
0.695994 0.482979 0.709514
0.832517 0.479866 0.706401
0.969024 0.476753 0.703288
1 0.473655 0.700191
0.0161288 0.622446 0.727718
0.152621 0.619348 0.724605
0.289128 0.616236 0.721508
0.42565 0.613123 0.718395
0.562158 0.610025 0.715282
0.698665 0.606912 0.712184
0.835187 0.6038 0.709072
0.971695 0.600702 0.705959
1 0.597589 0.702861
0.0187991 0.746395 0.730388
0.155291 0.743282 0.727275
0.291798 0.740169 0.724178
0.428321 0.737072 0.721065
0.564828 0.733959 0.717952
0.701335 0.730846 0.714855
0.837858 0.727749 0.711742
0.974365 0.724636 0.708629
1 0.721523 0.705531
0.0214694 0.870329 0.733059
0.157961 0.867216 0.729946
0.294469 0.864118 0.726848
0.430991 0.861006 0.723735
0.567498 0.857893 0.720623
0.704005 0.854795 0.717525
0.840528 0.851682 0.714412
0.977035 0.848569 0.711299
1 0.845457 0.708202
0.0241398 0.994263 0.735729
0.160632 0.991165 0.732616
0.297139 0.988052 0.729519
0.433661 0.984939 0.726406
0.570169 0.981842 0.723293
0.706676 0.978729 0.720195
0.843198 0.975616 0.717083
0.979706 0.972503 0.71397
1 0.969406 0.710872
0.00323491 0.00323491 0.833432
0.139727 0.000122072 0.83032
0.276249 0 0.827222
0.412757 0 0.824109
0.549264 0 0.820996
0.685786 0 0.817899
0.822293 0 0.814786
0.958816 0 0.811673
1 0 0.808576
0.00590524 0.127153 0.836103
0.142397 0.124056 0.83299
0.27892 0.120943 0.829892
0.415427 0.11783 0.82678
0.551934 0.114733 0.823667
0.688457 0.11162 0.820569
0.824964 0.108507 0.817456
0.961486 0.105409 0.814343
1 0.102296 0.811246
0.00857557 0.251102 0.838773
0.145068 0.24799 0.83566
0.28159 0.244877 0.832563
0.418097 0.241779 0.82945
0.554604 0.238666 0.826337
0.691127 0.235554 0.82324
0.827634 0.232456 0.820127
0.964157 0.229343 0.817014
1 0.22623 0.813916
0.0112459 0.375036 0.841443
0.147738 0.371923 0.838331
0.28426 0.368826 0.835233
0.420768 0.365713 0.83212
0.557275 0.3626 0.829007
0.693797 0.359503 0.82591
0.830304 0.35639 0.822797
0.966827 0.353277 0.819684
1 0.350164 0.816571
0.0139162 0.49897 0.844114
0.150408 0.495872 0.841001
0.286931 0.49276 0.837903
0.423438 0.489647 0.834791
0.559945 0.486549 0.831678
0.696468 0.483436 0.82858
0.832975 0.480323 0.825467
0.969497 0.477211 0.822354
1 0.474113 0.819242
0.0165866 0.622919 0.846784
0.153079 0.619806 0.843671
0.289601 0.616693 0.840574
0.426108 0.613596 0.837461
0.562615 0.610483 0.834348
0.699138 0.60737 0.83125
0.835645 0.604257 0.828138
0.972168 0.60116 0.825025
1 0.598047 0.821912
0.0192569 0.746853 0.849454
0.155749 0.74374 0.846342
0.292271 0.740642 0.843244
0.428779 0.73753 0.840131
0.565286 0.734417 0.837018
0.701808 0.731304 0.833921
0.838315 0.728206 0.830808
0.974838 0.725093 0.827695
1 0.721981 0.824582
0.0219272 0.870787 0.852125
0.158419 0.867689 0.849012
0.294942 0.864576 0.845914
0.431449 0.861463 0.842802
0.567956 0.858351 0.839689
0.704479 0.855253 0.836576
0.840986 0.85214 0.833478
0.977493 0.849027 0.830365
1 0.84593 0.827253
0.0245975 0.994736 0.854795
0.161089 0.991623 0.851682
0.297612 0.98851 0.848585
0.434119 0.985412 0.845472
0.570626 0.9823 0.842359
0.707149 0.979187 0.839246
0.843656 0.976074 0.836149
0.980163 0.972976 0.833036
1 0.969863 0.829923
0.00369268 0.00369268 0.952499
0.1402 0.000595102 0.949386
0.276707 0 0.946288
0.413214 0 0.943175
0.549737 0 0.940063
0.686244 0 0.93695
0.822751 0 0.933852
0.959274 0 0.930739
1 0 0.927626
0.00636301 0.127626 0.955169
0.14287 0.124514 0.952056
0.279377 0.121401 0.948943
0.415885 0.118303 0.945846
0.552407 0.11519 0.942733
0.688914 0.112078 0.93962
0.825422 0.108965 0.936522
0.961944 0.105867 0.93341
1 0.102754 0.930297
0.00903334 0.25156 0.957839
0.145541 0.248447 0.954726
0.282048 0.24535 0.951614
0.418555 0.242237 0.948516
0.555077 0.239124 0.945403
0.691585 0.236011 0.94229
0.828092 0.232914 0.939193
0.964614 0.229801 0.93608
1 0.226688 0.932967
0.0117037 0.375494 0.96051
0.148196 0.372396 0.957397
0.284718 0.369284 0.954284
0.421225 0.366171 0.951186
0.557748 0.363073 0.948074
0.694255 0.35996 0.944961
0.830762 0.356847 0.941863
0.967285 0.353735 0.93875
1 0.350637 0.935637
0.014374 0.499443 0.96318
0.150866 0.49633 0.960067
0.287388 0.493217 0.956954
0.423896 0.49012 0.953857
0.560418 0.487007 0.950744
0.696925 0.483894 0.947631
0.833432 0.480781 0.944533
0.969955 0.477684 0.941421
1 0.474571 0.938308
0.0170443 0.623377 0.96585
0.153536 0.620264 0.962737
0.290059 0.617166 0.959625
0.426566 0.614054 0.956527
0.563088 0.610941 0.953414
0.699596 0.607828 0.950301
0.836103 0.60473 0.947204
0.972625 0.601617 0.944091
1 0.598505 0.940978
0.0197147 0.747311 0.968521
0.156207 0.744213 0.965408
0.292729 0.7411 0.962295
0.429236 0.737987 0.959197
0.565759 0.734874 0.956085
0.702266 0.731777 0.952972
0.838773 0.728664 0.949874
0.975296 0.725551 0.946761
1 0.722454 0.943648
0.022385 0.871244 0.971191
0.158877 0.868147 0.968078
0.295399 0.865034 0.964965
0.431907 0.861921 0.961868
0.568429 0.858824 0.958755
0.704936 0.855711 0.955642
0.841443 0.852598 0.952544
0.977966 0.8495 0.949432
1 0.846387 0.946319
0.0250553 0.995193 0.973861
0.161547 0.992081 0.970748
0.29807 0.988968 0.967636
0.434577 0.98587 0.964538
0.571099 0.982757 0.961425
0.707607 0.979644 0.958312
0.844114 0.976547 0.955215
0.980636 0.973434 0.952102
1 0.970321 0.948989
