public/LUTS/Autumn/Autumn_12.cube
TITLE "Generated by Resolve"
LUT_3D_SIZE 33
0.105196 0.173663 0.182254
0.198627 0.169909 0.1402
0.278874 0.16759 0.0988632
0.360754 0.163806 0.0522927
0.445228 0.16144 0.0152743
0.530037 0.162219 0
0.61297 0.164843 0
0.69308 0.167651 0
0.771328 0.16907 0
0.845869 0.16878 0
0.912428 0.167712 0
0.972305 0.166369 0
0.996368 0.165637 0
1 0.166079 0
1 0.168124 0
1 0.17174 0
1 0.176989 0
1 0.183032 0
1 0.190509 0
1 0.198856 0
1 0.208362 0
1 0.219333 0
1 0.231205 0
1 0.243915 0
1 0.257465 0
1 0.272282 0
1 0.287617 0
1 0.303334 0
1 0.319539 0
1 0.336553 0
1 0.349981 0
1 0.355612 0
1 0.356374 0
0.0852522 0.195758 0.177981
0.191455 0.184771 0.135958
0.27451 0.181552 0.0988479
0.355505 0.179248 0.0517891
0.439506 0.178683 0.0145876
0.52459 0.180423 0
0.607309 0.184527 0
0.686458 0.1897 0
0.763088 0.193149 0
0.836179 0.194003 0
0.903044 0.19382 0
0.96173 0.193851 0
0.991562 0.194171 0
1 0.195727 0
1 0.198627 0
1 0.202502 0
1 0.207218 0
1 0.212848 0
1 0.219226 0
1 0.226825 0
1 0.23534 0
1 0.245029 0
1 0.255802 0
1 0.267308 0
1 0.280064 0
1 0.29369 0
1 0.308263 0
1 0.323003 0
1 0.338293 0
1 0.354406 0
1 0.366781 0
1 0.371969 0
1 0.372457 0
0.0631571 0.219791 0.171328
0.171237 0.208103 0.124178
0.268803 0.196628 0.0889754
0.348699 0.195071 0.0521553
0.431861 0.196185 0.0148928
0.515908 0.199924 0
0.598917 0.206012 0
0.677119 0.213092 0
0.751507 0.219501 0
0.8215 0.224567 0
0.885893 0.227756 0
0.942367 0.230671 0
0.982254 0.23473 0
0.99939 0.238239 0
1 0.242008 0
1 0.246464 0
1 0.250828 0
1 0.255909 0
1 0.261936 0
1 0.267979 0
1 0.275181 0
1 0.283467 0
1 0.292699 0
1 0.302953 0
1 0.314137 0
1 0.326024 0
1 0.339025 0
1 0.352728 0
1 0.366979 0
1 0.382666 0
1 0.393149 0
1 0.397513 0
1 0.397818 0
0.0417334 0.243717 0.163348
0.137026 0.239399 0.114748
0.252583 0.221469 0.0728008
0.344137 0.211353 0.0451057
0.428031 0.211383 0.0138857
0.513024 0.216815 0
0.595193 0.224628 0
0.672633 0.23386 0
0.745541 0.24303 0
0.813504 0.251545 0
0.875776 0.258518 0
0.928771 0.265476 0
0.974411 0.272404 0
0.997635 0.278553 0
1 0.28452 0
1 0.291051 0
1 0.296818 0
1 0.302632 0
1 0.308186 0
1 0.31429 0
1 0.32076 0
1 0.328099 0
1 0.3364 0
1 0.345022 0
1 0.354742 0
1 0.365347 0
1 0.376761 0
1 0.389517 0
1 0.40267 0
1 0.416831 0
1 0.425422 0
1 0.428916 0
1 0.428962 0
0.0197299 0.269413 0.154162
0.0976272 0.272999 0.10927
0.214572 0.262821 0.0602274
0.333379 0.2365 0.0294957
0.425849 0.228 0.0106661
0.51339 0.231342 0
0.596704 0.239292 0
0.673991 0.249546 0
0.746654 0.26006 0
0.813931 0.270115 0
0.87541 0.279179 0
0.927047 0.288914 0
0.971084 0.29868 0
0.99527 0.308309 0
1 0.317922 0
1 0.327947 0
1 0.336675 0
1 0.344747 0
1 0.352697 0
1 0.360632 0
1 0.368322 0
1 0.375921 0
1 0.383551 0
1 0.39147 0
1 0.399939 0
1 0.409247 0
1 0.419989 0
1 0.431449 0
1 0.443626 0
1 0.456062 0
1 0.462425 0
1 0.464607 0
1 0.464851 0
0.00289921 0.296971 0.144808
0.0650797 0.301366 0.10222
0.168627 0.306798 0.0529488
0.302831 0.283101 0.0134279
0.417212 0.253437 0.000900282
0.511482 0.248692 0
0.597574 0.255299 0
0.675807 0.265354 0
0.749004 0.276616 0
0.815717 0.287175 0
0.876143 0.297093 0
0.927993 0.307744 0
0.97116 0.318746 0
0.995026 0.330282 0
1 0.341848 0
1 0.353491 0
1 0.364935 0
1 0.376318 0
1 0.387366 0
1 0.398184 0
1 0.407996 0
1 0.41738 0
1 0.425849 0
1 0.434974 0
1 0.444495 0
1 0.454429 0
1 0.464942 0
1 0.475975 0
1 0.487404 0
1 0.498619 0
1 0.50219 0
1 0.503258 0
1 0.502953 0
0.000381476 0.32546 0.13669
0.0407111 0.330632 0.0957961
0.129274 0.340993 0.0564889
0.256199 0.335805 0.019791
0.387091 0.304326 9.15541e-05
0.501015 0.276692 0
0.594949 0.274876 0
0.676265 0.283604 0
0.749477 0.294392 0
0.81622 0.305303 0
0.876661 0.315847 0
0.928038 0.326925 0
0.970657 0.338857 0
0.994308 0.351171 0
1 0.363516 0
1 0.376242 0
1 0.38883 0
1 0.401373 0
1 0.413977 0
1 0.425956 0
1 0.437873 0
1 0.449104 0
1 0.460243 0
1 0.471336 0
1 0.482506 0
1 0.493172 0
1 0.503502 0
1 0.514565 0
1 0.526055 0
1 0.537636 0
1 0.539452 0
1 0.53962 0
1 0.539239 0
6.10361e-05 0.355596 0.129625
0.0241855 0.360861 0.0901656
0.102327 0.373022 0.0534524
0.213611 0.379843 0.0233616
0.343297 0.36614 0.00393683
0.473503 0.330083 0
0.583963 0.303868 0
0.671885 0.305592 0
0.748867 0.313664 0
0.815991 0.32462 0
0.875715 0.335515 0
0.926482 0.347097 0
0.968688 0.359396 0
0.993088 0.372335 0
1 0.385199 0
1 0.398444 0
1 0.412039 0
1 0.425345 0
1 0.438621 0
1 0.45156 0
1 0.464195 0
1 0.476173 0
1 0.488106 0
1 0.499931 0
1 0.511757 0
1 0.523598 0
1 0.535897 0
1 0.548531 0
1 0.560403 0
1 0.568856 0
1 0.569848 0
1 0.569482 0
1 0.568933 0
1.5259e-05 0.387747 0.122637
0.0141909 0.393149 0.0839246
0.079942 0.405951 0.0487221
0.180713 0.417426 0.0217136
0.299489 0.420676 0.0049897
0.432456 0.396338 0
0.557595 0.357244 0
0.658976 0.337163 0
0.742763 0.338018 0
0.813748 0.345617 0
0.873396 0.356527 0
0.9234 0.368093 0
0.965301 0.380545 0
0.990936 0.393637 0
1 0.407095 0
1 0.421027 0
1 0.435142 0
1 0.448814 0
1 0.462379 0
1 0.475883 0
1 0.488762 0
1 0.501457 0
1 0.513741 0
1 0.526131 0
1 0.537881 0
1 0.549737 0
1 0.561975 0
1 0.574426 0
1 0.584649 0
1 0.588998 0
1 0.590158 0
1 0.590631 0
1 0.591089 0
0 0.421469 0.115282
0.00753796 0.426841 0.0770428
0.0607309 0.439658 0.0430152
0.154879 0.453361 0.0170138
0.263432 0.463813 0.00323491
0.38645 0.460685 0
0.516457 0.42858 0
0.633402 0.386328 0
0.728374 0.370703 0
0.806821 0.371618 0
0.868742 0.379385 0
0.919127 0.390173 0
0.960769 0.402304 0
0.988128 0.415457 0
1 0.429404 0
1 0.443427 0
1 0.45742 0
1 0.471519 0
1 0.485237 0
1 0.49897 0
1 0.512673 0
1 0.525673 0
1 0.538354 0
1 0.550576 0
1 0.562463 0
1 0.573999 0
1 0.586053 0
1 0.597086 0
1 0.60502 0
1 0.606516 0
1 0.607553 0
1 0.608392 0
1 0.609064 0
0 0.456138 0.107454
0.0030518 0.462043 0.0691081
0.0448615 0.474556 0.0364691
0.13228 0.489067 0.0122377
0.235096 0.501945 0.00132753
0.347463 0.510811 0
0.46862 0.499321 0
0.59443 0.458274 0
0.704265 0.416419 0
0.792325 0.404517 0
0.860197 0.406653 0
0.913054 0.41413 0
0.955245 0.424842 0
0.984833 0.43798 0
0.999847 0.451362 0
1 0.465278 0
1 0.479377 0
1 0.493324 0
1 0.507256 0
1 0.52134 0
1 0.535027 0
1 0.548302 0
1 0.561074 0
1 0.57348 0
1 0.585565 0
1 0.597208 0
1 0.609049 0
1 0.617807 0
1 0.622965 0
1 0.623163 0
1 0.624155 0
1 0.624842 0
1 0.625574 0
0 0.492302 0.0992294
0.000595102 0.497169 0.0607919
0.0331731 0.50956 0.0294804
0.113771 0.524453 0.00810254
0.211337 0.538537 0
0.3205 0.550652 0
0.434043 0.556664 0
0.546517 0.539071 0
0.666911 0.486183 0
0.771313 0.445228 0
0.844282 0.441382 0
0.902342 0.442924 0
0.947555 0.449821 0
0.980209 0.460136 0
0.998932 0.473136 0
1 0.486809 0
1 0.500587 0
1 0.514794 0
1 0.528634 0
1 0.54255 0
1 0.555688 0
1 0.568933 0
1 0.581796 0
1 0.594766 0
1 0.606897 0
1 0.618494 0
1 0.629664 0
1 0.636408 0
1 0.639033 0
1 0.639139 0
1 0.639887 0
1 0.640558 0
1 0.641367 0
0 0.528176 0.0906539
0.000106813 0.533486 0.0519875
0.0251011 0.544762 0.0223239
0.0981308 0.559274 0.0053254
0.191974 0.573983 0
0.296147 0.587045 0
0.405554 0.596201 0
0.511971 0.594873 0
0.618936 0.570413 0
0.730556 0.514672 0
0.820523 0.485405 0
0.885451 0.479011 0
0.934142 0.48098 0
0.971267 0.486534 0
0.995499 0.495155 0
1 0.507958 0
1 0.521737 0
1 0.535409 0
1 0.548653 0
1 0.562112 0
1 0.575036 0
1 0.588083 0
1 0.601251 0
1 0.613977 0
1 0.626291 0
1 0.637507 0
1 0.648203 0
1 0.653544 0
1 0.654383 0
1 0.654536 0
1 0.654902 0
1 0.655573 0
1 0.656352 0
0 0.564492 0.0816052
1.5259e-05 0.569009 0.0429084
0.0194247 0.579202 0.0149386
0.0856184 0.593683 0.00244144
0.175662 0.608743 0
0.274617 0.622003 0
0.381277 0.632715 0
0.485924 0.638422 0
0.582757 0.631464 0
0.68304 0.600412 0
0.78027 0.549172 0
0.857527 0.524514 0
0.91516 0.516915 0
0.957534 0.517723 0
0.986191 0.522942 0
1 0.531518 0
1 0.542855 0
1 0.555642 0
1 0.568429 0
1 0.581109 0
1 0.593835 0
1 0.606775 0
1 0.61915 0
1 0.631403 0
1 0.643244 0
1 0.654978 0
1 0.664775 0
1 0.668849 0
1 0.668971 0
1 0.669184 0
1 0.669703 0
1 0.670298 0
1 0.671061 0
0 0.600458 0.0728313
0 0.605005 0.0337835
0.0150759 0.613947 0.00895705
0.074403 0.627375 0.00062562
0.16144 0.641733 0
0.257053 0.65507 0
0.359823 0.666468 0
0.462882 0.675181 0
0.557549 0.677256 0
0.642618 0.667765 0
0.733562 0.626078 0
0.818479 0.585092 0
0.887282 0.561456 0
0.93817 0.553674 0
0.973831 0.554345 0
0.996704 0.55903 0
0.999496 0.56643 0
1 0.576318 0
1 0.587793 0
1 0.600153 0
1 0.612192 0
1 0.624567 0
1 0.636591 0
1 0.648325 0
1 0.659754 0
1 0.671687 0
1 0.6795 0
1 0.682719 0
1 0.682918 0
1 0.683101 0
1 0.683482 0
1 0.684062 0
1 0.684535 0
0 0.636561 0.0638743
0 0.640604 0.0246281
0.0107424 0.64744 0.00419623
0.0645914 0.659724 0
0.14934 0.673869 0
0.241917 0.686961 0
0.340383 0.698497 0
0.441291 0.708293 0
0.536797 0.714137 0
0.616724 0.712947 0
0.692012 0.697017 0
0.773114 0.655909 0
0.84889 0.618616 0
0.910521 0.596155 0
0.955352 0.58883 0
0.986999 0.589639 0
0.998001 0.593347 0
1 0.599512 0
1 0.60853 0
1 0.618799 0
1 0.630137 0
1 0.642039 0
1 0.653407 0
1 0.664729 0
1 0.675669 0
1 0.687678 0
1 0.693812 0
1 0.6963 0
1 0.696422 0
1 0.696529 0
1 0.697047 0
1 0.69752 0
1 0.6981 0
0 0.672465 0.0551766
0 0.675074 0.0168917
0.00680552 0.680552 0.00112917
0.0555428 0.691463 0
0.138506 0.705089 0
0.228183 0.718257 0
0.323247 0.72932 0
0.419974 0.738888 0
0.515694 0.746288 0
0.599527 0.749035 0
0.663859 0.747021 0
0.732265 0.72433 0
0.804761 0.685634 0
0.871931 0.650599 0
0.927581 0.629465 0
0.968307 0.623331 0
0.993164 0.623804 0
0.99913 0.626642 0
1 0.631296 0
1 0.638483 0
1 0.647898 0
1 0.65919 0
1 0.670054 0
1 0.6804 0
1 0.69099 0
1 0.702983 0
1 0.707729 0
1 0.7093 0
1 0.709468 0
1 0.709529 0
1 0.709895 0
1 0.71043 0
1 0.71104 0
0 0.70695 0.0466163
0 0.708904 0.0107881
0.00350958 0.712978 0
0.0469673 0.722393 0
0.128985 0.735698 0
0.215839 0.747799 0
0.307698 0.758465 0
0.400793 0.767605 0
0.493996 0.775235 0
0.580896 0.780926 0
0.647639 0.780087 0
0.704982 0.776211 0
0.763134 0.753567 0
0.825925 0.716976 0
0.889357 0.680385 0
0.939422 0.66363 0
0.979706 0.657252 0
0.995315 0.656535 0
1 0.657923 0
1 0.661158 0
1 0.666697 0
1 0.676463 0
1 0.686122 0
1 0.696101 0
1 0.705974 0
1 0.717418 0
1 0.72105 0
1 0.72224 0
1 0.72221 0
1 0.72221 0
1 0.722728 0
1 0.723201 0
1 0.723888 0
0 0.7411 0.0379644
0 0.742931 0.00544747
0.0012665 0.74493 0
0.0406348 0.753155 0
0.119371 0.764996 0
0.204364 0.776501 0
0.293111 0.786664 0
0.383261 0.795148 0
0.473579 0.802457 0
0.559014 0.808408 0
0.631922 0.810849 0
0.687968 0.80882 0
0.737621 0.801892 0
0.786892 0.781552 0
0.840452 0.748531 0
0.900374 0.713878 0
0.948318 0.697902 0
0.985046 0.690044 0
1 0.687037 0
1 0.687236 0
1 0.689387 0
1 0.69456 0
1 0.702419 0
1 0.711452 0
1 0.720897 0
1 0.731243 0
1 0.734249 0
1 0.735058 0
1 0.735119 0
1 0.735012 0
1 0.735454 0
1 0.736126 0
1 0.736721 0
0 0.774899 0.0294041
0 0.776211 0.000289921
0.000549325 0.776867 0
0.0356146 0.782956 0
0.110582 0.793652 0
0.193912 0.803876 0
0.280324 0.813642 0
0.367987 0.821698 0
0.454963 0.828107 0
0.537301 0.833539 0
0.612665 0.836881 0
0.672801 0.837018 0
0.721538 0.834562 0
0.764126 0.826993 0
0.805936 0.80975 0
0.852995 0.777462 0
0.908721 0.747478 0
0.955825 0.730282 0
0.986252 0.720623 0
1 0.716075 0
1 0.715404 0
1 0.717403 0
1 0.72079 0
1 0.726955 0
1 0.736065 0
1 0.744854 0
1 0.746944 0
1 0.747677 0
1 0.747753 0
1 0.747951 0
1 0.748287 0
1 0.748882 0
1 0.749554 0
0 0.808087 0.0212863
0 0.808835 4.57771e-05
0.000106813 0.807507 0
0.0311894 0.811658 0
0.102434 0.821363 0
0.18439 0.8309 0
0.269093 0.839597 0
0.354345 0.846723 0
0.437964 0.852415 0
0.517662 0.856947 0
0.59173 0.860304 0
0.656016 0.862104 0
0.707179 0.861509 0
0.748425 0.858824 0
0.784558 0.851759 0
0.820386 0.834989 0
0.864164 0.805341 0
0.916747 0.777859 0
0.963516 0.758755 0
0.993393 0.748501 0
1 0.74345 0
1 0.741802 0
1 0.742428 0
1 0.745571 0
1 0.75079 0
1 0.758328 0
1 0.760037 0
1 0.760601 0
1 0.760739 0
1 0.761181 0
1 0.761349 0
1 0.761868 0
1 0.762585 0
0 0.840925 0.0133211
0 0.840421 0
0 0.837507 0
0.0275425 0.839933 0
0.0954299 0.848554 0
0.176013 0.856947 0
0.258564 0.864408 0
0.341665 0.870466 0
0.422782 0.875288 0
0.500465 0.878965 0
0.571649 0.882185 0
0.636622 0.884504 0
0.691035 0.885084 0
0.7346 0.883833 0
0.769909 0.880934 0
0.801495 0.875242 0
0.833906 0.85687 0
0.877028 0.830274 0
0.926696 0.804746 0
0.971283 0.785428 0
0.998123 0.774441 0
0.999634 0.769192 0
1 0.766812 0
1 0.766873 0
1 0.769604 0
1 0.772992 0
1 0.773449 0
1 0.773602 0
1 0.773877 0
1 0.774105 0
1 0.774304 0
1 0.775021 0
1 0.775921 0
0 0.87219 0.00564584
0 0.871015 0
0 0.867338 0
0.0248875 0.867964 0
0.0894636 0.874708 0
0.168658 0.881956 0
0.249653 0.887953 0
0.330129 0.892989 0
0.409232 0.897032 0
0.484459 0.900298 0
0.553246 0.903014 0
0.61651 0.904997 0
0.672221 0.90663 0
0.718746 0.906752 0
0.756313 0.905547 0
0.78819 0.902495 0
0.817182 0.895628 0
0.847501 0.878737 0
0.888106 0.854063 0
0.934844 0.829145 0
0.982254 0.809277 0
0.991608 0.79971 0
0.995239 0.793164 0
0.996277 0.790768 0
0.996841 0.790661 0
0.997116 0.790967 0
0.998459 0.788647 0
0.999329 0.787198 0
0.999634 0.786892 0
0.999664 0.787305 0
0.999619 0.78764 0
0.999481 0.788403 0
0.999268 0.789502 0
0 0.902174 0.00183108
0 0.900725 0
0 0.895918 0
0.0224918 0.894667 0
0.0839094 0.899687 0
0.162036 0.905348 0
0.24181 0.910155 0
0.320287 0.914534 0
0.396857 0.917998 0
0.469139 0.920821 0
0.53576 0.92311 0
0.596582 0.924956 0
0.651438 0.926619 0
0.699565 0.928206 0
0.740734 0.928298 0
0.773587 0.926314 0
0.804013 0.923033 0
0.831815 0.91545 0
0.860349 0.899748 0
0.897032 0.876799 0
0.947692 0.8495 0
0.97348 0.83212 0
0.9832 0.821881 0
0.986572 0.816144 0
0.988098 0.813443 0
0.989273 0.811414 0
0.992035 0.806531 0
0.994171 0.802716 0
0.995377 0.800565 0
0.995529 0.800336 0
0.995148 0.801022 0
0.994659 0.801907 0
0.994095 0.802884 0
0 0.930358 0.000869764
0 0.928588 0
0 0.922835 0
0.0204776 0.920211 0
0.0793011 0.922927 0
0.156435 0.927581 0
0.234012 0.931594 0
0.311299 0.935409 0
0.385702 0.938125 0
0.454887 0.940642 0
0.518227 0.942718 0
0.576928 0.944472 0
0.630396 0.946349 0
0.677623 0.948165 0
0.719768 0.949493 0
0.757351 0.949599 0
0.788128 0.946502 0
0.818143 0.942962 0
0.846281 0.935164 0
0.874754 0.919905 0
0.906203 0.896208 0
0.948318 0.869566 0
0.965057 0.852766 0
0.971405 0.842969 0
0.974212 0.838056 0
0.976638 0.833738 0
0.979965 0.827863 0
0.983215 0.822095 0
0.986038 0.81709 0
0.987243 0.814984 0
0.987457 0.814588 0
0.987091 0.815213 0
0.986389 0.816464 0
0 0.957397 0.000854505
0 0.954604 0
0 0.948333 0
0.0189975 0.94406 0
0.0758679 0.945327 0
0.1523 0.948974 0
0.228046 0.952285 0
0.301686 0.955413 0
0.373754 0.958038 0
0.44036 0.960647 0
0.50161 0.962783 0
0.557763 0.964858 0
0.608972 0.966476 0
0.654887 0.96817 0
0.696483 0.969665 0
0.734615 0.971008 0
0.769436 0.970718 0
0.800534 0.967437 0
0.83151 0.962905 0
0.86157 0.954818 0
0.889479 0.939834 0
0.920623 0.914717 0
0.942336 0.889815 0
0.955169 0.871885 0
0.960174 0.862898 0
0.962829 0.858213 0
0.966262 0.85211 0
0.969955 0.845563 0
0.973648 0.839033 0
0.977218 0.832761 0
0.978576 0.830304 0
0.978469 0.830488 0
0.977554 0.83212 0
0 0.981659 0.000762951
0 0.978408 0
0 0.97145 0
0.0185855 0.966644 0
0.0748302 0.966735 0
0.148653 0.969604 0
0.222263 0.972564 0
0.293492 0.975387 0
0.362081 0.978164 0
0.42594 0.980636 0
0.484367 0.983124 0
0.538109 0.98526 0
0.587198 0.987213 0
0.631327 0.989044 0
0.671824 0.990631 0
0.708995 0.992218 0
0.745022 0.99295 0
0.778912 0.992401 0
0.811597 0.989654 0
0.843763 0.984649 0
0.876646 0.977035 0
0.906859 0.958068 0
0.926925 0.934096 0
0.93846 0.91104 0
0.943771 0.892103 0
0.948867 0.882994 0
0.952773 0.876066 0
0.956298 0.86981 0
0.959792 0.86363 0
0.963287 0.85745 0
0.965988 0.852659 0
0.966506 0.851667 0
0.965438 0.853498 0
0 0.998367 0.000732433
0 0.995743 0
0 0.993027 0
0.0190738 0.988891 0
0.0737163 0.987823 0
0.145525 0.989654 0
0.216663 0.991272 0
0.2851 0.992218 0
0.350393 0.993515 0
