public/LUTS/Autumn/Autumn_12.cube
TITLE "Generated by Resolve"
LUT_3D_SIZE 5
0.105196 0.173663 0.182254
0.771328 0.16907 0
1 0.176989 0
1 0.257465 0
1 0.356374 0
1.5259e-05 0.387747 0.122637
0.742763 0.338018 0
1 0.435142 0
1 0.537881 0
1 0.591089 0
0 0.672465 0.0551766
0.515694 0.746288 0
0.993164 0.623804 0
1 0.69099 0
1 0.71104 0
0 0.930358 0.000869764
0.385702 0.938125 0
0.788128 0.946502 0
0.974212 0.838056 0
0.986389 0.816464 0
0 1 0.00108339
0.304967 1 0
0.651164 1 0
0.915892 1 0
0.915709 1 0
0 0.336553 0.582834
0.347494 0.30013 0.193774
0.888304 0.367971 0.077409
1 0.429343 0.00201419
1 0.477119 0
0 0.404196 0.511757
0.507958 0.414755 0.347326
0.996994 0.427817 0.127352
1 0.464973 0
1 0.516716 0
0 0.754788 0.579293
0.272648 0.722667 0.214923
0.926955 0.654093 0.00956741
1 0.717418 0
1 0.741039 0
0 0.941817 0.54226
0.232471 0.918578 0.124147
0.7066 0.926085 0.0577707
0.971298 0.84477 0
0.97499 0.836637 0
0 1 0.54226
0.204562 1 0.124926
0.56817 1 0.091722
0.898375 1 0.00753796
0.926452 1 0
0 0.532586 0.936736
0 0.514565 0.572442
0.668177 0.445884 0.157092
1 0.499718 0.263798
1 0.606622 0.602594
0 0.568612 0.891905
0.0226291 0.57258 0.889479
0.765087 0.524941 0.504097
1 0.592782 0.58732
1 0.614221 0.54406
0 0.638148 0.85452
0.0110323 0.705684 0.871794
0.799725 0.706371 0.669505
1 0.715572 0.573159
1 0.700374 0.449149
0 0.939116 0.999985
0 0.941604 0.856168
0.631601 0.89308 0.493751
0.999466 0.833616 0.216052
1 0.840742 0.149569
0 1 0.983658
0.00404364 1 0.71519
0.518898 1 0.39823
0.806607 1 0.296849
0.941772 1 0.224292
0 0.733211 1
0 0.707729 0.999802
0.302525 0.652949 0.880339
0.927275 0.596506 0.687083
1 0.620844 0.684153
0 0.740887 1
0 0.725368 1
0.457237 0.65359 0.985458
0.967544 0.610544 0.795743
1 0.655955 0.791821
0 0.754253 1
0 0.799252 1
0.550652 0.747845 1
0.968658 0.721767 0.851682
1 0.740749 0.847166
0 0.817533 1
0 0.85275 1
0.484291 0.847684 0.964416
0.922179 0.858824 0.827588
1 0.854871 0.791424
0 0.997925 1
0 1 1
0.25391 1 0.903349
0.761944 1 0.67985
0.965026 1 0.586236
0 0.89749 1
0 0.883299 1
0.00047303 0.861051 1
0.772946 0.758953 1
1 0.693355 1
0 0.876875 1
0 0.860548 1
0.00906386 0.837781 1
0.808972 0.745922 1
1 0.693004 1
0 0.876631 1
0 0.88867 1
0.101183 0.849317 1
0.855024 0.771176 1
1 0.734173 1
0 0.883482 1
0 0.903868 1
0.174289 0.890227 1
0.862379 0.855634 1
1 0.831312 1
0 0.919524 1
0 0.947768 1
0.186816 0.940261 1
0.789349 0.944244 0.998062
0.986984 0.99147 0.907271
