public/LUTS/Autumn/Autumn_05.cube
TITLE "Generated by Resolve"
LUT_3D_SIZE 33
0 0 0
0.0106508 0 0
0.0447852 0 0
0.0789044 0 0
0.113039 0 0
0.147158 0 0
0.181292 0 0
0.215427 0 0
0.249546 0 0
0.28368 0 0
0.3178 0 0
0.351934 0 0
0.386069 0 0
0.420188 0 0
0.454322 0 0
0.488441 0 0
0.522576 0 0
0.55671 0 0
0.590829 0 0
0.624964 0 0
0.659083 0 0
0.693217 0 0
0.727352 0 0
0.761471 0 0
0.795605 0 0
0.829725 0 0
0.863859 0 0
0.897993 0 0
0.932113 0 0
0.966247 0 0
1 0 0
1 0 0
1 0 0
0 0.0309758 0.000671397
0.0113222 0.0301976 0
0.0454414 0.0294194 0
0.0795758 0.0286412 0
0.11371 0.027863 0
0.147829 0.0270848 0
0.181964 0.0263066 0
0.216083 0.0255283 0
0.250217 0.0247501 0
0.284352 0.0239719 0
0.318471 0.0231937 0
0.352605 0.0224155 0
0.386725 0.0216526 0
0.420859 0.0208743 0
0.454994 0.0200961 0
0.489113 0.0193179 0
0.523247 0.0185397 0
0.557366 0.0177615 0
0.591501 0.0169833 0
0.625635 0.0162051 0
0.659754 0.0154269 0
0.693889 0.0146487 0
0.728008 0.0138705 0
0.762142 0.0130922 0
0.796262 0.012314 0
0.830396 0.0115511 0
0.86453 0.0107729 0
0.89865 0.00999466 0
0.932784 0.00921645 0
0.966903 0.00843824 0
1 0.00766003 0
1 0.00688182 0
1 0.00610361 0
0 0.0619516 0.00132753
0.0119936 0.0611734 0.000564584
0.0461128 0.0603952 0
0.0802472 0.059617 0
0.114366 0.058854 0
0.148501 0.0580758 0
0.18262 0.0572976 0
0.216754 0.0565194 0
0.250889 0.0557412 0
0.285008 0.054963 0
0.319142 0.0541848 0
0.353262 0.0534066 0
0.387396 0.0526284 0
0.42153 0.0518502 0
0.45565 0.0510719 0
0.489784 0.0502937 0
0.523903 0.0495155 0
0.558038 0.0487526 0
0.592172 0.0479744 0
0.626291 0.0471962 0
0.660426 0.0464179 0
0.694545 0.0456397 0
0.728679 0.0448615 0
0.762814 0.0440833 0
0.796933 0.0433051 0
0.831067 0.0425269 0
0.865187 0.0417487 0
0.899321 0.0409705 0
0.933455 0.0401923 0
0.967575 0.0394141 0
1 0.0386511 0
1 0.0378729 0
1 0.0370947 0
0 0.0929427 0.00199893
0.0126497 0.0921645 0.00122072
0.0467842 0.0913863 0.000442512
0.0809033 0.0906081 0
0.115038 0.0898299 0
0.149172 0.0890516 0
0.183291 0.0882734 0
0.217426 0.0874952 0
0.251545 0.086717 0
0.285679 0.0859388 0
0.319814 0.0851759 0
0.353933 0.0843977 0
0.388067 0.0836194 0
0.422187 0.0828412 0
0.456321 0.082063 0
0.490455 0.0812848 0
0.524575 0.0805066 0
0.558709 0.0797284 0
0.592828 0.0789502 0
0.626963 0.078172 0
0.661097 0.0773938 0
0.695216 0.0766155 0
0.729351 0.0758373 0
0.76347 0.0750744 0
0.797604 0.0742962 0
0.831739 0.073518 0
0.865858 0.0727398 0
0.899992 0.0719615 0
0.934112 0.0711833 0
0.968246 0.0704051 0
1 0.0696269 0
1 0.0688487 0
1 0.0680705 0
0 0.123919 0.00267033
0.0133211 0.12314 0.00189212
0.0474556 0.122377 0.00111391
0.0815747 0.121599 0.000335698
0.115709 0.120821 0
0.149828 0.120043 0
0.183963 0.119265 0
0.218097 0.118486 0
0.252216 0.117708 0
0.286351 0.11693 0
0.32047 0.116152 0
0.354604 0.115373 0
0.388739 0.114595 0
0.422858 0.113817 0
0.456992 0.113039 0
0.491112 0.112276 0
0.525246 0.111498 0
0.55938 0.110719 0
0.5935 0.109941 0
0.627634 0.109163 0
0.661753 0.108385 0
0.695888 0.107607 0
0.730022 0.106828 0
0.764141 0.10605 0
0.798276 0.105272 0
0.832395 0.104494 0
0.866529 0.103716 0
0.900664 0.102937 0
0.934783 0.102174 0
0.968917 0.101396 0
1 0.100618 0
1 0.0998398 0
1 0.0990616 0
0 0.15491 0.00334173
0.0139925 0.154131 0.00256352
0.0481117 0.153353 0.00178531
0.0822461 0.152575 0.0010071
0.116381 0.151797 0.000228885
0.1505 0.151019 0
0.184634 0.15024 0
0.218753 0.149462 0
0.252888 0.148699 0
0.287022 0.147921 0
0.321141 0.147143 0
0.355276 0.146365 0
0.389395 0.145586 0
0.423529 0.144808 0
0.457664 0.14403 0
0.491783 0.143252 0
0.525917 0.142473 0
0.560037 0.141695 0
0.594171 0.140917 0
0.62829 0.140139 0
0.662425 0.139361 0
0.696559 0.138598 0
0.730678 0.137819 0
0.764813 0.137041 0
0.798932 0.136263 0
0.833066 0.135485 0
0.867201 0.134707 0
0.90132 0.133928 0
0.935454 0.13315 0
0.969573 0.132372 0
1 0.131594 0
1 0.130816 0
1 0.130037 0
0 0.185885 0.00399786
0.0146487 0.185122 0.00323491
0.0487831 0.184344 0.0024567
0.0829175 0.183566 0.00167849
0.117037 0.182788 0.000900282
0.151171 0.18201 0.000122072
0.18529 0.181231 0
0.219425 0.180453 0
0.253559 0.179675 0
0.287678 0.178897 0
0.321813 0.178119 0
0.355932 0.17734 0
0.390066 0.176562 0
0.424201 0.175799 0
0.45832 0.175021 0
0.492454 0.174243 0
0.526574 0.173465 0
0.560708 0.172686 0
0.594842 0.171908 0
0.628962 0.17113 0
0.663096 0.170352 0
0.697215 0.169574 0
0.73135 0.168795 0
0.765484 0.168017 0
0.799603 0.167239 0
0.833738 0.166461 0
0.867857 0.165698 0
0.901991 0.16492 0
0.936126 0.164141 0
0.970245 0.163363 0
1 0.162585 0
1 0.161807 0
1 0.161028 0
0 0.216876 0.00466926
0.0153201 0.216098 0.00389105
0.0494545 0.21532 0.00311284
0.0835737 0.214542 0.00233463
0.117708 0.213764 0.00157168
0.151843 0.212985 0.000793469
0.185962 0.212222 1.5259e-05
0.220096 0.211444 0
0.254215 0.210666 0
0.28835 0.209888 0
0.322484 0.20911 0
0.356603 0.208331 0
0.390738 0.207553 0
0.424857 0.206775 0
0.458991 0.205997 0
0.493126 0.205219 0
0.527245 0.20444 0
0.561379 0.203662 0
0.595499 0.202899 0
0.629633 0.202121 0
0.663767 0.201343 0
0.697887 0.200565 0
0.732021 0.199786 0
0.76614 0.199008 0
0.800275 0.19823 0
0.834409 0.197452 0
0.868528 0.196674 0
0.902663 0.195895 0
0.936782 0.195117 0
0.970916 0.194339 0
1 0.193561 0
1 0.192798 0
1 0.19202 0
0 0.247868 0.00534066
0.0159915 0.247089 0.00456245
0.0501259 0.246311 0.00378424
0.0842451 0.245533 0.00300603
0.118379 0.244755 0.00222782
0.152499 0.243977 0.00144961
0.186633 0.243198 0.000671397
0.220768 0.24242 0
0.254887 0.241642 0
0.289021 0.240864 0
0.32314 0.240085 0
0.357275 0.239322 0
0.391409 0.238544 0
0.425528 0.237766 0
0.459663 0.236988 0
0.493782 0.23621 0
0.527916 0.235431 0
0.562051 0.234653 0
0.59617 0.233875 0
0.630304 0.233097 0
0.664424 0.232319 0
0.698558 0.23154 0
0.732692 0.230762 0
0.766812 0.229984 0
0.800946 0.229221 0
0.835065 0.228443 0
0.8692 0.227665 0
0.903334 0.226886 0
0.937453 0.226108 0
0.971588 0.22533 0
1 0.224552 0
1 0.223774 0
1 0.222995 0
0 0.278843 0.00601205
0.0166629 0.278065 0.00523384
0.050782 0.277287 0.00445563
0.0849165 0.276509 0.00367742
0.119051 0.275746 0.00289921
0.15317 0.274968 0.002121
0.187304 0.274189 0.00134279
0.221424 0.273411 0.000564584
0.255558 0.272633 0
0.289693 0.271855 0
0.323812 0.271077 0
0.357946 0.270298 0
0.392065 0.26952 0
0.4262 0.268742 0
0.460319 0.267964 0
0.494453 0.267185 0
0.528588 0.266423 0
0.562707 0.265644 0
0.596841 0.264866 0
0.630961 0.264088 0
0.665095 0.26331 0
0.699229 0.262531 0
0.733349 0.261753 0
0.767483 0.260975 0
0.801602 0.260197 0
0.835737 0.259419 0
0.869871 0.25864 0
0.90399 0.257862 0
0.938125 0.257084 0
0.972244 0.256321 0
1 0.255543 0
1 0.254765 0
1 0.253986 0
0 0.309834 0.00666819
0.017319 0.309056 0.00590524
0.0514534 0.308278 0.00512703
0.0855879 0.3075 0.00434882
0.119707 0.306722 0.00357061
0.153841 0.305943 0.0027924
0.187961 0.305165 0.00201419
0.222095 0.304387 0.00123598
0.256229 0.303609 0.000457771
0.290349 0.302846 0
0.324483 0.302068 0
0.358602 0.301289 0
0.392737 0.300511 0
0.426871 0.299733 0
0.46099 0.298955 0
0.495125 0.298177 0
0.529244 0.297398 0
0.563378 0.29662 0
0.597513 0.295842 0
0.631632 0.295064 0
0.665766 0.294286 0
0.699886 0.293507 0
0.73402 0.292744 0
0.768154 0.291966 0
0.802274 0.291188 0
0.836408 0.29041 0
0.870527 0.289631 0
0.904662 0.288853 0
0.938796 0.288075 0
0.972915 0.287297 0
1 0.286519 0
1 0.28574 0
1 0.284962 0
0 0.34081 0.00733959
0.0179904 0.340032 0.00656138
0.0521248 0.339269 0.00578317
0.086244 0.338491 0.00500496
0.120378 0.337713 0.00424201
0.154513 0.336934 0.0034638
0.188632 0.336156 0.00268559
0.222766 0.335378 0.00190738
0.256886 0.3346 0.00112917
0.29102 0.333822 0.000350958
0.325154 0.333043 0
0.359274 0.332265 0
0.393408 0.331487 0
0.427527 0.330709 0
0.461662 0.329946 0
0.495796 0.329168 0
0.529915 0.328389 0
0.56405 0.327611 0
0.598169 0.326833 0
0.632303 0.326055 0
0.666438 0.325277 0
0.700557 0.324498 0
0.734691 0.32372 0
0.768811 0.322942 0
0.802945 0.322164 0
0.837079 0.321386 0
0.871199 0.320607 0
0.905333 0.319844 0
0.939452 0.319066 0
0.973587 0.318288 0
1 0.31751 0
1 0.316732 0
1 0.315953 0
0 0.371801 0.00801099
0.0186618 0.371023 0.00723278
0.0527962 0.370245 0.00645457
0.0869154 0.369467 0.00567636
0.12105 0.368688 0.00489815
0.155169 0.36791 0.00411994
0.189303 0.367132 0.00334173
0.223438 0.366369 0.00257877
0.257557 0.365591 0.00180056
0.291691 0.364813 0.00102235
0.325811 0.364034 0.000244144
0.359945 0.363256 0
0.39408 0.362478 0
0.428199 0.3617 0
0.462333 0.360922 0
0.496452 0.360143 0
0.530587 0.359365 0
0.564721 0.358587 0
0.59884 0.357809 0
0.632975 0.357031 0
0.667094 0.356268 0
0.701228 0.355489 0
0.735363 0.354711 0
0.769482 0.353933 0
0.803616 0.353155 0
0.837736 0.352377 0
0.87187 0.351598 0
0.905989 0.35082 0
0.940124 0.350042 0
0.974258 0.349264 0
1 0.348486 0
1 0.347707 0
1 0.346929 0
0 0.402792 0.00868238
0.0193332 0.402014 0.00790417
0.0534524 0.401236 0.00712596
0.0875868 0.400458 0.00634775
0.121721 0.39968 0.00556954
0.15584 0.398901 0.00479133
0.189975 0.398123 0.00401312
0.224094 0.397345 0.00323491
0.258228 0.396567 0.0024567
0.292348 0.395789 0.00167849
0.326482 0.39501 0.000900282
0.360616 0.394232 0.000137331
0.394736 0.393469 0
0.42887 0.392691 0
0.462989 0.391913 0
0.497124 0.391135 0
0.531258 0.390356 0
0.565377 0.389578 0
0.599512 0.3888 0
0.633631 0.388022 0
0.667765 0.387243 0
0.7019 0.386465 0
0.736019 0.385687 0
0.770153 0.384909 0
0.804273 0.384131 0
0.838407 0.383368 0
0.872541 0.382589 0
0.906661 0.381811 0
0.940795 0.381033 0
0.974914 0.380255 0
1 0.379477 0
1 0.378698 0
1 0.37792 0
0 0.433768 0.00933852
0.0199893 0.43299 0.00857557
0.0541238 0.432212 0.00779736
0.0882582 0.431434 0.00701915
0.122377 0.430655 0.00624094
0.156512 0.429892 0.00546273
0.190631 0.429114 0.00468452
0.224765 0.428336 0.00390631
0.2589 0.427558 0.0031281
0.293019 0.42678 0.00234989
0.327153 0.426001 0.00157168
0.361273 0.425223 0.000793469
0.395407 0.424445 1.5259e-05
0.429541 0.423667 0
0.463661 0.422889 0
0.497795 0.42211 0
0.531914 0.421332 0
0.566049 0.420554 0
0.600183 0.419791 0
0.634302 0.419013 0
0.668437 0.418235 0
0.702556 0.417456 0
0.73669 0.416678 0
0.770825 0.4159 0
0.804944 0.415122 0
0.839078 0.414343 0
0.873198 0.413565 0
0.907332 0.412787 0
0.941466 0.412009 0
0.975586 0.411231 0
1 0.410468 0
1 0.409689 0
1 0.408911 0
0 0.464759 0.0100099
0.0206607 0.463981 0.00923171
0.0547951 0.463203 0.0084535
0.0889143 0.462425 0.00767529
0.123049 0.461646 0.00691234
0.157183 0.460868 0.00613413
0.191302 0.46009 0.00535592
0.225437 0.459312 0.00457771
0.259556 0.458534 0.0037995
0.29369 0.457755 0.00302129
0.327825 0.456992 0.00224308
0.361944 0.456214 0.00146487
0.396078 0.455436 0.000686656
0.430198 0.454658 0
0.464332 0.45388 0
0.498466 0.453101 0
0.532586 0.452323 0
0.56672 0.451545 0
0.600839 0.450767 0
0.634974 0.449989 0
0.669108 0.44921 0
0.703227 0.448432 0
0.737362 0.447654 0
0.771481 0.446891 0
0.805615 0.446113 0
0.83975 0.445335 0
0.873869 0.444556 0
0.908003 0.443778 0
0.942123 0.443 0
0.976257 0.442222 0
1 0.441444 0
1 0.440665 0
1 0.439887 0
0 0.495735 0.0106813
0.0213321 0.494957 0.0099031
0.0554665 0.494179 0.0091249
0.0895857 0.493416 0.00834669
0.12372 0.492638 0.00756847
0.157839 0.491859 0.00679026
0.191974 0.491081 0.00601205
0.226108 0.490303 0.0052491
0.260227 0.489525 0.00447089
0.294362 0.488746 0.00369268
0.328481 0.487968 0.00291447
0.362615 0.48719 0.00213626
0.39675 0.486412 0.00135805
0.430869 0.485634 0.000579843
0.465003 0.484855 0
0.499123 0.484077 0
0.533257 0.483314 0
0.567391 0.482536 0
0.601511 0.481758 0
0.635645 0.48098 0
0.669764 0.480201 0
0.703899 0.479423 0
0.738018 0.478645 0
0.772152 0.477867 0
0.806287 0.477089 0
0.840406 0.47631 0
0.87454 0.475532 0
0.90866 0.474754 0
0.942794 0.473991 0
0.976928 0.473213 0
1 0.472435 0
1 0.471656 0
1 0.470878 0
0 0.526726 0.0113527
0.0220035 0.525948 0.0105745
0.0561227 0.52517 0.00979629
0.0902571 0.524392 0.00901808
0.124376 0.523613 0.00823987
0.158511 0.522835 0.00746166
0.192645 0.522057 0.00668345
0.226764 0.521279 0.00590524
0.260899 0.520516 0.00512703
0.295018 0.519738 0.00434882
0.329152 0.518959 0.00357061
0.363287 0.518181 0.00280766
0.397406 0.517403 0.00202945
0.43154 0.516625 0.00125124
0.46566 0.515846 0.00047303
0.499794 0.515068 0
0.533928 0.51429 0
0.568048 0.513512 0
0.602182 0.512734 0
0.636301 0.511955 0
0.670436 0.511177 0
0.70457 0.510414 0
0.738689 0.509636 0
0.772824 0.508858 0
0.806943 0.50808 0
0.841077 0.507301 0
0.875212 0.506523 0
0.909331 0.505745 0
0.943465 0.504967 0
0.977584 0.504189 0
1 0.50341 0
1 0.502632 0
1 0.501854 0
0 0.557702 0.0120089
0.0226596 0.556939 0.0112459
0.0567941 0.556161 0.0104677
0.0909285 0.555383 0.00968948
0.125048 0.554604 0.00891127
0.159182 0.553826 0.00813306
0.193301 0.553048 0.00735485
0.227436 0.55227 0.00657664
0.26157 0.551492 0.00579843
0.295689 0.550713 0.00502022
0.329824 0.549935 0.00424201
0.363943 0.549157 0.0034638
0.398077 0.548379 0.00268559
0.432212 0.547601 0.00190738
0.466331 0.546838 0.00114443
0.500465 0.546059 0.000366217
0.534585 0.545281 0
0.568719 0.544503 0
0.602853 0.543725 0
0.636973 0.542947 0
0.671107 0.542168 0
0.705226 0.54139 0
0.739361 0.540612 0
0.773495 0.539834 0
0.807614 0.539055 0
0.841749 0.538277 0
0.875868 0.537514 0
0.910002 0.536736 0
0.944137 0.535958 0
0.978256 0.53518 0
1 0.534401 0
1 0.533623 0
1 0.532845 0
0 0.588693 0.0126802
0.023331 0.587915 0.011902
0.0574655 0.587137 0.0111238
0.0915847 0.586358 0.0103456
0.125719 0.58558 0.00958267
0.159854 0.584802 0.00880446
0.193973 0.584039 0.00802625
0.228107 0.583261 0.00724804
0.262226 0.582483 0.00646983
0.296361 0.581704 0.00569162
0.330495 0.580926 0.00491341
0.364614 0.580148 0.0041352
0.398749 0.57937 0.00335698
0.432868 0.578592 0.00257877
0.467002 0.577813 0.00180056
0.501137 0.577035 0.00102235
0.535256 0.576257 0.000244144
0.56939 0.575479 0
0.60351 0.574701 0
0.637644 0.573938 0
0.671778 0.573159 0
0.705898 0.572381 0
0.740032 0.571603 0
0.774151 0.570825 0
0.808286 0.570047 0
0.84242 0.569268 0
0.876539 0.56849 0
0.910674 0.567712 0
0.944793 0.566934 0
0.978927 0.566155 0
1 0.565377 0
1 0.564599 0
1 0.563836 0
0 0.619684 0.0133516
0.0240024 0.618906 0.0125734
0.0581369 0.618128 0.0117952
0.092256 0.61735 0.011017
0.12639 0.616571 0.0102388
0.16051 0.615793 0.00946059
0.194644 0.615015 0.00868238
0.228779 0.614237 0.00790417
0.262898 0.613458 0.00714122
0.297032 0.61268 0.00636301
0.331151 0.611902 0.0055848
0.365286 0.611124 0.00480659
0.39942 0.610361 0.00402838
0.433539 0.609583 0.00325017
0.467674 0.608804 0.00247196
0.501793 0.608026 0.00169375
0.535927 0.607248 0.000915541
0.570047 0.60647 0.000137331
0.604181 0.605692 0
0.638315 0.604913 0
0.672435 0.604135 0
0.706569 0.603357 0
0.740688 0.602579 0
0.774823 0.601801 0
0.808957 0.601038 0
0.843076 0.600259 0
0.877211 0.599481 0
0.91133 0.598703 0
0.945464 0.597925 0
0.979599 0.597147 0
1 0.596368 0
1 0.59559 0
1 0.594812 0
0 0.65066 0.014023
0.0246738 0.649882 0.0132448
0.058793 0.649104 0.0124666
0.0929274 0.648325 0.0116884
0.127047 0.647562 0.0109102
0.161181 0.646784 0.010132
0.195315 0.646006 0.00935378
0.229435 0.645228 0.00857557
0.263569 0.64445 0.00779736
0.297688 0.643671 0.00701915
0.331823 0.642893 0.00624094
0.365957 0.642115 0.00547799
0.400076 0.641337 0.00469978
0.434211 0.640558 0.00392157
0.46833 0.63978 0.00314336
0.502464 0.639002 0.00236515
0.536599 0.638224 0.00158694
0.570718 0.637461 0.000808728
0.604852 0.636683 3.0518e-05
0.638972 0.635904 0
0.673106 0.635126 0
0.70724 0.634348 0
0.74136 0.63357 0
0.775494 0.632792 0
0.809613 0.632013 0
0.843748 0.631235 0
0.877882 0.630457 0
0.912001 0.629679 0
0.946136 0.628901 0
0.980255 0.628122 0
1 0.627359 0
1 0.626581 0
1 0.625803 0
0 0.681651 0.0146792
0.02533 0.680873 0.0139162
0.0594644 0.680095 0.013138
0.0935988 0.679316 0.0123598
0.127718 0.678538 0.0115816
0.161852 0.67776 0.0108034
0.195972 0.676982 0.0100252
0.230106 0.676204 0.00924697
0.26424 0.675425 0.00846876
0.29836 0.674647 0.00769055
0.332494 0.673884 0.00691234
0.366613 0.673106 0.00613413
0.400748 0.672328 0.00535592
0.434882 0.67155 0.00457771
0.469001 0.670771 0.00381476
0.503136 0.669993 0.00303655
0.537255 0.669215 0.00225834
0.571389 0.668437 0.00148013
0.605524 0.667659 0.000701915
0.639643 0.66688 0
0.673777 0.666102 0
0.707897 0.665324 0
0.742031 0.664561 0
0.776165 0.663783 0
0.810285 0.663005 0
0.844419 0.662226 0
0.878538 0.661448 0
0.912673 0.66067 0
0.946807 0.659892 0
0.980926 0.659113 0
1 0.658335 0
1 0.657557 0
1 0.656779 0
0 0.712627 0.0153506
0.0260014 0.711849 0.0145724
0.0601358 0.711086 0.0137942
0.094255 0.710307 0.0130159
0.128389 0.709529 0.0122377
0.162524 0.708751 0.0114748
0.196643 0.707973 0.0106966
0.230777 0.707195 0.00991836
0.264897 0.706416 0.00914015
0.299031 0.705638 0.00836194
0.333165 0.70486 0.00758373
0.367285 0.704082 0.00680552
0.401419 0.703304 0.00602731
0.435538 0.702525 0.0052491
0.469673 0.701747 0.00447089
0.503807 0.700984 0.00369268
0.537926 0.700206 0.00291447
0.572061 0.699428 0.00215152
0.60618 0.69865 0.00137331
0.640314 0.697871 0.000595102
0.674449 0.697093 0
0.708568 0.696315 0
0.742702 0.695537 0
0.776822 0.694759 0
0.810956 0.69398 0
0.84509 0.693202 0
0.87921 0.692424 0
0.913344 0.691646 0
0.947463 0.690883 0
0.981598 0.690105 0
1 0.689326 0
1 0.688548 0
1 0.68777 0
0 0.743618 0.016022
0.0266728 0.74284 0.0152438
0.0608072 0.742061 0.0144656
0.0949264 0.741283 0.0136873
0.129061 0.740505 0.0129091
0.16318 0.739727 0.0121309
0.197314 0.738949 0.0113527
0.231449 0.738186 0.0105745
0.265568 0.737408 0.00981155
0.299702 0.736629 0.00903334
0.333822 0.735851 0.00825513
0.367956 0.735073 0.00747692
0.402075 0.734295 0.00669871
0.43621 0.733516 0.0059205
0.470344 0.732738 0.00514229
0.504463 0.73196 0.00436408
0.538598 0.731182 0.00358587
0.572717 0.730404 0.00280766
0.606851 0.729625 0.00202945
0.640986 0.728847 0.00125124
0.675105 0.728084 0.00047303
0.709239 0.727306 0
0.743358 0.726528 0
0.777493 0.72575 0
0.811627 0.724971 0
0.845747 0.724193 0
0.879881 0.723415 0
0.914 0.722637 0
0.948135 0.721859 0
0.982269 0.72108 0
1 0.720302 0
1 0.719524 0
1 0.718746 0
0 0.774609 0.0166934
0.0273442 0.773831 0.0159152
0.0614633 0.773053 0.0151369
0.0955978 0.772274 0.0143587
0.129717 0.771496 0.0135805
0.163851 0.770718 0.0128023
0.197986 0.76994 0.0120241
0.232105 0.769162 0.0112459
0.266239 0.768383 0.0104677
0.300359 0.767605 0.00968948
0.334493 0.766827 0.00891127
0.368627 0.766049 0.00814832
0.402747 0.76527 0.00737011
0.436881 0.764508 0.0065919
0.471 0.763729 0.00581369
0.505135 0.762951 0.00503548
0.539269 0.762173 0.00425727
0.573388 0.761395 0.00347906
0.607523 0.760616 0.00270085
0.641642 0.759838 0.00192264
0.675776 0.75906 0.00114443
0.709911 0.758282 0.000366217
0.74403 0.757504 0
0.778164 0.756725 0
0.812284 0.755947 0
0.846418 0.755169 0
0.880552 0.754406 0
0.914672 0.753628 0
0.948806 0.75285 0
0.982925 0.752071 0
1 0.751293 0
1 0.750515 0
1 0.749737 0
0 0.805585 0.0173495
0.0280003 0.804807 0.0165866
0.0621347 0.804028 0.0158083
0.0962692 0.80325 0.0150301
0.130388 0.802472 0.0142519
0.164523 0.801709 0.0134737
0.198642 0.800931 0.0126955
0.232776 0.800153 0.0119173
0.266911 0.799374 0.0111391
0.30103 0.798596 0.0103609
0.335164 0.797818 0.00958267
0.369284 0.79704 0.00880446
0.403418 0.796262 0.00802625
0.437552 0.795483 0.00724804
0.471672 0.794705 0.00648508
0.505806 0.793927 0.00570687
0.539925 0.793149 0.00492866
0.57406 0.79237 0.00415045
0.608194 0.791608 0.00337224
0.642313 0.790829 0.00259403
0.676448 0.790051 0.00181582
0.710567 0.789273 0.00103761
0.744701 0.788495 0.000259403
0.778836 0.787717 0
0.812955 0.786938 0
0.847089 0.78616 0
0.881209 0.785382 0
0.915343 0.784604 0
0.949477 0.783825 0
0.983597 0.783047 0
1 0.782269 0
1 0.781506 0
1 0.780728 0
0 0.836576 0.0180209
0.0286717 0.835798 0.0172427
0.0628061 0.835019 0.0164645
0.0969253 0.834241 0.0156863
0.13106 0.833463 0.0149081
0.165194 0.832685 0.0141451
0.199313 0.831907 0.0133669
0.233448 0.831128 0.0125887
0.267567 0.83035 0.0118105
