public/LUTS/Autumn/Autumn_04.cube
TITLE "Generated by Resolve"
LUT_3D_SIZE 5
0 0 0
0.273014 0 0
0.546029 0 0
0.819059 0 0
1 0 0
0.00534066 0.247868 0.00534066
0.278355 0.241642 0
0.551369 0.235431 0
0.824399 0.229221 0
1 0.222995 0
0.0106813 0.495735 0.0106813
0.283696 0.489525 0.00447089
0.55671 0.483314 0
0.82974 0.477089 0
1 0.470878 0
0.016022 0.743618 0.016022
0.289036 0.737408 0.00981155
0.562051 0.731182 0.00358587
0.835081 0.724971 0
1 0.718746 0
0.0213626 0.991501 0.0213626
0.294377 0.985275 0.0151522
0.567391 0.979065 0.00892653
0.840421 0.972839 0.00271611
1 0.966628 0
0.0009308 0.0009308 0.238117
0.27393 0 0.231891
0.54696 0 0.225681
0.819989 0 0.219471
1 0 0.213245
0.00627146 0.248783 0.243458
0.279271 0.242573 0.237232
0.5523 0.236347 0.231022
0.82533 0.230137 0.224811
1 0.223926 0.218585
0.0115969 0.496666 0.248798
0.284611 0.490455 0.242573
0.557641 0.48423 0.236362
0.830671 0.478019 0.230152
1 0.471794 0.223926
0.0169375 0.744533 0.254139
0.289952 0.738323 0.247913
0.562982 0.732113 0.241703
0.836011 0.725887 0.235492
1 0.719676 0.229267
0.0222782 0.992416 0.25948
0.295293 0.986206 0.253254
0.568322 0.97998 0.247044
0.841352 0.97377 0.240833
1 0.967559 0.234607
0.00184634 0.00184634 0.476234
0.274861 0 0.470024
0.54789 0 0.463813
0.820905 0 0.457588
1 0 0.451377
0.007187 0.249714 0.481575
0.280201 0.243488 0.475364
0.553231 0.237278 0.469154
0.826246 0.231067 0.462928
1 0.224842 0.456718
0.0125277 0.497581 0.486915
0.285542 0.491371 0.480705
0.558572 0.485161 0.474495
0.831586 0.478935 0.468269
1 0.472724 0.462058
0.0178683 0.745464 0.492256
0.290883 0.739254 0.486046
0.563897 0.733028 0.479835
0.836927 0.726818 0.47361
1 0.720607 0.467399
0.023209 0.993347 0.497597
0.296223 0.987121 0.491386
0.569238 0.980911 0.485176
0.842268 0.974701 0.47895
1 0.968475 0.47274
0.00277714 0.00277714 0.714366
0.275776 0 0.708156
0.548806 0 0.70193
0.821836 0 0.69572
1 0 0.689509
0.0081178 0.250629 0.719707
0.281117 0.244419 0.713497
0.554147 0.238209 0.707271
0.827176 0.231983 0.70106
1 0.225772 0.69485
0.0134585 0.498512 0.725048
0.286458 0.492302 0.718837
0.559487 0.486076 0.712612
0.832517 0.479866 0.706401
1 0.473655 0.700191
0.0187991 0.746395 0.730388
0.291798 0.740169 0.724178
0.564828 0.733959 0.717952
0.837858 0.727749 0.711742
1 0.721523 0.705531
0.0241398 0.994263 0.735729
0.297139 0.988052 0.729519
0.570169 0.981842 0.723293
0.843198 0.975616 0.717083
1 0.969406 0.710872
0.00369268 0.00369268 0.952499
0.276707 0 0.946288
0.549737 0 0.940063
0.822751 0 0.933852
1 0 0.927626
0.00903334 0.25156 0.957839
0.282048 0.24535 0.951614
0.555077 0.239124 0.945403
0.828092 0.232914 0.939193
1 0.226688 0.932967
0.014374 0.499443 0.96318
0.287388 0.493217 0.956954
0.560418 0.487007 0.950744
0.833432 0.480781 0.944533
1 0.474571 0.938308
0.0197147 0.747311 0.968521
0.292729 0.7411 0.962295
0.565759 0.734874 0.956085
0.838773 0.728664 0.949874
1 0.722454 0.943648
0.0250553 0.995193 0.973861
0.29807 0.988968 0.967636
0.571099 0.982757 0.961425
0.844114 0.976547 0.955215
1 0.970321 0.948989
