public/LUTS/Autumn/Autumn_09.cube
TITLE "Generated by Resolve"
LUT_3D_SIZE 5
0 0 0
0.301152 0 0
0.548211 0 0
0.779004 0 0
1 0 0
0.0257115 0.23975 0.0257115
0.326863 0.22594 0.011902
0.573922 0.226734 0.0126955
0.804715 0.231922 0.0178836
1 0.23975 0.0257115
0.0267185 0.489357 0.0267185
0.327871 0.475547 0.0128939
0.574914 0.476341 0.0136873
0.805707 0.481529 0.0188754
1 0.489357 0.0267185
0.0170138 0.743221 0.0170138
0.318166 0.729412 0.00318914
0.565209 0.730205 0.0039826
0.796002 0.735393 0.00917067
1 0.743221 0.0170138
0 1 0
0.301152 0.986191 0
0.548211 0.986984 0
0.779004 0.992172 0
1 1 0
0.0040589 0.0040589 0.197772
0.305211 0 0.183948
0.55227 0 0.184756
0.783062 0 0.189929
1 0.0040589 0.197772
0.0297704 0.243809 0.223484
0.330938 0.229999 0.209659
0.577981 0.230793 0.210468
0.808774 0.235981 0.215656
1 0.243809 0.223484
0.0307774 0.493416 0.224475
0.33193 0.479606 0.210666
0.578988 0.4804 0.21146
0.809781 0.485588 0.216648
1 0.493416 0.224475
0.0210727 0.74728 0.214771
0.322225 0.733471 0.200961
0.569284 0.734264 0.201755
0.800076 0.739452 0.206943
1 0.74728 0.214771
0.0040589 1 0.197772
0.305211 0.99025 0.183948
0.55227 0.991043 0.184756
0.783062 0.996231 0.189929
1 1 0.197772
0.0043183 0.0043183 0.44445
0.30547 0 0.430625
0.552529 0 0.431434
0.783322 0 0.436606
1 0.0043183 0.44445
0.0300298 0.244068 0.470161
0.331182 0.230259 0.456336
0.578241 0.231052 0.457145
0.809033 0.23624 0.462333
1 0.244068 0.470161
0.0310369 0.493675 0.471153
0.332189 0.479866 0.457343
0.579248 0.480659 0.458137
0.81004 0.485847 0.463325
1 0.493675 0.471153
0.0213321 0.747539 0.461448
0.322484 0.73373 0.447639
0.569543 0.734524 0.448432
0.800336 0.739712 0.45362
1 0.747539 0.461448
0.0043183 1 0.44445
0.30547 0.990509 0.430625
0.552529 0.991302 0.431434
0.783322 0.99649 0.436606
1 1 0.44445
0.0027924 0.0027924 0.714122
0.303944 0 0.700313
0.551003 0 0.701106
0.781796 0 0.706294
1 0.0027924 0.714122
0.0285039 0.242542 0.739834
0.329656 0.228733 0.726024
0.576715 0.229526 0.726818
0.807507 0.234714 0.732006
1 0.242542 0.739834
0.0294957 0.492149 0.740826
0.330663 0.47834 0.727016
0.577707 0.479133 0.72781
0.808499 0.484321 0.732998
1 0.492149 0.740826
0.0198062 0.746014 0.731121
0.320958 0.732204 0.717311
0.568002 0.732998 0.718105
0.798795 0.738186 0.723293
1 0.746014 0.731121
0.0027924 1 0.714122
0.303944 0.988983 0.700313
0.551003 0.989776 0.701106
0.781796 0.994965 0.706294
1 1 0.714122
0 0 1
0.301152 0 0.986191
0.548211 0 0.986984
0.779004 0 0.992172
1 0 1
0.0257115 0.23975 1
0.326863 0.22594 1
0.573922 0.226734 1
0.804715 0.231922 1
1 0.23975 1
0.0267185 0.489357 1
0.327871 0.475547 1
0.574914 0.476341 1
0.805707 0.481529 1
1 0.489357 1
0.0170138 0.743221 1
0.318166 0.729412 1
0.565209 0.730205 1
0.796002 0.735393 1
1 0.743221 1
0 1 1
0.301152 0.986191 0.986191
0.548211 0.986984 0.986984
0.779004 0.992172 0.992172
1 1 1
