public/LUTS/Autumn/Autumn_10.cube
TITLE "Generated by Resolve"
LUT_3D_SIZE 33
0.0705882 0.112001 0.124102
0.123278 0.111986 0.101869
0.178882 0.115023 0.080415
0.240406 0.115236 0.046891
0.306477 0.111757 0.00726329
0.373922 0.108507 0.000320439
0.444862 0.107103 0
0.519326 0.105745 0
0.599603 0.103975 0
0.680171 0.102113 0
0.758328 0.100343 0
0.831846 0.0991684 0
0.900465 0.0991226 0
0.961624 0.10042 0
0.999954 0.10248 0
1 0.105287 0
1 0.110872 0
1 0.120562 0
1 0.132219 0
1 0.145647 0
1 0.160006 0
1 0.175158 0
1 0.19115 0
1 0.208713 0
1 0.227527 0
1 0.247013 0
1 0.267781 0
1 0.288777 0
1 0.309804 0
1 0.331533 0
1 0.353445 0
1 0.368673 0
1 0.37554 0
0.0683299 0.12137 0.124941
0.125582 0.119219 0.100954
0.181491 0.122896 0.0783246
0.243778 0.122652 0.0418708
0.306462 0.12221 0.00587472
0.369848 0.123293 0
0.435233 0.12755 0
0.51017 0.129458 0
0.591806 0.128481 0
0.673915 0.126757 0
0.754284 0.124636 0
0.830045 0.122271 0
0.901259 0.119936 0
0.966171 0.117754 0
1 0.116426 0
1 0.116747 0
1 0.119478 0
1 0.123873 0
1 0.129839 0
1 0.137377 0
1 0.149065 0
1 0.163668 0
1 0.179599 0
1 0.196933 0
1 0.216144 0
1 0.23592 0
1 0.256947 0
1 0.278325 0
1 0.300191 0
1 0.322377 0
1 0.344961 0
1 0.360067 0
1 0.366598 0
0.0606851 0.13579 0.125307
0.123613 0.128954 0.100771
0.180148 0.13167 0.079118
0.240009 0.133745 0.0472114
0.305882 0.132219 0.00573739
0.372946 0.13228 0
0.44213 0.13608 0
0.517311 0.138949 0
0.600305 0.138933 0
0.683909 0.137957 0
0.764614 0.136767 0
0.840299 0.135363 0
0.910338 0.134142 0
0.97232 0.133333 0
1 0.133013 0
1 0.133486 0
1 0.134905 0
1 0.137819 0
1 0.142275 0
1 0.149615 0
1 0.159106 0
1 0.170748 0
1 0.183398 0
1 0.197543 0
1 0.21294 0
1 0.23003 0
1 0.249989 0
1 0.270741 0
1 0.292058 0
1 0.314183 0
1 0.336233 0
1 0.349874 0
1 0.354971 0
0.0480049 0.156359 0.126986
0.116579 0.144106 0.100572
0.178882 0.140932 0.0810407
0.239368 0.14374 0.0494545
0.305196 0.143679 0.00975052
0.374166 0.144747 0
0.445075 0.149477 0
0.52076 0.154376 0
0.603647 0.156405 0
0.687602 0.156741 0
0.768978 0.156329 0
0.84509 0.155642 0
0.913664 0.155322 0
0.973922 0.155322 0
0.997772 0.156146 0
1 0.158206 0
1 0.161166 0
1 0.165286 0
1 0.170672 0
1 0.177737 0
1 0.186252 0
1 0.19649 0
1 0.207767 0
1 0.22005 0
1 0.233539 0
1 0.247959 0
1 0.263722 0
1 0.280339 0
1 0.297902 0
1 0.31606 0
1 0.33489 0
1 0.345464 0
1 0.349035 0
0.0369268 0.175998 0.126467
0.0958724 0.17113 0.108141
0.173816 0.157427 0.0762188
0.240742 0.15375 0.0505226
0.307912 0.15436 0.0118868
0.377813 0.156741 0
0.450095 0.162875 0
0.525856 0.169879 0
0.607935 0.174655 0
0.692073 0.178317 0
0.771542 0.180835 0
0.844068 0.182956 0
0.909895 0.184726 0
0.967575 0.186816 0
0.99379 0.189456 0
1 0.19237 0
1 0.195758 0
1 0.2 0
1 0.20528 0
1 0.21178 0
1 0.219654 0
1 0.228977 0
1 0.239185 0
1 0.250553 0
1 0.262989 0
1 0.276722 0
1 0.291325 0
1 0.306752 0
1 0.32256 0
1 0.339147 0
1 0.355734 0
1 0.363867 0
1 0.365667 0
0.0267796 0.195834 0.125139
0.0779583 0.192676 0.108476
0.156237 0.187381 0.0753185
0.238453 0.170443 0.0437324
0.310353 0.166247 0.0126802
0.382986 0.168795 0
0.457328 0.175784 0
0.534768 0.183948 0
0.617121 0.191241 0
0.699886 0.196902 0
0.777859 0.202411 0
0.84773 0.208042 0
0.910597 0.213413 0
0.964645 0.218723 0
0.993255 0.224125 0
1 0.229313 0
1 0.234394 0
1 0.239673 0
1 0.245487 0
1 0.251896 0
1 0.25893 0
1 0.267201 0
1 0.276661 0
1 0.286885 0
1 0.298299 0
1 0.310933 0
1 0.324666 0
1 0.338903 0
1 0.354009 0
1 0.369436 0
1 0.383551 0
1 0.389578 0
1 0.389609 0
0.0187228 0.215991 0.123369
0.0636454 0.213825 0.105776
0.132723 0.21648 0.0741894
0.225605 0.199313 0.0366217
0.309895 0.182147 0.0104677
0.388266 0.182055 0
0.466728 0.188952 0
0.545998 0.197818 0
0.628367 0.205951 0
0.711711 0.213077 0
0.788556 0.2206 0
0.856565 0.228748 0
0.917571 0.237263 0
0.968719 0.245838 0
0.995438 0.254276 0
1 0.262928 0
1 0.270817 0
1 0.278553 0
1 0.285832 0
1 0.293828 0
1 0.302022 0
1 0.310674 0
1 0.319463 0
1 0.328862 0
1 0.339391 0
1 0.350484 0
1 0.363241 0
1 0.376486 0
1 0.390127 0
1 0.404761 0
1 0.416037 0
1 0.419394 0
1 0.419333 0
0.00849927 0.237263 0.121324
0.0475624 0.236652 0.101472
0.106752 0.244968 0.0704356
0.201846 0.236454 0.0312963
0.301396 0.21091 0.00544747
0.390097 0.199756 0
0.473991 0.203738 0
0.555306 0.212253 0
0.63978 0.220935 0
0.723781 0.228794 0
0.800229 0.237232 0
0.86772 0.246876 0
0.926635 0.256916 0
0.974975 0.267567 0
0.99826 0.278492 0
1 0.290486 0
1 0.301289 0
1 0.311833 0
1 0.322042 0
1 0.332753 0
1 0.343435 0
1 0.353262 0
1 0.362768 0
1 0.372732 0
1 0.383291 0
1 0.395178 0
1 0.407462 0
1 0.419547 0
1 0.432563 0
1 0.445151 0
1 0.453162 0
1 0.454505 0
1 0.454276 0
0.0019379 0.262074 0.118502
0.0286107 0.262165 0.0945602
0.0809796 0.272709 0.0638895
0.171756 0.276936 0.0267491
0.281926 0.253681 0.00300603
0.385138 0.227115 0
0.477791 0.222156 0
0.563424 0.228672 0
0.6495 0.237186 0
0.733837 0.245914 0
0.810285 0.255146 0
0.877531 0.265248 0
0.934859 0.276188 0
0.979843 0.287678 0
1 0.299611 0
1 0.312596 0
1 0.32546 0
1 0.338476 0
1 0.351446 0
1 0.364385 0
1 0.377386 0
1 0.389502 0
1 0.400702 0
1 0.413214 0
1 0.425696 0
1 0.438224 0
1 0.450736 0
1 0.463233 0
1 0.476173 0
1 0.487068 0
1 0.492943 0
1 0.493156 0
1 0.492744 0
0 0.289601 0.115084
0.0116426 0.290288 0.0868086
0.0580453 0.301076 0.0550851
0.140337 0.311589 0.0286107
0.253773 0.30457 0.00602731
0.371038 0.268482 0
0.476356 0.247303 0
0.569497 0.247898 0
0.658579 0.255207 0
0.74313 0.264607 0
0.818891 0.274571 0
0.88455 0.285115 0
0.940581 0.296651 0
0.981857 0.309102 0
1 0.321996 0
1 0.335027 0
1 0.349371 0
1 0.362997 0
1 0.376822 0
1 0.39057 0
1 0.404913 0
1 0.419028 0
1 0.433051 0
1 0.446937 0
1 0.460685 0
1 0.47454 0
1 0.487999 0
1 0.502037 0
1 0.515999 0
1 0.52491 0
1 0.528267 0
1 0.528572 0
1 0.528023 0
0 0.318517 0.112184
0.00262455 0.31989 0.081117
0.0383001 0.331304 0.0491798
0.117235 0.343084 0.0243687
0.217136 0.352514 0.00392157
0.346273 0.329686 0
0.464683 0.285481 0
0.568765 0.273716 0
0.663661 0.276936 0
0.749691 0.284825 0
0.824628 0.294774 0
0.888777 0.306127 0
0.943633 0.31841 0
0.982986 0.331594 0
1 0.345373 0
1 0.359564 0
1 0.37377 0
1 0.388205 0
1 0.402625 0
1 0.416999 0
1 0.431098 0
1 0.445289 0
1 0.460014 0
1 0.474357 0
1 0.489876 0
1 0.504845 0
1 0.519829 0
1 0.534295 0
1 0.548333 0
1 0.554131 0
1 0.556466 0
1 0.556634 0
1 0.556863 0
0 0.349966 0.110109
0 0.351537 0.0772869
0.0249638 0.362905 0.0457771
0.097322 0.376287 0.0210727
0.19292 0.389059 0.00257877
0.309575 0.39118 0
0.447318 0.351751 0
0.55935 0.311101 0
0.660029 0.305089 0
0.752789 0.308049 0
0.829526 0.316716 0
0.892241 0.32842 0
0.945434 0.341329 0
0.983047 0.354971 0
1 0.369268 0
1 0.383764 0
1 0.398184 0
1 0.413352 0
1 0.428397 0
1 0.443656 0
1 0.45832 0
1 0.472694 0
1 0.486976 0
1 0.501457 0
1 0.516182 0
1 0.531609 0
1 0.547311 0
1 0.561807 0
1 0.573754 0
1 0.576699 0
1 0.578256 0
1 0.579263 0
1 0.580316 0
0 0.383597 0.107622
0 0.385153 0.0737316
0.011902 0.397131 0.0413367
0.0792859 0.411688 0.0164645
0.170886 0.426047 0.00180056
0.28191 0.4374 0
0.408225 0.425406 0
0.541421 0.373724 0
0.650095 0.342763 0
0.748592 0.33872 0
0.829374 0.34342 0
0.893538 0.352926 0
0.945815 0.365209 0
0.983139 0.378958 0
0.999786 0.393606 0
1 0.408316 0
1 0.42359 0
1 0.438865 0
1 0.454322 0
1 0.469398 0
1 0.484154 0
1 0.499092 0
1 0.513802 0
1 0.528481 0
1 0.542718 0
1 0.557443 0
1 0.571801 0
1 0.583825 0
1 0.591272 0
1 0.592584 0
1 0.593622 0
1 0.594919 0
1 0.595926 0
0 0.419287 0.1037
0 0.420951 0.0689403
0.00247196 0.432853 0.0359197
0.0639048 0.448631 0.0110628
0.153185 0.463783 0.0011902
0.259251 0.477592 0
0.378012 0.481468 0
0.505592 0.455375 0
0.629831 0.400229 0
0.737758 0.377111 0
0.823041 0.375525 0
0.890776 0.380865 0
0.943389 0.390692 0
0.982437 0.403693 0
0.998871 0.418097 0
1 0.43328 0
1 0.448569 0
1 0.463813 0
1 0.479362 0
1 0.494377 0
1 0.509438 0
1 0.524529 0
1 0.539162 0
1 0.55378 0
1 0.567666 0
1 0.582132 0
1 0.595804 0
1 0.604456 0
1 0.608362 0
1 0.609644 0
1 0.611002 0
1 0.612375 0
1 0.613291 0
0 0.456291 0.0984665
0 0.457542 0.0631113
0.000488289 0.469215 0.0300908
0.0511482 0.485725 0.00727855
0.137865 0.5019 0.000411994
0.240192 0.517052 0
0.35433 0.527825 0
0.472328 0.522637 0
0.599725 0.479286 0
0.716579 0.430106 0
0.81265 0.41297 0
0.882963 0.413764 0
0.93724 0.420005 0
0.979294 0.429999 0
0.996811 0.442985 0
1 0.457847 0
1 0.473014 0
1 0.488212 0
1 0.503319 0
1 0.518898 0
1 0.533501 0
1 0.548043 0
1 0.562814 0
1 0.577432 0
1 0.591196 0
1 0.604944 0
1 0.617411 0
1 0.623285 0
1 0.625162 0
1 0.626047 0
1 0.62771 0
1 0.628687 0
1 0.629419 0
0 0.493858 0.0924086
0 0.495903 0.0562295
0.00236515 0.50634 0.0243229
0.0402228 0.522805 0.00466926
0.125368 0.539467 0
0.224704 0.555138 0
0.336278 0.568429 0
0.450477 0.573892 0
0.566094 0.555123 0
0.685863 0.503105 0
0.792721 0.460578 0
0.871183 0.451011 0
0.927947 0.453422 0
0.971695 0.459419 0
0.994003 0.469429 0
1 0.482536 0
1 0.497047 0
1 0.511772 0
1 0.527092 0
1 0.54168 0
1 0.55613 0
1 0.570733 0
1 0.585138 0
1 0.599283 0
1 0.613108 0
1 0.626062 0
1 0.636835 0
1 0.640101 0
1 0.641047 0
1 0.641993 0
1 0.642939 0
1 0.644038 0
1 0.644709 0
0 0.53196 0.085359
0 0.534173 0.0485695
0.00181582 0.543648 0.0180514
0.0317845 0.559853 0.00218204
0.114702 0.576623 0
0.211322 0.592676 0
0.320104 0.607095 0
0.431373 0.616632 0
0.538628 0.613123 0
0.648768 0.584024 0
0.759533 0.527153 0
0.852537 0.494499 0
0.915236 0.489693 0
0.959548 0.493187 0
0.990478 0.498695 0
0.999344 0.508293 0
1 0.521141 0
1 0.535256 0
1 0.549767 0
1 0.563622 0
1 0.5776 0
1 0.592065 0
1 0.606256 0
1 0.619638 0
1 0.632944 0
1 0.64567 0
1 0.654154 0
1 0.655665 0
1 0.656504 0
1 0.657221 0
1 0.658076 0
1 0.658701 0
1 0.659327 0
0 0.570214 0.077348
0 0.572931 0.0402228
0.000717174 0.581476 0.0114595
0.0279698 0.59649 0
0.106096 0.613336 0
0.200595 0.629389 0
0.305272 0.643503 0
0.416297 0.654688 0
0.520882 0.659266 0
0.617105 0.647944 0
0.718776 0.6103 0
0.815824 0.555871 0
0.894881 0.531685 0
0.946075 0.528496 0
0.982422 0.532052 0
0.99678 0.537957 0
1 0.546609 0
1 0.558297 0
1 0.571801 0
1 0.585138 0
1 0.598917 0
1 0.612787 0
1 0.626017 0
1 0.638697 0
1 0.65182 0
1 0.663783 0
1 0.670008 0
1 0.670649 0
1 0.671199 0
1 0.671962 0
1 0.672618 0
1 0.67277 0
1 0.673426 0
0 0.608179 0.0691386
0 0.611109 0.0315557
0 0.61854 0.00666819
0.0259403 0.632197 0
0.0991073 0.648386 0
0.191897 0.664164 0
0.29398 0.678218 0
0.402136 0.690028 0
0.507179 0.697108 0
0.59765 0.696208 0
0.682673 0.677546 0
0.774807 0.633661 0
0.8598 0.587991 0
0.925704 0.568383 0
0.968475 0.566979 0
0.994873 0.570382 0
1 0.575372 0
1 0.582864 0
1 0.593652 0
1 0.606607 0
1 0.619486 0
1 0.632578 0
1 0.645335 0
1 0.65713 0
1 0.669932 0
1 0.680781 0
1 0.684794 0
1 0.685145 0
1 0.685512 0
1 0.686046 0
1 0.686427 0
1 0.686503 0
1 0.687129 0
0 0.646128 0.0623331
0 0.649409 0.0223087
0 0.655009 0.00202945
0.0238041 0.666728 0
0.0933089 0.682567 0
0.184344 0.697704 0
0.283818 0.711254 0
0.389166 0.722881 0
0.493965 0.731411 0
0.584115 0.734142 0
0.661112 0.728527 0
0.73756 0.705165 0
0.818296 0.659556 0
0.890745 0.620752 0
0.947173 0.605158 0
0.984192 0.603876 0
0.99736 0.606989 0
1 0.611551 0
1 0.617823 0
1 0.627344 0
1 0.639292 0
1 0.651667 0
1 0.663569 0
1 0.675395 0
1 0.68806 0
1 0.696437 0
1 0.698863 0
1 0.69897 0
1 0.699428 0
1 0.700084 0
1 0.700511 0
1 0.700526 0
1 0.701228 0
0 0.683757 0.0550393
0 0.686305 0.0150149
0 0.68957 0.000244144
0.0199283 0.70071 0
0.0881208 0.71577 0
0.177417 0.729885 0
0.275029 0.742947 0
0.376791 0.75375 0
0.479438 0.762997 0
0.571725 0.767895 0
0.646448 0.767452 0
0.712184 0.756649 0
0.779873 0.728069 0
0.8486 0.686198 0
0.913481 0.653239 0
0.962386 0.641825 0
0.994202 0.63949 0
0.999649 0.641672 0
1 0.645029 0
1 0.650462 0
1 0.658915 0
1 0.670192 0
1 0.681651 0
1 0.692622 0
1 0.704326 0
1 0.710842 0
1 0.712551 0
1 0.712718 0
1 0.713207 0
1 0.713802 0
1 0.714122 0
1 0.714458 0
1 0.715068 0
0 0.720607 0.0475319
0 0.722393 0.0102083
0 0.724208 0.000350958
0.0146181 0.73344 0
0.0843519 0.747662 0
0.172396 0.760906 0
0.267124 0.773175 0
0.366094 0.783291 0
0.465629 0.791821 0
0.558068 0.797925 0
0.634745 0.799313 0
0.695933 0.796551 0
0.752621 0.781704 0
0.810193 0.752178 0
0.872114 0.71426 0
0.930205 0.688182 0
0.976516 0.676997 0
0.996216 0.673854 0
1 0.673808 0
1 0.676341 0
1 0.681392 0
1 0.689281 0
1 0.699367 0
1 0.709895 0
1 0.720607 0
1 0.725246 0
1 0.726253 0
1 0.726635 0
1 0.726894 0
1 0.727642 0
1 0.728069 0
1 0.728603 0
1 0.729198 0
0 0.756512 0.0400549
0 0.758282 0.00550851
0 0.758541 0.000183108
0.00825513 0.76611 0
0.0800183 0.778775 0
0.167315 0.791028 0
0.259754 0.802243 0
0.35613 0.811551 0
0.452079 0.819242 0
0.543221 0.825284 0
0.622095 0.828489 0
0.684245 0.827817 0
0.734829 0.822858 0
0.782284 0.806989 0
0.833463 0.777935 0
0.890013 0.744167 0
0.945037 0.720073 0
0.985534 0.708965 0
0.997559 0.704356 0
1 0.703929 0
1 0.706142 0
1 0.710231 0
1 0.71696 0
1 0.726955 0
1 0.736339 0
1 0.739315 0
1 0.740063 0
1 0.740353 0
1 0.740581 0
1 0.741192 0
1 0.741894 0
1 0.742565 0
1 0.743267 0
0 0.791714 0.0330663
0 0.793423 0.00291447
0 0.792493 1.5259e-05
0.00276188 0.797635 0
0.0766613 0.80911 0
0.163165 0.820203 0
0.254246 0.830091 0
0.348135 0.838849 0
0.440696 0.845457 0
0.527947 0.850385 0
0.608209 0.8542 0
0.672938 0.85507 0
0.723323 0.853315 0
0.765072 0.848386 0
0.805402 0.832197 0
0.851469 0.803189 0
0.906447 0.770901 0
0.961379 0.748165 0
0.993332 0.737163 0
0.999374 0.733288 0
1 0.732143 0
1 0.732967 0
1 0.736614 0
1 0.74377 0
1 0.751644 0
1 0.753338 0
1 0.753826 0
1 0.753948 0
1 0.75436 0
1 0.754986 0
1 0.75581 0
1 0.756451 0
1 0.757015 0
0 0.826719 0.0262455
0 0.827787 0.00169375
0 0.825101 0
0.00231937 0.82797 0
0.0750896 0.838163 0
0.161196 0.84802 0
0.250629 0.856764 0
0.34165 0.864103 0
0.43093 0.869459 0
0.515068 0.873686 0
0.592477 0.876921 0
0.660426 0.879164 0
0.712856 0.87863 0
0.754147 0.87628 0
0.789288 0.870634 0
0.824155 0.854398 0
0.867689 0.82565 0
0.925765 0.793774 0
0.980529 0.774014 0
0.996384 0.76463 0
0.999863 0.759411 0
1 0.757549 0
1 0.758801 0
1 0.762631 0
1 0.767163 0
1 0.767254 0
1 0.767437 0
1 0.767773 0
1 0.768246 0
1 0.768887 0
1 0.769802 0
1 0.770336 0
1 0.770962 0
0 0.860426 0.0194553
0 0.861234 0.000640879
0 0.857466 0
0.00709545 0.857939 0
0.0741131 0.86627 0
0.159686 0.874769 0
0.247333 0.881926 0
0.334966 0.887953 0
0.421714 0.892439 0
0.502983 0.895811 0
0.577646 0.898589 0
0.644038 0.900984 0
0.700374 0.90193 0
0.742901 0.90045 0
0.778729 0.897719 0
0.810391 0.891127 0
0.842893 0.874693 0
0.884245 0.847288 0
0.943801 0.815961 0
0.989013 0.798642 0
0.996826 0.789242 0
0.998276 0.783703 0
0.998505 0.782742 0
0.998627 0.783841 0
0.99881 0.783734 0
0.999588 0.781888 0
0.999832 0.781338 0
0.999893 0.781628 0
0.999893 0.782269 0
0.999847 0.782895 0
0.999741 0.784009 0
0.99971 0.784466 0
0.99968 0.785077 0
0 0.892775 0.0134432
0 0.892714 6.10361e-05
0 0.888289 0
0.0110628 0.887007 0
0.0738842 0.893172 0
0.158175 0.899886 0
0.244785 0.905486 0
0.330419 0.910201 0
0.41326 0.913909 0
0.491356 0.91696 0
0.562783 0.919387 0
0.626978 0.921263 0
0.682963 0.922866 0
0.729763 0.923705 0
0.766552 0.921462 0
0.799573 0.918044 0
0.830259 0.910353 0
0.860822 0.893645 0
0.899733 0.866407 0
0.963027 0.835462 0
0.98201 0.8206 0
0.988861 0.812116 0
0.99115 0.808057 0
0.992355 0.805951 0
0.993744 0.803555 0
0.996857 0.798016 0
0.997742 0.796017 0
0.997864 0.79585 0
0.997696 0.796262 0
0.99736 0.797009 0
0.996796 0.798123 0
0.996521 0.798611 0
0.996139 0.799298 0
0 0.923079 0.0096437
0 0.922942 0
0 0.917403 0
0.0142824 0.914214 0
0.0752422 0.917937 0
0.158541 0.923232 0
0.242802 0.927657 0
0.326345 0.931411 0
0.406455 0.934768 0
