public/LUTS/Autumn/Autumn_15.cube
TITLE "Generated by Resolve"
LUT_3D_SIZE 9
0.0561379 0.0773938 0.0809949
0.146792 0.0923781 0.0491951
0.361868 0.107164 0
0.681331 0.109865 0
0.996612 0.0982071 0
1 0.120851 0
1 0.21886 0
1 0.319173 0
1 0.380987 0
0.0462043 0.105943 0.0800183
0.139956 0.101015 0.0513771
0.366842 0.111772 0
0.700282 0.111299 0
1 0.107012 0
1 0.123735 0
1 0.203647 0
1 0.30753 0
1 0.368307 0
0.00654612 0.190753 0.0805371
0.0714733 0.191424 0.0683452
0.365805 0.159823 0
0.724895 0.190082 0
0.993027 0.229999 0
1 0.271275 0
1 0.319081 0
1 0.383169 0
1 0.409628 0
0 0.304784 0.080705
4.57771e-05 0.304601 0.0525216
0.276982 0.350088 0
0.749935 0.271702 0
1 0.325414 0
1 0.394278 0
1 0.474311 0
1 0.551797 0
1 0.56434 0
0 0.470176 0.0720836
0 0.467964 0.0401465
0.148196 0.545541 0
0.642847 0.528389 0
0.98024 0.447913 0
1 0.50396 0
1 0.575936 0
1 0.630655 0
1 0.638193 0
0 0.653529 0.0483864
0 0.653086 0.0110018
0.0740368 0.718898 0
0.516976 0.770657 0
0.843 0.690089 0
1 0.629129 0
1 0.663508 0
1 0.700969 0
1 0.706233 0
0 0.828244 0.0172274
0 0.829694 0
0.033814 0.865812 0
0.423575 0.896574 0
0.724132 0.903044 0
0.889357 0.845197 0
0.999695 0.775982 0
1 0.771756 0
1 0.776104 0
0 0.981109 0
0 0.980499 0
0.0230259 0.985107 0
0.355245 0.999115 0
0.611399 1 0
0.788617 1 0
0.924102 0.965682 0
0.944152 0.891371 0
0.955047 0.872221 0
0 1 0
0 1 0
0.0286412 1 0
0.307912 1 0
0.543313 1 0
0.730816 1 0
0.914717 1 0
0.914809 1 0
0.915404 0.999496 0
0.035523 0.100099 0.127794
0.119127 0.0973526 0.0888075
0.370626 0.0952316 0.00277714
0.701411 0.0905165 0
0.99617 0.0879683 0
1 0.15024 0
1 0.228733 0
1 0.322911 0
1 0.381384 0
0.0280919 0.111162 0.119783
0.122026 0.104265 0.0826123
0.35996 0.11397 0
0.696345 0.11342 0
0.999268 0.107668 0
1 0.129778 0
1 0.208209 0
1 0.308324 0
1 0.372198 0
0 0.202274 0.121874
0.0611734 0.187442 0.089601
0.353307 0.161379 3.0518e-05
0.70721 0.19324 0
0.984863 0.227848 0
1 0.260624 0
1 0.301839 0
1 0.362768 0
1 0.397803 0
0 0.31194 0.120623
0 0.302556 0.0708476
0.25507 0.347601 0.000335698
0.730297 0.273182 0
0.99736 0.326238 0
1 0.394278 0
1 0.468406 0
1 0.544762 0
1 0.562341 0
0 0.474784 0.106889
0 0.468574 0.0534981
0.128176 0.536278 0
0.615702 0.536721 0
0.970962 0.44892 0
1 0.50602 0
1 0.576638 0
1 0.634134 0
1 0.640803 0
0 0.657252 0.0753948
0 0.654307 0.0220951
0.0572213 0.708614 0
0.490974 0.764691 0
0.82414 0.700053 0
1 0.631876 0
1 0.665293 0
1 0.704158 0
1 0.708965 0
0 0.831785 0.0367742
0 0.830152 3.0518e-05
0.0210575 0.857786 0
0.399527 0.892302 0
0.713344 0.901823 0
0.873472 0.853101 0
0.999664 0.77673 0
0.999985 0.773754 0
1 0.778347 0
0 0.980896 0.0194247
0 0.979904 0
0.0104829 0.980423 0
0.336416 0.995026 0
0.599191 1 0
0.777707 1 0
0.923598 0.965652 0
0.944335 0.891051 0
0.955276 0.871626 0
0 1 0.0149233
0 1 0
0.016022 1 0
0.291432 1 0
0.526818 1 0
0.714992 1 0
0.91075 1 0
0.914839 1 0
0.915373 0.999359 0
0 0.17528 0.282277
0.0119936 0.162387 0.226398
0.200992 0.153536 0.127825
0.465537 0.194324 0.0706035
0.875029 0.207294 0
1 0.233143 0
1 0.264897 0
1 0.333257 0
1 0.383062 0
0 0.181155 0.26714
0.0115663 0.166781 0.235828
0.213718 0.15761 0.130404
0.510109 0.189288 0.0515755
0.902663 0.205051 0
1 0.229633 0
1 0.263951 0
1 0.330938 0
1 0.383322 0
0 0.195514 0.234318
0.00170901 0.20058 0.230106
0.269581 0.186618 0.129442
0.667216 0.183551 0
0.983841 0.19144 0
1 0.207431 0
1 0.247044 0
1 0.311788 0
1 0.368307 0
0 0.3841 0.277501
0 0.341039 0.222141
0.129274 0.340764 0.081117
0.645182 0.288197 0
0.936797 0.345357 0
1 0.406775 0
1 0.46331 0
1 0.511513 0
1 0.540078 0
0 0.541604 0.25774
0 0.497566 0.195026
0.0302129 0.51429 0.0483711
0.489464 0.56228 0
0.911406 0.460258 0
1 0.519707 0
1 0.586648 0
1 0.643397 0
1 0.649317 0
0 0.706325 0.2309
0 0.671336 0.161807
0.00309758 0.688045 0.00926223
0.370291 0.74168 0
0.745876 0.732494 0
0.990814 0.63978 0
1 0.675685 0
1 0.719615 0
1 0.720302 0
0 0.859022 0.202518
0 0.8365 0.126314
0 0.847562 0
0.301198 0.875181 0
0.644099 0.892149 0
0.835004 0.870817 0
0.999466 0.783658 0
0.999573 0.783841 0
0.999344 0.785367 0
0 0.987991 0.200381
0 0.978363 0.112016
0 0.980285 0
0.261067 0.981292 0
0.543252 0.99202 0
0.740001 0.998413 0
0.90692 0.970764 0
0.945174 0.889601 0
0.957229 0.868147 0
0 1 0.237476
0 1 0.115496
0 1 0
0.227192 1 0
0.467872 1 0
0.661936 1 0
0.868193 1 0
0.916671 1 0
0.917067 0.99913 0
0 0.271626 0.484169
0 0.261143 0.407019
0.00309758 0.260014 0.315145
0.271626 0.247898 0.136751
0.622141 0.286946 0.0808881
0.916274 0.344533 0.0205539
1 0.374487 0
1 0.421836 0
1 0.458579 0
0 0.279576 0.472618
0 0.265126 0.430503
0.00308232 0.263645 0.327825
0.289219 0.249027 0.145388
0.638422 0.292012 0.0866102
0.936095 0.343587 0.0186465
1 0.375509 0
1 0.423255 0
1 0.454978 0
0 0.287572 0.440604
0 0.289677 0.443946
0.00364691 0.285603 0.40415
0.377905 0.266773 0.197665
0.736889 0.311833 0.122957
0.998337 0.331731 0.0081178
1 0.371954 0
1 0.414801 0
1 0.440513 0
0 0.319127 0.416251
0 0.319753 0.403037
0.000198367 0.353338 0.419486
0.490547 0.33492 0.251667
0.895109 0.329854 0.0775769
1 0.350515 0
1 0.38822 0
1 0.440391 0
1 0.477729 0
0 0.575235 0.550149
0 0.588708 0.487968
0 0.555932 0.383062
0.297826 0.56318 0.155337
0.828626 0.496178 0.016022
0.991516 0.551431 0
1 0.610986 0
1 0.65536 0
1 0.658793 0
0 0.764096 0.582254
0 0.739178 0.467979
0 0.71397 0.326558
0.217487 0.725658 0.112108
0.658351 0.748531 0.00743114
0.950713 0.660014 0
1 0.6963 0
1 0.73901 0
1 0.738964 0
0 0.886183 0.568429
0 0.871397 0.44387
0 0.862638 0.264317
0.195193 0.860105 0.0629129
0.541054 0.876371 0.00756847
0.801068 0.873701 0
0.995987 0.790539 0
0.994736 0.801755 0
0.994781 0.801678 0
0 0.991089 0.567697
0 0.983581 0.438682
0 0.98558 0.219623
0.175601 0.971222 0.0496071
0.461784 0.977127 0.0236362
0.690059 0.985229 0.00688182
0.877852 0.973953 0.00129702
0.944991 0.889876 0
0.95697 0.868605 0
0 1 0.574228
0 1 0.452644
0 1 0.201801
0.162051 1 0.064683
0.40267 1 0.0548104
0.609186 1 0.0352636
0.804334 1 0.0012665
0.92163 1 0
0.923858 0.998779 0
0 0.405051 0.723262
0 0.390677 0.623163
0 0.390509 0.501167
0.00135805 0.395727 0.356878
0.43003 0.361257 0.0603494
0.796292 0.357687 0
0.994812 0.437797 0.0218814
1 0.506798 0.25536
1 0.543862 0.312627
0 0.409903 0.715236
0 0.393042 0.658503
0 0.392721 0.521859
0.00260929 0.398077 0.367636
0.447318 0.360708 0.0753796
0.805066 0.362417 0.00364691
0.996719 0.44271 0.046891
1 0.509743 0.267399
1 0.543542 0.308934
0 0.41857 0.688029
0 0.414969 0.694057
0 0.41033 0.656474
0.021973 0.408972 0.449928
0.528176 0.363714 0.173297
0.840131 0.394446 0.0981613
1 0.462226 0.173861
1 0.510964 0.267872
1 0.531838 0.242618
0 0.423407 0.668269
0 0.427512 0.664988
0 0.464302 0.705348
0.0879225 0.446586 0.615244
0.622919 0.422553 0.334127
0.902098 0.466972 0.314717
1 0.493675 0.281956
1 0.513787 0.217731
1 0.519646 0.14258
0 0.467079 0.650141
0 0.476478 0.634287
0 0.519677 0.655909
0.054902 0.566827 0.660426
0.668833 0.554604 0.503319
0.941039 0.565072 0.411215
1 0.578225 0.319112
1 0.585672 0.200427
1 0.593729 0.101198
0 0.700252 0.796674
0 0.728496 0.768383
0 0.767437 0.727825
0.00769055 0.759747 0.602258
0.532815 0.737865 0.377844
0.898787 0.68687 0.266514
1 0.716258 0.172915
1 0.745007 0.0522621
1 0.745617 0.000595102
0 0.899718 0.915709
0 0.891646 0.821118
0 0.886198 0.692622
0.00993362 0.879835 0.488457
0.444221 0.859586 0.301701
0.754559 0.867399 0.215671
0.990234 0.795758 0.0011902
1 0.808392 0
1 0.81268 0
0 0.992508 0.896941
0 0.986084 0.80174
0 0.98529 0.663996
0.0265049 0.982437 0.399329
0.39556 0.959869 0.256138
0.635203 0.965805 0.207431
0.844907 0.967056 0.146044
0.963317 0.894789 0
0.965072 0.881132 0
0 1 0.870893
0 1 0.780697
0 1 0.644511
0.0600443 1 0.331502
0.359716 1 0.224704
0.557534 1 0.209934
0.748516 1 0.143175
0.929931 1 0.076997
0.933181 0.998413 0.0654917
0 0.554345 0.936461
0 0.537255 0.834348
0 0.527977 0.677424
0 0.523491 0.525246
0.111742 0.524575 0.29575
0.657282 0.450385 0.0402686
0.942946 0.455375 0.045655
1 0.524132 0.294499
1 0.601892 0.575494
0 0.552773 0.930098
0 0.536126 0.874128
0 0.526864 0.705791
0 0.521584 0.542535
0.12575 0.523827 0.313573
0.666972 0.450431 0.0669108
0.944457 0.459632 0.0728313
1 0.527962 0.319753
1 0.603067 0.582818
0 0.552728 0.911894
0 0.541665 0.912932
0 0.529686 0.87602
0 0.523339 0.676143
0.20972 0.517754 0.431617
0.69781 0.4598 0.230381
0.9626 0.475563 0.216648
1 0.547387 0.430076
1 0.609079 0.616846
0 0.55407 0.898238
0 0.55407 0.890761
0 0.574014 0.926574
0 0.563607 0.890394
0.335698 0.522835 0.647578
0.761379 0.504753 0.446387
0.987274 0.534569 0.466361
1 0.592966 0.588418
1 0.620249 0.613458
0 0.561135 0.884169
0 0.564523 0.872541
0 0.600778 0.895521
0 0.645899 0.926253
0.420905 0.594705 0.810803
0.811643 0.596658 0.62652
0.986587 0.637491 0.657755
1 0.647944 0.607736
1 0.639948 0.540139
0 0.606546 0.865446
0 0.622263 0.85243
0 0.662867 0.865019
0 0.705333 0.889525
0.39411 0.719249 0.807935
0.813962 0.718608 0.678889
0.981643 0.729 0.631235
1 0.719249 0.553735
1 0.710597 0.486412
0 0.804211 0.996063
0 0.822721 0.980255
0 0.866758 0.971542
0 0.893172 0.932815
0.246235 0.874449 0.733135
0.708705 0.844465 0.555642
0.96669 0.803616 0.427726
1 0.811505 0.363485
1 0.81529 0.300511
0 0.966964 1
0 0.983566 1
0 0.98967 0.974838
0 0.987564 0.880064
0.260426 0.968551 0.601907
0.611566 0.94197 0.468788
0.808362 0.951812 0.382147
0.995254 0.882506 0.0847791
0.997375 0.877302 0.0459449
0 1 1
0 1 0.99913
0 1 0.936706
0 1 0.819409
0.287236 1 0.496468
0.537972 1 0.41532
0.700435 1 0.370047
0.934691 1 0.256565
0.943893 0.998199 0.239261
0 0.695598 1
0 0.679545 0.998901
0 0.66392 0.918395
0 0.654261 0.827039
0.00141909 0.642222 0.735531
0.39675 0.608515 0.578653
0.81355 0.566781 0.471366
1 0.570199 0.451225
1 0.609491 0.600778
0 0.689632 1
0 0.675959 0.999939
0 0.661158 0.942718
0 0.652567 0.845289
0.00277714 0.641367 0.751705
0.415763 0.605646 0.597391
0.821744 0.566583 0.486122
1 0.571038 0.466468
1 0.610742 0.615412
0 0.678538 1
0 0.664775 1
0 0.651301 1
0 0.6448 0.95404
0.0214847 0.63267 0.8392
0.48806 0.582559 0.682063
0.856077 0.563363 0.554177
1 0.573007 0.528237
1 0.618128 0.672923
0 0.676066 1
0 0.671016 1
0 0.673579 1
0 0.662974 1
0.0936446 0.639109 0.97055
0.589349 0.573983 0.804242
0.905028 0.569635 0.660853
1 0.594385 0.64654
1 0.638712 0.739879
0 0.676371 1
0 0.676753 1
0 0.700191 1
0 0.726864 1
0.187198 0.68751 0.999298
0.663203 0.634958 0.894545
0.929793 0.629999 0.765484
1 0.661921 0.760327
1 0.686076 0.791959
0 0.687465 1
0 0.690715 1
0 0.717571 1
0 0.754879 1
0.165667 0.767727 0.998688
0.69398 0.729809 0.905135
0.919982 0.727825 0.802029
1 0.744091 0.804196
1 0.743755 0.784482
0 0.737881 1
0 0.743236 0.999954
0 0.77409 0.999847
0 0.805753 1
0.120455 0.822187 0.992355
0.647181 0.814893 0.872999
0.889799 0.822644 0.796338
1 0.815503 0.749752
1 0.812802 0.727855
0 0.886137 1
0 0.898329 1
0 0.928847 1
0 0.962753 1
0.00062562 0.987366 0.997208
0.485191 0.948043 0.808957
0.788525 0.923629 0.68632
0.999893 0.884184 0.562951
1 0.88571 0.539422
0 0.99881 1
0 1 1
0 1 1
0 1 1
0.00440986 1 0.947646
0.468849 1 0.684581
0.690013 1 0.598032
0.888258 1 0.502312
0.958312 0.997955 0.471626
0 0.827115 1
0 0.815946 1
0 0.801953 1
0 0.789136 1
0 0.777111 1
0.195666 0.736339 0.981033
0.697963 0.667414 0.882994
0.975006 0.641184 0.806455
1 0.653391 0.783123
0 0.819715 1
0 0.811154 1
0 0.798001 1
0 0.786084 1
0 0.775677 1
0.212055 0.732982 0.985779
0.708217 0.664668 0.888914
0.978912 0.639704 0.813519
1 0.652186 0.787137
0 0.801144 1
0 0.788098 1
0 0.777951 1
0 0.768353 1
0 0.76347 1
0.277302 0.715343 0.997848
0.744686 0.652094 0.914519
0.993515 0.631434 0.835584
1 0.647318 0.802777
0 0.793408 1
0 0.783139 1
0 0.776379 1
0 0.763729 1
0 0.761959 1
0.349752 0.70634 1
0.787442 0.650523 0.948318
1 0.634379 0.868284
1 0.652934 0.825467
0 0.789593 1
0 0.784176 1
0 0.793225 1
0 0.800366 1
0 0.787655 1
0.421195 0.73022 1
0.820813 0.687404 0.975143
1 0.670054 0.897551
1 0.687373 0.85507
0 0.789792 1
0 0.787686 1
0 0.803555 1
0 0.826825 1
0 0.841749 1
0.477424 0.774762 1
0.839368 0.7476 0.97969
1 0.731456 0.906279
1 0.742061 0.879515
0 0.800809 1
0 0.801816 1
0 0.818784 1
0 0.841398 1
0 0.862593 1
0.448432 0.835554 1
0.829847 0.819821 0.964401
0.99704 0.806638 0.896895
1 0.810239 0.896284
0 0.841428 1
0 0.846387 1
0 0.864927 1
0 0.885451 1
0 0.903777 1
0.412146 0.882765 0.999664
0.775937 0.888869 0.92546
0.951156 0.897856 0.853574
1 0.899611 0.83975
0 0.940322 1
0 0.952117 1
0 0.978088 1
0 0.997055 1
0 1 1
0.174243 1 1
0.641169 1 0.87071
0.848127 0.998169 0.765072
0.976089 0.995605 0.698985
0 0.926772 1
0 0.920882 1
0 0.910964 1
0 0.89868 1
0 0.888701 1
0.0237736 0.863645 1
0.560113 0.786267 1
0.894408 0.74049 0.999817
1 0.701335 0.990509
0 0.918547 1
0 0.91545 1
0 0.906264 1
0 0.894972 1
0 0.885893 1
0.0281682 0.860075 1
0.570748 0.783001 1
0.89984 0.73756 0.999878
1 0.699275 0.992691
0 0.896239 1
0 0.887602 1
0 0.882399 1
0 0.874861 1
0 0.869093 1
0.0486763 0.840894 1
0.609522 0.768261 1
0.912352 0.726772 1
1 0.691325 0.997314
0 0.884337 1
0 0.874189 1
0 0.866133 1
0 0.857542 1
0 0.853788 1
0.0730755 0.823255 1
0.650797 0.755215 1
0.929335 0.718761 1
1 0.689906 0.998474
0 0.877897 1
0 0.870329 1
0 0.869093 1
0 0.867231 1
0 0.858183 1
0.0944228 0.825025 1
0.679942 0.760418 1
0.940032 0.728939 1
1 0.70454 0.999756
0 0.873945 1
0 0.868788 1
0 0.873915 1
0 0.883848 1
0 0.889677 1
0.201495 0.835721 1
0.73727 0.782986 1
0.961456 0.755795 1
1 0.737789 1
0 0.87306 1
0 0.870604 1
0 0.878492 1
0 0.89218 1
0 0.908186 1
0.255222 0.871092 1
0.768765 0.827039 1
0.966628 0.80557 1
1 0.792844 1
0 0.880842 1
0 0.881529 1
0 0.891112 1
0 0.904555 1
0 0.91986 1
0.273503 0.889372 1
0.723781 0.883528 1
0.925887 0.892531 0.99707
1 0.882918 0.980423
0 0.904891 1
0 0.911955 1
0 0.926131 1
0 0.941772 1
0 0.956725 1
0.255344 0.935927 1
0.681956 0.933532 1
0.872938 0.960403 0.965972
0.986542 0.989166 0.906325
