public/LUTS/Autumn/Autumn_01.cube
TITLE "Generated by Resolve"
LUT_3D_SIZE 9
0 0 0
0.132296 0 0
0.264607 0 0
0.396918 0 0
0.529244 0 0
0.661555 0 0
0.793866 0 0
0.926177 0 0
1 0 0
0 0.124987 0
0.132296 0.123018 0
0.264607 0.121035 0
0.396918 0.119066 0
0.529244 0.117098 0
0.661555 0.115114 0
0.793866 0.113146 0
0.926177 0.111162 0
1 0.109194 0
0 0.249989 0
0.132296 0.24802 0
0.264607 0.246036 0
0.396918 0.244068 0
0.529244 0.2421 0
0.661555 0.240116 0
0.793866 0.238148 0
0.926177 0.236164 0
1 0.234195 0
0 0.37499 0
0.132296 0.373022 0
0.264607 0.371038 0
0.396918 0.36907 0
0.529244 0.367102 0
0.661555 0.365118 0
0.793866 0.363149 0
0.926177 0.361166 0
1 0.359197 0
0 0.499992 0
0.132296 0.498024 0
0.264607 0.49604 0
0.396918 0.494072 0
0.529244 0.492103 0
0.661555 0.49012 0
0.793866 0.488151 0
0.926177 0.486168 0
1 0.484199 0
0 0.624994 0
0.132296 0.623026 0
0.264607 0.621042 0
0.396918 0.619074 0
0.529244 0.617105 0
0.661555 0.615122 0
0.793866 0.613153 0
0.926177 0.61117 0
1 0.609201 0
0 0.749996 0
0.132296 0.748028 0
0.264607 0.746044 0
0.396918 0.744076 0
0.529244 0.742107 0
0.661555 0.740124 0
0.793866 0.738155 0
0.926177 0.736171 0
1 0.734203 0
0 0.874998 0
0.132296 0.87303 0
0.264607 0.871046 0
0.396918 0.869078 0
0.529244 0.867109 0
0.661555 0.865125 0
0.793866 0.863157 0
0.926177 0.861173 0
1 0.859205 0
0 1 0
0.132296 0.998032 0
0.264607 0.996048 0
0.396918 0.994079 0
0.529244 0.992111 0
0.661555 0.990127 0
0.793866 0.988159 0
0.926177 0.986175 0
1 0.984207 0
0 0 0.124987
0.132296 0 0.123018
0.264607 0 0.121035
0.396918 0 0.119066
0.529244 0 0.117098
0.661555 0 0.115114
0.793866 0 0.113146
0.926177 0 0.111162
1 0 0.109194
0 0.124987 0.124987
0.132296 0.123018 0.123018
0.264607 0.121035 0.121035
0.396918 0.119066 0.119066
0.529244 0.117098 0.117098
0.661555 0.115114 0.115114
0.793866 0.113146 0.113146
0.926177 0.111162 0.111162
1 0.109194 0.109194
0 0.249989 0.124987
0.132296 0.24802 0.123018
0.264607 0.246036 0.121035
0.396918 0.244068 0.119066
0.529244 0.2421 0.117098
0.661555 0.240116 0.115114
0.793866 0.238148 0.113146
0.926177 0.236164 0.111162
1 0.234195 0.109194
0 0.37499 0.124987
0.132296 0.373022 0.123018
0.264607 0.371038 0.121035
0.396918 0.36907 0.119066
0.529244 0.367102 0.117098
0.661555 0.365118 0.115114
0.793866 0.363149 0.113146
0.926177 0.361166 0.111162
1 0.359197 0.109194
0 0.499992 0.124987
0.132296 0.498024 0.123018
0.264607 0.49604 0.121035
0.396918 0.494072 0.119066
0.529244 0.492103 0.117098
0.661555 0.49012 0.115114
0.793866 0.488151 0.113146
0.926177 0.486168 0.111162
1 0.484199 0.109194
0 0.624994 0.124987
0.132296 0.623026 0.123018
0.264607 0.621042 0.121035
0.396918 0.619074 0.119066
0.529244 0.617105 0.117098
0.661555 0.615122 0.115114
0.793866 0.613153 0.113146
0.926177 0.61117 0.111162
1 0.609201 0.109194
0 0.749996 0.124987
0.132296 0.748028 0.123018
0.264607 0.746044 0.121035
0.396918 0.744076 0.119066
0.529244 0.742107 0.117098
0.661555 0.740124 0.115114
0.793866 0.738155 0.113146
0.926177 0.736171 0.111162
1 0.734203 0.109194
0 0.874998 0.124987
0.132296 0.87303 0.123018
0.264607 0.871046 0.121035
0.396918 0.869078 0.119066
0.529244 0.867109 0.117098
0.661555 0.865125 0.115114
0.793866 0.863157 0.113146
0.926177 0.861173 0.111162
1 0.859205 0.109194
0 1 0.124987
0.132296 0.998032 0.123018
0.264607 0.996048 0.121035
0.396918 0.994079 0.119066
0.529244 0.992111 0.117098
0.661555 0.990127 0.115114
0.793866 0.988159 0.113146
0.926177 0.986175 0.111162
1 0.984207 0.109194
0 0 0.249989
0.132296 0 0.24802
0.264607 0 0.246036
0.396918 0 0.244068
0.529244 0 0.2421
0.661555 0 0.240116
0.793866 0 0.238148
0.926177 0 0.236164
1 0 0.234195
0 0.124987 0.249989
0.132296 0.123018 0.24802
0.264607 0.121035 0.246036
0.396918 0.119066 0.244068
0.529244 0.117098 0.2421
0.661555 0.115114 0.240116
0.793866 0.113146 0.238148
0.926177 0.111162 0.236164
1 0.109194 0.234195
0 0.249989 0.249989
0.132296 0.24802 0.24802
0.264607 0.246036 0.246036
0.396918 0.244068 0.244068
0.529244 0.2421 0.2421
0.661555 0.240116 0.240116
0.793866 0.238148 0.238148
0.926177 0.236164 0.236164
1 0.234195 0.234195
0 0.37499 0.249989
0.132296 0.373022 0.24802
0.264607 0.371038 0.246036
0.396918 0.36907 0.244068
0.529244 0.367102 0.2421
0.661555 0.365118 0.240116
0.793866 0.363149 0.238148
0.926177 0.361166 0.236164
1 0.359197 0.234195
0 0.499992 0.249989
0.132296 0.498024 0.24802
0.264607 0.49604 0.246036
0.396918 0.494072 0.244068
0.529244 0.492103 0.2421
0.661555 0.49012 0.240116
0.793866 0.488151 0.238148
0.926177 0.486168 0.236164
1 0.484199 0.234195
0 0.624994 0.249989
0.132296 0.623026 0.24802
0.264607 0.621042 0.246036
0.396918 0.619074 0.244068
0.529244 0.617105 0.2421
0.661555 0.615122 0.240116
0.793866 0.613153 0.238148
0.926177 0.61117 0.236164
1 0.609201 0.234195
0 0.749996 0.249989
0.132296 0.748028 0.24802
0.264607 0.746044 0.246036
0.396918 0.744076 0.244068
0.529244 0.742107 0.2421
0.661555 0.740124 0.240116
0.793866 0.738155 0.238148
0.926177 0.736171 0.236164
1 0.734203 0.234195
0 0.874998 0.249989
0.132296 0.87303 0.24802
0.264607 0.871046 0.246036
0.396918 0.869078 0.244068
0.529244 0.867109 0.2421
0.661555 0.865125 0.240116
0.793866 0.863157 0.238148
0.926177 0.861173 0.236164
1 0.859205 0.234195
0 1 0.249989
0.132296 0.998032 0.24802
0.264607 0.996048 0.246036
0.396918 0.994079 0.244068
0.529244 0.992111 0.2421
0.661555 0.990127 0.240116
0.793866 0.988159 0.238148
0.926177 0.986175 0.236164
1 0.984207 0.234195
0 0 0.37499
0.132296 0 0.373022
0.264607 0 0.371038
0.396918 0 0.36907
0.529244 0 0.367102
0.661555 0 0.365118
0.793866 0 0.363149
0.926177 0 0.361166
1 0 0.359197
0 0.124987 0.37499
0.132296 0.123018 0.373022
0.264607 0.121035 0.371038
0.396918 0.119066 0.36907
0.529244 0.117098 0.367102
0.661555 0.115114 0.365118
0.793866 0.113146 0.363149
0.926177 0.111162 0.361166
1 0.109194 0.359197
0 0.249989 0.37499
0.132296 0.24802 0.373022
0.264607 0.246036 0.371038
0.396918 0.244068 0.36907
0.529244 0.2421 0.367102
0.661555 0.240116 0.365118
0.793866 0.238148 0.363149
0.926177 0.236164 0.361166
1 0.234195 0.359197
0 0.37499 0.37499
0.132296 0.373022 0.373022
0.264607 0.371038 0.371038
0.396918 0.36907 0.36907
0.529244 0.367102 0.367102
0.661555 0.365118 0.365118
0.793866 0.363149 0.363149
0.926177 0.361166 0.361166
1 0.359197 0.359197
0 0.499992 0.37499
0.132296 0.498024 0.373022
0.264607 0.49604 0.371038
0.396918 0.494072 0.36907
0.529244 0.492103 0.367102
0.661555 0.49012 0.365118
0.793866 0.488151 0.363149
0.926177 0.486168 0.361166
1 0.484199 0.359197
0 0.624994 0.37499
0.132296 0.623026 0.373022
0.264607 0.621042 0.371038
0.396918 0.619074 0.36907
0.529244 0.617105 0.367102
0.661555 0.615122 0.365118
0.793866 0.613153 0.363149
0.926177 0.61117 0.361166
1 0.609201 0.359197
0 0.749996 0.37499
0.132296 0.748028 0.373022
0.264607 0.746044 0.371038
0.396918 0.744076 0.36907
0.529244 0.742107 0.367102
0.661555 0.740124 0.365118
0.793866 0.738155 0.363149
0.926177 0.736171 0.361166
1 0.734203 0.359197
0 0.874998 0.37499
0.132296 0.87303 0.373022
0.264607 0.871046 0.371038
0.396918 0.869078 0.36907
0.529244 0.867109 0.367102
0.661555 0.865125 0.365118
0.793866 0.863157 0.363149
0.926177 0.861173 0.361166
1 0.859205 0.359197
0 1 0.37499
0.132296 0.998032 0.373022
0.264607 0.996048 0.371038
0.396918 0.994079 0.36907
0.529244 0.992111 0.367102
0.661555 0.990127 0.365118
0.793866 0.988159 0.363149
0.926177 0.986175 0.361166
1 0.984207 0.359197
0 0 0.499992
0.132296 0 0.498024
0.264607 0 0.49604
0.396918 0 0.494072
0.529244 0 0.492103
0.661555 0 0.49012
0.793866 0 0.488151
0.926177 0 0.486168
1 0 0.484199
0 0.124987 0.499992
0.132296 0.123018 0.498024
0.264607 0.121035 0.49604
0.396918 0.119066 0.494072
0.529244 0.117098 0.492103
0.661555 0.115114 0.49012
0.793866 0.113146 0.488151
0.926177 0.111162 0.486168
1 0.109194 0.484199
0 0.249989 0.499992
0.132296 0.24802 0.498024
0.264607 0.246036 0.49604
0.396918 0.244068 0.494072
0.529244 0.2421 0.492103
0.661555 0.240116 0.49012
0.793866 0.238148 0.488151
0.926177 0.236164 0.486168
1 0.234195 0.484199
0 0.37499 0.499992
0.132296 0.373022 0.498024
0.264607 0.371038 0.49604
0.396918 0.36907 0.494072
0.529244 0.367102 0.492103
0.661555 0.365118 0.49012
0.793866 0.363149 0.488151
0.926177 0.361166 0.486168
1 0.359197 0.484199
0 0.499992 0.499992
0.132296 0.498024 0.498024
0.264607 0.49604 0.49604
0.396918 0.494072 0.494072
0.529244 0.492103 0.492103
0.661555 0.49012 0.49012
0.793866 0.488151 0.488151
0.926177 0.486168 0.486168
1 0.484199 0.484199
0 0.624994 0.499992
0.132296 0.623026 0.498024
0.264607 0.621042 0.49604
0.396918 0.619074 0.494072
0.529244 0.617105 0.492103
0.661555 0.615122 0.49012
0.793866 0.613153 0.488151
0.926177 0.61117 0.486168
1 0.609201 0.484199
0 0.749996 0.499992
0.132296 0.748028 0.498024
0.264607 0.746044 0.49604
0.396918 0.744076 0.494072
0.529244 0.742107 0.492103
0.661555 0.740124 0.49012
0.793866 0.738155 0.488151
0.926177 0.736171 0.486168
1 0.734203 0.484199
0 0.874998 0.499992
0.132296 0.87303 0.498024
0.264607 0.871046 0.49604
0.396918 0.869078 0.494072
0.529244 0.867109 0.492103
0.661555 0.865125 0.49012
0.793866 0.863157 0.488151
0.926177 0.861173 0.486168
1 0.859205 0.484199
0 1 0.499992
0.132296 0.998032 0.498024
0.264607 0.996048 0.49604
0.396918 0.994079 0.494072
0.529244 0.992111 0.492103
0.661555 0.990127 0.49012
0.793866 0.988159 0.488151
0.926177 0.986175 0.486168
1 0.984207 0.484199
0 0 0.624994
0.132296 0 0.623026
0.264607 0 0.621042
0.396918 0 0.619074
0.529244 0 0.617105
0.661555 0 0.615122
0.793866 0 0.613153
0.926177 0 0.61117
1 0 0.609201
0 0.124987 0.624994
0.132296 0.123018 0.623026
0.264607 0.121035 0.621042
0.396918 0.119066 0.619074
0.529244 0.117098 0.617105
0.661555 0.115114 0.615122
0.793866 0.113146 0.613153
0.926177 0.111162 0.61117
1 0.109194 0.609201
0 0.249989 0.624994
0.132296 0.24802 0.623026
0.264607 0.246036 0.621042
0.396918 0.244068 0.619074
0.529244 0.2421 0.617105
0.661555 0.240116 0.615122
0.793866 0.238148 0.613153
0.926177 0.236164 0.61117
1 0.234195 0.609201
0 0.37499 0.624994
0.132296 0.373022 0.623026
0.264607 0.371038 0.621042
0.396918 0.36907 0.619074
0.529244 0.367102 0.617105
0.661555 0.365118 0.615122
0.793866 0.363149 0.613153
0.926177 0.361166 0.61117
1 0.359197 0.609201
0 0.499992 0.624994
0.132296 0.498024 0.623026
0.264607 0.49604 0.621042
0.396918 0.494072 0.619074
0.529244 0.492103 0.617105
0.661555 0.49012 0.615122
0.793866 0.488151 0.613153
0.926177 0.486168 0.61117
1 0.484199 0.609201
0 0.624994 0.624994
0.132296 0.623026 0.623026
0.264607 0.621042 0.621042
0.396918 0.619074 0.619074
0.529244 0.617105 0.617105
0.661555 0.615122 0.615122
0.793866 0.613153 0.613153
0.926177 0.61117 0.61117
1 0.609201 0.609201
0 0.749996 0.624994
0.132296 0.748028 0.623026
0.264607 0.746044 0.621042
0.396918 0.744076 0.619074
0.529244 0.742107 0.617105
0.661555 0.740124 0.615122
0.793866 0.738155 0.613153
0.926177 0.736171 0.61117
1 0.734203 0.609201
0 0.874998 0.624994
0.132296 0.87303 0.623026
0.264607 0.871046 0.621042
0.396918 0.869078 0.619074
0.529244 0.867109 0.617105
0.661555 0.865125 0.615122
0.793866 0.863157 0.613153
0.926177 0.861173 0.61117
1 0.859205 0.609201
0 1 0.624994
0.132296 0.998032 0.623026
0.264607 0.996048 0.621042
0.396918 0.994079 0.619074
0.529244 0.992111 0.617105
0.661555 0.990127 0.615122
0.793866 0.988159 0.613153
0.926177 0.986175 0.61117
1 0.984207 0.609201
0 0 0.749996
0.132296 0 0.748028
0.264607 0 0.746044
0.396918 0 0.744076
0.529244 0 0.742107
0.661555 0 0.740124
0.793866 0 0.738155
0.926177 0 0.736171
1 0 0.734203
0 0.124987 0.749996
0.132296 0.123018 0.748028
0.264607 0.121035 0.746044
0.396918 0.119066 0.744076
0.529244 0.117098 0.742107
0.661555 0.115114 0.740124
0.793866 0.113146 0.738155
0.926177 0.111162 0.736171
1 0.109194 0.734203
0 0.249989 0.749996
0.132296 0.24802 0.748028
0.264607 0.246036 0.746044
0.396918 0.244068 0.744076
0.529244 0.2421 0.742107
0.661555 0.240116 0.740124
0.793866 0.238148 0.738155
0.926177 0.236164 0.736171
1 0.234195 0.734203
0 0.37499 0.749996
0.132296 0.373022 0.748028
0.264607 0.371038 0.746044
0.396918 0.36907 0.744076
0.529244 0.367102 0.742107
0.661555 0.365118 0.740124
0.793866 0.363149 0.738155
0.926177 0.361166 0.736171
1 0.359197 0.734203
0 0.499992 0.749996
0.132296 0.498024 0.748028
0.264607 0.49604 0.746044
0.396918 0.494072 0.744076
0.529244 0.492103 0.742107
0.661555 0.49012 0.740124
0.793866 0.488151 0.738155
0.926177 0.486168 0.736171
1 0.484199 0.734203
0 0.624994 0.749996
0.132296 0.623026 0.748028
0.264607 0.621042 0.746044
0.396918 0.619074 0.744076
0.529244 0.617105 0.742107
0.661555 0.615122 0.740124
0.793866 0.613153 0.738155
0.926177 0.61117 0.736171
1 0.609201 0.734203
0 0.749996 0.749996
0.132296 0.748028 0.748028
0.264607 0.746044 0.746044
0.396918 0.744076 0.744076
0.529244 0.742107 0.742107
0.661555 0.740124 0.740124
0.793866 0.738155 0.738155
0.926177 0.736171 0.736171
1 0.734203 0.734203
0 0.874998 0.749996
0.132296 0.87303 0.748028
0.264607 0.871046 0.746044
0.396918 0.869078 0.744076
0.529244 0.867109 0.742107
0.661555 0.865125 0.740124
0.793866 0.863157 0.738155
0.926177 0.861173 0.736171
1 0.859205 0.734203
0 1 0.749996
0.132296 0.998032 0.748028
0.264607 0.996048 0.746044
0.396918 0.994079 0.744076
0.529244 0.992111 0.742107
0.661555 0.990127 0.740124
0.793866 0.988159 0.738155
0.926177 0.986175 0.736171
1 0.984207 0.734203
0 0 0.874998
0.132296 0 0.87303
0.264607 0 0.871046
0.396918 0 0.869078
0.529244 0 0.867109
0.661555 0 0.865125
0.793866 0 0.863157
0.926177 0 0.861173
1 0 0.859205
0 0.124987 0.874998
0.132296 0.123018 0.87303
0.264607 0.121035 0.871046
0.396918 0.119066 0.869078
0.529244 0.117098 0.867109
0.661555 0.115114 0.865125
0.793866 0.113146 0.863157
0.926177 0.111162 0.861173
1 0.109194 0.859205
0 0.249989 0.874998
0.132296 0.24802 0.87303
0.264607 0.246036 0.871046
0.396918 0.244068 0.869078
0.529244 0.2421 0.867109
0.661555 0.240116 0.865125
0.793866 0.238148 0.863157
0.926177 0.236164 0.861173
1 0.234195 0.859205
0 0.37499 0.874998
0.132296 0.373022 0.87303
0.264607 0.371038 0.871046
0.396918 0.36907 0.869078
0.529244 0.367102 0.867109
0.661555 0.365118 0.865125
0.793866 0.363149 0.863157
0.926177 0.361166 0.861173
1 0.359197 0.859205
0 0.499992 0.874998
0.132296 0.498024 0.87303
0.264607 0.49604 0.871046
0.396918 0.494072 0.869078
0.529244 0.492103 0.867109
0.661555 0.49012 0.865125
0.793866 0.488151 0.863157
0.926177 0.486168 0.861173
1 0.484199 0.859205
0 0.624994 0.874998
0.132296 0.623026 0.87303
0.264607 0.621042 0.871046
0.396918 0.619074 0.869078
0.529244 0.617105 0.867109
0.661555 0.615122 0.865125
0.793866 0.613153 0.863157
0.926177 0.61117 0.861173
1 0.609201 0.859205
0 0.749996 0.874998
0.132296 0.748028 0.87303
0.264607 0.746044 0.871046
0.396918 0.744076 0.869078
0.529244 0.742107 0.867109
0.661555 0.740124 0.865125
0.793866 0.738155 0.863157
0.926177 0.736171 0.861173
1 0.734203 0.859205
0 0.874998 0.874998
0.132296 0.87303 0.87303
0.264607 0.871046 0.871046
0.396918 0.869078 0.869078
0.529244 0.867109 0.867109
0.661555 0.865125 0.865125
0.793866 0.863157 0.863157
0.926177 0.861173 0.861173
1 0.859205 0.859205
0 1 0.874998
0.132296 0.998032 0.87303
0.264607 0.996048 0.871046
0.396918 0.994079 0.869078
0.529244 0.992111 0.867109
0.661555 0.990127 0.865125
0.793866 0.988159 0.863157
0.926177 0.986175 0.861173
1 0.984207 0.859205
0 0 1
0.132296 0 0.998032
0.264607 0 0.996048
0.396918 0 0.994079
0.529244 0 0.992111
0.661555 0 0.990127
0.793866 0 0.988159
0.926177 0 0.986175
1 0 0.984207
0 0.124987 1
0.132296 0.123018 0.998032
0.264607 0.121035 0.996048
0.396918 0.119066 0.994079
0.529244 0.117098 0.992111
0.661555 0.115114 0.990127
0.793866 0.113146 0.988159
0.926177 0.111162 0.986175
1 0.109194 0.984207
0 0.249989 1
0.132296 0.24802 0.998032
0.264607 0.246036 0.996048
0.396918 0.244068 0.994079
0.529244 0.2421 0.992111
0.661555 0.240116 0.990127
0.793866 0.238148 0.988159
0.926177 0.236164 0.986175
1 0.234195 0.984207
0 0.37499 1
0.132296 0.373022 0.998032
0.264607 0.371038 0.996048
0.396918 0.36907 0.994079
0.529244 0.367102 0.992111
0.661555 0.365118 0.990127
0.793866 0.363149 0.988159
0.926177 0.361166 0.986175
1 0.359197 0.984207
0 0.499992 1
0.132296 0.498024 0.998032
0.264607 0.49604 0.996048
0.396918 0.494072 0.994079
0.529244 0.492103 0.992111
0.661555 0.49012 0.990127
0.793866 0.488151 0.988159
0.926177 0.486168 0.986175
1 0.484199 0.984207
0 0.624994 1
0.132296 0.623026 0.998032
0.264607 0.621042 0.996048
0.396918 0.619074 0.994079
0.529244 0.617105 0.992111
0.661555 0.615122 0.990127
0.793866 0.613153 0.988159
0.926177 0.61117 0.986175
1 0.609201 0.984207
0 0.749996 1
0.132296 0.748028 0.998032
0.264607 0.746044 0.996048
0.396918 0.744076 0.994079
0.529244 0.742107 0.992111
0.661555 0.740124 0.990127
0.793866 0.738155 0.988159
0.926177 0.736171 0.986175
1 0.734203 0.984207
0 0.874998 1
0.132296 0.87303 0.998032
0.264607 0.871046 0.996048
0.396918 0.869078 0.994079
0.529244 0.867109 0.992111
0.661555 0.865125 0.990127
0.793866 0.863157 0.988159
0.926177 0.861173 0.986175
1 0.859205 0.984207
0 1 1
0.132296 0.998032 0.998032
0.264607 0.996048 0.996048
0.396918 0.994079 0.994079
0.529244 0.992111 0.992111
0.661555 0.990127 0.990127
0.793866 0.988159 0.988159
0.926177 0.986175 0.986175
1 0.984207 0.984207
