public/LUTS/Autumn/Autumn_14.cube
TITLE "Generated by Resolve"
LUT_3D_SIZE 33
0.0561379 0.0773938 0.0809949
0.0561379 0.0773938 0.0809949
0.0914626 0.0812085 0.0678416
0.132006 0.0895857 0.054551
0.177127 0.0962997 0.0362402
0.226505 0.100999 0.00996414
0.280735 0.103792 0
0.337667 0.106218 0
0.402258 0.107881 0
0.476921 0.108888 0
0.555581 0.110674 0
0.639918 0.110628 0
0.728237 0.108324 0
0.813672 0.105486 0
0.895933 0.102464 0
0.972519 0.0995041 0
0.998611 0.0974899 0
1 0.0968948 0
1 0.0988632 0
1 0.108736 0
1 0.128954 0
1 0.152804 0
1 0.177005 0
1 0.201068 0
1 0.224338 0
1 0.247761 0
1 0.272084 0
1 0.296941 0
1 0.322728 0
1 0.348562 0
1 0.372702 0
1 0.380926 0
1 0.380987 0
0.0561379 0.0773938 0.0809949
0.0561379 0.0773938 0.0809949
0.0920424 0.0813458 0.0676738
0.132418 0.089662 0.0543984
0.177432 0.0963455 0.0361181
0.227054 0.10103 0.00984207
0.281315 0.103822 0
0.33875 0.106264 0
0.403555 0.107881 0
0.47776 0.108919 0
0.556466 0.110689 0
0.640894 0.110613 0
0.728908 0.108309 0
0.815274 0.105425 0
0.897185 0.102403 0
0.973083 0.0994888 0
0.998657 0.0974746 0
1 0.0968948 0
1 0.0988937 0
1 0.108995 0
1 0.129152 0
1 0.153094 0
1 0.17731 0
1 0.201358 0
1 0.22472 0
1 0.248157 0
1 0.272389 0
1 0.297261 0
1 0.322942 0
1 0.348882 0
1 0.372839 0
1 0.380926 0
1 0.380987 0
0.0538949 0.0839094 0.0807507
0.0547646 0.0813611 0.0808423
0.0906996 0.0831922 0.06804
0.131838 0.0903029 0.0545663
0.177111 0.0966812 0.036286
0.226993 0.101122 0.00991836
0.281514 0.103838 0
0.33875 0.106264 0
0.403555 0.107881 0
0.47776 0.108919 0
0.556466 0.110689 0
0.640574 0.110613 0
0.729564 0.108278 0
0.815274 0.105425 0
0.897185 0.102403 0
0.973083 0.0994888 0
0.998657 0.0974746 0
1 0.0969253 0
1 0.0990616 0
1 0.109041 0
1 0.128908 0
1 0.152529 0
1 0.176257 0
1 0.200031 0
1 0.223224 0
1 0.246342 0
1 0.270542 0
1 0.295338 0
1 0.321172 0
1 0.347082 0
1 0.370687 0
1 0.378378 0
1 0.378241 0
0.0476844 0.101747 0.0801404
0.0487373 0.0987564 0.0802319
0.081239 0.0965896 0.0708934
0.12549 0.097612 0.0561532
0.171176 0.10341 0.0392462
0.224277 0.106508 0.0131991
0.281895 0.107347 0
0.342473 0.108766 0
0.409979 0.109819 0
0.487724 0.110018 0
0.570443 0.110613 0
0.656748 0.109911 0
0.744747 0.1084 0
0.828779 0.107012 0
0.907881 0.10573 0
0.979232 0.104479 0
1 0.103868 0
1 0.104463 0
1 0.107073 0
1 0.112474 0
1 0.126452 0
1 0.146334 0
1 0.167346 0
1 0.189151 0
1 0.212085 0
1 0.235981 0
1 0.26125 0
1 0.286992 0
1 0.31339 0
1 0.339712 0
1 0.36347 0
1 0.37052 0
1 0.370382 0
0.0402533 0.121233 0.0797436
0.0415198 0.118135 0.0797894
0.0686503 0.116442 0.075288
0.116289 0.111177 0.0575875
0.166659 0.111818 0.0397955
0.218311 0.116457 0.0137636
0.276036 0.118975 0
0.338933 0.120089 0
0.408286 0.121202 0
0.488807 0.121584 0
0.575082 0.121569 0
0.66424 0.120699 0
0.753323 0.119707 0
0.836912 0.119249 0
0.914168 0.11873 0
0.981262 0.118975 0
0.999969 0.119997 0
1 0.122332 0
1 0.126375 0
1 0.132815 0
1 0.141527 0
1 0.152697 0
1 0.167117 0
1 0.185336 0
1 0.2056 0
1 0.227756 0
1 0.252079 0
1 0.276738 0
1 0.302968 0
1 0.329732 0
1 0.353765 0
1 0.35964 0
1 0.359426 0
0.0314183 0.141527 0.0795148
0.032929 0.138216 0.0795453
0.0562905 0.137362 0.0785077
0.0991379 0.134371 0.0639658
0.158526 0.124407 0.0415961
0.215534 0.125002 0.0164034
0.274388 0.127993 0
0.336141 0.131518 0
0.404608 0.136751 0
0.483375 0.141894 0
0.568704 0.146166 0
0.655711 0.149035 0
0.744305 0.149966 0
0.829374 0.14995 0
0.907317 0.150103 0
0.977005 0.150698 0
0.999207 0.15227 0
1 0.155123 0
1 0.159365 0
1 0.165393 0
1 0.173556 0
1 0.183581 0
1 0.195331 0
1 0.208804 0
1 0.224384 0
1 0.24184 0
1 0.260304 0
1 0.280751 0
1 0.303975 0
1 0.327977 0
1 0.349004 0
1 0.352438 0
1 0.352193 0
0.02121 0.162341 0.0796979
0.0228428 0.159152 0.0796216
0.0454108 0.157397 0.078706
0.0808118 0.160311 0.0720836
0.14139 0.150103 0.0473335
0.208026 0.138308 0.0219883
0.272328 0.137713 0
0.337453 0.14107 0
0.408789 0.147295 0
0.490105 0.153964 0
0.57702 0.160281 0
0.664286 0.167041 0
0.749538 0.173907 0
0.828824 0.179339 0
0.900923 0.184054 0
0.966995 0.187564 0
0.995895 0.190433 0
1 0.194293 0
1 0.199222 0
1 0.205249 0
1 0.212955 0
1 0.222187 0
1 0.233036 0
1 0.245747 0
1 0.2607 0
1 0.276661 0
1 0.293828 0
1 0.311986 0
1 0.330724 0
1 0.349966 0
1 0.365255 0
1 0.366461 0
1 0.366522 0
0.0101472 0.183703 0.080293
0.0118868 0.180346 0.0801862
0.033753 0.178592 0.0784009
0.0636454 0.182376 0.0723125
0.116976 0.185611 0.0572671
0.191653 0.168124 0.0256046
0.265248 0.153307 0
0.337331 0.153124 0
0.412406 0.159716 0
0.496483 0.167086 0
0.587335 0.173877 0
0.678737 0.181369 0
0.764904 0.189502 0
0.842634 0.198581 0
0.910994 0.208133 0
0.96997 0.216907 0
0.996231 0.225864 0
1 0.234134 0
1 0.242252 0
1 0.250324 0
1 0.259037 0
1 0.268788 0
1 0.279973 0
1 0.29247 0
1 0.305974 0
1 0.320668 0
1 0.336568 0
1 0.35346 0
1 0.370993 0
1 0.387793 0
1 0.397848 0
1 0.398169 0
1 0.397971 0
0.00184634 0.205707 0.0816815
0.00292973 0.202243 0.0814069
0.0209201 0.200839 0.0785992
0.0466011 0.205264 0.0706188
0.0897993 0.212634 0.0603952
0.163607 0.21265 0.0296025
0.249256 0.186648 0
0.330587 0.171374 0
0.413352 0.174334 0
0.500771 0.181842 0
0.595926 0.189227 0
0.689754 0.197116 0
0.778683 0.20589 0
0.856962 0.215641 0
0.924315 0.226551 0
0.980255 0.23859 0
0.99884 0.250843 0
1 0.263172 0
1 0.276112 0
1 0.288899 0
1 0.301518 0
1 0.314855 0
1 0.328511 0
1 0.343175 0
1 0.358358 0
1 0.373007 0
1 0.387945 0
1 0.404318 0
1 0.420294 0
1 0.434058 0
1 0.438911 0
1 0.43859 0
1 0.438239 0
0 0.228748 0.084184
0 0.225086 0.0837415
0.00857557 0.224338 0.0791638
0.0290379 0.229587 0.0689403
0.0652018 0.239368 0.0538491
0.126314 0.249226 0.0373388
0.221424 0.239246 0.00180056
0.315465 0.207599 0
0.407355 0.19527 0
0.503059 0.199344 0
0.601633 0.206348 0
0.698146 0.214588 0
0.788235 0.223972 0
0.866377 0.234836 0
0.93463 0.246647 0
0.986389 0.259266 0
1 0.272984 0
1 0.287999 0
1 0.302754 0
1 0.317327 0
1 0.333104 0
1 0.349905 0
1 0.366506 0
1 0.384192 0
1 0.402182 0
1 0.419974 0
1 0.437934 0
1 0.456001 0
1 0.472984 0
1 0.484855 0
1 0.487999 0
1 0.487907 0
1 0.487846 0
0 0.25716 0.0835279
0 0.25272 0.083772
0.00149538 0.252216 0.0773632
0.0102846 0.25716 0.0655528
0.0368811 0.269627 0.0448463
0.0939345 0.281285 0.0264286
0.180041 0.287861 0.004654
0.289403 0.268772 0
0.393484 0.233082 0
0.496635 0.223453 0
0.60209 0.226688 0
0.702449 0.234272 0
0.79295 0.244434 0
0.872953 0.255985 0
0.940459 0.268482 0
0.987976 0.281895 0
1 0.296345 0
1 0.311467 0
1 0.327535 0
1 0.344594 0
1 0.362188 0
1 0.37998 0
1 0.39794 0
1 0.416297 0
1 0.435554 0
1 0.45539 0
1 0.475242 0
1 0.495109 0
1 0.511986 0
1 0.52105 0
1 0.524132 0
1 0.526131 0
1 0.528099 0
0 0.289662 0.0813611
0 0.284657 0.0816968
0 0.284642 0.0736248
0.000579843 0.28867 0.0607462
0.0103456 0.302449 0.0358282
0.0633249 0.315648 0.0171817
0.144183 0.327977 0.00263981
0.247837 0.329015 0
0.36846 0.296895 0
0.481422 0.263066 0
0.593835 0.254276 0
0.702174 0.257771 0
0.79704 0.266941 0
0.87631 0.278859 0
0.941649 0.292195 0
0.987945 0.306065 0
1 0.32105 0
1 0.33727 0
1 0.353948 0
1 0.371252 0
1 0.388907 0
1 0.407584 0
1 0.42681 0
1 0.446784 0
1 0.466926 0
1 0.487251 0
1 0.507225 0
1 0.526253 0
1 0.540856 0
1 0.546502 0
1 0.549462 0
1 0.552346 0
1 0.554665 0
0 0.32459 0.0800336
0 0.319127 0.0802167
0 0.319432 0.0704967
0 0.322606 0.057084
0 0.337133 0.0313878
0.0366522 0.352422 0.0119326
0.113664 0.367086 0.000488289
0.209628 0.379751 0
0.328664 0.372381 0
0.456275 0.330922 0
0.577493 0.29633 0
0.691997 0.289494 0
0.793957 0.293736 0
0.8757 0.30338 0
0.94107 0.316472 0
0.987686 0.331182 0
1 0.34725 0
1 0.363775 0
1 0.380667 0
1 0.398123 0
1 0.415961 0
1 0.434501 0
1 0.454002 0
1 0.473533 0
1 0.494041 0
1 0.515114 0
1 0.535943 0
1 0.554574 0
1 0.566796 0
1 0.570108 0
1 0.572473 0
1 0.575158 0
1 0.576333 0
0 0.36231 0.078996
0 0.35639 0.0791638
0 0.356847 0.0687877
0 0.360021 0.054963
0 0.373632 0.0311589
0.012726 0.391699 0.00790417
0.0862745 0.408118 0
0.176623 0.424384 0
0.288899 0.434562 0
0.417685 0.416373 0
0.550347 0.366506 0
0.672419 0.333989 0
0.780728 0.329046 0
0.868482 0.333577 0
0.937011 0.343221 0
0.986831 0.357717 0
1 0.373754 0
1 0.390433 0
1 0.407614 0
1 0.425177 0
1 0.443305 0
1 0.461524 0
1 0.480278 0
1 0.499748 0
1 0.519783 0
1 0.539742 0
1 0.56022 0
1 0.577188 0
1 0.585534 0
1 0.588098 0
1 0.590066 0
1 0.591897 0
1 0.593835 0
0 0.403265 0.0771954
0 0.396811 0.0775006
0 0.397711 0.0667124
0 0.40087 0.05243
0 0.41294 0.0299229
0.00169375 0.43331 0.00267033
0.0611887 0.45095 0
0.147616 0.469154 0
0.255879 0.485267 0
0.377203 0.489372 0
0.511055 0.459693 0
0.644343 0.405722 0
0.759793 0.375296 0
0.85275 0.372183 0
0.925689 0.37731 0
0.980865 0.386999 0
0.99884 0.400854 0
1 0.41738 0
1 0.434516 0
1 0.452323 0
1 0.470253 0
1 0.488212 0
1 0.506004 0
1 0.524666 0
1 0.544076 0
1 0.563836 0
1 0.583291 0
1 0.598184 0
1 0.60383 0
1 0.60592 0
1 0.608454 0
1 0.611078 0
1 0.611948 0
0 0.445884 0.0741436
0 0.439277 0.0746624
0 0.440345 0.0634318
0 0.443717 0.0486915
0 0.454398 0.0265202
0.000244144 0.475456 0.000228885
0.0387579 0.494987 0
0.12253 0.51458 0
0.226093 0.53225 0
0.345068 0.54548 0
0.467002 0.542565 0
0.601267 0.501076 0
0.729046 0.4439 0
0.830564 0.418647 0
0.907408 0.417639 0
0.966522 0.422889 0
0.994904 0.43183 0
1 0.445029 0
1 0.46157 0
1 0.478752 0
1 0.49633 0
1 0.513603 0
1 0.530938 0
1 0.549355 0
1 0.568002 0
1 0.586069 0
1 0.603571 0
1 0.616846 0
1 0.621378 0
1 0.623774 0
1 0.626047 0
1 0.628061 0
1 0.629343 0
0 0.490654 0.0701457
0 0.483558 0.0709392
0 0.484947 0.0589914
0 0.488121 0.0437781
0 0.496483 0.0223392
0.000106813 0.519005 0
0.0187991 0.539345 0
0.100206 0.55903 0
0.20032 0.577585 0
0.317052 0.593652 0
0.436286 0.601801 0
0.555657 0.590646 0
0.6822 0.540551 0
0.795575 0.484291 0
0.884337 0.463096 0
0.947219 0.463554 0
0.989273 0.46949 0
1 0.477897 0
1 0.489219 0
1 0.504433 0
1 0.521157 0
1 0.538064 0
1 0.555505 0
1 0.573129 0
1 0.590295 0
1 0.607492 0
1 0.624262 0
1 0.635813 0
1 0.638849 0
1 0.640757 0
1 0.642863 0
1 0.64477 0
1 0.645701 0
0 0.53611 0.0646983
0 0.528954 0.0656291
0 0.530022 0.0533608
0 0.533562 0.0375067
0 0.540169 0.0161288
1.5259e-05 0.562722 0
0.00988785 0.583032 0
0.0805982 0.602701 0
0.177844 0.621317 0
0.290196 0.637919 0
0.412833 0.650736 0
0.524208 0.652796 0
0.632792 0.632578 0
0.749218 0.578897 0
0.849775 0.527413 0
0.923293 0.509056 0
0.973846 0.510063 0
0.995941 0.515496 0
1 0.52282 0
1 0.532494 0
1 0.546181 0
1 0.562234 0
1 0.578851 0
1 0.595544 0
1 0.612345 0
1 0.628702 0
1 0.643915 0
1 0.653605 0
1 0.655665 0
1 0.657481 0
1 0.659358 0
1 0.661082 0
1 0.662058 0
0 0.580591 0.0588693
0 0.573648 0.0597848
0 0.575341 0.046952
0 0.57908 0.0302434
0 0.584787 0.00877394
0 0.60531 0
0.00643931 0.625605 0
0.0630198 0.645121 0
0.15877 0.663752 0
0.268147 0.679896 0
0.387106 0.693462 0
0.50135 0.700343 0
0.598917 0.697215 0
0.695445 0.672984 0
0.800137 0.618814 0
0.886595 0.572152 0
0.949279 0.554726 0
0.989578 0.554833 0
1 0.559838 0
1 0.566461 0
1 0.574639 0
1 0.586145 0
1 0.601328 0
1 0.617456 0
1 0.633173 0
1 0.649165 0
1 0.663584 0
1 0.671519 0
1 0.673045 0
1 0.674418 0
1 0.676097 0
1 0.677867 0
1 0.678645 0
0 0.624857 0.052781
0 0.618341 0.0537728
0 0.620462 0.0396887
0 0.624247 0.0223392
0 0.629419 0.00303655
0 0.646952 0
0.00410468 0.667445 0
0.0486915 0.686961 0
0.141482 0.70454 0
0.247242 0.7196 0
0.36202 0.73254 0
0.479271 0.742947 0
0.578592 0.744625 0
0.660273 0.739269 0
0.74168 0.711376 0
0.833982 0.658991 0
0.910109 0.615656 0
0.967239 0.598428 0
0.994659 0.598108 0
1 0.602914 0
1 0.60824 0
1 0.614267 0
1 0.624399 0
1 0.638483 0
1 0.65388 0
1 0.669856 0
1 0.682963 0
1 0.688396 0
1 0.68986 0
1 0.691386 0
1 0.693156 0
1 0.694728 0
1 0.695293 0
0 0.66894 0.0458839
0 0.662211 0.0469825
0 0.664958 0.0322118
0 0.668605 0.0143587
0 0.673594 0.00146487
0 0.687678 0
0.00209049 0.707652 0
0.0344244 0.726055 0
0.125292 0.742748 0
0.228733 0.756939 0
0.339849 0.7691 0
0.454536 0.779644 0
0.559548 0.785382 0
0.64062 0.784024 0
0.707607 0.77821 0
0.778012 0.748989 0
0.857404 0.69987 0
0.925597 0.659327 0
0.979736 0.64181 0
0.99855 0.639841 0
1 0.642634 0
1 0.646769 0
1 0.652445 0
1 0.661738 0
1 0.674281 0
1 0.689525 0
1 0.701473 0
1 0.705348 0
1 0.707103 0
1 0.708736 0
1 0.710109 0
1 0.71165 0
1 0.712169 0
0 0.712642 0.0386358
0 0.705989 0.039765
0 0.708843 0.0242008
0 0.712474 0.00607309
0 0.717662 0
0 0.728527 0
7.62951e-05 0.746883 0
0.0218051 0.763622 0
0.111299 0.77911 0
0.211292 0.792721 0
0.320119 0.804135 0
0.430137 0.813291 0
0.535958 0.82002 0
0.622797 0.821897 0
0.688075 0.819089 0
0.743496 0.81268 0
0.801465 0.78616 0
0.871595 0.740459 0
0.936019 0.702266 0
0.984283 0.684489 0
0.999512 0.679469 0
1 0.680537 0
1 0.684611 0
1 0.689555 0
1 0.696757 0
1 0.708858 0
1 0.719417 0
1 0.722179 0
1 0.723888 0
1 0.725658 0
1 0.727275 0
1 0.728588 0
1 0.72929 0
0 0.75523 0.0311131
0 0.74844 0.0323796
0 0.751522 0.0158999
0 0.755718 0.00262455
0 0.76051 0
0 0.768719 0
0 0.784604 0
0.0175784 0.799908 0
0.096849 0.814252 0
0.195666 0.826932 0
0.301076 0.836835 0
0.407721 0.84477 0
0.509682 0.850431 0
0.60209 0.854368 0
0.672572 0.853864 0
0.725734 0.850919 0
0.771389 0.846006 0
0.81799 0.820813 0
0.880446 0.778622 0
0.943862 0.74284 0
0.986068 0.72433 0
0.999268 0.717159 0
1 0.716945 0
1 0.719478 0
1 0.72401 0
1 0.731487 0
1 0.737789 0
1 0.738888 0
1 0.740536 0
1 0.742214 0
1 0.743847 0
1 0.745068 0
1 0.746242 0
0 0.79704 0.0232242
0 0.790738 0.0244297
0 0.793942 0.00842298
0 0.797909 0
0 0.802548 0
0 0.808484 0
0 0.820829 0
0.0146181 0.835355 0
0.0857557 0.848386 0
0.182315 0.858991 0
0.285023 0.867674 0
0.388281 0.873762 0
0.487358 0.878248 0
0.577646 0.882033 0
0.654688 0.884123 0
0.710399 0.882414 0
0.754574 0.879118 0
0.793759 0.874907 0
0.832532 0.85243 0
0.890257 0.814801 0
0.953613 0.780758 0
0.99086 0.760571 0
0.999985 0.752499 0
1 0.750744 0
1 0.753216 0
1 0.758511 0
1 0.760082 0
1 0.757717 0
1 0.75761 0
1 0.758999 0
1 0.760723 0
1 0.761975 0
1 0.763272 0
0 0.838087 0.0153048
0 0.832029 0.016495
0 0.835554 0.00331121
0 0.83949 0
0 0.843717 0
0 0.847028 0
0 0.857298 0
0.0126192 0.8701 0
0.076997 0.880781 0
0.171313 0.889616 0
0.270649 0.896574 0
0.371038 0.901335 0
0.467887 0.904692 0
0.553872 0.907362 0
0.629099 0.909575 0
0.691112 0.910689 0
0.738155 0.908766 0
0.776699 0.906004 0
0.812497 0.90042 0
0.848386 0.880903 0
0.900481 0.848112 0
0.96318 0.815076 0
0.992966 0.795056 0
0.996796 0.786465 0
0.997559 0.784787 0
0.997665 0.78677 0
0.997971 0.786114 0
0.999054 0.781186 0
1 0.77731 0
1 0.776272 0
1 0.777432 0
1 0.778683 0
1 0.780133 0
0 0.878279 0.00753796
0 0.872145 0.0087129
0 0.875502 0
0 0.879377 0
0 0.883223 0
0 0.885939 0
0 0.891585 0
0.0102998 0.902174 0
0.0688487 0.911025 0
0.161761 0.918013 0
0.258991 0.923354 0
0.35639 0.92755 0
0.448218 0.930373 0
0.530251 0.932494 0
0.60296 0.934478 0
0.6654 0.936492 0
0.717266 0.937606 0
0.758328 0.935912 0
0.794568 0.932662 0
0.829236 0.926284 0
0.863233 0.908644 0
0.912642 0.877699 0
0.958083 0.84712 0
0.979721 0.827558 0
0.98497 0.819043 0
0.986328 0.816617 0
0.987961 0.813779 0
0.991226 0.807919 0
0.993835 0.802182 0
0.995377 0.797131 0
0.996918 0.794705 0
0.996948 0.795178 0
0.996384 0.796887 0
0 0.916243 0.00164797
0 0.910399 0.00241093
0 0.913893 0
0 0.917449 0
0 0.921263 0
0 0.922591 0
0 0.924407 0
0.00915541 0.932494 0
0.0639963 0.939391 0
0.154452 0.944884 0
0.248341 0.949371 0
0.341375 0.952773 0
0.429053 0.955245 0
0.507729 0.957626 0
0.576852 0.959838 0
0.637171 0.962249 0
0.690028 0.964736 0
0.734905 0.966003 0
0.773236 0.964157 0
0.809491 0.960449 0
0.845975 0.953857 0
0.878401 0.937148 0
0.919829 0.907988 0
0.950576 0.878172 0
0.962829 0.858244 0
0.96791 0.84918 0
0.970794 0.844053 0
0.974578 0.83743 0
0.978302 0.830793 0
0.982223 0.823819 0
0.985885 0.817472 0
0.987381 0.814984 0
0.985702 0.817868 0
0 0.952087 0
0 0.946609 0
0 0.949981 0
0 0.953063 0
0 0.956374 0
0 0.956069 0
0 0.954833 0
0.00875868 0.960723 0
0.0620279 0.966644 0
