public/LUTS/Autumn/Autumn_15.cube
TITLE "Generated by Resolve"
LUT_3D_SIZE 5
0.0561379 0.0773938 0.0809949
0.361868 0.107164 0
0.996612 0.0982071 0
1 0.21886 0
1 0.380987 0
0.00654612 0.190753 0.0805371
0.365805 0.159823 0
0.993027 0.229999 0
1 0.319081 0
1 0.409628 0
0 0.470176 0.0720836
0.148196 0.545541 0
0.98024 0.447913 0
1 0.575936 0
1 0.638193 0
0 0.828244 0.0172274
0.033814 0.865812 0
0.724132 0.903044 0
0.999695 0.775982 0
1 0.776104 0
0 1 0
0.0286412 1 0
0.543313 1 0
0.914717 1 0
0.915404 0.999496 0
0 0.17528 0.282277
0.200992 0.153536 0.127825
0.875029 0.207294 0
1 0.264897 0
1 0.383062 0
0 0.195514 0.234318
0.269581 0.186618 0.129442
0.983841 0.19144 0
1 0.247044 0
1 0.368307 0
0 0.541604 0.25774
0.0302129 0.51429 0.0483711
0.911406 0.460258 0
1 0.586648 0
1 0.649317 0
0 0.859022 0.202518
0 0.847562 0
0.644099 0.892149 0
0.999466 0.783658 0
0.999344 0.785367 0
0 1 0.237476
0 1 0
0.467872 1 0
0.868193 1 0
0.917067 0.99913 0
0 0.405051 0.723262
0 0.390509 0.501167
0.43003 0.361257 0.0603494
0.994812 0.437797 0.0218814
1 0.543862 0.312627
0 0.41857 0.688029
0 0.41033 0.656474
0.528176 0.363714 0.173297
1 0.462226 0.173861
1 0.531838 0.242618
0 0.467079 0.650141
0 0.519677 0.655909
0.668833 0.554604 0.503319
1 0.578225 0.319112
1 0.593729 0.101198
0 0.899718 0.915709
0 0.886198 0.692622
0.444221 0.859586 0.301701
0.990234 0.795758 0.0011902
1 0.81268 0
0 1 0.870893
0 1 0.644511
0.359716 1 0.224704
0.748516 1 0.143175
0.933181 0.998413 0.0654917
0 0.695598 1
0 0.66392 0.918395
0.00141909 0.642222 0.735531
0.81355 0.566781 0.471366
1 0.609491 0.600778
0 0.678538 1
0 0.651301 1
0.0214847 0.63267 0.8392
0.856077 0.563363 0.554177
1 0.618128 0.672923
0 0.676371 1
0 0.700191 1
0.187198 0.68751 0.999298
0.929793 0.629999 0.765484
1 0.686076 0.791959
0 0.737881 1
0 0.77409 0.999847
0.120455 0.822187 0.992355
0.889799 0.822644 0.796338
1 0.812802 0.727855
0 0.99881 1
0 1 1
0.00440986 1 0.947646
0.690013 1 0.598032
0.958312 0.997955 0.471626
0 0.926772 1
0 0.910964 1
0 0.888701 1
0.560113 0.786267 1
1 0.701335 0.990509
0 0.896239 1
0 0.882399 1
0 0.869093 1
0.609522 0.768261 1
1 0.691325 0.997314
0 0.877897 1
0 0.869093 1
0 0.858183 1
0.679942 0.760418 1
1 0.70454 0.999756
0 0.87306 1
0 0.878492 1
0 0.908186 1
0.768765 0.827039 1
1 0.792844 1
0 0.904891 1
0 0.926131 1
0 0.956725 1
0.681956 0.933532 1
0.986542 0.989166 0.906325
