public/LUTS/Autumn/Autumn_13.cube
TITLE "Generated by Resolve"
LUT_3D_SIZE 5
0.0561379 0.0773938 0.0809949
0.451514 0.108217 0
1 0.0969558 0
1 0.230488 0
1 0.380987 0
0 0.222827 0.0834669
0.471916 0.191821 0
1 0.274357 0
1 0.398276 0
1 0.474418 0
0 0.51371 0.0674296
0.262867 0.612375 0
0.996414 0.492958 0
1 0.605982 0
1 0.653941 0
0 0.849134 0.013138
0.137118 0.895506 0
0.752819 0.915587 0
0.995468 0.793667 0
1 0.784527 0
0 1 0
0.115084 1 0
0.587732 1 0
0.914717 1 0
0.914763 0.999969 0
0 0.205692 0.347036
0.219791 0.179156 0.142565
0.868421 0.244739 0.00201419
1 0.314763 0
1 0.399939 0
0 0.237858 0.292073
0.339574 0.219669 0.158785
0.998138 0.233463 0
1 0.295537 0
1 0.400443 0
0 0.610407 0.356023
0.0635996 0.574212 0.0633707
0.915373 0.512016 0
1 0.622827 0
1 0.672572 0
0 0.886503 0.315755
0.0163424 0.870771 0.000885023
0.66099 0.901671 0
0.99263 0.800641 0
0.996246 0.798032 0
0 1 0.345937
0.016907 1 0.00140383
0.494255 1 0
0.875776 1 0
0.91809 0.999939 0
0 0.44036 0.778897
0 0.423667 0.501671
0.476295 0.38529 0.0289769
0.994476 0.449607 0.0477302
1 0.570794 0.435813
0 0.451957 0.738781
0 0.451728 0.720623
0.595056 0.396475 0.210712
1 0.48809 0.275959
1 0.550668 0.330327
0 0.503532 0.706905
0 0.571328 0.717601
0.704463 0.59884 0.555932
1 0.620691 0.395865
1 0.620859 0.197086
0 0.904021 0.964965
0 0.902266 0.7411
0.497078 0.869413 0.353124
0.989807 0.808286 0.030869
1 0.819852 0
0 1 0.928679
0 1 0.678706
0.402564 1 0.267231
0.761074 1 0.180743
0.934813 0.999802 0.103792
0 0.71252 1
0 0.678996 0.921447
0.014374 0.654887 0.760464
0.838376 0.57882 0.518029
1 0.611551 0.60766
0 0.69247 1
0 0.665583 1
0.101976 0.636515 0.891646
0.892561 0.569375 0.621469
1 0.624811 0.705409
0 0.691646 1
0 0.726879 1
0.286336 0.702434 0.999405
0.941726 0.654871 0.797192
1 0.699809 0.806867
0 0.751247 1
0 0.79942 1
0.208331 0.833097 0.988006
0.89865 0.831708 0.800259
1 0.823331 0.746914
0 0.99884 1
0 1 1
0.0241703 1 0.933318
0.708263 1 0.619608
0.959365 0.999756 0.50309
0 0.927886 1
0 0.908812 1
0 0.887861 1
0.614847 0.781018 1
1 0.701503 0.992844
0 0.891783 1
0 0.873854 1
0 0.863294 1
0.670756 0.759564 1
1 0.689464 0.999649
0 0.877684 1
0 0.872541 1
0 0.86334 1
0.732036 0.762631 1
1 0.710887 0.999985
0 0.874434 1
0 0.884337 1
0 0.912978 1
0.797009 0.833967 1
1 0.801587 1
0 0.904936 1
0 0.931807 1
0 0.959442 1
0.71281 0.936309 1
0.986908 0.99089 0.907012
