public/LUTS/Autumn/Autumn_18.cube
TITLE "Generated by Resolve"
LUT_3D_SIZE 9
0.0620737 0.133806 0.11487
0.299306 0.130449 0.00367742
0.587213 0.137194 0
0.897337 0.133669 0
1 0.135378 0
1 0.159167 0
1 0.207935 0
1 0.287526 0
1 0.355169 0
0.0197299 0.213016 0.115175
0.303563 0.179263 0.00422675
0.61976 0.201465 0
0.910521 0.233783 0
1 0.269032 0
1 0.301183 0
1 0.339544 0
1 0.390143 0
1 0.420005 0
0 0.313359 0.101823
0.21387 0.348241 0.00492866
0.654398 0.272831 0
0.94078 0.312993 0
1 0.368017 0
1 0.425635 0
1 0.485969 0
1 0.545953 0
1 0.556634 0
0 0.450233 0.0883192
0.133516 0.498131 3.0518e-05
0.592355 0.475624 0
0.934905 0.414649 0
1 0.467002 0
1 0.527276 0
1 0.586542 0
1 0.622858 0
1 0.627634 0
0 0.603479 0.0636301
0.0939956 0.645014 0
0.502373 0.695018 0
0.85774 0.584314 0
1 0.571176 0
1 0.613794 0
1 0.665156 0
1 0.683192 0
1 0.685374 0
0 0.751522 0.0296788
0.0744488 0.775937 0
0.447623 0.817792 0
0.73257 0.821622 0
0.942916 0.718441 0
1 0.702586 0
1 0.732372 0
1 0.738415 0
1 0.740917 0
0 0.888518 0.00781262
0.0667735 0.891035 0
0.409934 0.913054 0
0.681193 0.922057 0
0.828504 0.909636 0
0.981598 0.819593 0
0.994263 0.802655 0
0.998703 0.794034 0
0.997284 0.797269 0
0 0.994827 0.00337224
0.0783856 0.983871 0
0.377966 0.991913 0
0.602243 0.998062 0
0.761822 0.999969 0
0.908324 0.978836 0
0.938903 0.900725 0
0.955566 0.871107 0
0.954131 0.873625 0
0 1 0.00123598
0.0931563 1 0
0.345418 1 0
0.545937 1 0
0.710689 1 0
0.893309 1 0
0.915892 1 0
0.925124 0.988586 0
0.923781 0.990387 0
0 0.193179 0.278004
0.16228 0.167926 0.167788
0.409964 0.191989 0.0982986
0.787198 0.195285 0
1 0.22182 0
1 0.238529 0
1 0.273686 0
1 0.3308 0
1 0.386847 0
0 0.223911 0.267399
0.1832 0.212009 0.195193
0.558587 0.198367 0.0247501
0.885283 0.208637 0
1 0.221103 0
1 0.241367 0
1 0.27866 0
1 0.33373 0
1 0.383734 0
0 0.381292 0.300114
0.0709697 0.338293 0.161196
0.557031 0.292699 0.0181125
0.857984 0.335576 0
0.997482 0.387518 0
1 0.43032 0
1 0.466194 0
1 0.503212 0
1 0.52372 0
0 0.514748 0.296345
0.0115663 0.48426 0.13344
0.454719 0.511849 0.0028687
0.855451 0.435233 0
0.997543 0.486259 0
1 0.542367 0
1 0.593942 0
1 0.634028 0
1 0.635187 0
0 0.652644 0.288487
0.00703441 0.635355 0.0910964
0.359533 0.67512 0.00376898
0.75938 0.628687 0
0.974685 0.582361 0
1 0.627619 0
1 0.675441 0
1 0.699672 0
1 0.699489 0
0 0.780896 0.280919
0.00154116 0.772641 0.0480049
0.324605 0.796109 0
0.658976 0.814481 0
0.886397 0.734691 0
1 0.708263 0
1 0.741436 0
1 0.75378 0
1 0.754696 0
0 0.89749 0.278477
0.00238041 0.894118 0.0208896
0.303731 0.896376 4.57771e-05
0.591058 0.905928 0
0.794766 0.904341 0
0.958663 0.829679 0
0.992447 0.805783 0
0.992889 0.805005 0
0.991638 0.807233 0
0 0.992935 0.297581
0.0180056 0.987594 0.0238956
0.292027 0.978698 0.00120546
0.532891 0.986557 0
0.717708 0.991455 0
0.875059 0.981704 0
0.939925 0.900908 0
0.957595 0.867475 0
0.956527 0.869413 0
0 1 0.332876
0.029633 1 0.0437324
0.275181 1 0.0227512
0.482719 1 0.0157778
0.656535 1 0.000183108
0.833982 1 0
0.920195 0.999969 0
0.930999 0.983734 0
0.930144 0.985824 0
0 0.281102 0.471656
0 0.27013 0.374807
0.188708 0.259754 0.20087
0.51957 0.272343 0.125002
0.803281 0.319615 0.0649271
0.999435 0.344549 0
1 0.376684 0
1 0.418585 0
1 0.450263 0
0 0.305104 0.463279
0 0.305837 0.46804
0.263706 0.286381 0.254353
0.621149 0.306874 0.170687
0.913039 0.327428 0.0720378
1 0.350027 0.00750744
1 0.385672 0
1 0.421134 0
1 0.443275 0
0 0.336126 0.456153
0 0.360647 0.469856
0.348592 0.351537 0.335637
0.769467 0.343481 0.185245
0.992569 0.351446 0.0708934
1 0.36788 0.00535592
1 0.393057 0
1 0.430289 0
1 0.452338 0
0 0.513268 0.535561
0 0.550134 0.492287
0.25275 0.51928 0.289555
0.748852 0.479393 0.169039
0.948714 0.518715 0.0476081
1 0.560952 0
1 0.591089 0.00117494
1 0.620295 0
1 0.624201 0
0 0.712215 0.609506
0 0.678752 0.472969
0.189197 0.669429 0.25481
0.661875 0.667857 0.0843977
0.931029 0.610666 0.0254673
0.999954 0.651667 0.00030518
1 0.692485 0
1 0.720607 0
1 0.716884 0
0 0.820844 0.616938
0 0.79527 0.453773
0.19852 0.789059 0.205203
0.560601 0.803037 0.113085
0.845441 0.760128 0.00631724
0.999725 0.726375 0
1 0.756619 0
1 0.773098 0
1 0.773175 0
0 0.914748 0.623972
0 0.901564 0.436362
0.211353 0.889281 0.168933
0.505272 0.891722 0.118227
0.752636 0.895964 0.0771954
0.935836 0.841306 0
0.994018 0.814923 0
0.988861 0.821408 0
0.987396 0.823392 0
0 0.994217 0.63624
0 0.98941 0.40885
0.21796 0.975006 0.168139
0.464897 0.970565 0.14229
0.668528 0.9776 0.111818
0.845212 0.976974 0.0711223
0.948287 0.904768 0
0.954421 0.87364 0
0.954192 0.875776 0
0 1 0.645396
0 1 0.385412
0.220508 1 0.175235
0.429725 1 0.162219
0.606317 1 0.129976
0.779904 1 0.0724498
0.926436 0.999969 0.0314183
0.9393 0.979507 0.0015259
0.938827 0.981933 0.00395209
0 0.38793 0.682048
0 0.376822 0.558846
0 0.376471 0.417426
0.281926 0.363851 0.161196
0.668757 0.336416 0.0706798
0.897826 0.389044 0.0173037
1 0.453712 0.102403
1 0.495232 0.200488
1 0.523537 0.210575
0 0.415564 0.677165
0 0.410071 0.697444
0.00621042 0.403861 0.510872
0.411856 0.369497 0.223835
0.72932 0.373327 0.154147
0.941283 0.424109 0.112398
1 0.478111 0.218494
1 0.502434 0.212268
1 0.52224 0.187121
0 0.436271 0.680705
0 0.465827 0.709636
0.0372015 0.451926 0.656733
0.512245 0.425177 0.362722
0.805982 0.443961 0.299809
0.989685 0.479347 0.303258
1 0.497261 0.256474
1 0.518166 0.209812
1 0.518898 0.140902
0 0.471458 0.67657
0 0.505959 0.696162
0.0369116 0.543236 0.704128
0.571283 0.528817 0.52372
0.860868 0.541634 0.463157
1 0.547631 0.390402
1 0.544213 0.294682
1 0.543343 0.178836
1 0.531319 0.0850843
0 0.613642 0.740475
0 0.66659 0.740566
0.00534066 0.709621 0.721462
0.542092 0.666331 0.509285
0.851133 0.652461 0.438544
0.982452 0.680949 0.357473
1 0.691524 0.282124
1 0.699199 0.208179
1 0.694362 0.145068
0 0.804364 0.86334
0 0.828153 0.79559
0.00540169 0.81883 0.667231
0.472831 0.787289 0.448966
0.804364 0.771176 0.291234
0.977935 0.74377 0.248539
1 0.759884 0.149477
1 0.775067 0.059205
1 0.773922 0.037644
0 0.92398 0.920821
0 0.915602 0.785748
0.0120089 0.908309 0.603937
0.448005 0.877699 0.38555
0.70135 0.882246 0.307897
0.915511 0.845136 0.115221
1 0.812772 0.0108492
1 0.822736 0
1 0.824826 0.00315862
0 0.995071 0.910719
0 0.990311 0.772702
0.0456397 0.984649 0.538262
0.432868 0.958236 0.343999
0.63093 0.958434 0.302144
0.812177 0.965179 0.235325
0.974594 0.902098 0.0118105
0.981537 0.88014 0
0.980392 0.88304 0
0 1 0.89572
0 1 0.757107
0.108263 1 0.461738
0.409033 1 0.320378
0.57084 1 0.310765
0.730083 1 0.243503
0.92604 0.999954 0.163226
0.949233 0.977142 0.0823835
0.948592 0.979873 0.101701
0 0.501442 0.870054
0 0.484977 0.729839
0 0.479347 0.563943
0.0383307 0.48687 0.362676
0.498741 0.436881 0.0286259
0.820554 0.411109 0.00856031
0.987808 0.463111 0.109972
1 0.526024 0.33257
1 0.595285 0.553857
0 0.522622 0.866087
0 0.507774 0.884764
0 0.501228 0.693721
0.120729 0.497841 0.468894
0.593942 0.439231 0.195239
0.85127 0.443091 0.167559
1 0.490898 0.274052
1 0.555489 0.457465
1 0.604166 0.583917
0 0.541833 0.869886
0 0.558633 0.897063
0 0.547921 0.878538
0.23595 0.515846 0.65275
0.657984 0.492317 0.428534
0.911543 0.496605 0.386038
1 0.551675 0.490242
1 0.594202 0.571252
1 0.60592 0.544732
0 0.561303 0.873503
0 0.593194 0.890425
0 0.626307 0.920882
0.336278 0.573571 0.804135
0.732464 0.563745 0.596078
0.930983 0.593851 0.600381
1 0.62536 0.622995
1 0.631617 0.568139
1 0.622019 0.510506
0 0.598672 0.872297
0 0.631724 0.88455
0 0.669444 0.904784
0.379538 0.669825 0.838895
0.765576 0.665492 0.690089
0.937163 0.689021 0.675914
1 0.688624 0.619959
1 0.677317 0.546212
1 0.658732 0.48333
0 0.710079 0.918929
0 0.746654 0.918273
0 0.783688 0.924605
0.284688 0.80029 0.831785
0.757626 0.766018 0.657359
0.925048 0.770001 0.615961
1 0.771649 0.555993
1 0.770535 0.509148
1 0.766995 0.482734
0 0.861769 1
0 0.900999 0.998627
0 0.915511 0.955978
0.240925 0.895674 0.764416
0.677684 0.860914 0.595956
0.892195 0.845472 0.461433
1 0.817929 0.419455
1 0.827649 0.352087
1 0.828824 0.339544
0 0.986175 1
0 0.993561 0.992462
0 0.990509 0.921721
0.282918 0.969146 0.670726
0.622415 0.940383 0.531212
0.781888 0.947356 0.458213
0.983795 0.894881 0.25835
0.999863 0.874708 0.161563
1 0.87776 0.164172
0 1 1
0 1 0.981888
0 1 0.862501
0.326604 1 0.578805
0.567147 1 0.480888
0.698482 1 0.440452
0.905684 0.999969 0.338827
0.961089 0.973983 0.264225
0.959945 0.977386 0.281041
0 0.610498 0.999725
0 0.591043 0.901671
0 0.584573 0.769619
0 0.576593 0.64329
0.246052 0.565408 0.464942
0.687572 0.504433 0.298772
0.919966 0.511467 0.284749
1 0.536065 0.357
1 0.598566 0.579232
0 0.622156 0.999924
0 0.602792 1
0 0.596429 0.908919
0.000457771 0.5879 0.769406
0.356771 0.559731 0.596674
0.726589 0.527382 0.448402
0.959304 0.523735 0.399969
1 0.564065 0.496605
1 0.612467 0.647303
0 0.638544 0.998016
0 0.640818 1
0 0.629648 0.999344
0.0530098 0.609216 0.915297
0.482734 0.555566 0.745434
0.808423 0.545602 0.585687
0.986252 0.558999 0.551843
1 0.598901 0.636667
1 0.634913 0.714031
0 0.654353 1
0 0.674952 0.999985
0 0.694148 1
0.150851 0.65565 0.99263
0.58175 0.604013 0.857649
0.865782 0.596017 0.712596
0.997024 0.62327 0.694301
1 0.6551 0.739208
1 0.67248 0.764538
0 0.674907 1
0 0.699779 1
0 0.735149 1
0.185458 0.730571 1
0.642283 0.685008 0.897047
0.882612 0.678279 0.780758
0.998901 0.70399 0.77409
1 0.716579 0.772839
1 0.714397 0.756039
0 0.71133 0.99939
0 0.736431 1
0 0.765438 1
0.199329 0.772747 0.986023
0.659968 0.768307 0.885801
0.874022 0.766125 0.803723
0.994553 0.774563 0.790829
1 0.77116 0.759075
1 0.766735 0.745235
0 0.795727 1
0 0.821164 1
0 0.846235 1
0.0989853 0.862226 0.994125
0.574304 0.854444 0.878004
0.851942 0.839765 0.767346
0.998459 0.839261 0.726909
1 0.8383 0.702358
1 0.83769 0.696147
0 0.91191 1
0 0.940902 1
0 0.970413 1
0.00332647 0.987335 0.99852
0.500343 0.948272 0.816495
0.775387 0.923217 0.706416
0.96611 0.900679 0.59881
1 0.885496 0.558465
1 0.888502 0.559609
0 1 1
0 1 1
0 1 1
0.0357366 1 0.936645
0.493523 1 0.718318
0.703548 0.998856 0.634897
0.856229 0.999893 0.549401
0.973983 0.972442 0.483375
0.972915 0.975601 0.495125
0 0.717174 1
0 0.699565 1
0 0.689143 0.977142
0 0.679042 0.905852
0.0863203 0.66096 0.832151
0.522942 0.611612 0.712016
0.844236 0.587701 0.605478
1 0.59678 0.597589
1 0.607217 0.615213
0 0.719631 1
0 0.701411 1
0 0.691371 1
0 0.684993 0.984802
0.177691 0.653193 0.911192
0.605066 0.598001 0.790661
0.891402 0.583017 0.678996
1 0.597742 0.660426
1 0.617212 0.686687
0 0.730999 1
0 0.723217 1
0 0.709453 1
0 0.705486 1
0.285191 0.657557 0.98822
0.691157 0.603326 0.872419
0.934203 0.592416 0.766598
1 0.610925 0.726726
1 0.642329 0.76672
0 0.743557 1
0 0.751705 1
0 0.756634 1
0 0.741588 1
0.389792 0.689281 0.999908
0.757412 0.646632 0.928969
0.959899 0.632959 0.837186
1 0.652216 0.790249
1 0.675715 0.815839
0 0.757366 1
0 0.7729 1
0 0.795483 1
0 0.79765 1
0.458595 0.737636 1
0.794995 0.708721 0.949538
0.969512 0.695048 0.86952
1 0.707897 0.826947
1 0.720058 0.846983
0 0.776532 1
0 0.793194 1
0 0.817288 1
0.00976577 0.83447 1
0.484733 0.79585 0.999695
0.809964 0.77232 0.948287
0.969726 0.760769 0.877409
1 0.766308 0.857923
1 0.770977 0.870115
0 0.807858 1
0 0.823636 1
0 0.843229 1
0.0160372 0.854109 1
0.488243 0.833036 0.996918
0.799466 0.837476 0.929015
0.955093 0.830121 0.873442
1 0.829847 0.871748
1 0.831418 0.874678
0 0.86598 1
0 0.883314 1
0 0.901381 1
0.00323491 0.914382 1
0.436851 0.897322 0.995819
0.753231 0.901289 0.909224
0.921035 0.901717 0.832364
1 0.900694 0.801022
1 0.904799 0.801999
0 0.952483 1
0 0.978073 1
0 0.995743 1
0 0.999649 1
0.276555 0.999878 1
0.6589 0.998764 0.857557
0.842573 0.9935 0.769482
0.985275 0.974456 0.682322
0.986618 0.973617 0.683833
0 0.818235 1
0 0.804837 1
0 0.79292 1
0 0.785245 1
0.00111391 0.774792 1
0.36817 0.717128 0.982773
0.759365 0.662593 0.902586
0.978637 0.640085 0.838544
1 0.6533 0.81236
0 0.812161 1
0 0.797192 1
0 0.787472 1
0 0.781872 1
0.0269474 0.768185 1
0.456504 0.70808 0.998657
0.8065 0.65977 0.936629
0.992538 0.640436 0.874128
1 0.654749 0.841581
0 0.815839 1
0 0.803403 1
0 0.790692 1
0 0.786603 1
0.0657969 0.766186 1
0.54052 0.706706 1
0.848127 0.665019 0.966751
0.99855 0.649302 0.907759
1 0.663859 0.871107
0 0.82324 1
0 0.821103 1
0 0.817487 1
0 0.807324 1
0.124346 0.777478 1
0.606516 0.725063 1
0.878126 0.689632 0.99057
1 0.673915 0.934661
1 0.686503 0.903258
0 0.831312 1
0 0.836912 1
0 0.847044 1
0 0.847242 1
0.202182 0.798123 1
0.670802 0.755291 1
0.903334 0.727855 0.998062
1 0.712627 0.953719
1 0.720378 0.929824
0 0.841382 1
0 0.849867 1
0 0.865064 1
0 0.87866 1
0.276585 0.83064 1
0.724041 0.792096 1
0.922789 0.771008 0.996689
1 0.756573 0.963592
1 0.762371 0.953368
0 0.856016 1
0 0.864729 1
0 0.879622 1
0 0.895201 1
0.313893 0.86186 1
0.739132 0.84126 1
0.923476 0.825162 0.996368
1 0.811551 0.961486
1 0.816251 0.960403
0 0.878157 1
0 0.887709 1
0 0.900603 1
0 0.91281 1
0.366323 0.877485 1
0.729625 0.878248 1
0.897566 0.894835 0.969848
0.998962 0.888197 0.935439
1 0.89221 0.940169
0 0.915633 1
0 0.930175 1
0 0.945525 1
0 0.957244 1
0.351781 0.932174 1
0.691737 0.935882 0.998016
0.85803 0.959152 0.944396
0.974411 0.972213 0.876463
0.997208 0.976745 0.874067
0 0.89778 1
0 0.890089 1
0 0.880247 1
0 0.872236 1
0 0.865827 1
0.214405 0.815747 1
0.661418 0.761074 1
0.91194 0.720989 0.999954
1 0.692836 0.973083
0 0.884749 1
0 0.875486 1
0 0.868681 1
0 0.862776 1
0 0.858122 1
0.305882 0.797742 1
0.713817 0.752636 1
0.939971 0.714702 1
1 0.689128 0.9888
0 0.881102 1
0 0.869917 1
0 0.861448 1
0 0.85655 1
0 0.852445 1
0.377844 0.78407 1
0.76144 0.74789 1
0.967361 0.712551 1
1 0.690105 1
0 0.877073 1
0 0.875532 1
0 0.87097 1
0 0.86244 1
0.00030518 0.855726 1
0.4383 0.783291 1
0.802426 0.751659 1
0.985962 0.717296 1
1 0.700038 1
0 0.875792 1
0 0.880003 1
0 0.884901 1
0 0.882445 1
0.0291447 0.857252 1
0.550805 0.786603 1
0.848905 0.762463 1
0.997665 0.732631 1
1 0.722515 1
0 0.87602 1
0 0.884382 1
0 0.895232 1
0 0.904341 1
0.138354 0.863172 1
0.668757 0.80322 1
0.894759 0.78497 1
1 0.758587 1
1 0.757259 1
0 0.879881 1
0 0.890059 1
0 0.902815 1
0 0.916182 1
0.236194 0.8804 1
0.716396 0.843702 1
0.911467 0.829419 1
1 0.808301 1
1 0.809308 1
0 0.891203 1
0 0.901732 1
0 0.914122 1
0 0.926101 1
0.315908 0.888838 1
0.705104 0.883894 1
0.890929 0.897185 1
0.998703 0.883726 0.983307
1 0.886458 0.980591
0 0.914336 1
0 0.926787 1
0 0.939681 1
0 0.947601 1
0.367208 0.91371 1
0.706233 0.915389 1
0.870695 0.940902 0.985351
0.973693 0.972168 0.929641
0.99675 0.976425 0.921477
