public/LUTS/Autumn/Autumn_14.cube
TITLE "Generated by Resolve"
LUT_3D_SIZE 5
0.0561379 0.0773938 0.0809949
0.402258 0.107881 0
0.998611 0.0974899 0
1 0.224338 0
1 0.380987 0
0.00184634 0.205707 0.0816815
0.413352 0.174334 0
0.99884 0.250843 0
1 0.358358 0
1 0.438239 0
0 0.490654 0.0701457
0.20032 0.577585 0
0.989273 0.46949 0
1 0.590295 0
1 0.645701 0
0 0.838087 0.0153048
0.076997 0.880781 0
0.738155 0.908766 0
0.997559 0.784787 0
1 0.780133 0
0 1 0
0.0656138 1 0
0.564599 1 0
0.914717 1 0
0.915129 0.999695 0
0 0.18941 0.312276
0.209323 0.165515 0.134951
0.874922 0.223728 0.000167849
1 0.28809 0
1 0.390143 0
0 0.215732 0.260975
0.297368 0.203967 0.142931
0.989807 0.213352 0
1 0.270832 0
1 0.38439 0
0 0.574838 0.301518
0.0443122 0.543038 0.0543374
0.9131 0.485344 0
1 0.604135 0
1 0.66038 0
0 0.872435 0.253498
0.00903334 0.859434 0
0.652247 0.89691 0
0.996078 0.791897 0
0.99823 0.791363 0
0 1 0.286946
0.00827039 1 0
0.480507 1 0
0.871595 1 0
0.917403 0.999542 0
0 0.421637 0.749905
0 0.406363 0.502586
0.448798 0.373526 0.0492103
0.992767 0.443046 0.0327001
1 0.555871 0.370657
0 0.434424 0.7122
0 0.429801 0.687083
0.560388 0.378698 0.187579
1 0.473579 0.219821
1 0.540368 0.284581
0 0.480186 0.671733
0 0.545922 0.686809
0.682551 0.578164 0.530571
1 0.594553 0.356466
1 0.608423 0.15581
0 0.903792 0.943099
0 0.894041 0.71574
0.469291 0.864698 0.326345
0.98706 0.802228 0.00134279
1 0.816159 0
0 1 0.89929
0 1 0.6607
0.380118 1 0.244755
0.754376 1 0.16054
0.933944 0.999146 0.0830396
0 0.703685 1
0 0.671016 0.919539
0 0.648539 0.7476
0.825299 0.572519 0.493446
1 0.610513 0.604196
0 0.685054 1
0 0.657847 1
0.0552529 0.634913 0.864897
0.87335 0.566018 0.586099
1 0.620935 0.687922
0 0.683574 1
0 0.712764 1
0.234882 0.694575 1
0.935744 0.641535 0.782177
1 0.692638 0.799207
0 0.745769 1
0 0.784405 1
0.167376 0.826001 0.988434
0.89424 0.826719 0.796277
1 0.818921 0.737072
0 0.998672 1
0 1 1
0.00166323 1 0.938537
0.698711 1 0.608026
0.958755 0.998917 0.486671
0 0.927337 1
0 0.910018 1
0 0.88838 1
0.586114 0.78378 1
1 0.701411 0.991531
0 0.893767 1
0 0.878279 1
0 0.866209 1
0.639155 0.763912 1
1 0.690272 0.998398
0 0.877989 1
0 0.870604 1
0 0.860624 1
0.704631 0.761364 1
1 0.707362 0.999908
0 0.873732 1
0 0.881163 1
0 0.910643 1
0.782162 0.830427 1
1 0.797086 1
0 0.904891 1
0 0.928801 1
0 0.958587 1
0.696468 0.934874 1
0.98674 0.98999 0.906706
