public/LUTS/Autumn/Autumn_01.cube
TITLE "Generated by Resolve"
LUT_3D_SIZE 33
0 0 0
0.0330663 0 0
0.0661479 0 0
0.0992142 0 0
0.132296 0 0
0.165377 0 0
0.198459 0 0
0.231525 0 0
0.264607 0 0
0.297688 0 0
0.33077 0 0
0.363851 0 0
0.396918 0 0
0.429999 0 0
0.463081 0 0
0.496162 0 0
0.529244 0 0
0.56231 0 0
0.595392 0 0
0.628473 0 0
0.661555 0 0
0.694636 0 0
0.727703 0 0
0.760784 0 0
0.793866 0 0
0.826947 0 0
0.860029 0 0
0.893095 0 0
0.926177 0 0
0.959258 0 0
0.99234 0 0
1 0 0
1 0 0
0 0.0312352 0
0.0330663 0.0307469 0
0.0661479 0.0302434 0
0.0992142 0.0297551 0
0.132296 0.0292668 0
0.165377 0.0287633 0
0.198459 0.028275 0
0.231525 0.0277867 0
0.264607 0.0272831 0
0.297688 0.0267948 0
0.33077 0.0263066 0
0.363851 0.025803 0
0.396918 0.0253147 0
0.429999 0.0248264 0
0.463081 0.0243229 0
0.496162 0.0238346 0
0.529244 0.0233463 0
0.56231 0.0228428 0
0.595392 0.0223545 0
0.628473 0.0218509 0
0.661555 0.0213626 0
0.694636 0.0208743 0
0.727703 0.0203708 0
0.760784 0.0198825 0
0.793866 0.0193942 0
0.826947 0.0188907 0
0.860029 0.0184024 0
0.893095 0.0179141 0
0.926177 0.0174105 0
0.959258 0.0169223 0
0.99234 0.016434 0
1 0.0159304 0
1 0.0154421 0
0 0.0624857 0
0.0330663 0.0619974 0
0.0661479 0.0614939 0
0.0992142 0.0610056 0
0.132296 0.0605173 0
0.165377 0.0600137 0
0.198459 0.0595254 0
0.231525 0.0590372 0
0.264607 0.0585336 0
0.297688 0.0580453 0
0.33077 0.057557 0
0.363851 0.0570535 0
0.396918 0.0565652 0
0.429999 0.0560769 0
0.463081 0.0555734 0
0.496162 0.0550851 0
0.529244 0.0545968 0
0.56231 0.0540932 0
0.595392 0.0536049 0
0.628473 0.0531014 0
0.661555 0.0526131 0
0.694636 0.0521248 0
0.727703 0.0516213 0
0.760784 0.051133 0
0.793866 0.0506447 0
0.826947 0.0501411 0
0.860029 0.0496529 0
0.893095 0.0491646 0
0.926177 0.048661 0
0.959258 0.0481727 0
0.99234 0.0476844 0
1 0.0471809 0
1 0.0466926 0
0 0.0937362 0
0.0330663 0.0932479 0
0.0661479 0.0927443 0
0.0992142 0.092256 0
0.132296 0.0917678 0
0.165377 0.0912642 0
0.198459 0.0907759 0
0.231525 0.0902876 0
0.264607 0.0897841 0
0.297688 0.0892958 0
0.33077 0.0888075 0
0.363851 0.088304 0
0.396918 0.0878157 0
0.429999 0.0873274 0
0.463081 0.0868238 0
0.496162 0.0863355 0
0.529244 0.0858473 0
0.56231 0.0853437 0
0.595392 0.0848554 0
0.628473 0.0843519 0
0.661555 0.0838636 0
0.694636 0.0833753 0
0.727703 0.0828717 0
0.760784 0.0823835 0
0.793866 0.0818952 0
0.826947 0.0813916 0
0.860029 0.0809033 0
0.893095 0.080415 0
0.926177 0.0799115 0
0.959258 0.0794232 0
0.99234 0.0789349 0
1 0.0784314 0
1 0.0779431 0
0 0.124987 0
0.0330663 0.124498 0
0.0661479 0.123995 0
0.0992142 0.123507 0
0.132296 0.123018 0
0.165377 0.122515 0
0.198459 0.122026 0
0.231525 0.121538 0
0.264607 0.121035 0
0.297688 0.120546 0
0.33077 0.120058 0
0.363851 0.119554 0
0.396918 0.119066 0
0.429999 0.118578 0
0.463081 0.118074 0
0.496162 0.117586 0
0.529244 0.117098 0
0.56231 0.116594 0
0.595392 0.116106 0
0.628473 0.115602 0
0.661555 0.115114 0
0.694636 0.114626 0
0.727703 0.114122 0
0.760784 0.113634 0
0.793866 0.113146 0
0.826947 0.112642 0
0.860029 0.112154 0
0.893095 0.111666 0
0.926177 0.111162 0
0.959258 0.110674 0
0.99234 0.110185 0
1 0.109682 0
1 0.109194 0
0 0.156237 0
0.0330663 0.155749 0
0.0661479 0.155245 0
0.0992142 0.154757 0
0.132296 0.154269 0
0.165377 0.153765 0
0.198459 0.153277 0
0.231525 0.152789 0
0.264607 0.152285 0
0.297688 0.151797 0
0.33077 0.151308 0
0.363851 0.150805 0
0.396918 0.150317 0
0.429999 0.149828 0
0.463081 0.149325 0
0.496162 0.148836 0
0.529244 0.148348 0
0.56231 0.147845 0
0.595392 0.147356 0
0.628473 0.146853 0
0.661555 0.146365 0
0.694636 0.145876 0
0.727703 0.145373 0
0.760784 0.144884 0
0.793866 0.144396 0
0.826947 0.143893 0
0.860029 0.143404 0
0.893095 0.142916 0
0.926177 0.142412 0
0.959258 0.141924 0
0.99234 0.141436 0
1 0.140932 0
1 0.140444 0
0 0.187488 0
0.0330663 0.186999 0
0.0661479 0.186496 0
0.0992142 0.186007 0
0.132296 0.185519 0
0.165377 0.185016 0
0.198459 0.184527 0
0.231525 0.184039 0
0.264607 0.183536 0
0.297688 0.183047 0
0.33077 0.182559 0
0.363851 0.182055 0
0.396918 0.181567 0
0.429999 0.181079 0
0.463081 0.180575 0
0.496162 0.180087 0
0.529244 0.179599 0
0.56231 0.179095 0
0.595392 0.178607 0
0.628473 0.178103 0
0.661555 0.177615 0
0.694636 0.177127 0
0.727703 0.176623 0
0.760784 0.176135 0
0.793866 0.175647 0
0.826947 0.175143 0
0.860029 0.174655 0
0.893095 0.174166 0
0.926177 0.173663 0
0.959258 0.173175 0
0.99234 0.172686 0
1 0.172183 0
1 0.171695 0
0 0.218738 0
0.0330663 0.21825 0
0.0661479 0.217746 0
0.0992142 0.217258 0
0.132296 0.21677 0
0.165377 0.216266 0
0.198459 0.215778 0
0.231525 0.21529 0
0.264607 0.214786 0
0.297688 0.214298 0
0.33077 0.213809 0
0.363851 0.213306 0
0.396918 0.212818 0
0.429999 0.212329 0
0.463081 0.211826 0
0.496162 0.211337 0
0.529244 0.210849 0
0.56231 0.210346 0
0.595392 0.209857 0
0.628473 0.209354 0
0.661555 0.208865 0
0.694636 0.208377 0
0.727703 0.207874 0
0.760784 0.207385 0
0.793866 0.206897 0
0.826947 0.206394 0
0.860029 0.205905 0
0.893095 0.205417 0
0.926177 0.204913 0
0.959258 0.204425 0
0.99234 0.203937 0
1 0.203433 0
1 0.202945 0
0 0.249989 0
0.0330663 0.2495 0
0.0661479 0.248997 0
0.0992142 0.248508 0
0.132296 0.24802 0
0.165377 0.247517 0
0.198459 0.247028 0
0.231525 0.24654 0
0.264607 0.246036 0
0.297688 0.245548 0
0.33077 0.24506 0
0.363851 0.244556 0
0.396918 0.244068 0
0.429999 0.24358 0
0.463081 0.243076 0
0.496162 0.242588 0
0.529244 0.2421 0
0.56231 0.241596 0
0.595392 0.241108 0
0.628473 0.240604 0
0.661555 0.240116 0
0.694636 0.239628 0
0.727703 0.239124 0
0.760784 0.238636 0
0.793866 0.238148 0
0.826947 0.237644 0
0.860029 0.237156 0
0.893095 0.236667 0
0.926177 0.236164 0
0.959258 0.235676 0
0.99234 0.235187 0
1 0.234684 0
1 0.234195 0
0 0.281239 0
0.0330663 0.280751 0
0.0661479 0.280247 0
0.0992142 0.279759 0
0.132296 0.279271 0
0.165377 0.278767 0
0.198459 0.278279 0
0.231525 0.27779 0
0.264607 0.277287 0
0.297688 0.276799 0
0.33077 0.27631 0
0.363851 0.275807 0
0.396918 0.275319 0
0.429999 0.27483 0
0.463081 0.274327 0
0.496162 0.273838 0
0.529244 0.27335 0
0.56231 0.272847 0
0.595392 0.272358 0
0.628473 0.271855 0
0.661555 0.271366 0
0.694636 0.270878 0
0.727703 0.270375 0
0.760784 0.269886 0
0.793866 0.269398 0
0.826947 0.268894 0
0.860029 0.268406 0
0.893095 0.267918 0
0.926177 0.267414 0
0.959258 0.266926 0
0.99234 0.266438 0
1 0.265934 0
1 0.265446 0
0 0.31249 0
0.0330663 0.312001 0
0.0661479 0.311498 0
0.0992142 0.311009 0
0.132296 0.310521 0
0.165377 0.310018 0
0.198459 0.309529 0
0.231525 0.309041 0
0.264607 0.308537 0
0.297688 0.308049 0
0.33077 0.307561 0
0.363851 0.307057 0
0.396918 0.306569 0
0.429999 0.306081 0
0.463081 0.305577 0
0.496162 0.305089 0
0.529244 0.304601 0
0.56231 0.304097 0
0.595392 0.303609 0
0.628473 0.303105 0
0.661555 0.302617 0
0.694636 0.302129 0
0.727703 0.301625 0
0.760784 0.301137 0
0.793866 0.300649 0
0.826947 0.300145 0
0.860029 0.299657 0
0.893095 0.299168 0
0.926177 0.298665 0
0.959258 0.298177 0
0.99234 0.297688 0
1 0.297185 0
1 0.296696 0
0 0.34374 0
0.0330663 0.343252 0
0.0661479 0.342748 0
0.0992142 0.34226 0
0.132296 0.341772 0
0.165377 0.341268 0
0.198459 0.34078 0
0.231525 0.340291 0
0.264607 0.339788 0
0.297688 0.3393 0
0.33077 0.338811 0
0.363851 0.338308 0
0.396918 0.337819 0
0.429999 0.337331 0
0.463081 0.336828 0
0.496162 0.336339 0
0.529244 0.335851 0
0.56231 0.335348 0
0.595392 0.334859 0
0.628473 0.334356 0
0.661555 0.333867 0
0.694636 0.333379 0
0.727703 0.332876 0
0.760784 0.332387 0
0.793866 0.331899 0
0.826947 0.331395 0
0.860029 0.330907 0
0.893095 0.330419 0
0.926177 0.329915 0
0.959258 0.329427 0
0.99234 0.328939 0
1 0.328435 0
1 0.327947 0
0 0.37499 0
0.0330663 0.374502 0
0.0661479 0.373999 0
0.0992142 0.37351 0
0.132296 0.373022 0
0.165377 0.372519 0
0.198459 0.37203 0
0.231525 0.371542 0
0.264607 0.371038 0
0.297688 0.37055 0
0.33077 0.370062 0
0.363851 0.369558 0
0.396918 0.36907 0
0.429999 0.368582 0
0.463081 0.368078 0
0.496162 0.36759 0
0.529244 0.367102 0
0.56231 0.366598 0
0.595392 0.36611 0
0.628473 0.365606 0
0.661555 0.365118 0
0.694636 0.36463 0
0.727703 0.364126 0
0.760784 0.363638 0
0.793866 0.363149 0
0.826947 0.362646 0
0.860029 0.362158 0
0.893095 0.361669 0
0.926177 0.361166 0
0.959258 0.360678 0
0.99234 0.360189 0
1 0.359686 0
1 0.359197 0
0 0.406241 0
0.0330663 0.405753 0
0.0661479 0.405249 0
0.0992142 0.404761 0
0.132296 0.404273 0
0.165377 0.403769 0
0.198459 0.403281 0
0.231525 0.402792 0
0.264607 0.402289 0
0.297688 0.401801 0
0.33077 0.401312 0
0.363851 0.400809 0
0.396918 0.40032 0
0.429999 0.399832 0
0.463081 0.399329 0
0.496162 0.39884 0
0.529244 0.398352 0
0.56231 0.397848 0
0.595392 0.39736 0
0.628473 0.396857 0
0.661555 0.396368 0
0.694636 0.39588 0
0.727703 0.395377 0
0.760784 0.394888 0
0.793866 0.3944 0
0.826947 0.393896 0
0.860029 0.393408 0
0.893095 0.39292 0
0.926177 0.392416 0
0.959258 0.391928 0
0.99234 0.39144 0
1 0.390936 0
1 0.390448 0
0 0.437491 0
0.0330663 0.437003 0
0.0661479 0.4365 0
0.0992142 0.436011 0
0.132296 0.435523 0
0.165377 0.435019 0
0.198459 0.434531 0
0.231525 0.434043 0
0.264607 0.433539 0
0.297688 0.433051 0
0.33077 0.432563 0
0.363851 0.432059 0
0.396918 0.431571 0
0.429999 0.431083 0
0.463081 0.430579 0
0.496162 0.430091 0
0.529244 0.429603 0
0.56231 0.429099 0
0.595392 0.428611 0
0.628473 0.428107 0
0.661555 0.427619 0
0.694636 0.427131 0
0.727703 0.426627 0
0.760784 0.426139 0
0.793866 0.42565 0
0.826947 0.425147 0
0.860029 0.424659 0
0.893095 0.42417 0
0.926177 0.423667 0
0.959258 0.423178 0
0.99234 0.42269 0
1 0.422187 0
1 0.421698 0
0 0.468742 0
0.0330663 0.468254 0
0.0661479 0.46775 0
0.0992142 0.467262 0
0.132296 0.466773 0
0.165377 0.46627 0
0.198459 0.465782 0
0.231525 0.465293 0
0.264607 0.46479 0
0.297688 0.464302 0
0.33077 0.463813 0
0.363851 0.46331 0
0.396918 0.462821 0
0.429999 0.462333 0
0.463081 0.46183 0
0.496162 0.461341 0
0.529244 0.460853 0
0.56231 0.460349 0
0.595392 0.459861 0
0.628473 0.459358 0
0.661555 0.458869 0
0.694636 0.458381 0
0.727703 0.457877 0
0.760784 0.457389 0
0.793866 0.456901 0
0.826947 0.456397 0
0.860029 0.455909 0
0.893095 0.455421 0
0.926177 0.454917 0
0.959258 0.454429 0
0.99234 0.453941 0
1 0.453437 0
1 0.452949 0
0 0.499992 0
0.0330663 0.499504 0
0.0661479 0.499001 0
0.0992142 0.498512 0
0.132296 0.498024 0
0.165377 0.49752 0
0.198459 0.497032 0
0.231525 0.496544 0
0.264607 0.49604 0
0.297688 0.495552 0
0.33077 0.495064 0
0.363851 0.49456 0
0.396918 0.494072 0
0.429999 0.493584 0
0.463081 0.49308 0
0.496162 0.492592 0
0.529244 0.492103 0
0.56231 0.4916 0
0.595392 0.491112 0
0.628473 0.490608 0
0.661555 0.49012 0
0.694636 0.489632 0
0.727703 0.489128 0
0.760784 0.48864 0
0.793866 0.488151 0
0.826947 0.487648 0
0.860029 0.48716 0
0.893095 0.486671 0
0.926177 0.486168 0
0.959258 0.485679 0
0.99234 0.485191 0
1 0.484688 0
1 0.484199 0
0 0.531243 0
0.0330663 0.530755 0
0.0661479 0.530251 0
0.0992142 0.529763 0
0.132296 0.529274 0
0.165377 0.528771 0
0.198459 0.528283 0
0.231525 0.527794 0
0.264607 0.527291 0
0.297688 0.526802 0
0.33077 0.526314 0
0.363851 0.525811 0
0.396918 0.525322 0
0.429999 0.524834 0
0.463081 0.52433 0
0.496162 0.523842 0
0.529244 0.523354 0
0.56231 0.52285 0
0.595392 0.522362 0
0.628473 0.521859 0
0.661555 0.52137 0
0.694636 0.520882 0
0.727703 0.520378 0
0.760784 0.51989 0
0.793866 0.519402 0
0.826947 0.518898 0
0.860029 0.51841 0
0.893095 0.517922 0
0.926177 0.517418 0
0.959258 0.51693 0
0.99234 0.516442 0
1 0.515938 0
1 0.51545 0
0 0.562493 0
0.0330663 0.562005 0
0.0661479 0.561502 0
0.0992142 0.561013 0
0.132296 0.560525 0
0.165377 0.560021 0
0.198459 0.559533 0
0.231525 0.559045 0
0.264607 0.558541 0
0.297688 0.558053 0
0.33077 0.557565 0
0.363851 0.557061 0
0.396918 0.556573 0
0.429999 0.556085 0
0.463081 0.555581 0
0.496162 0.555093 0
0.529244 0.554604 0
0.56231 0.554101 0
0.595392 0.553613 0
0.628473 0.553109 0
0.661555 0.552621 0
0.694636 0.552132 0
0.727703 0.551629 0
0.760784 0.551141 0
0.793866 0.550652 0
0.826947 0.550149 0
0.860029 0.549661 0
0.893095 0.549172 0
0.926177 0.548669 0
0.959258 0.54818 0
0.99234 0.547692 0
1 0.547189 0
1 0.5467 0
0 0.593744 0
0.0330663 0.593256 0
0.0661479 0.592752 0
0.0992142 0.592264 0
0.132296 0.591775 0
0.165377 0.591272 0
0.198459 0.590784 0
0.231525 0.590295 0
0.264607 0.589792 0
0.297688 0.589303 0
0.33077 0.588815 0
0.363851 0.588312 0
0.396918 0.587823 0
0.429999 0.587335 0
0.463081 0.586831 0
0.496162 0.586343 0
0.529244 0.585855 0
0.56231 0.585351 0
0.595392 0.584863 0
0.628473 0.58436 0
0.661555 0.583871 0
0.694636 0.583383 0
0.727703 0.582879 0
0.760784 0.582391 0
0.793866 0.581903 0
0.826947 0.581399 0
0.860029 0.580911 0
0.893095 0.580423 0
0.926177 0.579919 0
0.959258 0.579431 0
0.99234 0.578943 0
1 0.578439 0
1 0.577951 0
0 0.624994 0
0.0330663 0.624506 0
0.0661479 0.624002 0
0.0992142 0.623514 0
0.132296 0.623026 0
0.165377 0.622522 0
0.198459 0.622034 0
0.231525 0.621546 0
0.264607 0.621042 0
0.297688 0.620554 0
0.33077 0.620066 0
0.363851 0.619562 0
0.396918 0.619074 0
0.429999 0.618585 0
0.463081 0.618082 0
0.496162 0.617594 0
0.529244 0.617105 0
0.56231 0.616602 0
0.595392 0.616114 0
0.628473 0.61561 0
0.661555 0.615122 0
0.694636 0.614633 0
0.727703 0.61413 0
0.760784 0.613642 0
0.793866 0.613153 0
0.826947 0.61265 0
0.860029 0.612161 0
0.893095 0.611673 0
0.926177 0.61117 0
0.959258 0.610681 0
0.99234 0.610193 0
1 0.609689 0
1 0.609201 0
0 0.656245 0
0.0330663 0.655756 0
0.0661479 0.655253 0
0.0992142 0.654765 0
0.132296 0.654276 0
0.165377 0.653773 0
0.198459 0.653284 0
0.231525 0.652796 0
0.264607 0.652293 0
0.297688 0.651804 0
0.33077 0.651316 0
0.363851 0.650813 0
0.396918 0.650324 0
0.429999 0.649836 0
0.463081 0.649332 0
0.496162 0.648844 0
0.529244 0.648356 0
0.56231 0.647852 0
0.595392 0.647364 0
0.628473 0.64686 0
0.661555 0.646372 0
0.694636 0.645884 0
0.727703 0.64538 0
0.760784 0.644892 0
0.793866 0.644404 0
0.826947 0.6439 0
0.860029 0.643412 0
0.893095 0.642924 0
0.926177 0.64242 0
0.959258 0.641932 0
0.99234 0.641443 0
1 0.64094 0
1 0.640452 0
0 0.687495 0
0.0330663 0.687007 0
0.0661479 0.686503 0
0.0992142 0.686015 0
0.132296 0.685527 0
0.165377 0.685023 0
0.198459 0.684535 0
0.231525 0.684047 0
0.264607 0.683543 0
0.297688 0.683055 0
0.33077 0.682567 0
0.363851 0.682063 0
0.396918 0.681575 0
0.429999 0.681086 0
0.463081 0.680583 0
0.496162 0.680095 0
0.529244 0.679606 0
0.56231 0.679103 0
0.595392 0.678614 0
0.628473 0.678111 0
0.661555 0.677623 0
0.694636 0.677134 0
0.727703 0.676631 0
0.760784 0.676143 0
0.793866 0.675654 0
0.826947 0.675151 0
0.860029 0.674662 0
0.893095 0.674174 0
0.926177 0.673671 0
0.959258 0.673182 0
0.99234 0.672694 0
1 0.67219 0
1 0.671702 0
0 0.718746 0
0.0330663 0.718257 0
0.0661479 0.717754 0
0.0992142 0.717266 0
0.132296 0.716777 0
0.165377 0.716274 0
0.198459 0.715785 0
0.231525 0.715297 0
0.264607 0.714794 0
0.297688 0.714305 0
0.33077 0.713817 0
0.363851 0.713314 0
0.396918 0.712825 0
0.429999 0.712337 0
0.463081 0.711833 0
0.496162 0.711345 0
0.529244 0.710857 0
0.56231 0.710353 0
0.595392 0.709865 0
0.628473 0.709361 0
0.661555 0.708873 0
0.694636 0.708385 0
0.727703 0.707881 0
0.760784 0.707393 0
0.793866 0.706905 0
0.826947 0.706401 0
0.860029 0.705913 0
0.893095 0.705425 0
0.926177 0.704921 0
0.959258 0.704433 0
0.99234 0.703944 0
1 0.703441 0
1 0.702953 0
0 0.749996 0
0.0330663 0.749508 0
0.0661479 0.749004 0
0.0992142 0.748516 0
0.132296 0.748028 0
0.165377 0.747524 0
0.198459 0.747036 0
0.231525 0.746548 0
0.264607 0.746044 0
0.297688 0.745556 0
0.33077 0.745068 0
0.363851 0.744564 0
0.396918 0.744076 0
0.429999 0.743587 0
0.463081 0.743084 0
0.496162 0.742596 0
0.529244 0.742107 0
0.56231 0.741604 0
0.595392 0.741115 0
0.628473 0.740612 0
0.661555 0.740124 0
0.694636 0.739635 0
0.727703 0.739132 0
0.760784 0.738643 0
0.793866 0.738155 0
0.826947 0.737652 0
0.860029 0.737163 0
0.893095 0.736675 0
0.926177 0.736171 0
0.959258 0.735683 0
0.99234 0.735195 0
1 0.734691 0
1 0.734203 0
0 0.781247 0
0.0330663 0.780758 0
0.0661479 0.780255 0
0.0992142 0.779767 0
0.132296 0.779278 0
0.165377 0.778775 0
0.198459 0.778286 0
0.231525 0.777798 0
0.264607 0.777295 0
0.297688 0.776806 0
0.33077 0.776318 0
0.363851 0.775814 0
0.396918 0.775326 0
0.429999 0.774838 0
0.463081 0.774334 0
0.496162 0.773846 0
0.529244 0.773358 0
0.56231 0.772854 0
0.595392 0.772366 0
0.628473 0.771862 0
0.661555 0.771374 0
0.694636 0.770886 0
0.727703 0.770382 0
0.760784 0.769894 0
0.793866 0.769406 0
0.826947 0.768902 0
0.860029 0.768414 0
0.893095 0.767926 0
0.926177 0.767422 0
0.959258 0.766934 0
0.99234 0.766445 0
1 0.765942 0
1 0.765454 0
0 0.812497 0
0.0330663 0.812009 0
0.0661479 0.811505 0
0.0992142 0.811017 0
0.132296 0.810529 0
0.165377 0.810025 0
0.198459 0.809537 0
0.231525 0.809049 0
0.264607 0.808545 0
0.297688 0.808057 0
0.33077 0.807568 0
0.363851 0.807065 0
0.396918 0.806577 0
0.429999 0.806088 0
0.463081 0.805585 0
0.496162 0.805097 0
0.529244 0.804608 0
0.56231 0.804105 0
0.595392 0.803616 0
0.628473 0.803113 0
0.661555 0.802625 0
0.694636 0.802136 0
0.727703 0.801633 0
0.760784 0.801144 0
0.793866 0.800656 0
0.826947 0.800153 0
0.860029 0.799664 0
0.893095 0.799176 0
0.926177 0.798672 0
0.959258 0.798184 0
0.99234 0.797696 0
1 0.797192 0
1 0.796704 0
0 0.843748 0
0.0330663 0.843259 0
0.0661479 0.842756 0
0.0992142 0.842268 0
0.132296 0.841779 0
0.165377 0.841276 0
0.198459 0.840787 0
0.231525 0.840299 0
0.264607 0.839796 0
