public/LUTS/Balanced/Balanced_03.cube
TITLE "Generated by Resolve"
LUT_3D_SIZE 9
0.0153201 0.0153201 0.0153201
0.134203 0.0153201 0.0153201
0.253651 0.0153201 0.0153201
0.375509 0.0153201 0.0153201
0.500328 0.0153201 0.0153201
0.617533 0.0153201 0.0153201
0.729809 0.0153201 0.0153201
0.842176 0.0153201 0.0153201
0.954101 0.0153201 0.0153201
0.0153201 0.134203 0.0153201
0.134203 0.134203 0.0153201
0.253651 0.134203 0.0153201
0.375509 0.134203 0.0153201
0.500328 0.134203 0.0153201
0.617533 0.134203 0.0153201
0.729809 0.134203 0.0153201
0.842176 0.134203 0.0153201
0.954101 0.134203 0.0153201
0.0153201 0.253651 0.0153201
0.134203 0.253651 0.0153201
0.253651 0.253651 0.0153201
0.375509 0.253651 0.0153201
0.500328 0.253651 0.0153201
0.617533 0.253651 0.0153201
0.729809 0.253651 0.0153201
0.842176 0.253651 0.0153201
0.954101 0.253651 0.0153201
0.0153201 0.375509 0.0153201
0.134203 0.375509 0.0153201
0.253651 0.375509 0.0153201
0.375509 0.375509 0.0153201
0.500328 0.375509 0.0153201
0.617533 0.375509 0.0153201
0.729809 0.375509 0.0153201
0.842176 0.375509 0.0153201
0.954101 0.375509 0.0153201
0.0153201 0.500328 0.0153201
0.134203 0.500328 0.0153201
0.253651 0.500328 0.0153201
0.375509 0.500328 0.0153201
0.500328 0.500328 0.0153201
0.617533 0.500328 0.0153201
0.729809 0.500328 0.0153201
0.842176 0.500328 0.0153201
0.954101 0.500328 0.0153201
0.0153201 0.617533 0.0153201
0.134203 0.617533 0.0153201
0.253651 0.617533 0.0153201
0.375509 0.617533 0.0153201
0.500328 0.617533 0.0153201
0.617533 0.617533 0.0153201
0.729809 0.617533 0.0153201
0.842176 0.617533 0.0153201
0.954101 0.617533 0.0153201
0.0153201 0.729809 0.0153201
0.134203 0.729809 0.0153201
0.253651 0.729809 0.0153201
0.375509 0.729809 0.0153201
0.500328 0.729809 0.0153201
0.617517 0.729809 0.0153201
0.729809 0.729809 0.0153201
0.842176 0.729809 0.0153201
0.954101 0.729809 0.0153201
0.0153201 0.842176 0.0153201
0.134203 0.842176 0.0153201
0.253651 0.842176 0.0153201
0.375509 0.842176 0.0153201
0.500328 0.842176 0.0153201
0.617533 0.842176 0.0153201
0.729809 0.842176 0.0153201
0.842176 0.842176 0.0153201
0.954101 0.842176 0.0153201
0.0153201 0.954101 0.0153201
0.134203 0.954101 0.0153201
0.253651 0.954101 0.0153201
0.375509 0.954101 0.0153201
0.500328 0.954101 0.0153201
0.617533 0.954101 0.0153201
0.729809 0.954101 0.0153201
0.842176 0.954101 0.0153201
0.954101 0.954101 0.0153201
0.0153201 0.0153201 0.134203
0.134203 0.0153201 0.134203
0.253651 0.0153201 0.134203
0.375509 0.0153201 0.134203
0.500328 0.0153201 0.134203
0.617533 0.0153201 0.134203
0.729809 0.0153201 0.134203
0.842176 0.0153201 0.134203
0.954101 0.0153201 0.134203
0.0153201 0.134203 0.134203
0.134203 0.134203 0.134203
0.253651 0.134203 0.134203
0.375509 0.134203 0.134203
0.500328 0.134203 0.134203
0.617533 0.134203 0.134203
0.729809 0.134203 0.134203
0.842176 0.134203 0.134203
0.954101 0.134203 0.134203
0.0153201 0.253651 0.134203
0.134203 0.253651 0.134203
0.253651 0.253651 0.134203
0.375509 0.253651 0.134203
0.500328 0.253651 0.134203
0.617533 0.253651 0.134203
0.729809 0.253651 0.134203
0.842176 0.253651 0.134203
0.954101 0.253651 0.134203
0.0153201 0.375509 0.134203
0.134203 0.375509 0.134203
0.253651 0.375509 0.134203
0.375509 0.375509 0.134203
0.500328 0.375509 0.134203
0.617533 0.375509 0.134203
0.729809 0.375509 0.134203
0.842176 0.375509 0.134203
0.954101 0.375509 0.134203
0.0153201 0.500328 0.134203
0.134203 0.500328 0.134203
0.253651 0.500328 0.134203
0.375509 0.500328 0.134203
0.500328 0.500328 0.134203
0.617533 0.500328 0.134203
0.729809 0.500328 0.134203
0.842176 0.500328 0.134203
0.954101 0.500328 0.134203
0.0153201 0.617533 0.134203
0.134203 0.617533 0.134203
0.253651 0.617533 0.134203
0.375509 0.617533 0.134203
0.500328 0.617533 0.134203
0.617533 0.617533 0.134203
0.729809 0.617517 0.134203
0.842176 0.617533 0.134203
0.954101 0.617533 0.134203
0.0153201 0.729809 0.134203
0.134203 0.729809 0.134203
0.253651 0.729809 0.134203
0.375509 0.729809 0.134203
0.500328 0.729809 0.134203
0.617533 0.729809 0.134203
0.729809 0.729809 0.134203
0.842176 0.729809 0.134203
0.954101 0.729809 0.134203
0.0153201 0.842176 0.134203
0.134203 0.842176 0.134203
0.253651 0.842176 0.134203
0.375509 0.842176 0.134203
0.500328 0.842176 0.134203
0.617533 0.842176 0.134203
0.729809 0.842176 0.134203
0.842176 0.842176 0.134203
0.954101 0.842176 0.134203
0.0153201 0.954101 0.134203
0.134203 0.954101 0.134203
0.253651 0.954101 0.134203
0.375509 0.954101 0.134203
0.500328 0.954101 0.134203
0.617533 0.954101 0.134203
0.729809 0.954101 0.134203
0.842176 0.954101 0.134203
0.954101 0.954101 0.134203
0.0153201 0.0153201 0.253651
0.134203 0.0153201 0.253651
0.253651 0.0153201 0.253651
0.375509 0.0153201 0.253651
0.500328 0.0153201 0.253651
0.617533 0.0153201 0.253651
0.729809 0.0153201 0.253651
0.842176 0.0153201 0.253651
0.954101 0.0153201 0.253651
0.0153201 0.134203 0.253651
0.134203 0.134203 0.253651
0.253651 0.134203 0.253651
0.375509 0.134203 0.253651
0.500328 0.134203 0.253651
0.617533 0.134203 0.253651
0.729809 0.134203 0.253651
0.842176 0.134203 0.253651
0.954101 0.134203 0.253651
0.0153201 0.253651 0.253651
0.134203 0.253651 0.253651
0.253651 0.253651 0.253651
0.375509 0.253651 0.253651
0.500328 0.253651 0.253651
0.617533 0.253651 0.253651
0.729809 0.253651 0.253651
0.842176 0.253651 0.253651
0.954101 0.253651 0.253651
0.0153201 0.375509 0.253651
0.134203 0.375509 0.253651
0.253651 0.375509 0.253651
0.375509 0.375509 0.253651
0.500328 0.375509 0.253651
0.617533 0.375509 0.253651
0.729809 0.375509 0.253651
0.842176 0.375509 0.253651
0.954101 0.375509 0.253651
0.0153201 0.500328 0.253651
0.134203 0.500328 0.253651
0.253651 0.500328 0.253651
0.375509 0.500328 0.253651
0.500328 0.500328 0.253651
0.617533 0.500328 0.253651
0.729809 0.500328 0.253651
0.842176 0.500328 0.253651
0.954101 0.500328 0.253651
0.0153201 0.617533 0.253651
0.134203 0.617533 0.253651
0.253651 0.617533 0.253651
0.375509 0.617517 0.253651
0.500328 0.617533 0.253651
0.617533 0.617533 0.253651
0.729809 0.617517 0.253651
0.842176 0.617533 0.253651
0.954101 0.617533 0.253651
0.0153201 0.729809 0.253651
0.134203 0.729809 0.253651
0.253651 0.729809 0.253651
0.375509 0.729809 0.253651
0.500328 0.729809 0.253651
0.617517 0.729809 0.253651
0.729809 0.729809 0.253651
0.842176 0.729809 0.253651
0.954101 0.729809 0.253651
0.0153201 0.842176 0.253651
0.134203 0.842176 0.253651
0.253651 0.842176 0.253651
0.375509 0.842176 0.253651
0.500328 0.842176 0.253651
0.617533 0.842176 0.253651
0.729809 0.842176 0.253651
0.842176 0.842176 0.253651
0.954101 0.842176 0.253651
0.0153201 0.954101 0.253651
0.134203 0.954101 0.253651
0.253651 0.954101 0.253651
0.375509 0.954101 0.253651
0.500328 0.954101 0.253651
0.617533 0.954101 0.253651
0.729809 0.954101 0.253651
0.842176 0.954101 0.253651
0.954101 0.954101 0.253651
0.0153201 0.0153201 0.375509
0.134203 0.0153201 0.375509
0.253651 0.0153201 0.375509
0.375509 0.0153201 0.375509
0.500328 0.0153201 0.375509
0.617533 0.0153201 0.375509
0.729809 0.0153201 0.375509
0.842176 0.0153201 0.375509
0.954101 0.0153201 0.375509
0.0153201 0.134203 0.375509
0.134203 0.134203 0.375509
0.253651 0.134203 0.375509
0.375509 0.134203 0.375509
0.500328 0.134203 0.375509
0.617533 0.134203 0.375509
0.729809 0.134203 0.375509
0.842176 0.134203 0.375509
0.954101 0.134203 0.375509
0.0153201 0.253651 0.375509
0.134203 0.253651 0.375509
0.253651 0.253651 0.375509
0.375509 0.253651 0.375509
0.500328 0.253651 0.375509
0.617533 0.253651 0.375509
0.729809 0.253651 0.375509
0.842176 0.253651 0.375509
0.954101 0.253651 0.375509
0.0153201 0.375509 0.375509
0.134203 0.375509 0.375509
0.253651 0.375509 0.375509
0.375509 0.375509 0.375509
0.500328 0.375509 0.375509
0.617533 0.375509 0.375509
0.729809 0.375509 0.375509
0.842176 0.375509 0.375509
0.954101 0.375509 0.375509
0.0153201 0.500328 0.375509
0.134203 0.500328 0.375509
0.253651 0.500328 0.375509
0.375509 0.500328 0.375509
0.500328 0.500328 0.375509
0.617533 0.500328 0.375509
0.729809 0.500328 0.375509
0.842176 0.500328 0.375509
0.954101 0.500328 0.375509
0.0153201 0.617533 0.375509
0.134203 0.617533 0.375509
0.253651 0.617533 0.375509
0.375509 0.617517 0.375509
0.500328 0.617533 0.375509
0.617533 0.617533 0.375509
0.729809 0.617517 0.375509
0.842176 0.617533 0.375509
0.954101 0.617533 0.375509
0.0153201 0.729809 0.375509
0.134203 0.729809 0.375509
0.253651 0.729809 0.375509
0.375509 0.729809 0.375509
0.500328 0.729809 0.375509
0.617517 0.729809 0.375509
0.729809 0.729809 0.375509
0.842176 0.729809 0.375509
0.954101 0.729809 0.375509
0.0153201 0.842176 0.375509
0.134203 0.842176 0.375509
0.253651 0.842176 0.375509
0.375509 0.842176 0.375509
0.500328 0.842176 0.375509
0.617533 0.842176 0.375509
0.729809 0.842176 0.375509
0.842176 0.842176 0.375509
0.954101 0.842176 0.375509
0.0153201 0.954101 0.375509
0.134203 0.954101 0.375509
0.253651 0.954101 0.375509
0.375509 0.954101 0.375509
0.500328 0.954101 0.375509
0.617533 0.954101 0.375509
0.729809 0.954101 0.375509
0.842176 0.954101 0.375509
0.954101 0.954101 0.375509
0.0153201 0.0153201 0.500328
0.134203 0.0153201 0.500328
0.253651 0.0153201 0.500328
0.375509 0.0153201 0.500328
0.500328 0.0153201 0.500328
0.617533 0.0153201 0.500328
0.729809 0.0153201 0.500328
0.842176 0.0153201 0.500328
0.954101 0.0153201 0.500328
0.0153201 0.134203 0.500328
0.134203 0.134203 0.500328
0.253651 0.134203 0.500328
0.375509 0.134203 0.500328
0.500328 0.134203 0.500328
0.617533 0.134203 0.500328
0.729809 0.134203 0.500328
0.842176 0.134203 0.500328
0.954101 0.134203 0.500328
0.0153201 0.253651 0.500328
0.134203 0.253651 0.500328
0.253651 0.253651 0.500328
0.375509 0.253651 0.500328
0.500328 0.253651 0.500328
0.617533 0.253651 0.500328
0.729809 0.253651 0.500328
0.842176 0.253651 0.500328
0.954101 0.253651 0.500328
0.0153201 0.375509 0.500328
0.134203 0.375509 0.500328
0.253651 0.375509 0.500328
0.375509 0.375509 0.500328
0.500328 0.375509 0.500328
0.617533 0.375509 0.500328
0.729809 0.375509 0.500328
0.842176 0.375509 0.500328
0.954101 0.375509 0.500328
0.0153201 0.500328 0.500328
0.134203 0.500328 0.500328
0.253651 0.500328 0.500328
0.375509 0.500328 0.500328
0.500328 0.500328 0.500328
0.617533 0.500328 0.500328
0.729809 0.500328 0.500328
0.842176 0.500328 0.500328
0.954101 0.500328 0.500328
0.0153201 0.617533 0.500328
0.134203 0.617533 0.500328
0.253651 0.617533 0.500328
0.375509 0.617533 0.500328
0.500328 0.617533 0.500328
0.617533 0.617533 0.500328
0.729809 0.617517 0.500328
0.842176 0.617533 0.500328
0.954101 0.617533 0.500328
0.0153201 0.729809 0.500328
0.134203 0.729809 0.500328
0.253651 0.729809 0.500328
0.375509 0.729809 0.500328
0.500328 0.729809 0.500328
0.617517 0.729809 0.500328
0.729809 0.729809 0.500328
0.842176 0.729809 0.500328
0.954101 0.729809 0.500328
0.0153201 0.842176 0.500328
0.134203 0.842176 0.500328
0.253651 0.842176 0.500328
0.375509 0.842176 0.500328
0.500328 0.842176 0.500328
0.617533 0.842176 0.500328
0.729809 0.842176 0.500328
0.842176 0.842176 0.500328
0.954101 0.842176 0.500328
0.0153201 0.954101 0.500328
0.134203 0.954101 0.500328
0.253651 0.954101 0.500328
0.375509 0.954101 0.500328
0.500328 0.954101 0.500328
0.617533 0.954101 0.500328
0.729809 0.954101 0.500328
0.842176 0.954101 0.500328
0.954101 0.954101 0.500328
0.0153201 0.0153201 0.617533
0.134203 0.0153201 0.617533
0.253651 0.0153201 0.617533
0.375509 0.0153201 0.617533
0.500328 0.0153201 0.617533
0.617533 0.0153201 0.617533
0.729809 0.0153201 0.617533
0.842176 0.0153201 0.617533
0.954101 0.0153201 0.617533
0.0153201 0.134203 0.617533
0.134203 0.134203 0.617533
0.253651 0.134203 0.617533
0.375509 0.134203 0.617533
0.500328 0.134203 0.617533
0.617533 0.134203 0.617533
0.729809 0.134203 0.617533
0.842176 0.134203 0.617533
0.954101 0.134203 0.617533
0.0153201 0.253651 0.617533
0.134203 0.253651 0.617533
0.253651 0.253651 0.617533
0.375509 0.253651 0.617533
0.500328 0.253651 0.617533
0.617533 0.253651 0.617533
0.729809 0.253651 0.617533
0.842176 0.253651 0.617533
0.954101 0.253651 0.617533
0.0153201 0.375509 0.617533
0.134203 0.375509 0.617533
0.253651 0.375509 0.617533
0.375509 0.375509 0.617533
0.500328 0.375509 0.617533
0.617533 0.375509 0.617533
0.729809 0.375509 0.617533
0.842176 0.375509 0.617533
0.954101 0.375509 0.617533
0.0153201 0.500328 0.617533
0.134203 0.500328 0.617533
0.253651 0.500328 0.617533
0.375509 0.500328 0.617533
0.500328 0.500328 0.617533
0.617533 0.500328 0.617533
0.729809 0.500328 0.617533
0.842176 0.500328 0.617533
0.954101 0.500328 0.617533
0.0153201 0.617533 0.617533
0.134203 0.617533 0.617533
0.253651 0.617533 0.617533
0.375509 0.617517 0.617517
0.500328 0.617533 0.617533
0.617533 0.617533 0.617533
0.729809 0.617517 0.617517
0.842176 0.617533 0.617533
0.954101 0.617533 0.617533
0.0153201 0.729809 0.617517
0.134203 0.729809 0.617533
0.253651 0.729809 0.617517
0.375509 0.729809 0.617517
0.500328 0.729809 0.617517
0.617533 0.729809 0.617533
0.729809 0.729809 0.617517
0.842176 0.729809 0.617517
0.954101 0.729809 0.617517
0.0153201 0.842176 0.617533
0.134203 0.842176 0.617533
0.253651 0.842176 0.617533
0.375509 0.842176 0.617533
0.500328 0.842176 0.617533
0.617533 0.842176 0.617533
0.729809 0.842176 0.617517
0.842176 0.842176 0.617533
0.954101 0.842176 0.617533
0.0153201 0.954101 0.617533
0.134203 0.954101 0.617533
0.253651 0.954101 0.617533
0.375509 0.954101 0.617533
0.500328 0.954101 0.617533
0.617533 0.954101 0.617533
0.729809 0.954101 0.617517
0.842176 0.954101 0.617533
0.954101 0.954101 0.617533
0.0153201 0.0153201 0.729809
0.134203 0.0153201 0.729809
0.253651 0.0153201 0.729809
0.375509 0.0153201 0.729809
0.500328 0.0153201 0.729809
0.617533 0.0153201 0.729809
0.729809 0.0153201 0.729809
0.842176 0.0153201 0.729809
0.954101 0.0153201 0.729809
0.0153201 0.134203 0.729809
0.134203 0.134203 0.729809
0.253651 0.134203 0.729809
0.375509 0.134203 0.729809
0.500328 0.134203 0.729809
0.617533 0.134203 0.729809
0.729809 0.134203 0.729809
0.842176 0.134203 0.729809
0.954101 0.134203 0.729809
0.0153201 0.253651 0.729809
0.134203 0.253651 0.729809
0.253651 0.253651 0.729809
0.375509 0.253651 0.729809
0.500328 0.253651 0.729809
0.617533 0.253651 0.729809
0.729809 0.253651 0.729809
0.842176 0.253651 0.729809
0.954101 0.253651 0.729809
0.0153201 0.375509 0.729809
0.134203 0.375509 0.729809
0.253651 0.375509 0.729809
0.375509 0.375509 0.729809
0.500328 0.375509 0.729809
0.617533 0.375509 0.729809
0.729809 0.375509 0.729809
0.842176 0.375509 0.729809
0.954101 0.375509 0.729809
0.0153201 0.500328 0.729809
0.134203 0.500328 0.729809
0.253651 0.500328 0.729809
0.375509 0.500328 0.729809
0.500328 0.500328 0.729809
0.617533 0.500328 0.729809
0.729809 0.500328 0.729809
0.842176 0.500328 0.729809
0.954101 0.500328 0.729809
0.0153201 0.617533 0.729809
0.134203 0.617533 0.729809
0.253651 0.617533 0.729809
0.375509 0.617517 0.729809
0.500328 0.617533 0.729809
0.617533 0.617533 0.729809
0.729809 0.617533 0.729809
0.842176 0.617533 0.729809
0.954101 0.617533 0.729809
0.0153201 0.729809 0.729809
0.134203 0.729809 0.729809
0.253651 0.729809 0.729809
0.375509 0.729809 0.729809
0.500328 0.729809 0.729809
0.617533 0.729809 0.729809
0.729809 0.729809 0.729809
0.842176 0.729809 0.729809
0.954101 0.729809 0.729809
0.0153201 0.842176 0.729809
0.134203 0.842176 0.729809
0.253651 0.842176 0.729809
0.375509 0.842176 0.729809
0.500328 0.842176 0.729809
0.617533 0.842176 0.729809
0.729809 0.842176 0.729809
0.842176 0.842176 0.729809
0.954101 0.842176 0.729809
0.0153201 0.954101 0.729809
0.134203 0.954101 0.729809
0.253651 0.954101 0.729809
0.375509 0.954101 0.729809
0.500328 0.954101 0.729809
0.617533 0.954101 0.729809
0.729809 0.954101 0.729809
0.842176 0.954101 0.729809
0.954101 0.954101 0.729809
0.0153201 0.0153201 0.842176
0.134203 0.0153201 0.842176
0.253651 0.0153201 0.842176
0.375509 0.0153201 0.842176
0.500328 0.0153201 0.842176
0.617533 0.0153201 0.842176
0.729809 0.0153201 0.842176
0.842176 0.0153201 0.842176
0.954101 0.0153201 0.842176
0.0153201 0.134203 0.842176
0.134203 0.134203 0.842176
0.253651 0.134203 0.842176
0.375509 0.134203 0.842176
0.500328 0.134203 0.842176
0.617533 0.134203 0.842176
0.729809 0.134203 0.842176
0.842176 0.134203 0.842176
0.954101 0.134203 0.842176
0.0153201 0.253651 0.842176
0.134203 0.253651 0.842176
0.253651 0.253651 0.842176
0.375509 0.253651 0.842176
0.500328 0.253651 0.842176
0.617533 0.253651 0.842176
0.729809 0.253651 0.842176
0.842176 0.253651 0.842176
0.954101 0.253651 0.842176
0.0153201 0.375509 0.842176
0.134203 0.375509 0.842176
0.253651 0.375509 0.842176
0.375509 0.375509 0.842176
0.500328 0.375509 0.842176
0.617533 0.375509 0.842176
0.729809 0.375509 0.842176
0.842176 0.375509 0.842176
0.954101 0.375509 0.842176
0.0153201 0.500328 0.842176
0.134203 0.500328 0.842176
0.253651 0.500328 0.842176
0.375509 0.500328 0.842176
0.500328 0.500328 0.842176
0.617533 0.500328 0.842176
0.729809 0.500328 0.842176
0.842176 0.500328 0.842176
0.954101 0.500328 0.842176
0.0153201 0.617533 0.842176
0.134203 0.617533 0.842176
0.253651 0.617533 0.842176
0.375509 0.617533 0.842176
0.500328 0.617533 0.842176
0.617533 0.617533 0.842176
0.729809 0.617517 0.842176
0.842176 0.617533 0.842176
0.954101 0.617533 0.842176
0.0153201 0.729809 0.842176
0.134203 0.729809 0.842176
0.253651 0.729809 0.842176
0.375509 0.729809 0.842176
0.500328 0.729809 0.842176
0.617533 0.729809 0.842176
0.729809 0.729809 0.842176
0.842176 0.729809 0.842176
0.954101 0.729809 0.842176
0.0153201 0.842176 0.842176
0.134203 0.842176 0.842176
0.253651 0.842176 0.842176
0.375509 0.842176 0.842176
0.500328 0.842176 0.842176
0.617533 0.842176 0.842176
0.729809 0.842176 0.842176
0.842176 0.842176 0.842176
0.954101 0.842176 0.842176
0.0153201 0.954101 0.842176
0.134203 0.954101 0.842176
0.253651 0.954101 0.842176
0.375509 0.954101 0.842176
0.500328 0.954101 0.842176
0.617533 0.954101 0.842176
0.729809 0.954101 0.842176
0.842176 0.954101 0.842176
0.954101 0.954101 0.842176
0.0153201 0.0153201 0.954101
0.134203 0.0153201 0.954101
0.253651 0.0153201 0.954101
0.375509 0.0153201 0.954101
0.500328 0.0153201 0.954101
0.617533 0.0153201 0.954101
0.729809 0.0153201 0.954101
0.842176 0.0153201 0.954101
0.954101 0.0153201 0.954101
0.0153201 0.134203 0.954101
0.134203 0.134203 0.954101
0.253651 0.134203 0.954101
0.375509 0.134203 0.954101
0.500328 0.134203 0.954101
0.617533 0.134203 0.954101
0.729809 0.134203 0.954101
0.842176 0.134203 0.954101
0.954101 0.134203 0.954101
0.0153201 0.253651 0.954101
0.134203 0.253651 0.954101
0.253651 0.253651 0.954101
0.375509 0.253651 0.954101
0.500328 0.253651 0.954101
0.617533 0.253651 0.954101
0.729809 0.253651 0.954101
0.842176 0.253651 0.954101
0.954101 0.253651 0.954101
0.0153201 0.375509 0.954101
0.134203 0.375509 0.954101
0.253651 0.375509 0.954101
0.375509 0.375509 0.954101
0.500328 0.375509 0.954101
0.617533 0.375509 0.954101
0.729809 0.375509 0.954101
0.842176 0.375509 0.954101
0.954101 0.375509 0.954101
0.0153201 0.500328 0.954101
0.134203 0.500328 0.954101
0.253651 0.500328 0.954101
0.375509 0.500328 0.954101
0.500328 0.500328 0.954101
0.617533 0.500328 0.954101
0.729809 0.500328 0.954101
0.842176 0.500328 0.954101
0.954101 0.500328 0.954101
0.0153201 0.617533 0.954101
0.134203 0.617533 0.954101
0.253651 0.617533 0.954101
0.375509 0.617517 0.954101
0.500328 0.617533 0.954101
0.617533 0.617533 0.954101
0.729809 0.617533 0.954101
0.842176 0.617533 0.954101
0.954101 0.617533 0.954101
0.0153201 0.729809 0.954101
0.134203 0.729809 0.954101
0.253651 0.729809 0.954101
0.375509 0.729809 0.954101
0.500328 0.729809 0.954101
0.617517 0.729809 0.954101
0.729809 0.729809 0.954101
0.842176 0.729809 0.954101
0.954101 0.729809 0.954101
0.0153201 0.842176 0.954101
0.134203 0.842176 0.954101
0.253651 0.842176 0.954101
0.375509 0.842176 0.954101
0.500328 0.842176 0.954101
0.617533 0.842176 0.954101
0.729809 0.842176 0.954101
0.842176 0.842176 0.954101
0.954101 0.842176 0.954101
0.0153201 0.954101 0.954101
0.134203 0.954101 0.954101
0.253651 0.954101 0.954101
0.375509 0.954101 0.954101
0.500328 0.954101 0.954101
0.617533 0.954101 0.954101
0.729809 0.954101 0.954101
0.842176 0.954101 0.954101
0.954101 0.954101 0.954101
