public/LUTS/Balanced/Balanced_07.cube
TITLE "Generated by Resolve"
LUT_3D_SIZE 5
0.0478828 0.0478828 0.0478828
0.261509 0.0478828 0.0478828
0.505135 0.0478828 0.0478828
0.694759 0.0478828 0.0478828
0.837537 0.0478828 0.0478828
0.0478828 0.261509 0.0478828
0.261509 0.261509 0.0478828
0.505135 0.261509 0.0478828
0.694759 0.261509 0.0478828
0.837537 0.261509 0.0478828
0.0478828 0.505135 0.0478828
0.261509 0.505135 0.0478828
0.505135 0.505135 0.0478828
0.694759 0.505135 0.0478828
0.837537 0.505135 0.0478828
0.0478828 0.694759 0.0478828
0.261509 0.694759 0.0478828
0.505135 0.694759 0.0478828
0.694759 0.694759 0.0478828
0.837537 0.694759 0.0478828
0.0478828 0.837537 0.0478828
0.261509 0.837537 0.0478828
0.505135 0.837537 0.0478828
0.694759 0.837537 0.0478828
0.837537 0.837537 0.0478828
0.0478828 0.0478828 0.261509
0.261509 0.0478828 0.261509
0.505135 0.0478828 0.261509
0.694759 0.0478828 0.261509
0.837537 0.0478828 0.261509
0.0478828 0.261509 0.261509
0.261509 0.261509 0.261509
0.505135 0.261509 0.261509
0.694759 0.261509 0.261509
0.837537 0.261509 0.261509
0.0478828 0.505135 0.261509
0.261509 0.505135 0.261509
0.505135 0.505135 0.261509
0.694759 0.505135 0.261509
0.837537 0.505135 0.261509
0.0478828 0.694759 0.261509
0.261509 0.694759 0.261509
0.505135 0.694759 0.261509
0.694759 0.694759 0.261509
0.837537 0.694759 0.261509
0.0478828 0.837537 0.261509
0.261509 0.837537 0.261509
0.505135 0.837537 0.261509
0.694759 0.837537 0.261509
0.837537 0.837537 0.261509
0.0478828 0.0478828 0.505135
0.261509 0.0478828 0.505135
0.505135 0.0478828 0.505135
0.694759 0.0478828 0.505135
0.837537 0.0478828 0.505135
0.0478828 0.261509 0.505135
0.261509 0.261509 0.505135
0.505135 0.261509 0.505135
0.694759 0.261509 0.505135
0.837537 0.261509 0.505135
0.0478828 0.505135 0.505135
0.261509 0.505135 0.505135
0.505135 0.505135 0.505135
0.694759 0.505135 0.505135
0.837537 0.505135 0.505135
0.0478828 0.694759 0.505135
0.261509 0.694759 0.505135
0.505135 0.694759 0.505135
0.694759 0.694759 0.505135
0.837537 0.694759 0.505135
0.0478828 0.837537 0.505135
0.261509 0.837537 0.505135
0.505135 0.837537 0.505135
0.694759 0.837537 0.505135
0.837537 0.837537 0.505135
0.0478828 0.0478828 0.694759
0.261509 0.0478828 0.694759
0.505135 0.0478828 0.694759
0.694759 0.0478828 0.694759
0.837537 0.0478828 0.694759
0.0478828 0.261509 0.694759
0.261509 0.261509 0.694759
0.505135 0.261509 0.694759
0.694759 0.261509 0.694759
0.837537 0.261509 0.694759
0.0478828 0.505135 0.694759
0.261509 0.505135 0.694759
0.505135 0.505135 0.694759
0.694759 0.505135 0.694759
0.837537 0.505135 0.694759
0.0478828 0.694759 0.694759
0.261509 0.694759 0.694759
0.505135 0.694759 0.694759
0.694759 0.694759 0.694759
0.837537 0.694759 0.694759
0.0478828 0.837537 0.694759
0.261509 0.837537 0.694759
0.505135 0.837537 0.694759
0.694759 0.837537 0.694759
0.837537 0.837537 0.694759
0.0478828 0.0478828 0.837537
0.261509 0.0478828 0.837537
0.505135 0.0478828 0.837537
0.694759 0.0478828 0.837537
0.837537 0.0478828 0.837537
0.0478828 0.261509 0.837537
0.261509 0.261509 0.837537
0.505135 0.261509 0.837537
0.694759 0.261509 0.837537
0.837537 0.261509 0.837537
0.0478828 0.505135 0.837537
0.261509 0.505135 0.837537
0.505135 0.505135 0.837537
0.694759 0.505135 0.837537
0.837537 0.505135 0.837537
0.0478828 0.694759 0.837537
0.261509 0.694759 0.837537
0.505135 0.694759 0.837537
0.694759 0.694759 0.837537
0.837537 0.694759 0.837537
0.0478828 0.837537 0.837537
0.261509 0.837537 0.837537
0.505135 0.837537 0.837537
0.694759 0.837537 0.837537
0.837537 0.837537 0.837537
