public/LUTS/Balanced/Balanced_06.cube
TITLE "Generated by Resolve"
LUT_3D_SIZE 9
0.0486152 0.0486152 0.0486152
0.155047 0.0486152 0.0486152
0.262242 0.0486152 0.0486152
0.381353 0.0486152 0.0486152
0.505867 0.0486152 0.0486152
0.613581 0.0486152 0.0486152
0.719402 0.0486152 0.0486152
0.825254 0.0486152 0.0486152
0.930694 0.0486152 0.0486152
0.0486152 0.155047 0.0486152
0.155047 0.155047 0.0486152
0.262242 0.155047 0.0486152
0.381353 0.155047 0.0486152
0.505867 0.155047 0.0486152
0.613581 0.155047 0.0486152
0.719402 0.155047 0.0486152
0.825254 0.155047 0.0486152
0.930694 0.155047 0.0486152
0.0486152 0.262242 0.0486152
0.155047 0.262242 0.0486152
0.262242 0.262242 0.0486152
0.381353 0.262242 0.0486152
0.505867 0.262242 0.0486152
0.613581 0.262242 0.0486152
0.719402 0.262242 0.0486152
0.825254 0.262242 0.0486152
0.930694 0.262242 0.0486152
0.0486152 0.381353 0.0486152
0.155047 0.381353 0.0486152
0.262242 0.381353 0.0486152
0.381353 0.381353 0.0486152
0.505867 0.381353 0.0486152
0.613581 0.381353 0.0486152
0.719402 0.381353 0.0486152
0.825254 0.381353 0.0486152
0.930694 0.381353 0.0486152
0.0486152 0.505867 0.0486152
0.155047 0.505867 0.0486152
0.262242 0.505867 0.0486152
0.381353 0.505867 0.0486152
0.505867 0.505867 0.0486152
0.613581 0.505867 0.0486152
0.719402 0.505867 0.0486152
0.825254 0.505867 0.0486152
0.930694 0.505867 0.0486152
0.0486152 0.613581 0.0486152
0.155047 0.613581 0.0486152
0.262242 0.613581 0.0486152
0.381353 0.613581 0.0486152
0.505867 0.613581 0.0486152
0.613581 0.613581 0.0486152
0.719402 0.613581 0.0486152
0.825254 0.613581 0.0486152
0.930694 0.613581 0.0486152
0.0486152 0.719402 0.0486152
0.155047 0.719402 0.0486152
0.262242 0.719402 0.0486152
0.381353 0.719402 0.0486152
0.505867 0.719402 0.0486152
0.613581 0.719402 0.0486152
0.719402 0.719402 0.0486152
0.825254 0.719402 0.0486152
0.930694 0.719402 0.0486152
0.0486152 0.825254 0.0486152
0.155047 0.825254 0.0486152
0.262242 0.825254 0.0486152
0.381353 0.825254 0.0486152
0.505867 0.825254 0.0486152
0.613581 0.825254 0.0486152
0.719402 0.825254 0.0486152
0.825254 0.825254 0.0486152
0.930694 0.825254 0.0486152
0.0486152 0.930694 0.0486152
0.155047 0.930694 0.0486152
0.262242 0.930694 0.0486152
0.381353 0.930694 0.0486152
0.505867 0.930694 0.0486152
0.613581 0.930694 0.0486152
0.719402 0.930694 0.0486152
0.825254 0.930694 0.0486152
0.930694 0.930694 0.0486152
0.0486152 0.0486152 0.155047
0.155047 0.0486152 0.155047
0.262242 0.0486152 0.155047
0.381353 0.0486152 0.155047
0.505867 0.0486152 0.155047
0.613581 0.0486152 0.155047
0.719402 0.0486152 0.155047
0.825254 0.0486152 0.155047
0.930694 0.0486152 0.155047
0.0486152 0.155047 0.155047
0.155047 0.155047 0.155047
0.262242 0.155047 0.155047
0.381353 0.155047 0.155047
0.505867 0.155047 0.155047
0.613581 0.155047 0.155047
0.719402 0.155047 0.155047
0.825254 0.155047 0.155047
0.930694 0.155047 0.155047
0.0486152 0.262242 0.155047
0.155047 0.262242 0.155047
0.262242 0.262242 0.155047
0.381353 0.262242 0.155047
0.505867 0.262242 0.155047
0.613581 0.262242 0.155047
0.719402 0.262242 0.155047
0.825254 0.262242 0.155047
0.930694 0.262242 0.155047
0.0486152 0.381353 0.155047
0.155047 0.381353 0.155047
0.262242 0.381353 0.155047
0.381353 0.381353 0.155047
0.505867 0.381353 0.155047
0.613581 0.381353 0.155047
0.719402 0.381353 0.155047
0.825254 0.381353 0.155047
0.930694 0.381353 0.155047
0.0486152 0.505867 0.155047
0.155047 0.505867 0.155047
0.262242 0.505867 0.155047
0.381353 0.505867 0.155047
0.505867 0.505867 0.155047
0.613581 0.505867 0.155047
0.719402 0.505867 0.155047
0.825254 0.505867 0.155047
0.930694 0.505867 0.155047
0.0486152 0.613581 0.155047
0.155047 0.613581 0.155047
0.262242 0.613581 0.155047
0.381353 0.613581 0.155047
0.505867 0.613581 0.155047
0.613581 0.613581 0.155047
0.719402 0.613581 0.155047
0.825254 0.613581 0.155047
0.930694 0.613581 0.155047
0.0486152 0.719402 0.155047
0.155047 0.719402 0.155047
0.262242 0.719402 0.155047
0.381353 0.719402 0.155047
0.505867 0.719402 0.155047
0.613581 0.719402 0.155047
0.719402 0.719402 0.155047
0.825254 0.719402 0.155047
0.930694 0.719402 0.155047
0.0486152 0.825254 0.155047
0.155047 0.825254 0.155047
0.262242 0.825254 0.155047
0.381353 0.825254 0.155047
0.505867 0.825254 0.155047
0.613581 0.825254 0.155047
0.719402 0.825254 0.155047
0.825254 0.825254 0.155047
0.930694 0.825254 0.155047
0.0486152 0.930694 0.155047
0.155047 0.930694 0.155047
0.262242 0.930694 0.155047
0.381353 0.930694 0.155047
0.505867 0.930694 0.155047
0.613581 0.930694 0.155047
0.719402 0.930694 0.155047
0.825254 0.930694 0.155047
0.930694 0.930694 0.155047
0.0486152 0.0486152 0.262242
0.155047 0.0486152 0.262242
0.262242 0.0486152 0.262242
0.381353 0.0486152 0.262242
0.505867 0.0486152 0.262242
0.613581 0.0486152 0.262242
0.719402 0.0486152 0.262242
0.825254 0.0486152 0.262242
0.930694 0.0486152 0.262242
0.0486152 0.155047 0.262242
0.155047 0.155047 0.262242
0.262242 0.155047 0.262242
0.381353 0.155047 0.262242
0.505867 0.155047 0.262242
0.613581 0.155047 0.262242
0.719402 0.155047 0.262242
0.825254 0.155047 0.262242
0.930694 0.155047 0.262242
0.0486152 0.262242 0.262242
0.155047 0.262242 0.262242
0.262242 0.262242 0.262242
0.381353 0.262242 0.262242
0.505867 0.262242 0.262242
0.613581 0.262242 0.262242
0.719402 0.262242 0.262242
0.825254 0.262242 0.262242
0.930694 0.262242 0.262242
0.0486152 0.381353 0.262242
0.155047 0.381353 0.262242
0.262242 0.381353 0.262242
0.381353 0.381353 0.262242
0.505867 0.381353 0.262242
0.613581 0.381353 0.262242
0.719402 0.381353 0.262242
0.825254 0.381353 0.262242
0.930694 0.381353 0.262242
0.0486152 0.505867 0.262242
0.155047 0.505867 0.262242
0.262242 0.505867 0.262242
0.381353 0.505867 0.262242
0.505867 0.505867 0.262242
0.613581 0.505867 0.262242
0.719402 0.505867 0.262242
0.825254 0.505867 0.262242
0.930694 0.505867 0.262242
0.0486152 0.613581 0.262242
0.155047 0.613581 0.262242
0.262242 0.613581 0.262242
0.381353 0.613581 0.262242
0.505867 0.613581 0.262242
0.613581 0.613581 0.262242
0.719402 0.613581 0.262242
0.825254 0.613581 0.262242
0.930694 0.613581 0.262242
0.0486152 0.719402 0.262242
0.155047 0.719402 0.262242
0.262242 0.719402 0.262242
0.381353 0.719402 0.262242
0.505867 0.719402 0.262242
0.613581 0.719402 0.262242
0.719402 0.719402 0.262242
0.825254 0.719402 0.262242
0.930694 0.719402 0.262242
0.0486152 0.825254 0.262242
0.155047 0.825254 0.262242
0.262242 0.825254 0.262242
0.381353 0.825254 0.262242
0.505867 0.825254 0.262242
0.613581 0.825254 0.262242
0.719402 0.825254 0.262242
0.825254 0.825254 0.262242
0.930694 0.825254 0.262242
0.0486152 0.930694 0.262242
0.155047 0.930694 0.262242
0.262242 0.930694 0.262242
0.381353 0.930694 0.262242
0.505867 0.930694 0.262242
0.613581 0.930694 0.262242
0.719402 0.930694 0.262242
0.825254 0.930694 0.262242
0.930694 0.930694 0.262242
0.0486152 0.0486152 0.381353
0.155047 0.0486152 0.381353
0.262242 0.0486152 0.381353
0.381353 0.0486152 0.381353
0.505867 0.0486152 0.381353
0.613581 0.0486152 0.381353
0.719402 0.0486152 0.381353
0.825254 0.0486152 0.381353
0.930694 0.0486152 0.381353
0.0486152 0.155047 0.381353
0.155047 0.155047 0.381353
0.262242 0.155047 0.381353
0.381353 0.155047 0.381353
0.505867 0.155047 0.381353
0.613581 0.155047 0.381353
0.719402 0.155047 0.381353
0.825254 0.155047 0.381353
0.930694 0.155047 0.381353
0.0486152 0.262242 0.381353
0.155047 0.262242 0.381353
0.262242 0.262242 0.381353
0.381353 0.262242 0.381353
0.505867 0.262242 0.381353
0.613581 0.262242 0.381353
0.719402 0.262242 0.381353
0.825254 0.262242 0.381353
0.930694 0.262242 0.381353
0.0486152 0.381353 0.381353
0.155047 0.381353 0.381353
0.262242 0.381353 0.381353
0.381353 0.381353 0.381353
0.505867 0.381353 0.381353
0.613581 0.381353 0.381353
0.719402 0.381353 0.381353
0.825254 0.381353 0.381353
0.930694 0.381353 0.381353
0.0486152 0.505867 0.381353
0.155047 0.505867 0.381353
0.262242 0.505867 0.381353
0.381353 0.505867 0.381353
0.505867 0.505867 0.381353
0.613581 0.505867 0.381353
0.719402 0.505867 0.381353
0.825254 0.505867 0.381353
0.930694 0.505867 0.381353
0.0486152 0.613581 0.381353
0.155047 0.613581 0.381353
0.262242 0.613581 0.381353
0.381353 0.613581 0.381353
0.505867 0.613581 0.381353
0.613581 0.613581 0.381353
0.719402 0.613581 0.381353
0.825254 0.613581 0.381353
0.930694 0.613581 0.381353
0.0486152 0.719402 0.381353
0.155047 0.719402 0.381353
0.262242 0.719402 0.381353
0.381353 0.719402 0.381353
0.505867 0.719402 0.381353
0.613581 0.719402 0.381353
0.719402 0.719402 0.381353
0.825254 0.719402 0.381353
0.930694 0.719402 0.381353
0.0486152 0.825254 0.381353
0.155047 0.825254 0.381353
0.262242 0.825254 0.381353
0.381353 0.825254 0.381353
0.505867 0.825254 0.381353
0.613581 0.825254 0.381353
0.719402 0.825254 0.381353
0.825254 0.825254 0.381353
0.930694 0.825254 0.381353
0.0486152 0.930694 0.381353
0.155047 0.930694 0.381353
0.262242 0.930694 0.381353
0.381353 0.930694 0.381353
0.505867 0.930694 0.381353
0.613581 0.930694 0.381353
0.719402 0.930694 0.381353
0.825254 0.930694 0.381353
0.930694 0.930694 0.381353
0.0486152 0.0486152 0.505867
0.155047 0.0486152 0.505867
0.262242 0.0486152 0.505867
0.381353 0.0486152 0.505867
0.505867 0.0486152 0.505867
0.613581 0.0486152 0.505867
0.719402 0.0486152 0.505867
0.825254 0.0486152 0.505867
0.930694 0.0486152 0.505867
0.0486152 0.155047 0.505867
0.155047 0.155047 0.505867
0.262242 0.155047 0.505867
0.381353 0.155047 0.505867
0.505867 0.155047 0.505867
0.613581 0.155047 0.505867
0.719402 0.155047 0.505867
0.825254 0.155047 0.505867
0.930694 0.155047 0.505867
0.0486152 0.262242 0.505867
0.155047 0.262242 0.505867
0.262242 0.262242 0.505867
0.381353 0.262242 0.505867
0.505867 0.262242 0.505867
0.613581 0.262242 0.505867
0.719402 0.262242 0.505867
0.825254 0.262242 0.505867
0.930694 0.262242 0.505867
0.0486152 0.381353 0.505867
0.155047 0.381353 0.505867
0.262242 0.381353 0.505867
0.381353 0.381353 0.505867
0.505867 0.381353 0.505867
0.613581 0.381353 0.505867
0.719402 0.381353 0.505867
0.825254 0.381353 0.505867
0.930694 0.381353 0.505867
0.0486152 0.505867 0.505867
0.155047 0.505867 0.505867
0.262242 0.505867 0.505867
0.381353 0.505867 0.505867
0.505867 0.505867 0.505867
0.613581 0.505867 0.505867
0.719402 0.505867 0.505867
0.825254 0.505867 0.505867
0.930694 0.505867 0.505867
0.0486152 0.613581 0.505867
0.155047 0.613581 0.505867
0.262242 0.613581 0.505867
0.381353 0.613581 0.505867
0.505867 0.613581 0.505867
0.613581 0.613581 0.505867
0.719402 0.613581 0.505867
0.825254 0.613581 0.505867
0.930694 0.613581 0.505867
0.0486152 0.719402 0.505867
0.155047 0.719402 0.505867
0.262242 0.719402 0.505867
0.381353 0.719402 0.505867
0.505867 0.719402 0.505867
0.613581 0.719402 0.505867
0.719402 0.719402 0.505867
0.825254 0.719402 0.505867
0.930694 0.719402 0.505867
0.0486152 0.825254 0.505867
0.155047 0.825254 0.505867
0.262242 0.825254 0.505867
0.381353 0.825254 0.505867
0.505867 0.825254 0.505867
0.613581 0.825254 0.505867
0.719402 0.825254 0.505867
0.825254 0.825254 0.505867
0.930694 0.825254 0.505867
0.0486152 0.930694 0.505867
0.155047 0.930694 0.505867
0.262242 0.930694 0.505867
0.381353 0.930694 0.505867
0.505867 0.930694 0.505867
0.613581 0.930694 0.505867
0.719402 0.930694 0.505867
0.825254 0.930694 0.505867
0.930694 0.930694 0.505867
0.0486152 0.0486152 0.613581
0.155047 0.0486152 0.613581
0.262242 0.0486152 0.613581
0.381353 0.0486152 0.613581
0.505867 0.0486152 0.613581
0.613581 0.0486152 0.613581
0.719402 0.0486152 0.613581
0.825254 0.0486152 0.613581
0.930694 0.0486152 0.613581
0.0486152 0.155047 0.613581
0.155047 0.155047 0.613581
0.262242 0.155047 0.613581
0.381353 0.155047 0.613581
0.505867 0.155047 0.613581
0.613581 0.155047 0.613581
0.719402 0.155047 0.613581
0.825254 0.155047 0.613581
0.930694 0.155047 0.613581
0.0486152 0.262242 0.613581
0.155047 0.262242 0.613581
0.262242 0.262242 0.613581
0.381353 0.262242 0.613581
0.505867 0.262242 0.613581
0.613581 0.262242 0.613581
0.719402 0.262242 0.613581
0.825254 0.262242 0.613581
0.930694 0.262242 0.613581
0.0486152 0.381353 0.613581
0.155047 0.381353 0.613581
0.262242 0.381353 0.613581
0.381353 0.381353 0.613581
0.505867 0.381353 0.613581
0.613581 0.381353 0.613581
0.719402 0.381353 0.613581
0.825254 0.381353 0.613581
0.930694 0.381353 0.613581
0.0486152 0.505867 0.613581
0.155047 0.505867 0.613581
0.262242 0.505867 0.613581
0.381353 0.505867 0.613581
0.505867 0.505867 0.613581
0.613581 0.505867 0.613581
0.719402 0.505867 0.613581
0.825254 0.505867 0.613581
0.930694 0.505867 0.613581
0.0486152 0.613581 0.613581
0.155047 0.613581 0.613581
0.262242 0.613581 0.613581
0.381353 0.613581 0.613581
0.505867 0.613581 0.613581
0.613581 0.613581 0.613581
0.719402 0.613581 0.613581
0.825254 0.613581 0.613581
0.930694 0.613581 0.613581
0.0486152 0.719402 0.613581
0.155047 0.719402 0.613581
0.262242 0.719402 0.613581
0.381353 0.719402 0.613581
0.505867 0.719402 0.613581
0.613581 0.719402 0.613581
0.719402 0.719402 0.613581
0.825254 0.719402 0.613581
0.930694 0.719402 0.613581
0.0486152 0.825254 0.613581
0.155047 0.825254 0.613581
0.262242 0.825254 0.613581
0.381353 0.825254 0.613581
0.505867 0.825254 0.613581
0.613581 0.825254 0.613581
0.719402 0.825254 0.613581
0.825254 0.825254 0.613581
0.930694 0.825254 0.613581
0.0486152 0.930694 0.613581
0.155047 0.930694 0.613581
0.262242 0.930694 0.613581
0.381353 0.930694 0.613581
0.505867 0.930694 0.613581
0.613581 0.930694 0.613581
0.719402 0.930694 0.613581
0.825254 0.930694 0.613581
0.930694 0.930694 0.613581
0.0486152 0.0486152 0.719402
0.155047 0.0486152 0.719402
0.262242 0.0486152 0.719402
0.381353 0.0486152 0.719402
0.505867 0.0486152 0.719402
0.613581 0.0486152 0.719402
0.719402 0.0486152 0.719402
0.825254 0.0486152 0.719402
0.930694 0.0486152 0.719402
0.0486152 0.155047 0.719402
0.155047 0.155047 0.719402
0.262242 0.155047 0.719402
0.381353 0.155047 0.719402
0.505867 0.155047 0.719402
0.613581 0.155047 0.719402
0.719402 0.155047 0.719402
0.825254 0.155047 0.719402
0.930694 0.155047 0.719402
0.0486152 0.262242 0.719402
0.155047 0.262242 0.719402
0.262242 0.262242 0.719402
0.381353 0.262242 0.719402
0.505867 0.262242 0.719402
0.613581 0.262242 0.719402
0.719402 0.262242 0.719402
0.825254 0.262242 0.719402
0.930694 0.262242 0.719402
0.0486152 0.381353 0.719402
0.155047 0.381353 0.719402
0.262242 0.381353 0.719402
0.381353 0.381353 0.719402
0.505867 0.381353 0.719402
0.613581 0.381353 0.719402
0.719402 0.381353 0.719402
0.825254 0.381353 0.719402
0.930694 0.381353 0.719402
0.0486152 0.505867 0.719402
0.155047 0.505867 0.719402
0.262242 0.505867 0.719402
0.381353 0.505867 0.719402
0.505867 0.505867 0.719402
0.613581 0.505867 0.719402
0.719402 0.505867 0.719402
0.825254 0.505867 0.719402
0.930694 0.505867 0.719402
0.0486152 0.613581 0.719402
0.155047 0.613581 0.719402
0.262242 0.613581 0.719402
0.381353 0.613581 0.719402
0.505867 0.613581 0.719402
0.613581 0.613581 0.719402
0.719402 0.613581 0.719402
0.825254 0.613581 0.719402
0.930694 0.613581 0.719402
0.0486152 0.719402 0.719402
0.155047 0.719402 0.719402
0.262242 0.719402 0.719402
0.381353 0.719402 0.719402
0.505867 0.719402 0.719402
0.613581 0.719402 0.719402
0.719402 0.719402 0.719402
0.825254 0.719402 0.719402
0.930694 0.719402 0.719402
0.0486152 0.825254 0.719402
0.155047 0.825254 0.719402
0.262242 0.825254 0.719402
0.381353 0.825254 0.719402
0.505867 0.825254 0.719402
0.613581 0.825254 0.719402
0.719402 0.825254 0.719402
0.825254 0.825254 0.719402
0.930694 0.825254 0.719402
0.0486152 0.930694 0.719402
0.155047 0.930694 0.719402
0.262242 0.930694 0.719402
0.381353 0.930694 0.719402
0.505867 0.930694 0.719402
0.613581 0.930694 0.719402
0.719402 0.930694 0.719402
0.825254 0.930694 0.719402
0.930694 0.930694 0.719402
0.0486152 0.0486152 0.825254
0.155047 0.0486152 0.825254
0.262242 0.0486152 0.825254
0.381353 0.0486152 0.825254
0.505867 0.0486152 0.825254
0.613581 0.0486152 0.825254
0.719402 0.0486152 0.825254
0.825254 0.0486152 0.825254
0.930694 0.0486152 0.825254
0.0486152 0.155047 0.825254
0.155047 0.155047 0.825254
0.262242 0.155047 0.825254
0.381353 0.155047 0.825254
0.505867 0.155047 0.825254
0.613581 0.155047 0.825254
0.719402 0.155047 0.825254
0.825254 0.155047 0.825254
0.930694 0.155047 0.825254
0.0486152 0.262242 0.825254
0.155047 0.262242 0.825254
0.262242 0.262242 0.825254
0.381353 0.262242 0.825254
0.505867 0.262242 0.825254
0.613581 0.262242 0.825254
0.719402 0.262242 0.825254
0.825254 0.262242 0.825254
0.930694 0.262242 0.825254
0.0486152 0.381353 0.825254
0.155047 0.381353 0.825254
0.262242 0.381353 0.825254
0.381353 0.381353 0.825254
0.505867 0.381353 0.825254
0.613581 0.381353 0.825254
0.719402 0.381353 0.825254
0.825254 0.381353 0.825254
0.930694 0.381353 0.825254
0.0486152 0.505867 0.825254
0.155047 0.505867 0.825254
0.262242 0.505867 0.825254
0.381353 0.505867 0.825254
0.505867 0.505867 0.825254
0.613581 0.505867 0.825254
0.719402 0.505867 0.825254
0.825254 0.505867 0.825254
0.930694 0.505867 0.825254
0.0486152 0.613581 0.825254
0.155047 0.613581 0.825254
0.262242 0.613581 0.825254
0.381353 0.613581 0.825254
0.505867 0.613581 0.825254
0.613581 0.613581 0.825254
0.719402 0.613581 0.825254
0.825254 0.613581 0.825254
0.930694 0.613581 0.825254
0.0486152 0.719402 0.825254
0.155047 0.719402 0.825254
0.262242 0.719402 0.825254
0.381353 0.719402 0.825254
0.505867 0.719402 0.825254
0.613581 0.719402 0.825254
0.719402 0.719402 0.825254
0.825254 0.719402 0.825254
0.930694 0.719402 0.825254
0.0486152 0.825254 0.825254
0.155047 0.825254 0.825254
0.262242 0.825254 0.825254
0.381353 0.825254 0.825254
0.505867 0.825254 0.825254
0.613581 0.825254 0.825254
0.719402 0.825254 0.825254
0.825254 0.825254 0.825254
0.930694 0.825254 0.825254
0.0486152 0.930694 0.825254
0.155047 0.930694 0.825254
0.262242 0.930694 0.825254
0.381353 0.930694 0.825254
0.505867 0.930694 0.825254
0.613581 0.930694 0.825254
0.719402 0.930694 0.825254
0.825254 0.930694 0.825254
0.930694 0.930694 0.825254
0.0486152 0.0486152 0.930694
0.155047 0.0486152 0.930694
0.262242 0.0486152 0.930694
0.381353 0.0486152 0.930694
0.505867 0.0486152 0.930694
0.613581 0.0486152 0.930694
0.719402 0.0486152 0.930694
0.825254 0.0486152 0.930694
0.930694 0.0486152 0.930694
0.0486152 0.155047 0.930694
0.155047 0.155047 0.930694
0.262242 0.155047 0.930694
0.381353 0.155047 0.930694
0.505867 0.155047 0.930694
0.613581 0.155047 0.930694
0.719402 0.155047 0.930694
0.825254 0.155047 0.930694
0.930694 0.155047 0.930694
0.0486152 0.262242 0.930694
0.155047 0.262242 0.930694
0.262242 0.262242 0.930694
0.381353 0.262242 0.930694
0.505867 0.262242 0.930694
0.613581 0.262242 0.930694
0.719402 0.262242 0.930694
0.825254 0.262242 0.930694
0.930694 0.262242 0.930694
0.0486152 0.381353 0.930694
0.155047 0.381353 0.930694
0.262242 0.381353 0.930694
0.381353 0.381353 0.930694
0.505867 0.381353 0.930694
0.613581 0.381353 0.930694
0.719402 0.381353 0.930694
0.825254 0.381353 0.930694
0.930694 0.381353 0.930694
0.0486152 0.505867 0.930694
0.155047 0.505867 0.930694
0.262242 0.505867 0.930694
0.381353 0.505867 0.930694
0.505867 0.505867 0.930694
0.613581 0.505867 0.930694
0.719402 0.505867 0.930694
0.825254 0.505867 0.930694
0.930694 0.505867 0.930694
0.0486152 0.613581 0.930694
0.155047 0.613581 0.930694
0.262242 0.613581 0.930694
0.381353 0.613581 0.930694
0.505867 0.613581 0.930694
0.613581 0.613581 0.930694
0.719402 0.613581 0.930694
0.825254 0.613581 0.930694
0.930694 0.613581 0.930694
0.0486152 0.719402 0.930694
0.155047 0.719402 0.930694
0.262242 0.719402 0.930694
0.381353 0.719402 0.930694
0.505867 0.719402 0.930694
0.613581 0.719402 0.930694
0.719402 0.719402 0.930694
0.825254 0.719402 0.930694
0.930694 0.719402 0.930694
0.0486152 0.825254 0.930694
0.155047 0.825254 0.930694
0.262242 0.825254 0.930694
0.381353 0.825254 0.930694
0.505867 0.825254 0.930694
0.613581 0.825254 0.930694
0.719402 0.825254 0.930694
0.825254 0.825254 0.930694
0.930694 0.825254 0.930694
0.0486152 0.930694 0.930694
0.155047 0.930694 0.930694
0.262242 0.930694 0.930694
0.381353 0.930694 0.930694
0.505867 0.930694 0.930694
0.613581 0.930694 0.930694
0.719402 0.930694 0.930694
0.825254 0.930694 0.930694
0.930694 0.930694 0.930694
