public/LUTS/Balanced/Balanced_04.cube
TITLE "Generated by Resolve"
LUT_3D_SIZE 33
0.0339666 0.0339666 0.0339666
0.0616007 0.0339666 0.0339666
0.0896925 0.0339666 0.0339666
0.117784 0.0339666 0.0339666
0.145876 0.0339666 0.0339666
0.173968 0.0339666 0.0339666
0.20206 0.0339666 0.0339666
0.229999 0.0339666 0.0339666
0.258381 0.0339666 0.0339666
0.287251 0.0339666 0.0339666
0.316228 0.0339666 0.0339666
0.345602 0.0339666 0.0339666
0.375616 0.0339666 0.0339666
0.40676 0.0339666 0.0339666
0.438087 0.0339666 0.0339666
0.469459 0.0339666 0.0339666
0.500328 0.0339666 0.0339666
0.530404 0.0339666 0.0339666
0.559945 0.0339666 0.0339666
0.589181 0.0339666 0.0339666
0.617533 0.0339666 0.0339666
0.645548 0.0339666 0.0339666
0.67364 0.0339666 0.0339666
0.701732 0.0339666 0.0339666
0.729809 0.0339666 0.0339666
0.7579 0.0339666 0.0339666
0.785992 0.0339666 0.0339666
0.814084 0.0339666 0.0339666
0.842176 0.0339666 0.0339666
0.870268 0.0339666 0.0339666
0.89836 0.0339666 0.0339666
0.926452 0.0339666 0.0339666
0.954101 0.0339666 0.0339666
0.0339666 0.0616007 0.0339666
0.0616007 0.0616007 0.0339666
0.0896925 0.0616007 0.0339666
0.117784 0.0616007 0.0339666
0.145876 0.0616007 0.0339666
0.173968 0.0616007 0.0339666
0.20206 0.0616007 0.0339666
0.229999 0.0616007 0.0339666
0.258381 0.0616007 0.0339666
0.287251 0.0616007 0.0339666
0.316228 0.0616007 0.0339666
0.345602 0.0616007 0.0339666
0.375616 0.0616007 0.0339666
0.40676 0.0616007 0.0339666
0.438087 0.0616007 0.0339666
0.469459 0.0616007 0.0339666
0.500328 0.0616007 0.0339666
0.530404 0.0616007 0.0339666
0.559945 0.0616007 0.0339666
0.589181 0.0616007 0.0339666
0.617533 0.0616007 0.0339666
0.645548 0.0616007 0.0339666
0.67364 0.0616007 0.0339666
0.701732 0.0616007 0.0339666
0.729809 0.0616007 0.0339666
0.7579 0.0616007 0.0339666
0.785992 0.0616007 0.0339666
0.814084 0.0616007 0.0339666
0.842176 0.0616007 0.0339666
0.870268 0.0616007 0.0339666
0.89836 0.0616007 0.0339666
0.926452 0.0616007 0.0339666
0.954101 0.0616007 0.0339666
0.0339666 0.0896925 0.0339666
0.0616007 0.0896925 0.0339666
0.0896925 0.0896925 0.0339666
0.117784 0.0896925 0.0339666
0.145876 0.0896925 0.0339666
0.173968 0.0896925 0.0339666
0.20206 0.0896925 0.0339666
0.229999 0.0896925 0.0339666
0.258381 0.0896925 0.0339666
0.287251 0.0896925 0.0339666
0.316228 0.0896925 0.0339666
0.345602 0.0896925 0.0339666
0.375616 0.0896925 0.0339666
0.40676 0.0896925 0.0339666
0.438087 0.0896925 0.0339666
0.469459 0.0896925 0.0339666
0.500328 0.0896925 0.0339666
0.530404 0.0896925 0.0339666
0.559945 0.0896925 0.0339666
0.589181 0.0896925 0.0339666
0.617533 0.0896925 0.0339666
0.645548 0.0896925 0.0339666
0.67364 0.0896925 0.0339666
0.701732 0.0896925 0.0339666
0.729809 0.0896925 0.0339666
0.7579 0.0896925 0.0339666
0.785992 0.0896925 0.0339666
0.814084 0.0896925 0.0339666
0.842176 0.0896925 0.0339666
0.870268 0.0896925 0.0339666
0.89836 0.0896925 0.0339666
0.926452 0.0896925 0.0339666
0.954101 0.0896925 0.0339666
0.0339666 0.117784 0.0339666
0.0616007 0.117784 0.0339666
0.0896925 0.117784 0.0339666
0.117784 0.117784 0.0339666
0.145876 0.117784 0.0339666
0.173968 0.117784 0.0339666
0.20206 0.117784 0.0339666
0.229999 0.117784 0.0339666
0.258381 0.117784 0.0339666
0.287251 0.117784 0.0339666
0.316228 0.117784 0.0339666
0.345602 0.117784 0.0339666
0.375616 0.117784 0.0339666
0.40676 0.117784 0.0339666
0.438087 0.117784 0.0339666
0.469459 0.117784 0.0339666
0.500328 0.117784 0.0339666
0.530404 0.117784 0.0339666
0.559945 0.117784 0.0339666
0.589181 0.117784 0.0339666
0.617533 0.117784 0.0339666
0.645548 0.117784 0.0339666
0.67364 0.117784 0.0339666
0.701732 0.117784 0.0339666
0.729809 0.117784 0.0339666
0.7579 0.117784 0.0339666
0.785992 0.117784 0.0339666
0.814084 0.117784 0.0339666
0.842176 0.117784 0.0339666
0.870268 0.117784 0.0339666
0.89836 0.117784 0.0339666
0.926452 0.117784 0.0339666
0.954101 0.117784 0.0339666
0.0339666 0.145876 0.0339666
0.0616007 0.145876 0.0339666
0.0896925 0.145876 0.0339666
0.117784 0.145876 0.0339666
0.145876 0.145876 0.0339666
0.173968 0.145876 0.0339666
0.20206 0.145876 0.0339666
0.229999 0.145876 0.0339666
0.258381 0.145876 0.0339666
0.287251 0.145876 0.0339666
0.316228 0.145876 0.0339666
0.345602 0.145876 0.0339666
0.375616 0.145876 0.0339666
0.40676 0.145876 0.0339666
0.438087 0.145876 0.0339666
0.469459 0.145876 0.0339666
0.500328 0.145876 0.0339666
0.530404 0.145876 0.0339666
0.559945 0.145876 0.0339666
0.589181 0.145876 0.0339666
0.617533 0.145876 0.0339666
0.645548 0.145876 0.0339666
0.67364 0.145876 0.0339666
0.701732 0.145876 0.0339666
0.729809 0.145876 0.0339666
0.7579 0.145876 0.0339666
0.785992 0.145876 0.0339666
0.814084 0.145876 0.0339666
0.842176 0.145876 0.0339666
0.870268 0.145876 0.0339666
0.89836 0.145876 0.0339666
0.926452 0.145876 0.0339666
0.954101 0.145876 0.0339666
0.0339666 0.173968 0.0339666
0.0616007 0.173968 0.0339666
0.0896925 0.173968 0.0339666
0.117784 0.173968 0.0339666
0.145876 0.173968 0.0339666
0.173968 0.173968 0.0339666
0.20206 0.173968 0.0339666
0.229999 0.173968 0.0339666
0.258381 0.173968 0.0339666
0.287251 0.173968 0.0339666
0.316228 0.173968 0.0339666
0.345602 0.173968 0.0339666
0.375616 0.173968 0.0339666
0.40676 0.173968 0.0339666
0.438087 0.173968 0.0339666
0.469459 0.173968 0.0339666
0.500328 0.173968 0.0339666
0.530404 0.173968 0.0339666
0.559945 0.173968 0.0339666
0.589181 0.173968 0.0339666
0.617533 0.173968 0.0339666
0.645548 0.173968 0.0339666
0.67364 0.173968 0.0339666
0.701732 0.173968 0.0339666
0.729809 0.173968 0.0339666
0.7579 0.173968 0.0339666
0.785992 0.173968 0.0339666
0.814084 0.173968 0.0339666
0.842176 0.173968 0.0339666
0.870268 0.173968 0.0339666
0.89836 0.173968 0.0339666
0.926452 0.173968 0.0339666
0.954101 0.173968 0.0339666
0.0339666 0.20206 0.0339666
0.0616007 0.20206 0.0339666
0.0896925 0.20206 0.0339666
0.117784 0.20206 0.0339666
0.145876 0.20206 0.0339666
0.173968 0.20206 0.0339666
0.20206 0.20206 0.0339666
0.229999 0.20206 0.0339666
0.258381 0.20206 0.0339666
0.287251 0.20206 0.0339666
0.316228 0.20206 0.0339666
0.345602 0.20206 0.0339666
0.375616 0.20206 0.0339666
0.40676 0.20206 0.0339666
0.438087 0.20206 0.0339666
0.469459 0.20206 0.0339666
0.500328 0.20206 0.0339666
0.530404 0.20206 0.0339666
0.559945 0.20206 0.0339666
0.589181 0.20206 0.0339666
0.617533 0.20206 0.0339666
0.645548 0.20206 0.0339666
0.67364 0.20206 0.0339666
0.701732 0.20206 0.0339666
0.729809 0.20206 0.0339666
0.7579 0.20206 0.0339666
0.785992 0.20206 0.0339666
0.814084 0.20206 0.0339666
0.842176 0.20206 0.0339666
0.870268 0.20206 0.0339666
0.89836 0.20206 0.0339666
0.926452 0.20206 0.0339666
0.954101 0.20206 0.0339666
0.0339666 0.229999 0.0339666
0.0616007 0.229999 0.0339666
0.0896925 0.229999 0.0339666
0.117784 0.229999 0.0339666
0.145876 0.229999 0.0339666
0.173968 0.229999 0.0339666
0.20206 0.229999 0.0339666
0.229999 0.229999 0.0339666
0.258381 0.229999 0.0339666
0.287251 0.229999 0.0339666
0.316228 0.229999 0.0339666
0.345602 0.229999 0.0339666
0.375616 0.229999 0.0339666
0.40676 0.229999 0.0339666
0.438087 0.229999 0.0339666
0.469459 0.229999 0.0339666
0.500328 0.229999 0.0339666
0.530404 0.229999 0.0339666
0.559945 0.229999 0.0339666
0.589181 0.229999 0.0339666
0.617533 0.229999 0.0339666
0.645548 0.229999 0.0339666
0.67364 0.229999 0.0339666
0.701732 0.229999 0.0339666
0.729809 0.229999 0.0339666
0.7579 0.229999 0.0339666
0.785992 0.229999 0.0339666
0.814084 0.229999 0.0339666
0.842176 0.229999 0.0339666
0.870268 0.229999 0.0339666
0.89836 0.229999 0.0339666
0.926452 0.229999 0.0339666
0.954101 0.229999 0.0339666
0.0339666 0.258381 0.0339666
0.0616007 0.258381 0.0339666
0.0896925 0.258381 0.0339666
0.117784 0.258381 0.0339666
0.145876 0.258381 0.0339666
0.173968 0.258381 0.0339666
0.20206 0.258381 0.0339666
0.229999 0.258381 0.0339666
0.258381 0.258381 0.0339666
0.287251 0.258381 0.0339666
0.316228 0.258381 0.0339666
0.345602 0.258381 0.0339666
0.375616 0.258381 0.0339666
0.40676 0.258381 0.0339666
0.438087 0.258381 0.0339666
0.469459 0.258381 0.0339666
0.500328 0.258381 0.0339666
0.530404 0.258381 0.0339666
0.559945 0.258381 0.0339666
0.589181 0.258381 0.0339666
0.617533 0.258381 0.0339666
0.645548 0.258381 0.0339666
0.67364 0.258381 0.0339666
0.701732 0.258381 0.0339666
0.729809 0.258381 0.0339666
0.7579 0.258381 0.0339666
0.785992 0.258381 0.0339666
0.814084 0.258381 0.0339666
0.842176 0.258381 0.0339666
0.870268 0.258381 0.0339666
0.89836 0.258381 0.0339666
0.926452 0.258381 0.0339666
0.954101 0.258381 0.0339666
0.0339666 0.287251 0.0339666
0.0616007 0.287251 0.0339666
0.0896925 0.287251 0.0339666
0.117784 0.287251 0.0339666
0.145876 0.287251 0.0339666
0.173968 0.287251 0.0339666
0.20206 0.287251 0.0339666
0.229999 0.287251 0.0339666
0.258381 0.287251 0.0339666
0.287251 0.287251 0.0339666
0.316228 0.287251 0.0339666
0.345602 0.287251 0.0339666
0.375616 0.287251 0.0339666
0.40676 0.287251 0.0339666
0.438087 0.287251 0.0339666
0.469459 0.287251 0.0339666
0.500328 0.287251 0.0339666
0.530404 0.287251 0.0339666
0.559945 0.287251 0.0339666
0.589181 0.287251 0.0339666
0.617533 0.287251 0.0339666
0.645548 0.287251 0.0339666
0.67364 0.287251 0.0339666
0.701732 0.287251 0.0339666
0.729809 0.287251 0.0339666
0.7579 0.287251 0.0339666
0.785992 0.287251 0.0339666
0.814084 0.287251 0.0339666
0.842176 0.287251 0.0339666
0.870268 0.287251 0.0339666
0.89836 0.287251 0.0339666
0.926452 0.287251 0.0339666
0.954101 0.287251 0.0339666
0.0339666 0.316228 0.0339666
0.0616007 0.316228 0.0339666
0.0896925 0.316228 0.0339666
0.117784 0.316228 0.0339666
0.145876 0.316228 0.0339666
0.173968 0.316228 0.0339666
0.20206 0.316228 0.0339666
0.229999 0.316228 0.0339666
0.258381 0.316228 0.0339666
0.287251 0.316228 0.0339666
0.316228 0.316228 0.0339666
0.345602 0.316228 0.0339666
0.375616 0.316228 0.0339666
0.40676 0.316228 0.0339666
0.438087 0.316228 0.0339666
0.469459 0.316228 0.0339666
0.500328 0.316228 0.0339666
0.530404 0.316228 0.0339666
0.559945 0.316228 0.0339666
0.589181 0.316228 0.0339666
0.617533 0.316228 0.0339666
0.645548 0.316228 0.0339666
0.67364 0.316228 0.0339666
0.701732 0.316228 0.0339666
0.729809 0.316228 0.0339666
0.7579 0.316228 0.0339666
0.785992 0.316228 0.0339666
0.814084 0.316228 0.0339666
0.842176 0.316228 0.0339666
0.870268 0.316228 0.0339666
0.89836 0.316228 0.0339666
0.926452 0.316228 0.0339666
0.954101 0.316228 0.0339666
0.0339666 0.345602 0.0339666
0.0616007 0.345602 0.0339666
0.0896925 0.345602 0.0339666
0.117784 0.345602 0.0339666
0.145876 0.345602 0.0339666
0.173968 0.345602 0.0339666
0.20206 0.345602 0.0339666
0.229999 0.345602 0.0339666
0.258381 0.345602 0.0339666
0.287251 0.345602 0.0339666
0.316228 0.345602 0.0339666
0.345602 0.345602 0.0339666
0.375616 0.345602 0.0339666
0.40676 0.345602 0.0339666
0.438087 0.345602 0.0339666
0.469459 0.345602 0.0339666
0.500328 0.345602 0.0339666
0.530404 0.345602 0.0339666
0.559945 0.345602 0.0339666
0.589181 0.345602 0.0339666
0.617533 0.345602 0.0339666
0.645548 0.345602 0.0339666
0.67364 0.345602 0.0339666
0.701732 0.345602 0.0339666
0.729809 0.345602 0.0339666
0.7579 0.345602 0.0339666
0.785992 0.345602 0.0339666
0.814084 0.345602 0.0339666
0.842176 0.345602 0.0339666
0.870268 0.345602 0.0339666
0.89836 0.345602 0.0339666
0.926452 0.345602 0.0339666
0.954101 0.345602 0.0339666
0.0339666 0.375616 0.0339666
0.0616007 0.375616 0.0339666
0.0896925 0.375616 0.0339666
0.117784 0.375616 0.0339666
0.145876 0.375616 0.0339666
0.173968 0.375616 0.0339666
0.20206 0.375616 0.0339666
0.229999 0.375616 0.0339666
0.258381 0.375616 0.0339666
0.287251 0.375616 0.0339666
0.316228 0.375616 0.0339666
0.345602 0.375616 0.0339666
0.375616 0.375616 0.0339666
0.40676 0.375616 0.0339666
0.438087 0.375616 0.0339666
0.469459 0.375616 0.0339666
0.500328 0.375616 0.0339666
0.530404 0.375616 0.0339666
0.559945 0.375616 0.0339666
0.589181 0.375616 0.0339666
0.617533 0.375616 0.0339666
0.645548 0.375616 0.0339666
0.67364 0.375616 0.0339666
0.701732 0.375616 0.0339666
0.729809 0.375616 0.0339666
0.7579 0.375616 0.0339666
0.785992 0.375616 0.0339666
0.814084 0.375616 0.0339666
0.842176 0.375616 0.0339666
0.870268 0.375616 0.0339666
0.89836 0.375616 0.0339666
0.926452 0.375616 0.0339666
0.954101 0.375616 0.0339666
0.0339666 0.40676 0.0339666
0.0616007 0.40676 0.0339666
0.0896925 0.40676 0.0339666
0.117784 0.40676 0.0339666
0.145876 0.40676 0.0339666
0.173968 0.40676 0.0339666
0.20206 0.40676 0.0339666
0.229999 0.40676 0.0339666
0.258381 0.40676 0.0339666
0.287251 0.40676 0.0339666
0.316228 0.40676 0.0339666
0.345602 0.40676 0.0339666
0.375616 0.40676 0.0339666
0.40676 0.40676 0.0339666
0.438087 0.40676 0.0339666
0.469459 0.40676 0.0339666
0.500328 0.40676 0.0339666
0.530404 0.40676 0.0339666
0.559945 0.40676 0.0339666
0.589181 0.40676 0.0339666
0.617533 0.40676 0.0339666
0.645548 0.40676 0.0339666
0.67364 0.40676 0.0339666
0.701732 0.40676 0.0339666
0.729809 0.40676 0.0339666
0.7579 0.40676 0.0339666
0.785992 0.40676 0.0339666
0.814084 0.40676 0.0339666
0.842176 0.40676 0.0339666
0.870268 0.40676 0.0339666
0.89836 0.40676 0.0339666
0.926452 0.40676 0.0339666
0.954101 0.40676 0.0339666
0.0339666 0.438087 0.0339666
0.0616007 0.438087 0.0339666
0.0896925 0.438087 0.0339666
0.117784 0.438087 0.0339666
0.145876 0.438087 0.0339666
0.173968 0.438087 0.0339666
0.20206 0.438087 0.0339666
0.229999 0.438087 0.0339666
0.258381 0.438087 0.0339666
0.287251 0.438087 0.0339666
0.316228 0.438087 0.0339666
0.345602 0.438087 0.0339666
0.375616 0.438087 0.0339666
0.40676 0.438087 0.0339666
0.438087 0.438087 0.0339666
0.469459 0.438087 0.0339666
0.500328 0.438087 0.0339666
0.530404 0.438087 0.0339666
0.559945 0.438087 0.0339666
0.589181 0.438087 0.0339666
0.617533 0.438087 0.0339666
0.645548 0.438087 0.0339666
0.67364 0.438087 0.0339666
0.701732 0.438087 0.0339666
0.729809 0.438087 0.0339666
0.7579 0.438087 0.0339666
0.785992 0.438087 0.0339666
0.814084 0.438087 0.0339666
0.842176 0.438087 0.0339666
0.870268 0.438087 0.0339666
0.89836 0.438087 0.0339666
0.926452 0.438087 0.0339666
0.954101 0.438087 0.0339666
0.0339666 0.469459 0.0339666
0.0616007 0.469459 0.0339666
0.0896925 0.469459 0.0339666
0.117784 0.469459 0.0339666
0.145876 0.469459 0.0339666
0.173968 0.469459 0.0339666
0.20206 0.469459 0.0339666
0.229999 0.469459 0.0339666
0.258381 0.469459 0.0339666
0.287251 0.469459 0.0339666
0.316228 0.469459 0.0339666
0.345602 0.469459 0.0339666
0.375616 0.469459 0.0339666
0.40676 0.469459 0.0339666
0.438087 0.469459 0.0339666
0.469459 0.469459 0.0339666
0.500328 0.469459 0.0339666
0.530404 0.469459 0.0339666
0.559945 0.469459 0.0339666
0.589181 0.469459 0.0339666
0.617533 0.469459 0.0339666
0.645548 0.469459 0.0339666
0.67364 0.469459 0.0339666
0.701732 0.469459 0.0339666
0.729809 0.469459 0.0339666
0.7579 0.469459 0.0339666
0.785992 0.469459 0.0339666
0.814084 0.469459 0.0339666
0.842176 0.469459 0.0339666
0.870268 0.469459 0.0339666
0.89836 0.469459 0.0339666
0.926452 0.469459 0.0339666
0.954101 0.469459 0.0339666
0.0339666 0.500328 0.0339666
0.0616007 0.500328 0.0339666
0.0896925 0.500328 0.0339666
0.117784 0.500328 0.0339666
0.145876 0.500328 0.0339666
0.173968 0.500328 0.0339666
0.20206 0.500328 0.0339666
0.229999 0.500328 0.0339666
0.258381 0.500328 0.0339666
0.287251 0.500328 0.0339666
0.316228 0.500328 0.0339666
0.345602 0.500328 0.0339666
0.375616 0.500328 0.0339666
0.40676 0.500328 0.0339666
0.438087 0.500328 0.0339666
0.469459 0.500328 0.0339666
0.500328 0.500328 0.0339666
0.530404 0.500328 0.0339666
0.559945 0.500328 0.0339666
0.589181 0.500328 0.0339666
0.617533 0.500328 0.0339666
0.645548 0.500328 0.0339666
0.67364 0.500328 0.0339666
0.701732 0.500328 0.0339666
0.729809 0.500328 0.0339666
0.7579 0.500328 0.0339666
0.785992 0.500328 0.0339666
0.814084 0.500328 0.0339666
0.842176 0.500328 0.0339666
0.870268 0.500328 0.0339666
0.89836 0.500328 0.0339666
0.926452 0.500328 0.0339666
0.954101 0.500328 0.0339666
0.0339666 0.530404 0.0339666
0.0616007 0.530404 0.0339666
0.0896925 0.530404 0.0339666
0.117784 0.530404 0.0339666
0.145876 0.530404 0.0339666
0.173968 0.530404 0.0339666
0.20206 0.530404 0.0339666
0.229999 0.530404 0.0339666
0.258381 0.530404 0.0339666
0.287251 0.530404 0.0339666
0.316228 0.530404 0.0339666
0.345602 0.530404 0.0339666
0.375616 0.530404 0.0339666
0.40676 0.530404 0.0339666
0.438087 0.530404 0.0339666
0.469459 0.530404 0.0339666
0.500328 0.530404 0.0339666
0.530404 0.530404 0.0339666
0.559945 0.530404 0.0339666
0.589181 0.530404 0.0339666
0.617533 0.530404 0.0339666
0.645548 0.530404 0.0339666
0.67364 0.530404 0.0339666
0.701732 0.530404 0.0339666
0.729809 0.530404 0.0339666
0.7579 0.530404 0.0339666
0.785992 0.530404 0.0339666
0.814084 0.530404 0.0339666
0.842176 0.530404 0.0339666
0.870268 0.530404 0.0339666
0.89836 0.530404 0.0339666
0.926452 0.530404 0.0339666
0.954101 0.530404 0.0339666
0.0339666 0.559945 0.0339666
0.0616007 0.559945 0.0339666
0.0896925 0.559945 0.0339666
0.117784 0.559945 0.0339666
0.145876 0.559945 0.0339666
0.173968 0.559945 0.0339666
0.20206 0.559945 0.0339666
0.229999 0.559945 0.0339666
0.258381 0.559945 0.0339666
0.287251 0.559945 0.0339666
0.316228 0.559945 0.0339666
0.345602 0.559945 0.0339666
0.375616 0.559945 0.0339666
0.40676 0.559945 0.0339666
0.438087 0.559945 0.0339666
0.469459 0.559945 0.0339666
0.500328 0.559945 0.0339666
0.530404 0.559945 0.0339666
0.559945 0.559945 0.0339666
0.589181 0.559945 0.0339666
0.617533 0.559945 0.0339666
0.645548 0.559945 0.0339666
0.67364 0.559945 0.0339666
0.701732 0.559945 0.0339666
0.729809 0.559945 0.0339666
0.7579 0.559945 0.0339666
0.785992 0.559945 0.0339666
0.814084 0.559945 0.0339666
0.842176 0.559945 0.0339666
0.870268 0.559945 0.0339666
0.89836 0.559945 0.0339666
0.926452 0.559945 0.0339666
0.954101 0.559945 0.0339666
0.0339666 0.589181 0.0339666
0.0616007 0.589181 0.0339666
0.0896925 0.589181 0.0339666
0.117784 0.589181 0.0339666
0.145876 0.589181 0.0339666
0.173968 0.589181 0.0339666
0.20206 0.589181 0.0339666
0.229999 0.589181 0.0339666
0.258381 0.589181 0.0339666
0.287251 0.589181 0.0339666
0.316228 0.589181 0.0339666
0.345602 0.589181 0.0339666
0.375616 0.589181 0.0339666
0.40676 0.589181 0.0339666
0.438087 0.589181 0.0339666
0.469459 0.589181 0.0339666
0.500328 0.589181 0.0339666
0.530404 0.589181 0.0339666
0.559945 0.589181 0.0339666
0.589181 0.589181 0.0339666
0.617533 0.589181 0.0339666
0.645548 0.589181 0.0339666
0.67364 0.589181 0.0339666
0.701732 0.589181 0.0339666
0.729809 0.589181 0.0339666
0.7579 0.589181 0.0339666
0.785992 0.589181 0.0339666
0.814084 0.589181 0.0339666
0.842176 0.589181 0.0339666
0.870268 0.589181 0.0339666
0.89836 0.589181 0.0339666
0.926452 0.589181 0.0339666
0.954101 0.589181 0.0339666
0.0339666 0.617533 0.0339666
0.0616007 0.617533 0.0339666
0.0896925 0.617533 0.0339666
0.117784 0.617533 0.0339666
0.145876 0.617533 0.0339666
0.173968 0.617533 0.0339666
0.20206 0.617533 0.0339666
0.229999 0.617533 0.0339666
0.258381 0.617533 0.0339666
0.287251 0.617533 0.0339666
0.316228 0.617533 0.0339666
0.345602 0.617533 0.0339666
0.375616 0.617533 0.0339666
0.40676 0.617533 0.0339666
0.438087 0.617533 0.0339666
0.469459 0.617533 0.0339666
0.500328 0.617533 0.0339666
0.530404 0.617533 0.0339666
0.559945 0.617533 0.0339666
0.589181 0.617533 0.0339666
0.617533 0.617533 0.0339666
0.645548 0.617533 0.0339666
0.67364 0.617533 0.0339666
0.701732 0.617533 0.0339666
0.729809 0.617533 0.0339666
0.7579 0.617533 0.0339666
0.785992 0.617533 0.0339666
0.814084 0.617533 0.0339666
0.842176 0.617533 0.0339666
0.870268 0.617533 0.0339666
0.89836 0.617533 0.0339666
0.926452 0.617533 0.0339666
0.954101 0.617533 0.0339666
0.0339666 0.645548 0.0339666
0.0616007 0.645548 0.0339666
0.0896925 0.645548 0.0339666
0.117784 0.645548 0.0339666
0.145876 0.645548 0.0339666
0.173968 0.645548 0.0339666
0.20206 0.645548 0.0339666
0.229999 0.645548 0.0339666
0.258381 0.645548 0.0339666
0.287251 0.645548 0.0339666
0.316228 0.645548 0.0339666
0.345602 0.645548 0.0339666
0.375616 0.645548 0.0339666
0.40676 0.645548 0.0339666
0.438087 0.645548 0.0339666
0.469459 0.645548 0.0339666
0.500328 0.645548 0.0339666
0.530404 0.645548 0.0339666
0.559945 0.645548 0.0339666
0.589181 0.645548 0.0339666
0.617533 0.645548 0.0339666
0.645548 0.645548 0.0339666
0.67364 0.645548 0.0339666
0.701732 0.645548 0.0339666
0.729809 0.645548 0.0339666
0.7579 0.645548 0.0339666
0.785992 0.645548 0.0339666
0.814084 0.645548 0.0339666
0.842176 0.645548 0.0339666
0.870268 0.645548 0.0339666
0.89836 0.645548 0.0339666
0.926452 0.645548 0.0339666
0.954101 0.645548 0.0339666
0.0339666 0.67364 0.0339666
0.0616007 0.67364 0.0339666
0.0896925 0.67364 0.0339666
0.117784 0.67364 0.0339666
0.145876 0.67364 0.0339666
0.173968 0.67364 0.0339666
0.20206 0.67364 0.0339666
0.229999 0.67364 0.0339666
0.258381 0.67364 0.0339666
0.287251 0.67364 0.0339666
0.316228 0.67364 0.0339666
0.345602 0.67364 0.0339666
0.375616 0.67364 0.0339666
0.40676 0.67364 0.0339666
0.438087 0.67364 0.0339666
0.469459 0.67364 0.0339666
0.500328 0.67364 0.0339666
0.530404 0.67364 0.0339666
0.559945 0.67364 0.0339666
0.589181 0.67364 0.0339666
0.617533 0.67364 0.0339666
0.645548 0.67364 0.0339666
0.67364 0.67364 0.0339666
0.701732 0.67364 0.0339666
0.729809 0.67364 0.0339666
0.7579 0.67364 0.0339666
0.785992 0.67364 0.0339666
0.814084 0.67364 0.0339666
0.842176 0.67364 0.0339666
0.870268 0.67364 0.0339666
0.89836 0.67364 0.0339666
0.926452 0.67364 0.0339666
0.954101 0.67364 0.0339666
0.0339666 0.701732 0.0339666
0.0616007 0.701732 0.0339666
0.0896925 0.701732 0.0339666
0.117784 0.701732 0.0339666
0.145876 0.701732 0.0339666
0.173968 0.701732 0.0339666
0.20206 0.701732 0.0339666
0.229999 0.701732 0.0339666
0.258381 0.701732 0.0339666
0.287251 0.701732 0.0339666
0.316228 0.701732 0.0339666
0.345602 0.701732 0.0339666
0.375616 0.701732 0.0339666
0.40676 0.701732 0.0339666
0.438087 0.701732 0.0339666
0.469459 0.701732 0.0339666
0.500328 0.701732 0.0339666
0.530404 0.701732 0.0339666
0.559945 0.701732 0.0339666
0.589181 0.701732 0.0339666
0.617517 0.701732 0.0339666
0.645548 0.701732 0.0339666
0.67364 0.701732 0.0339666
0.701732 0.701732 0.0339666
0.729809 0.701732 0.0339666
0.7579 0.701732 0.0339666
0.785992 0.701732 0.0339666
0.814084 0.701732 0.0339666
0.842176 0.701732 0.0339666
0.870268 0.701732 0.0339666
0.89836 0.701732 0.0339666
0.926452 0.701732 0.0339666
0.954101 0.701732 0.0339666
0.0339666 0.729809 0.0339666
0.0616007 0.729809 0.0339666
0.0896925 0.729809 0.0339666
0.117784 0.729809 0.0339666
0.145876 0.729809 0.0339666
0.173968 0.729809 0.0339666
0.20206 0.729809 0.0339666
0.229999 0.729809 0.0339666
0.258381 0.729809 0.0339666
0.287251 0.729809 0.0339666
0.316228 0.729809 0.0339666
0.345602 0.729809 0.0339666
0.375616 0.729809 0.0339666
0.40676 0.729809 0.0339666
0.438087 0.729809 0.0339666
0.469459 0.729809 0.0339666
0.500328 0.729809 0.0339666
0.530404 0.729809 0.0339666
0.559945 0.729809 0.0339666
0.589181 0.729809 0.0339666
0.617517 0.729809 0.0339666
0.645548 0.729809 0.0339666
0.67364 0.729809 0.0339666
0.701732 0.729809 0.0339666
0.729809 0.729809 0.0339666
0.7579 0.729809 0.0339666
0.785992 0.729809 0.0339666
0.814084 0.729809 0.0339666
0.842176 0.729809 0.0339666
0.870268 0.729809 0.0339666
0.89836 0.729809 0.0339666
0.926452 0.729809 0.0339666
0.954101 0.729809 0.0339666
0.0339666 0.7579 0.0339666
0.0616007 0.7579 0.0339666
0.0896925 0.7579 0.0339666
0.117784 0.7579 0.0339666
0.145876 0.7579 0.0339666
0.173968 0.7579 0.0339666
0.20206 0.7579 0.0339666
0.229999 0.7579 0.0339666
0.258381 0.7579 0.0339666
0.287251 0.7579 0.0339666
0.316228 0.7579 0.0339666
0.345602 0.7579 0.0339666
0.375616 0.7579 0.0339666
0.40676 0.7579 0.0339666
0.438087 0.7579 0.0339666
0.469459 0.7579 0.0339666
0.500328 0.7579 0.0339666
0.530404 0.7579 0.0339666
0.559945 0.7579 0.0339666
0.589181 0.7579 0.0339666
0.617533 0.7579 0.0339666
0.645548 0.7579 0.0339666
0.67364 0.7579 0.0339666
0.701732 0.7579 0.0339666
0.729809 0.7579 0.0339666
0.7579 0.7579 0.0339666
0.785992 0.7579 0.0339666
0.814084 0.7579 0.0339666
0.842176 0.7579 0.0339666
0.870268 0.7579 0.0339666
0.89836 0.7579 0.0339666
0.926452 0.7579 0.0339666
0.954101 0.7579 0.0339666
0.0339666 0.785992 0.0339666
0.0616007 0.785992 0.0339666
