public/LUTS/Balanced/Balanced_05.cube
TITLE "Generated by Resolve"
LUT_3D_SIZE 33
0.0486152 0.0486152 0.0486152
0.0749065 0.0486152 0.0486152
0.10161 0.0486152 0.0486152
0.128328 0.0486152 0.0486152
0.155047 0.0486152 0.0486152
0.181765 0.0486152 0.0486152
0.208469 0.0486152 0.0486152
0.234974 0.0486152 0.0486152
0.262089 0.0486152 0.0486152
0.289876 0.0486152 0.0486152
0.317815 0.0486152 0.0486152
0.346303 0.0486152 0.0486152
0.375708 0.0486152 0.0486152
0.40676 0.0486152 0.0486152
0.438087 0.0486152 0.0486152
0.469505 0.0486152 0.0486152
0.500206 0.0486152 0.0486152
0.529763 0.0486152 0.0486152
0.558526 0.0486152 0.0486152
0.586801 0.0486152 0.0486152
0.613657 0.0486152 0.0486152
0.640009 0.0486152 0.0486152
0.666484 0.0486152 0.0486152
0.692943 0.0486152 0.0486152
0.719402 0.0486152 0.0486152
0.745861 0.0486152 0.0486152
0.772335 0.0486152 0.0486152
0.798795 0.0486152 0.0486152
0.825254 0.0486152 0.0486152
0.851728 0.0486152 0.0486152
0.878187 0.0486152 0.0486152
0.904646 0.0486152 0.0486152
0.930694 0.0486152 0.0486152
0.0486152 0.0749065 0.0486152
0.0749065 0.0749065 0.0486152
0.10161 0.0749065 0.0486152
0.128328 0.0749065 0.0486152
0.155047 0.0749065 0.0486152
0.181765 0.0749065 0.0486152
0.208469 0.0749065 0.0486152
0.234974 0.0749065 0.0486152
0.262089 0.0749065 0.0486152
0.289876 0.0749065 0.0486152
0.317815 0.0749065 0.0486152
0.346303 0.0749065 0.0486152
0.375708 0.0749065 0.0486152
0.40676 0.0749065 0.0486152
0.438087 0.0749065 0.0486152
0.469505 0.0749065 0.0486152
0.500206 0.0749065 0.0486152
0.529763 0.0749065 0.0486152
0.558526 0.0749065 0.0486152
0.586801 0.0749065 0.0486152
0.613657 0.0749065 0.0486152
0.640009 0.0749065 0.0486152
0.666484 0.0749065 0.0486152
0.692943 0.0749065 0.0486152
0.719402 0.0749065 0.0486152
0.745861 0.0749065 0.0486152
0.772335 0.0749065 0.0486152
0.798795 0.0749065 0.0486152
0.825254 0.0749065 0.0486152
0.851728 0.0749065 0.0486152
0.878187 0.0749065 0.0486152
0.904646 0.0749065 0.0486152
0.930694 0.0749065 0.0486152
0.0486152 0.10161 0.0486152
0.0749065 0.10161 0.0486152
0.10161 0.10161 0.0486152
0.128328 0.10161 0.0486152
0.155047 0.10161 0.0486152
0.181765 0.10161 0.0486152
0.208469 0.10161 0.0486152
0.234974 0.10161 0.0486152
0.262089 0.10161 0.0486152
0.289876 0.10161 0.0486152
0.317815 0.10161 0.0486152
0.346303 0.10161 0.0486152
0.375708 0.10161 0.0486152
0.40676 0.10161 0.0486152
0.438087 0.10161 0.0486152
0.469505 0.10161 0.0486152
0.500206 0.10161 0.0486152
0.529763 0.10161 0.0486152
0.558526 0.10161 0.0486152
0.586801 0.10161 0.0486152
0.613657 0.10161 0.0486152
0.640009 0.10161 0.0486152
0.666484 0.10161 0.0486152
0.692943 0.10161 0.0486152
0.719402 0.10161 0.0486152
0.745861 0.10161 0.0486152
0.772335 0.10161 0.0486152
0.798795 0.10161 0.0486152
0.825254 0.10161 0.0486152
0.851728 0.10161 0.0486152
0.878187 0.10161 0.0486152
0.904646 0.10161 0.0486152
0.930694 0.10161 0.0486152
0.0486152 0.128328 0.0486152
0.0749065 0.128328 0.0486152
0.10161 0.128328 0.0486152
0.128328 0.128328 0.0486152
0.155047 0.128328 0.0486152
0.181765 0.128328 0.0486152
0.208469 0.128328 0.0486152
0.234974 0.128328 0.0486152
0.262089 0.128328 0.0486152
0.289876 0.128328 0.0486152
0.317815 0.128328 0.0486152
0.346303 0.128328 0.0486152
0.375708 0.128328 0.0486152
0.40676 0.128328 0.0486152
0.438087 0.128328 0.0486152
0.469505 0.128328 0.0486152
0.500206 0.128328 0.0486152
0.529763 0.128328 0.0486152
0.558526 0.128328 0.0486152
0.586801 0.128328 0.0486152
0.613657 0.128328 0.0486152
0.640009 0.128328 0.0486152
0.666484 0.128328 0.0486152
0.692943 0.128328 0.0486152
0.719402 0.128328 0.0486152
0.745861 0.128328 0.0486152
0.772335 0.128328 0.0486152
0.798795 0.128328 0.0486152
0.825254 0.128328 0.0486152
0.851728 0.128328 0.0486152
0.878187 0.128328 0.0486152
0.904646 0.128328 0.0486152
0.930694 0.128328 0.0486152
0.0486152 0.155047 0.0486152
0.0749065 0.155047 0.0486152
0.10161 0.155047 0.0486152
0.128328 0.155047 0.0486152
0.155047 0.155047 0.0486152
0.181765 0.155047 0.0486152
0.208469 0.155047 0.0486152
0.234974 0.155047 0.0486152
0.262089 0.155047 0.0486152
0.289876 0.155047 0.0486152
0.317815 0.155047 0.0486152
0.346303 0.155047 0.0486152
0.375708 0.155047 0.0486152
0.40676 0.155047 0.0486152
0.438087 0.155047 0.0486152
0.469505 0.155047 0.0486152
0.500206 0.155047 0.0486152
0.529763 0.155047 0.0486152
0.558526 0.155047 0.0486152
0.586801 0.155047 0.0486152
0.613657 0.155047 0.0486152
0.640009 0.155047 0.0486152
0.666484 0.155047 0.0486152
0.692943 0.155047 0.0486152
0.719402 0.155047 0.0486152
0.745861 0.155047 0.0486152
0.772335 0.155047 0.0486152
0.798795 0.155047 0.0486152
0.825254 0.155047 0.0486152
0.851728 0.155047 0.0486152
0.878187 0.155047 0.0486152
0.904646 0.155047 0.0486152
0.930694 0.155047 0.0486152
0.0486152 0.181765 0.0486152
0.0749065 0.181765 0.0486152
0.10161 0.181765 0.0486152
0.128328 0.181765 0.0486152
0.155047 0.181765 0.0486152
0.181765 0.181765 0.0486152
0.208469 0.181765 0.0486152
0.234974 0.181765 0.0486152
0.262089 0.181765 0.0486152
0.289876 0.181765 0.0486152
0.317815 0.181765 0.0486152
0.346303 0.181765 0.0486152
0.375708 0.181765 0.0486152
0.40676 0.181765 0.0486152
0.438087 0.181765 0.0486152
0.469505 0.181765 0.0486152
0.500206 0.181765 0.0486152
0.529763 0.181765 0.0486152
0.558526 0.181765 0.0486152
0.586801 0.181765 0.0486152
0.613657 0.181765 0.0486152
0.640009 0.181765 0.0486152
0.666484 0.181765 0.0486152
0.692943 0.181765 0.0486152
0.719402 0.181765 0.0486152
0.745861 0.181765 0.0486152
0.772335 0.181765 0.0486152
0.798795 0.181765 0.0486152
0.825254 0.181765 0.0486152
0.851728 0.181765 0.0486152
0.878187 0.181765 0.0486152
0.904646 0.181765 0.0486152
0.930694 0.181765 0.0486152
0.0486152 0.208469 0.0486152
0.0749065 0.208469 0.0486152
0.10161 0.208469 0.0486152
0.128328 0.208469 0.0486152
0.155047 0.208469 0.0486152
0.181765 0.208469 0.0486152
0.208469 0.208469 0.0486152
0.234974 0.208469 0.0486152
0.262089 0.208469 0.0486152
0.289876 0.208469 0.0486152
0.317815 0.208469 0.0486152
0.346303 0.208469 0.0486152
0.375708 0.208469 0.0486152
0.40676 0.208469 0.0486152
0.438087 0.208469 0.0486152
0.469505 0.208469 0.0486152
0.500206 0.208469 0.0486152
0.529763 0.208469 0.0486152
0.558526 0.208469 0.0486152
0.586801 0.208469 0.0486152
0.613657 0.208469 0.0486152
0.640009 0.208469 0.0486152
0.666484 0.208469 0.0486152
0.692943 0.208469 0.0486152
0.719402 0.208469 0.0486152
0.745861 0.208469 0.0486152
0.772335 0.208469 0.0486152
0.798795 0.208469 0.0486152
0.825254 0.208469 0.0486152
0.851728 0.208469 0.0486152
0.878187 0.208469 0.0486152
0.904646 0.208469 0.0486152
0.930694 0.208469 0.0486152
0.0486152 0.234974 0.0486152
0.0749065 0.234974 0.0486152
0.10161 0.234974 0.0486152
0.128328 0.234974 0.0486152
0.155047 0.234974 0.0486152
0.181765 0.234974 0.0486152
0.208469 0.234974 0.0486152
0.234974 0.234974 0.0486152
0.262089 0.234974 0.0486152
0.289876 0.234974 0.0486152
0.317815 0.234974 0.0486152
0.346303 0.234974 0.0486152
0.375708 0.234974 0.0486152
0.40676 0.234974 0.0486152
0.438087 0.234974 0.0486152
0.469505 0.234974 0.0486152
0.500206 0.234974 0.0486152
0.529763 0.234974 0.0486152
0.558526 0.234974 0.0486152
0.586801 0.234974 0.0486152
0.613657 0.234974 0.0486152
0.640009 0.234974 0.0486152
0.666484 0.234974 0.0486152
0.692943 0.234974 0.0486152
0.719402 0.234974 0.0486152
0.745861 0.234974 0.0486152
0.772335 0.234974 0.0486152
0.798795 0.234974 0.0486152
0.825254 0.234974 0.0486152
0.851728 0.234974 0.0486152
0.878187 0.234974 0.0486152
0.904646 0.234974 0.0486152
0.930694 0.234974 0.0486152
0.0486152 0.262089 0.0486152
0.0749065 0.262089 0.0486152
0.10161 0.262089 0.0486152
0.128328 0.262089 0.0486152
0.155047 0.262089 0.0486152
0.181765 0.262089 0.0486152
0.208469 0.262089 0.0486152
0.234974 0.262089 0.0486152
0.262089 0.262089 0.0486152
0.289876 0.262089 0.0486152
0.317815 0.262089 0.0486152
0.346303 0.262089 0.0486152
0.375708 0.262089 0.0486152
0.40676 0.262089 0.0486152
0.438087 0.262089 0.0486152
0.469505 0.262089 0.0486152
0.500206 0.262089 0.0486152
0.529763 0.262089 0.0486152
0.558526 0.262089 0.0486152
0.586801 0.262089 0.0486152
0.613657 0.262089 0.0486152
0.640009 0.262089 0.0486152
0.666484 0.262089 0.0486152
0.692943 0.262089 0.0486152
0.719402 0.262089 0.0486152
0.745861 0.262089 0.0486152
0.772335 0.262089 0.0486152
0.798795 0.262089 0.0486152
0.825254 0.262089 0.0486152
0.851728 0.262089 0.0486152
0.878187 0.262089 0.0486152
0.904646 0.262089 0.0486152
0.930694 0.262089 0.0486152
0.0486152 0.289876 0.0486152
0.0749065 0.289876 0.0486152
0.10161 0.289876 0.0486152
0.128328 0.289876 0.0486152
0.155047 0.289876 0.0486152
0.181765 0.289876 0.0486152
0.208469 0.289876 0.0486152
0.234974 0.289876 0.0486152
0.262089 0.289876 0.0486152
0.289876 0.289876 0.0486152
0.317815 0.289876 0.0486152
0.346303 0.289876 0.0486152
0.375708 0.289876 0.0486152
0.40676 0.289876 0.0486152
0.438087 0.289876 0.0486152
0.469505 0.289876 0.0486152
0.500206 0.289876 0.0486152
0.529763 0.289876 0.0486152
0.558526 0.289876 0.0486152
0.586801 0.289876 0.0486152
0.613657 0.289876 0.0486152
0.640009 0.289876 0.0486152
0.666484 0.289876 0.0486152
0.692943 0.289876 0.0486152
0.719402 0.289876 0.0486152
0.745861 0.289876 0.0486152
0.772335 0.289876 0.0486152
0.798795 0.289876 0.0486152
0.825254 0.289876 0.0486152
0.851728 0.289876 0.0486152
0.878187 0.289876 0.0486152
0.904646 0.289876 0.0486152
0.930694 0.289876 0.0486152
0.0486152 0.317815 0.0486152
0.0749065 0.317815 0.0486152
0.10161 0.317815 0.0486152
0.128328 0.317815 0.0486152
0.155047 0.317815 0.0486152
0.181765 0.317815 0.0486152
0.208469 0.317815 0.0486152
0.234974 0.317815 0.0486152
0.262089 0.317815 0.0486152
0.289876 0.317815 0.0486152
0.317815 0.317815 0.0486152
0.346303 0.317815 0.0486152
0.375708 0.317815 0.0486152
0.40676 0.317815 0.0486152
0.438087 0.317815 0.0486152
0.469505 0.317815 0.0486152
0.500206 0.317815 0.0486152
0.529763 0.317815 0.0486152
0.558526 0.317815 0.0486152
0.586801 0.317815 0.0486152
0.613657 0.317815 0.0486152
0.640009 0.317815 0.0486152
0.666484 0.317815 0.0486152
0.692943 0.317815 0.0486152
0.719402 0.317815 0.0486152
0.745861 0.317815 0.0486152
0.772335 0.317815 0.0486152
0.798795 0.317815 0.0486152
0.825254 0.317815 0.0486152
0.851728 0.317815 0.0486152
0.878187 0.317815 0.0486152
0.904646 0.317815 0.0486152
0.930694 0.317815 0.0486152
0.0486152 0.346303 0.0486152
0.0749065 0.346303 0.0486152
0.10161 0.346303 0.0486152
0.128328 0.346303 0.0486152
0.155047 0.346303 0.0486152
0.181765 0.346303 0.0486152
0.208469 0.346303 0.0486152
0.234974 0.346303 0.0486152
0.262089 0.346303 0.0486152
0.289876 0.346303 0.0486152
0.317815 0.346303 0.0486152
0.346303 0.346303 0.0486152
0.375708 0.346303 0.0486152
0.40676 0.346303 0.0486152
0.438087 0.346303 0.0486152
0.469505 0.346303 0.0486152
0.500206 0.346303 0.0486152
0.529763 0.346303 0.0486152
0.558526 0.346303 0.0486152
0.586801 0.346303 0.0486152
0.613657 0.346303 0.0486152
0.640009 0.346303 0.0486152
0.666484 0.346303 0.0486152
0.692943 0.346303 0.0486152
0.719402 0.346303 0.0486152
0.745861 0.346303 0.0486152
0.772335 0.346303 0.0486152
0.798795 0.346303 0.0486152
0.825254 0.346303 0.0486152
0.851728 0.346303 0.0486152
0.878187 0.346303 0.0486152
0.904646 0.346303 0.0486152
0.930694 0.346303 0.0486152
0.0486152 0.375708 0.0486152
0.0749065 0.375708 0.0486152
0.10161 0.375708 0.0486152
0.128328 0.375708 0.0486152
0.155047 0.375708 0.0486152
0.181765 0.375708 0.0486152
0.208469 0.375708 0.0486152
0.234974 0.375708 0.0486152
0.262089 0.375708 0.0486152
0.289876 0.375708 0.0486152
0.317815 0.375708 0.0486152
0.346303 0.375708 0.0486152
0.375708 0.375708 0.0486152
0.40676 0.375708 0.0486152
0.438087 0.375708 0.0486152
0.469505 0.375708 0.0486152
0.500206 0.375708 0.0486152
0.529763 0.375708 0.0486152
0.558526 0.375708 0.0486152
0.586801 0.375708 0.0486152
0.613657 0.375708 0.0486152
0.640009 0.375708 0.0486152
0.666484 0.375708 0.0486152
0.692943 0.375708 0.0486152
0.719402 0.375708 0.0486152
0.745861 0.375708 0.0486152
0.772335 0.375708 0.0486152
0.798795 0.375708 0.0486152
0.825254 0.375708 0.0486152
0.851728 0.375708 0.0486152
0.878187 0.375708 0.0486152
0.904646 0.375708 0.0486152
0.930694 0.375708 0.0486152
0.0486152 0.40676 0.0486152
0.0749065 0.40676 0.0486152
0.10161 0.40676 0.0486152
0.128328 0.40676 0.0486152
0.155047 0.40676 0.0486152
0.181765 0.40676 0.0486152
0.208469 0.40676 0.0486152
0.234974 0.40676 0.0486152
0.262089 0.40676 0.0486152
0.289876 0.40676 0.0486152
0.317815 0.40676 0.0486152
0.346303 0.40676 0.0486152
0.375708 0.40676 0.0486152
0.40676 0.40676 0.0486152
0.438087 0.40676 0.0486152
0.469505 0.40676 0.0486152
0.500206 0.40676 0.0486152
0.529763 0.40676 0.0486152
0.558526 0.40676 0.0486152
0.586801 0.40676 0.0486152
0.613657 0.40676 0.0486152
0.640009 0.40676 0.0486152
0.666484 0.40676 0.0486152
0.692943 0.40676 0.0486152
0.719402 0.40676 0.0486152
0.745861 0.40676 0.0486152
0.772335 0.40676 0.0486152
0.798795 0.40676 0.0486152
0.825254 0.40676 0.0486152
0.851728 0.40676 0.0486152
0.878187 0.40676 0.0486152
0.904646 0.40676 0.0486152
0.930694 0.40676 0.0486152
0.0486152 0.438087 0.0486152
0.0749065 0.438087 0.0486152
0.10161 0.438087 0.0486152
0.128328 0.438087 0.0486152
0.155047 0.438087 0.0486152
0.181765 0.438087 0.0486152
0.208469 0.438087 0.0486152
0.234974 0.438087 0.0486152
0.262089 0.438087 0.0486152
0.289876 0.438087 0.0486152
0.317815 0.438087 0.0486152
0.346303 0.438087 0.0486152
0.375708 0.438087 0.0486152
0.40676 0.438087 0.0486152
0.438087 0.438087 0.0486152
0.469505 0.438087 0.0486152
0.500206 0.438087 0.0486152
0.529763 0.438087 0.0486152
0.558526 0.438087 0.0486152
0.586801 0.438087 0.0486152
0.613657 0.438087 0.0486152
0.640009 0.438087 0.0486152
0.666484 0.438087 0.0486152
0.692943 0.438087 0.0486152
0.719402 0.438087 0.0486152
0.745861 0.438087 0.0486152
0.772335 0.438087 0.0486152
0.798795 0.438087 0.0486152
0.825254 0.438087 0.0486152
0.851728 0.438087 0.0486152
0.878187 0.438087 0.0486152
0.904646 0.438087 0.0486152
0.930694 0.438087 0.0486152
0.0486152 0.469505 0.0486152
0.0749065 0.469505 0.0486152
0.10161 0.469505 0.0486152
0.128328 0.469505 0.0486152
0.155047 0.469505 0.0486152
0.181765 0.469505 0.0486152
0.208469 0.469505 0.0486152
0.234974 0.469505 0.0486152
0.262089 0.469505 0.0486152
0.289876 0.469505 0.0486152
0.317815 0.469505 0.0486152
0.346303 0.469505 0.0486152
0.375708 0.469505 0.0486152
0.40676 0.469505 0.0486152
0.438087 0.469505 0.0486152
0.469505 0.469505 0.0486152
0.500206 0.469505 0.0486152
0.529763 0.469505 0.0486152
0.558526 0.469505 0.0486152
0.586801 0.469505 0.0486152
0.613657 0.469505 0.0486152
0.640009 0.469505 0.0486152
0.666484 0.469505 0.0486152
0.692943 0.469505 0.0486152
0.719402 0.469505 0.0486152
0.745861 0.469505 0.0486152
0.772335 0.469505 0.0486152
0.798795 0.469505 0.0486152
0.825254 0.469505 0.0486152
0.851728 0.469505 0.0486152
0.878187 0.469505 0.0486152
0.904646 0.469505 0.0486152
0.930694 0.469505 0.0486152
0.0486152 0.500206 0.0486152
0.0749065 0.500206 0.0486152
0.10161 0.500206 0.0486152
0.128328 0.500206 0.0486152
0.155047 0.500206 0.0486152
0.181765 0.500206 0.0486152
0.208469 0.500206 0.0486152
0.234974 0.500206 0.0486152
0.262089 0.500206 0.0486152
0.289876 0.500206 0.0486152
0.317815 0.500206 0.0486152
0.346303 0.500206 0.0486152
0.375708 0.500206 0.0486152
0.40676 0.500206 0.0486152
0.438087 0.500206 0.0486152
0.469505 0.500206 0.0486152
0.500206 0.500206 0.0486152
0.529763 0.500206 0.0486152
0.558526 0.500206 0.0486152
0.586801 0.500206 0.0486152
0.613657 0.500206 0.0486152
0.640009 0.500206 0.0486152
0.666484 0.500206 0.0486152
0.692943 0.500206 0.0486152
0.719402 0.500206 0.0486152
0.745861 0.500206 0.0486152
0.772335 0.500206 0.0486152
0.798795 0.500206 0.0486152
0.825254 0.500206 0.0486152
0.851728 0.500206 0.0486152
0.878187 0.500206 0.0486152
0.904646 0.500206 0.0486152
0.930694 0.500206 0.0486152
0.0486152 0.529763 0.0486152
0.0749065 0.529763 0.0486152
0.10161 0.529763 0.0486152
0.128328 0.529763 0.0486152
0.155047 0.529763 0.0486152
0.181765 0.529763 0.0486152
0.208469 0.529763 0.0486152
0.234974 0.529763 0.0486152
0.262089 0.529763 0.0486152
0.289876 0.529763 0.0486152
0.317815 0.529763 0.0486152
0.346303 0.529763 0.0486152
0.375708 0.529763 0.0486152
0.40676 0.529763 0.0486152
0.438087 0.529763 0.0486152
0.469505 0.529763 0.0486152
0.500206 0.529763 0.0486152
0.529763 0.529763 0.0486152
0.558526 0.529763 0.0486152
0.586801 0.529763 0.0486152
0.613657 0.529763 0.0486152
0.640009 0.529763 0.0486152
0.666484 0.529763 0.0486152
0.692943 0.529763 0.0486152
0.719402 0.529763 0.0486152
0.745861 0.529763 0.0486152
0.772335 0.529763 0.0486152
0.798795 0.529763 0.0486152
0.825254 0.529763 0.0486152
0.851728 0.529763 0.0486152
0.878187 0.529763 0.0486152
0.904646 0.529763 0.0486152
0.930694 0.529763 0.0486152
0.0486152 0.558526 0.0486152
0.0749065 0.558526 0.0486152
0.10161 0.558526 0.0486152
0.128328 0.558526 0.0486152
0.155047 0.558526 0.0486152
0.181765 0.558526 0.0486152
0.208469 0.558526 0.0486152
0.234974 0.558526 0.0486152
0.262089 0.558526 0.0486152
0.289876 0.558526 0.0486152
0.317815 0.558526 0.0486152
0.346303 0.558526 0.0486152
0.375708 0.558526 0.0486152
0.40676 0.558526 0.0486152
0.438087 0.558526 0.0486152
0.469505 0.558526 0.0486152
0.500206 0.558526 0.0486152
0.529763 0.558526 0.0486152
0.558526 0.558526 0.0486152
0.586801 0.558526 0.0486152
0.613657 0.558526 0.0486152
0.640009 0.558526 0.0486152
0.666484 0.558526 0.0486152
0.692943 0.558526 0.0486152
0.719402 0.558526 0.0486152
0.745861 0.558526 0.0486152
0.772335 0.558526 0.0486152
0.798795 0.558526 0.0486152
0.825254 0.558526 0.0486152
0.851728 0.558526 0.0486152
0.878187 0.558526 0.0486152
0.904646 0.558526 0.0486152
0.930694 0.558526 0.0486152
0.0486152 0.586801 0.0486152
0.0749065 0.586801 0.0486152
0.10161 0.586801 0.0486152
0.128328 0.586801 0.0486152
0.155047 0.586801 0.0486152
0.181765 0.586801 0.0486152
0.208469 0.586801 0.0486152
0.234974 0.586801 0.0486152
0.262089 0.586801 0.0486152
0.289876 0.586801 0.0486152
0.317815 0.586801 0.0486152
0.346303 0.586801 0.0486152
0.375708 0.586801 0.0486152
0.40676 0.586801 0.0486152
0.438087 0.586801 0.0486152
0.469505 0.586801 0.0486152
0.500206 0.586801 0.0486152
0.529763 0.586801 0.0486152
0.558526 0.586801 0.0486152
0.586801 0.586801 0.0486152
0.613657 0.586801 0.0486152
0.640009 0.586801 0.0486152
0.666484 0.586801 0.0486152
0.692943 0.586801 0.0486152
0.719402 0.586801 0.0486152
0.745861 0.586801 0.0486152
0.772335 0.586801 0.0486152
0.798795 0.586801 0.0486152
0.825254 0.586801 0.0486152
0.851728 0.586801 0.0486152
0.878187 0.586801 0.0486152
0.904646 0.586801 0.0486152
0.930694 0.586801 0.0486152
0.0486152 0.613657 0.0486152
0.0749065 0.613657 0.0486152
0.10161 0.613657 0.0486152
0.128328 0.613657 0.0486152
0.155047 0.613657 0.0486152
0.181765 0.613657 0.0486152
0.208469 0.613657 0.0486152
0.234974 0.613657 0.0486152
0.262089 0.613657 0.0486152
0.289876 0.613657 0.0486152
0.317815 0.613657 0.0486152
0.346303 0.613657 0.0486152
0.375708 0.613657 0.0486152
0.40676 0.613657 0.0486152
0.438087 0.613657 0.0486152
0.469505 0.613657 0.0486152
0.500206 0.613657 0.0486152
0.529763 0.613657 0.0486152
0.558526 0.613657 0.0486152
0.586801 0.613657 0.0486152
0.613657 0.613657 0.0486152
0.640009 0.613657 0.0486152
0.666484 0.613657 0.0486152
0.692943 0.613657 0.0486152
0.719402 0.613657 0.0486152
0.745861 0.613657 0.0486152
0.772335 0.613657 0.0486152
0.798795 0.613657 0.0486152
0.825254 0.613657 0.0486152
0.851728 0.613657 0.0486152
0.878187 0.613657 0.0486152
0.904646 0.613657 0.0486152
0.930694 0.613657 0.0486152
0.0486152 0.640009 0.0486152
0.0749065 0.640009 0.0486152
0.10161 0.640009 0.0486152
0.128328 0.640009 0.0486152
0.155047 0.640009 0.0486152
0.181765 0.640009 0.0486152
0.208469 0.640009 0.0486152
0.234974 0.640009 0.0486152
0.262089 0.640009 0.0486152
0.289876 0.640009 0.0486152
0.317815 0.640009 0.0486152
0.346303 0.640009 0.0486152
0.375708 0.640009 0.0486152
0.40676 0.640009 0.0486152
0.438087 0.640009 0.0486152
0.469505 0.640009 0.0486152
0.500206 0.640009 0.0486152
0.529763 0.640009 0.0486152
0.558526 0.640009 0.0486152
0.586801 0.640009 0.0486152
0.613657 0.640009 0.0486152
0.640009 0.640009 0.0486152
0.666484 0.640009 0.0486152
0.692943 0.640009 0.0486152
0.719402 0.640009 0.0486152
0.745861 0.640009 0.0486152
0.772335 0.640009 0.0486152
0.798795 0.640009 0.0486152
0.825254 0.640009 0.0486152
0.851728 0.640009 0.0486152
0.878187 0.640009 0.0486152
0.904646 0.640009 0.0486152
0.930694 0.640009 0.0486152
0.0486152 0.666484 0.0486152
0.0749065 0.666484 0.0486152
0.10161 0.666484 0.0486152
0.128328 0.666484 0.0486152
0.155047 0.666484 0.0486152
0.181765 0.666484 0.0486152
0.208469 0.666484 0.0486152
0.234974 0.666484 0.0486152
0.262089 0.666484 0.0486152
0.289876 0.666484 0.0486152
0.317815 0.666484 0.0486152
0.346303 0.666484 0.0486152
0.375708 0.666484 0.0486152
0.40676 0.666484 0.0486152
0.438087 0.666484 0.0486152
0.469505 0.666484 0.0486152
0.500206 0.666484 0.0486152
0.529763 0.666484 0.0486152
0.558526 0.666484 0.0486152
0.586801 0.666484 0.0486152
0.613657 0.666484 0.0486152
0.640009 0.666484 0.0486152
0.666484 0.666484 0.0486152
0.692943 0.666484 0.0486152
0.719402 0.666484 0.0486152
0.745861 0.666484 0.0486152
0.772335 0.666484 0.0486152
0.798795 0.666484 0.0486152
0.825254 0.666484 0.0486152
0.851728 0.666484 0.0486152
0.878187 0.666484 0.0486152
0.904646 0.666484 0.0486152
0.930694 0.666484 0.0486152
0.0486152 0.692943 0.0486152
0.0749065 0.692943 0.0486152
0.10161 0.692943 0.0486152
0.128328 0.692943 0.0486152
0.155047 0.692943 0.0486152
0.181765 0.692943 0.0486152
0.208469 0.692943 0.0486152
0.234974 0.692943 0.0486152
0.262089 0.692943 0.0486152
0.289876 0.692943 0.0486152
0.317815 0.692943 0.0486152
0.346303 0.692943 0.0486152
0.375708 0.692943 0.0486152
0.40676 0.692943 0.0486152
0.438087 0.692943 0.0486152
0.469505 0.692943 0.0486152
0.500206 0.692943 0.0486152
0.529763 0.692943 0.0486152
0.558526 0.692943 0.0486152
0.586801 0.692943 0.0486152
0.613657 0.692943 0.0486152
0.640009 0.692943 0.0486152
0.666484 0.692943 0.0486152
0.692943 0.692943 0.0486152
0.719402 0.692943 0.0486152
0.745861 0.692943 0.0486152
0.772335 0.692943 0.0486152
0.798795 0.692943 0.0486152
0.825254 0.692943 0.0486152
0.851728 0.692943 0.0486152
0.878187 0.692943 0.0486152
0.904646 0.692943 0.0486152
0.930694 0.692943 0.0486152
0.0486152 0.719402 0.0486152
0.0749065 0.719402 0.0486152
0.10161 0.719402 0.0486152
0.128328 0.719402 0.0486152
0.155047 0.719402 0.0486152
0.181765 0.719402 0.0486152
0.208469 0.719402 0.0486152
0.234974 0.719402 0.0486152
0.262089 0.719402 0.0486152
0.289876 0.719402 0.0486152
0.317815 0.719402 0.0486152
0.346303 0.719402 0.0486152
0.375708 0.719402 0.0486152
0.40676 0.719402 0.0486152
0.438087 0.719402 0.0486152
0.469505 0.719402 0.0486152
0.500206 0.719402 0.0486152
0.529763 0.719402 0.0486152
0.558526 0.719402 0.0486152
0.586801 0.719402 0.0486152
0.613657 0.719402 0.0486152
0.640009 0.719402 0.0486152
0.666484 0.719402 0.0486152
0.692943 0.719402 0.0486152
0.719402 0.719402 0.0486152
0.745861 0.719402 0.0486152
0.772335 0.719402 0.0486152
0.798795 0.719402 0.0486152
0.825254 0.719402 0.0486152
0.851728 0.719402 0.0486152
0.878187 0.719402 0.0486152
0.904646 0.719402 0.0486152
0.930694 0.719402 0.0486152
0.0486152 0.745861 0.0486152
0.0749065 0.745861 0.0486152
0.10161 0.745861 0.0486152
0.128328 0.745861 0.0486152
0.155047 0.745861 0.0486152
0.181765 0.745861 0.0486152
0.208469 0.745861 0.0486152
0.234974 0.745861 0.0486152
0.262089 0.745861 0.0486152
0.289876 0.745861 0.0486152
0.317815 0.745861 0.0486152
0.346303 0.745861 0.0486152
0.375708 0.745861 0.0486152
0.40676 0.745861 0.0486152
0.438087 0.745861 0.0486152
0.469505 0.745861 0.0486152
0.500206 0.745861 0.0486152
0.529763 0.745861 0.0486152
0.558526 0.745861 0.0486152
0.586801 0.745861 0.0486152
0.613657 0.745861 0.0486152
0.640009 0.745861 0.0486152
0.666484 0.745861 0.0486152
0.692943 0.745861 0.0486152
0.719402 0.745861 0.0486152
0.745861 0.745861 0.0486152
0.772335 0.745861 0.0486152
0.798795 0.745861 0.0486152
0.825254 0.745861 0.0486152
0.851728 0.745861 0.0486152
