public/LUTS/Balanced/Balanced_07.cube
TITLE "Generated by Resolve"
LUT_3D_SIZE 33
0.0478828 0.0478828 0.0478828
0.0741741 0.0478828 0.0478828
0.100877 0.0478828 0.0478828
0.127596 0.0478828 0.0478828
0.154314 0.0478828 0.0478828
0.181033 0.0478828 0.0478828
0.207736 0.0478828 0.0478828
0.234089 0.0478828 0.0478828
0.261509 0.0478828 0.0478828
0.29044 0.0478828 0.0478828
0.319829 0.0478828 0.0478828
0.349828 0.0478828 0.0478828
0.380621 0.0478828 0.0478828
0.412558 0.0478828 0.0478828
0.444175 0.0478828 0.0478828
0.475364 0.0478828 0.0478828
0.505135 0.0478828 0.0478828
0.532418 0.0478828 0.0478828
0.557916 0.0478828 0.0478828
0.582559 0.0478828 0.0478828
0.606485 0.0478828 0.0478828
0.629572 0.0478828 0.0478828
0.652003 0.0478828 0.0478828
0.673732 0.0478828 0.0478828
0.694759 0.0478828 0.0478828
0.715084 0.0478828 0.0478828
0.734722 0.0478828 0.0478828
0.753643 0.0478828 0.0478828
0.771862 0.0478828 0.0478828
0.789395 0.0478828 0.0478828
0.80621 0.0478828 0.0478828
0.822339 0.0478828 0.0478828
0.837537 0.0478828 0.0478828
0.0478828 0.0741741 0.0478828
0.0741741 0.0741741 0.0478828
0.100877 0.0741741 0.0478828
0.127596 0.0741741 0.0478828
0.154314 0.0741741 0.0478828
0.181033 0.0741741 0.0478828
0.207736 0.0741741 0.0478828
0.234089 0.0741741 0.0478828
0.261509 0.0741741 0.0478828
0.29044 0.0741741 0.0478828
0.319829 0.0741741 0.0478828
0.349828 0.0741741 0.0478828
0.380621 0.0741741 0.0478828
0.412558 0.0741741 0.0478828
0.444175 0.0741741 0.0478828
0.475364 0.0741741 0.0478828
0.505135 0.0741741 0.0478828
0.532418 0.0741741 0.0478828
0.557916 0.0741741 0.0478828
0.582559 0.0741741 0.0478828
0.606485 0.0741741 0.0478828
0.629572 0.0741741 0.0478828
0.652003 0.0741741 0.0478828
0.673732 0.0741741 0.0478828
0.694759 0.0741741 0.0478828
0.715084 0.0741741 0.0478828
0.734722 0.0741741 0.0478828
0.753643 0.0741741 0.0478828
0.771862 0.0741741 0.0478828
0.789395 0.0741741 0.0478828
0.80621 0.0741741 0.0478828
0.822339 0.0741741 0.0478828
0.837537 0.0741741 0.0478828
0.0478828 0.100877 0.0478828
0.0741741 0.100877 0.0478828
0.100877 0.100877 0.0478828
0.127596 0.100877 0.0478828
0.154314 0.100877 0.0478828
0.181033 0.100877 0.0478828
0.207736 0.100877 0.0478828
0.234089 0.100877 0.0478828
0.261509 0.100877 0.0478828
0.29044 0.100877 0.0478828
0.319829 0.100877 0.0478828
0.349828 0.100877 0.0478828
0.380621 0.100877 0.0478828
0.412558 0.100877 0.0478828
0.444175 0.100877 0.0478828
0.475364 0.100877 0.0478828
0.505135 0.100877 0.0478828
0.532418 0.100877 0.0478828
0.557916 0.100877 0.0478828
0.582559 0.100877 0.0478828
0.606485 0.100877 0.0478828
0.629572 0.100877 0.0478828
0.652003 0.100877 0.0478828
0.673732 0.100877 0.0478828
0.694759 0.100877 0.0478828
0.715084 0.100877 0.0478828
0.734722 0.100877 0.0478828
0.753643 0.100877 0.0478828
0.771862 0.100877 0.0478828
0.789395 0.100877 0.0478828
0.80621 0.100877 0.0478828
0.822339 0.100877 0.0478828
0.837537 0.100877 0.0478828
0.0478828 0.127596 0.0478828
0.0741741 0.127596 0.0478828
0.100877 0.127596 0.0478828
0.127596 0.127596 0.0478828
0.154314 0.127596 0.0478828
0.181033 0.127596 0.0478828
0.207736 0.127596 0.0478828
0.234089 0.127596 0.0478828
0.261509 0.127596 0.0478828
0.29044 0.127596 0.0478828
0.319829 0.127596 0.0478828
0.349828 0.127596 0.0478828
0.380621 0.127596 0.0478828
0.412558 0.127596 0.0478828
0.444175 0.127596 0.0478828
0.475364 0.127596 0.0478828
0.505135 0.127596 0.0478828
0.532418 0.127596 0.0478828
0.557916 0.127596 0.0478828
0.582559 0.127596 0.0478828
0.606485 0.127596 0.0478828
0.629572 0.127596 0.0478828
0.652003 0.127596 0.0478828
0.673732 0.127596 0.0478828
0.694759 0.127596 0.0478828
0.715084 0.127596 0.0478828
0.734722 0.127596 0.0478828
0.753643 0.127596 0.0478828
0.771862 0.127596 0.0478828
0.789395 0.127596 0.0478828
0.80621 0.127596 0.0478828
0.822339 0.127596 0.0478828
0.837537 0.127596 0.0478828
0.0478828 0.154314 0.0478828
0.0741741 0.154314 0.0478828
0.100877 0.154314 0.0478828
0.127596 0.154314 0.0478828
0.154314 0.154314 0.0478828
0.181033 0.154314 0.0478828
0.207736 0.154314 0.0478828
0.234089 0.154314 0.0478828
0.261509 0.154314 0.0478828
0.29044 0.154314 0.0478828
0.319829 0.154314 0.0478828
0.349828 0.154314 0.0478828
0.380621 0.154314 0.0478828
0.412558 0.154314 0.0478828
0.444175 0.154314 0.0478828
0.475364 0.154314 0.0478828
0.505135 0.154314 0.0478828
0.532418 0.154314 0.0478828
0.557916 0.154314 0.0478828
0.582559 0.154314 0.0478828
0.606485 0.154314 0.0478828
0.629572 0.154314 0.0478828
0.652003 0.154314 0.0478828
0.673732 0.154314 0.0478828
0.694759 0.154314 0.0478828
0.715084 0.154314 0.0478828
0.734722 0.154314 0.0478828
0.753643 0.154314 0.0478828
0.771862 0.154314 0.0478828
0.789395 0.154314 0.0478828
0.80621 0.154314 0.0478828
0.822339 0.154314 0.0478828
0.837537 0.154314 0.0478828
0.0478828 0.181033 0.0478828
0.0741741 0.181033 0.0478828
0.100877 0.181033 0.0478828
0.127596 0.181033 0.0478828
0.154314 0.181033 0.0478828
0.181033 0.181033 0.0478828
0.207736 0.181033 0.0478828
0.234089 0.181033 0.0478828
0.261509 0.181033 0.0478828
0.29044 0.181033 0.0478828
0.319829 0.181033 0.0478828
0.349828 0.181033 0.0478828
0.380621 0.181033 0.0478828
0.412558 0.181033 0.0478828
0.444175 0.181033 0.0478828
0.475364 0.181033 0.0478828
0.505135 0.181033 0.0478828
0.532418 0.181033 0.0478828
0.557916 0.181033 0.0478828
0.582559 0.181033 0.0478828
0.606485 0.181033 0.0478828
0.629572 0.181033 0.0478828
0.652003 0.181033 0.0478828
0.673732 0.181033 0.0478828
0.694759 0.181033 0.0478828
0.715084 0.181033 0.0478828
0.734722 0.181033 0.0478828
0.753643 0.181033 0.0478828
0.771862 0.181033 0.0478828
0.789395 0.181033 0.0478828
0.80621 0.181033 0.0478828
0.822339 0.181033 0.0478828
0.837537 0.181033 0.0478828
0.0478828 0.207736 0.0478828
0.0741741 0.207736 0.0478828
0.100877 0.207736 0.0478828
0.127596 0.207736 0.0478828
0.154314 0.207736 0.0478828
0.181033 0.207736 0.0478828
0.207736 0.207736 0.0478828
0.234089 0.207736 0.0478828
0.261509 0.207736 0.0478828
0.29044 0.207736 0.0478828
0.319829 0.207736 0.0478828
0.349828 0.207736 0.0478828
0.380621 0.207736 0.0478828
0.412558 0.207736 0.0478828
0.444175 0.207736 0.0478828
0.475364 0.207736 0.0478828
0.505135 0.207736 0.0478828
0.532418 0.207736 0.0478828
0.557916 0.207736 0.0478828
0.582559 0.207736 0.0478828
0.606485 0.207736 0.0478828
0.629572 0.207736 0.0478828
0.652003 0.207736 0.0478828
0.673732 0.207736 0.0478828
0.694759 0.207736 0.0478828
0.715084 0.207736 0.0478828
0.734722 0.207736 0.0478828
0.753643 0.207736 0.0478828
0.771862 0.207736 0.0478828
0.789395 0.207736 0.0478828
0.80621 0.207736 0.0478828
0.822339 0.207736 0.0478828
0.837537 0.207736 0.0478828
0.0478828 0.234089 0.0478828
0.0741741 0.234089 0.0478828
0.100877 0.234089 0.0478828
0.127596 0.234089 0.0478828
0.154314 0.234089 0.0478828
0.181033 0.234089 0.0478828
0.207736 0.234089 0.0478828
0.234089 0.234089 0.0478828
0.261509 0.234089 0.0478828
0.29044 0.234089 0.0478828
0.319829 0.234089 0.0478828
0.349828 0.234089 0.0478828
0.380621 0.234089 0.0478828
0.412558 0.234089 0.0478828
0.444175 0.234089 0.0478828
0.475364 0.234089 0.0478828
0.505135 0.234089 0.0478828
0.532418 0.234089 0.0478828
0.557916 0.234089 0.0478828
0.582559 0.234089 0.0478828
0.606485 0.234089 0.0478828
0.629572 0.234089 0.0478828
0.652003 0.234089 0.0478828
0.673732 0.234089 0.0478828
0.694759 0.234089 0.0478828
0.715084 0.234089 0.0478828
0.734722 0.234089 0.0478828
0.753643 0.234089 0.0478828
0.771862 0.234089 0.0478828
0.789395 0.234089 0.0478828
0.80621 0.234089 0.0478828
0.822339 0.234089 0.0478828
0.837537 0.234089 0.0478828
0.0478828 0.261509 0.0478828
0.0741741 0.261509 0.0478828
0.100877 0.261509 0.0478828
0.127596 0.261509 0.0478828
0.154314 0.261509 0.0478828
0.181033 0.261509 0.0478828
0.207736 0.261509 0.0478828
0.234089 0.261509 0.0478828
0.261509 0.261509 0.0478828
0.29044 0.261509 0.0478828
0.319829 0.261509 0.0478828
0.349828 0.261509 0.0478828
0.380621 0.261509 0.0478828
0.412558 0.261509 0.0478828
0.444175 0.261509 0.0478828
0.475364 0.261509 0.0478828
0.505135 0.261509 0.0478828
0.532418 0.261509 0.0478828
0.557916 0.261509 0.0478828
0.582559 0.261509 0.0478828
0.606485 0.261509 0.0478828
0.629572 0.261509 0.0478828
0.652003 0.261509 0.0478828
0.673732 0.261509 0.0478828
0.694759 0.261509 0.0478828
0.715084 0.261509 0.0478828
0.734722 0.261509 0.0478828
0.753643 0.261509 0.0478828
0.771862 0.261509 0.0478828
0.789395 0.261509 0.0478828
0.80621 0.261509 0.0478828
0.822339 0.261509 0.0478828
0.837537 0.261509 0.0478828
0.0478828 0.29044 0.0478828
0.0741741 0.29044 0.0478828
0.100877 0.29044 0.0478828
0.127596 0.29044 0.0478828
0.154314 0.29044 0.0478828
0.181033 0.29044 0.0478828
0.207736 0.29044 0.0478828
0.234089 0.29044 0.0478828
0.261509 0.29044 0.0478828
0.29044 0.29044 0.0478828
0.319829 0.29044 0.0478828
0.349828 0.29044 0.0478828
0.380621 0.29044 0.0478828
0.412558 0.29044 0.0478828
0.444175 0.29044 0.0478828
0.475364 0.29044 0.0478828
0.505135 0.29044 0.0478828
0.532418 0.29044 0.0478828
0.557916 0.29044 0.0478828
0.582559 0.29044 0.0478828
0.606485 0.29044 0.0478828
0.629572 0.29044 0.0478828
0.652003 0.29044 0.0478828
0.673732 0.29044 0.0478828
0.694759 0.29044 0.0478828
0.715084 0.29044 0.0478828
0.734722 0.29044 0.0478828
0.753643 0.29044 0.0478828
0.771862 0.29044 0.0478828
0.789395 0.29044 0.0478828
0.80621 0.29044 0.0478828
0.822339 0.29044 0.0478828
0.837537 0.29044 0.0478828
0.0478828 0.319829 0.0478828
0.0741741 0.319829 0.0478828
0.100877 0.319829 0.0478828
0.127596 0.319829 0.0478828
0.154314 0.319829 0.0478828
0.181033 0.319829 0.0478828
0.207736 0.319829 0.0478828
0.234089 0.319829 0.0478828
0.261509 0.319829 0.0478828
0.29044 0.319829 0.0478828
0.319829 0.319829 0.0478828
0.349828 0.319829 0.0478828
0.380621 0.319829 0.0478828
0.412558 0.319829 0.0478828
0.444175 0.319829 0.0478828
0.475364 0.319829 0.0478828
0.505135 0.319829 0.0478828
0.532418 0.319829 0.0478828
0.557916 0.319829 0.0478828
0.582559 0.319829 0.0478828
0.606485 0.319829 0.0478828
0.629572 0.319829 0.0478828
0.652003 0.319829 0.0478828
0.673732 0.319829 0.0478828
0.694759 0.319829 0.0478828
0.715084 0.319829 0.0478828
0.734722 0.319829 0.0478828
0.753643 0.319829 0.0478828
0.771862 0.319829 0.0478828
0.789395 0.319829 0.0478828
0.80621 0.319829 0.0478828
0.822339 0.319829 0.0478828
0.837537 0.319829 0.0478828
0.0478828 0.349828 0.0478828
0.0741741 0.349828 0.0478828
0.100877 0.349828 0.0478828
0.127596 0.349828 0.0478828
0.154314 0.349828 0.0478828
0.181033 0.349828 0.0478828
0.207736 0.349828 0.0478828
0.234089 0.349828 0.0478828
0.261509 0.349828 0.0478828
0.29044 0.349828 0.0478828
0.319829 0.349828 0.0478828
0.349828 0.349828 0.0478828
0.380621 0.349828 0.0478828
0.412558 0.349828 0.0478828
0.444175 0.349828 0.0478828
0.475364 0.349828 0.0478828
0.505135 0.349828 0.0478828
0.532418 0.349828 0.0478828
0.557916 0.349828 0.0478828
0.582559 0.349828 0.0478828
0.606485 0.349828 0.0478828
0.629572 0.349828 0.0478828
0.652003 0.349828 0.0478828
0.673732 0.349828 0.0478828
0.694759 0.349828 0.0478828
0.715084 0.349828 0.0478828
0.734722 0.349828 0.0478828
0.753643 0.349828 0.0478828
0.771862 0.349828 0.0478828
0.789395 0.349828 0.0478828
0.80621 0.349828 0.0478828
0.822339 0.349828 0.0478828
0.837537 0.349828 0.0478828
0.0478828 0.380621 0.0478828
0.0741741 0.380621 0.0478828
0.100877 0.380621 0.0478828
0.127596 0.380621 0.0478828
0.154314 0.380621 0.0478828
0.181033 0.380621 0.0478828
0.207736 0.380621 0.0478828
0.234089 0.380621 0.0478828
0.261509 0.380621 0.0478828
0.29044 0.380621 0.0478828
0.319829 0.380621 0.0478828
0.349828 0.380621 0.0478828
0.380621 0.380621 0.0478828
0.412558 0.380621 0.0478828
0.444175 0.380621 0.0478828
0.475364 0.380621 0.0478828
0.505135 0.380621 0.0478828
0.532418 0.380621 0.0478828
0.557916 0.380621 0.0478828
0.582559 0.380621 0.0478828
0.606485 0.380621 0.0478828
0.629572 0.380621 0.0478828
0.652003 0.380621 0.0478828
0.673732 0.380621 0.0478828
0.694759 0.380621 0.0478828
0.715084 0.380621 0.0478828
0.734722 0.380621 0.0478828
0.753643 0.380621 0.0478828
0.771862 0.380621 0.0478828
0.789395 0.380621 0.0478828
0.80621 0.380621 0.0478828
0.822339 0.380621 0.0478828
0.837537 0.380621 0.0478828
0.0478828 0.412558 0.0478828
0.0741741 0.412558 0.0478828
0.100877 0.412558 0.0478828
0.127596 0.412558 0.0478828
0.154314 0.412558 0.0478828
0.181033 0.412558 0.0478828
0.207736 0.412558 0.0478828
0.234089 0.412558 0.0478828
0.261509 0.412558 0.0478828
0.29044 0.412558 0.0478828
0.319829 0.412558 0.0478828
0.349828 0.412558 0.0478828
0.380621 0.412558 0.0478828
0.412558 0.412558 0.0478828
0.444175 0.412558 0.0478828
0.475364 0.412558 0.0478828
0.505135 0.412558 0.0478828
0.532418 0.412558 0.0478828
0.557916 0.412558 0.0478828
0.582559 0.412558 0.0478828
0.606485 0.412558 0.0478828
0.629572 0.412558 0.0478828
0.652003 0.412558 0.0478828
0.673732 0.412558 0.0478828
0.694759 0.412558 0.0478828
0.715084 0.412558 0.0478828
0.734722 0.412558 0.0478828
0.753643 0.412558 0.0478828
0.771862 0.412558 0.0478828
0.789395 0.412558 0.0478828
0.80621 0.412558 0.0478828
0.822339 0.412558 0.0478828
0.837537 0.412558 0.0478828
0.0478828 0.444175 0.0478828
0.0741741 0.444175 0.0478828
0.100877 0.444175 0.0478828
0.127596 0.444175 0.0478828
0.154314 0.444175 0.0478828
0.181033 0.444175 0.0478828
0.207736 0.444175 0.0478828
0.234089 0.444175 0.0478828
0.261509 0.444175 0.0478828
0.29044 0.444175 0.0478828
0.319829 0.444175 0.0478828
0.349828 0.444175 0.0478828
0.380621 0.444175 0.0478828
0.412558 0.444175 0.0478828
0.444175 0.444175 0.0478828
0.475364 0.444175 0.0478828
0.505135 0.444175 0.0478828
0.532418 0.444175 0.0478828
0.557916 0.444175 0.0478828
0.582559 0.444175 0.0478828
0.606485 0.444175 0.0478828
0.629572 0.444175 0.0478828
0.652003 0.444175 0.0478828
0.673732 0.444175 0.0478828
0.694759 0.444175 0.0478828
0.715084 0.444175 0.0478828
0.734722 0.444175 0.0478828
0.753643 0.444175 0.0478828
0.771862 0.444175 0.0478828
0.789395 0.444175 0.0478828
0.80621 0.444175 0.0478828
0.822339 0.444175 0.0478828
0.837537 0.444175 0.0478828
0.0478828 0.475364 0.0478828
0.0741741 0.475364 0.0478828
0.100877 0.475364 0.0478828
0.127596 0.475364 0.0478828
0.154314 0.475364 0.0478828
0.181033 0.475364 0.0478828
0.207736 0.475364 0.0478828
0.234089 0.475364 0.0478828
0.261509 0.475364 0.0478828
0.29044 0.475364 0.0478828
0.319829 0.475364 0.0478828
0.349828 0.475364 0.0478828
0.380621 0.475364 0.0478828
0.412558 0.475364 0.0478828
0.444175 0.475364 0.0478828
0.475364 0.475364 0.0478828
0.505135 0.475364 0.0478828
0.532418 0.475364 0.0478828
0.557916 0.475364 0.0478828
0.582559 0.475364 0.0478828
0.606485 0.475364 0.0478828
0.629572 0.475364 0.0478828
0.652003 0.475364 0.0478828
0.673732 0.475364 0.0478828
0.694759 0.475364 0.0478828
0.715084 0.475364 0.0478828
0.734722 0.475364 0.0478828
0.753643 0.475364 0.0478828
0.771862 0.475364 0.0478828
0.789395 0.475364 0.0478828
0.80621 0.475364 0.0478828
0.822339 0.475364 0.0478828
0.837537 0.475364 0.0478828
0.0478828 0.505135 0.0478828
0.0741741 0.505135 0.0478828
0.100877 0.505135 0.0478828
0.127596 0.505135 0.0478828
0.154314 0.505135 0.0478828
0.181033 0.505135 0.0478828
0.207736 0.505135 0.0478828
0.234089 0.505135 0.0478828
0.261509 0.505135 0.0478828
0.29044 0.505135 0.0478828
0.319829 0.505135 0.0478828
0.349828 0.505135 0.0478828
0.380621 0.505135 0.0478828
0.412558 0.505135 0.0478828
0.444175 0.505135 0.0478828
0.475364 0.505135 0.0478828
0.505135 0.505135 0.0478828
0.532418 0.505135 0.0478828
0.557916 0.505135 0.0478828
0.582559 0.505135 0.0478828
0.606485 0.505135 0.0478828
0.629572 0.505135 0.0478828
0.652003 0.505135 0.0478828
0.673732 0.505135 0.0478828
0.694759 0.505135 0.0478828
0.715084 0.505135 0.0478828
0.734722 0.505135 0.0478828
0.753643 0.505135 0.0478828
0.771862 0.505135 0.0478828
0.789395 0.505135 0.0478828
0.80621 0.505135 0.0478828
0.822339 0.505135 0.0478828
0.837537 0.505135 0.0478828
0.0478828 0.532418 0.0478828
0.0741741 0.532418 0.0478828
0.100877 0.532418 0.0478828
0.127596 0.532418 0.0478828
0.154314 0.532418 0.0478828
0.181033 0.532418 0.0478828
0.207736 0.532418 0.0478828
0.234089 0.532418 0.0478828
0.261509 0.532418 0.0478828
0.29044 0.532418 0.0478828
0.319829 0.532418 0.0478828
0.349828 0.532418 0.0478828
0.380621 0.532418 0.0478828
0.412558 0.532418 0.0478828
0.444175 0.532418 0.0478828
0.475364 0.532418 0.0478828
0.505135 0.532418 0.0478828
0.532418 0.532418 0.0478828
0.557916 0.532418 0.0478828
0.582559 0.532418 0.0478828
0.606485 0.532418 0.0478828
0.629572 0.532418 0.0478828
0.652003 0.532418 0.0478828
0.673732 0.532418 0.0478828
0.694759 0.532418 0.0478828
0.715084 0.532418 0.0478828
0.734722 0.532418 0.0478828
0.753643 0.532418 0.0478828
0.771862 0.532418 0.0478828
0.789395 0.532418 0.0478828
0.80621 0.532418 0.0478828
0.822339 0.532418 0.0478828
0.837537 0.532418 0.0478828
0.0478828 0.557916 0.0478828
0.0741741 0.557916 0.0478828
0.100877 0.557916 0.0478828
0.127596 0.557916 0.0478828
0.154314 0.557916 0.0478828
0.181033 0.557916 0.0478828
0.207736 0.557916 0.0478828
0.234089 0.557916 0.0478828
0.261509 0.557916 0.0478828
0.29044 0.557916 0.0478828
0.319829 0.557916 0.0478828
0.349828 0.557916 0.0478828
0.380621 0.557916 0.0478828
0.412558 0.557916 0.0478828
0.444175 0.557916 0.0478828
0.475364 0.557916 0.0478828
0.505135 0.557916 0.0478828
0.532418 0.557916 0.0478828
0.557916 0.557916 0.0478828
0.582559 0.557916 0.0478828
0.606485 0.557916 0.0478828
0.629572 0.557916 0.0478828
0.652003 0.557916 0.0478828
0.673732 0.557916 0.0478828
0.694759 0.557916 0.0478828
0.715084 0.557916 0.0478828
0.734722 0.557916 0.0478828
0.753643 0.557916 0.0478828
0.771862 0.557916 0.0478828
0.789395 0.557916 0.0478828
0.80621 0.557916 0.0478828
0.822339 0.557916 0.0478828
0.837537 0.557916 0.0478828
0.0478828 0.582559 0.0478828
0.0741741 0.582559 0.0478828
0.100877 0.582559 0.0478828
0.127596 0.582559 0.0478828
0.154314 0.582559 0.0478828
0.181033 0.582559 0.0478828
0.207736 0.582559 0.0478828
0.234089 0.582559 0.0478828
0.261509 0.582559 0.0478828
0.29044 0.582559 0.0478828
0.319829 0.582559 0.0478828
0.349828 0.582559 0.0478828
0.380621 0.582559 0.0478828
0.412558 0.582559 0.0478828
0.444175 0.582559 0.0478828
0.475364 0.582559 0.0478828
0.505135 0.582559 0.0478828
0.532418 0.582559 0.0478828
0.557916 0.582559 0.0478828
0.582559 0.582559 0.0478828
0.606485 0.582559 0.0478828
0.629572 0.582559 0.0478828
0.652003 0.582559 0.0478828
0.673732 0.582559 0.0478828
0.694759 0.582559 0.0478828
0.715084 0.582559 0.0478828
0.734722 0.582559 0.0478828
0.753643 0.582559 0.0478828
0.771862 0.582559 0.0478828
0.789395 0.582559 0.0478828
0.80621 0.582559 0.0478828
0.822339 0.582559 0.0478828
0.837537 0.582559 0.0478828
0.0478828 0.606485 0.0478828
0.0741741 0.606485 0.0478828
0.100877 0.606485 0.0478828
0.127596 0.606485 0.0478828
0.154314 0.606485 0.0478828
0.181033 0.606485 0.0478828
0.207736 0.606485 0.0478828
0.234089 0.606485 0.0478828
0.261509 0.606485 0.0478828
0.29044 0.606485 0.0478828
0.319829 0.606485 0.0478828
0.349828 0.606485 0.0478828
0.380621 0.606485 0.0478828
0.412558 0.606485 0.0478828
0.444175 0.606485 0.0478828
0.475364 0.606485 0.0478828
0.505135 0.606485 0.0478828
0.532418 0.606485 0.0478828
0.557916 0.606485 0.0478828
0.582559 0.606485 0.0478828
0.606485 0.606485 0.0478828
0.629572 0.606485 0.0478828
0.652003 0.606485 0.0478828
0.673732 0.606485 0.0478828
0.694759 0.606485 0.0478828
0.715084 0.606485 0.0478828
0.734722 0.606485 0.0478828
0.753643 0.606485 0.0478828
0.771862 0.606485 0.0478828
0.789395 0.606485 0.0478828
0.80621 0.606485 0.0478828
0.822339 0.606485 0.0478828
0.837537 0.606485 0.0478828
0.0478828 0.629572 0.0478828
0.0741741 0.629572 0.0478828
0.100877 0.629572 0.0478828
0.127596 0.629572 0.0478828
0.154314 0.629572 0.0478828
0.181033 0.629572 0.0478828
0.207736 0.629572 0.0478828
0.234089 0.629572 0.0478828
0.261509 0.629572 0.0478828
0.29044 0.629572 0.0478828
0.319829 0.629572 0.0478828
0.349828 0.629572 0.0478828
0.380621 0.629572 0.0478828
0.412558 0.629572 0.0478828
0.444175 0.629572 0.0478828
0.475364 0.629572 0.0478828
0.505135 0.629572 0.0478828
0.532418 0.629572 0.0478828
0.557916 0.629572 0.0478828
0.582559 0.629572 0.0478828
0.606485 0.629572 0.0478828
0.629572 0.629572 0.0478828
0.652003 0.629572 0.0478828
0.673732 0.629572 0.0478828
0.694759 0.629572 0.0478828
0.715084 0.629572 0.0478828
0.734722 0.629572 0.0478828
0.753643 0.629572 0.0478828
0.771862 0.629572 0.0478828
0.789395 0.629572 0.0478828
0.80621 0.629572 0.0478828
0.822339 0.629572 0.0478828
0.837537 0.629572 0.0478828
0.0478828 0.652003 0.0478828
0.0741741 0.652003 0.0478828
0.100877 0.652003 0.0478828
0.127596 0.652003 0.0478828
0.154314 0.652003 0.0478828
0.181033 0.652003 0.0478828
0.207736 0.652003 0.0478828
0.234089 0.652003 0.0478828
0.261509 0.652003 0.0478828
0.29044 0.652003 0.0478828
0.319829 0.652003 0.0478828
0.349828 0.652003 0.0478828
0.380621 0.652003 0.0478828
0.412558 0.652003 0.0478828
0.444175 0.652003 0.0478828
0.475364 0.652003 0.0478828
0.505135 0.652003 0.0478828
0.532418 0.652003 0.0478828
0.557916 0.652003 0.0478828
0.582559 0.652003 0.0478828
0.606485 0.652003 0.0478828
0.629572 0.652003 0.0478828
0.652003 0.652003 0.0478828
0.673732 0.652003 0.0478828
0.694759 0.652003 0.0478828
0.715084 0.652003 0.0478828
0.734722 0.652003 0.0478828
0.753643 0.652003 0.0478828
0.771862 0.652003 0.0478828
0.789395 0.652003 0.0478828
0.80621 0.652003 0.0478828
0.822339 0.652003 0.0478828
0.837537 0.652003 0.0478828
0.0478828 0.673732 0.0478828
0.0741741 0.673732 0.0478828
0.100877 0.673732 0.0478828
0.127596 0.673732 0.0478828
0.154314 0.673732 0.0478828
0.181033 0.673732 0.0478828
0.207736 0.673732 0.0478828
0.234089 0.673732 0.0478828
0.261509 0.673732 0.0478828
0.29044 0.673732 0.0478828
0.319829 0.673732 0.0478828
0.349828 0.673732 0.0478828
0.380621 0.673732 0.0478828
0.412558 0.673732 0.0478828
0.444175 0.673732 0.0478828
0.475364 0.673732 0.0478828
0.505135 0.673732 0.0478828
0.532418 0.673732 0.0478828
0.557916 0.673732 0.0478828
0.582559 0.673732 0.0478828
0.606485 0.673732 0.0478828
0.629572 0.673732 0.0478828
0.652003 0.673732 0.0478828
0.673732 0.673732 0.0478828
0.694759 0.673732 0.0478828
0.715084 0.673732 0.0478828
0.734722 0.673732 0.0478828
0.753643 0.673732 0.0478828
0.771862 0.673732 0.0478828
0.789395 0.673732 0.0478828
0.80621 0.673732 0.0478828
0.822339 0.673732 0.0478828
0.837537 0.673732 0.0478828
0.0478828 0.694759 0.0478828
0.0741741 0.694759 0.0478828
0.100877 0.694759 0.0478828
0.127596 0.694759 0.0478828
0.154314 0.694759 0.0478828
0.181033 0.694759 0.0478828
0.207736 0.694759 0.0478828
0.234089 0.694759 0.0478828
0.261509 0.694759 0.0478828
0.29044 0.694759 0.0478828
0.319829 0.694759 0.0478828
0.349828 0.694759 0.0478828
0.380621 0.694759 0.0478828
0.412558 0.694759 0.0478828
0.444175 0.694759 0.0478828
0.475364 0.694759 0.0478828
0.505135 0.694759 0.0478828
0.532418 0.694759 0.0478828
0.557916 0.694759 0.0478828
0.582559 0.694759 0.0478828
0.606485 0.694759 0.0478828
0.629572 0.694759 0.0478828
0.652003 0.694759 0.0478828
0.673732 0.694759 0.0478828
0.694759 0.694759 0.0478828
0.715084 0.694759 0.0478828
0.734722 0.694759 0.0478828
0.753643 0.694759 0.0478828
0.771862 0.694759 0.0478828
0.789395 0.694759 0.0478828
0.80621 0.694759 0.0478828
0.822339 0.694759 0.0478828
0.837537 0.694759 0.0478828
0.0478828 0.715084 0.0478828
0.0741741 0.715084 0.0478828
0.100877 0.715084 0.0478828
0.127596 0.715084 0.0478828
0.154314 0.715084 0.0478828
0.181033 0.715084 0.0478828
0.207736 0.715084 0.0478828
0.234089 0.715084 0.0478828
0.261509 0.715084 0.0478828
0.29044 0.715084 0.0478828
0.319829 0.715084 0.0478828
0.349828 0.715084 0.0478828
0.380621 0.715084 0.0478828
0.412558 0.715084 0.0478828
0.444175 0.715084 0.0478828
0.475364 0.715084 0.0478828
0.505135 0.715084 0.0478828
0.532418 0.715084 0.0478828
0.557916 0.715084 0.0478828
0.582559 0.715084 0.0478828
0.606485 0.715084 0.0478828
0.629572 0.715084 0.0478828
0.652003 0.715084 0.0478828
0.673732 0.715084 0.0478828
0.694759 0.715084 0.0478828
0.715084 0.715084 0.0478828
0.734722 0.715084 0.0478828
0.753643 0.715084 0.0478828
0.771862 0.715084 0.0478828
