public/LUTS/Balanced/Balanced_04.cube
TITLE "Generated by Resolve"
LUT_3D_SIZE 9
0.0339666 0.0339666 0.0339666
0.145876 0.0339666 0.0339666
0.258381 0.0339666 0.0339666
0.375616 0.0339666 0.0339666
0.500328 0.0339666 0.0339666
0.617533 0.0339666 0.0339666
0.729809 0.0339666 0.0339666
0.842176 0.0339666 0.0339666
0.954101 0.0339666 0.0339666
0.0339666 0.145876 0.0339666
0.145876 0.145876 0.0339666
0.258381 0.145876 0.0339666
0.375616 0.145876 0.0339666
0.500328 0.145876 0.0339666
0.617533 0.145876 0.0339666
0.729809 0.145876 0.0339666
0.842176 0.145876 0.0339666
0.954101 0.145876 0.0339666
0.0339666 0.258381 0.0339666
0.145876 0.258381 0.0339666
0.258381 0.258381 0.0339666
0.375616 0.258381 0.0339666
0.500328 0.258381 0.0339666
0.617533 0.258381 0.0339666
0.729809 0.258381 0.0339666
0.842176 0.258381 0.0339666
0.954101 0.258381 0.0339666
0.0339666 0.375616 0.0339666
0.145876 0.375616 0.0339666
0.258381 0.375616 0.0339666
0.375616 0.375616 0.0339666
0.500328 0.375616 0.0339666
0.617533 0.375616 0.0339666
0.729809 0.375616 0.0339666
0.842176 0.375616 0.0339666
0.954101 0.375616 0.0339666
0.0339666 0.500328 0.0339666
0.145876 0.500328 0.0339666
0.258381 0.500328 0.0339666
0.375616 0.500328 0.0339666
0.500328 0.500328 0.0339666
0.617533 0.500328 0.0339666
0.729809 0.500328 0.0339666
0.842176 0.500328 0.0339666
0.954101 0.500328 0.0339666
0.0339666 0.617533 0.0339666
0.145876 0.617533 0.0339666
0.258381 0.617533 0.0339666
0.375616 0.617533 0.0339666
0.500328 0.617533 0.0339666
0.617533 0.617533 0.0339666
0.729809 0.617533 0.0339666
0.842176 0.617533 0.0339666
0.954101 0.617533 0.0339666
0.0339666 0.729809 0.0339666
0.145876 0.729809 0.0339666
0.258381 0.729809 0.0339666
0.375616 0.729809 0.0339666
0.500328 0.729809 0.0339666
0.617517 0.729809 0.0339666
0.729809 0.729809 0.0339666
0.842176 0.729809 0.0339666
0.954101 0.729809 0.0339666
0.0339666 0.842176 0.0339666
0.145876 0.842176 0.0339666
0.258381 0.842176 0.0339666
0.375616 0.842176 0.0339666
0.500328 0.842176 0.0339666
0.617533 0.842176 0.0339666
0.729809 0.842176 0.0339666
0.842176 0.842176 0.0339666
0.954101 0.842176 0.0339666
0.0339666 0.954101 0.0339666
0.145876 0.954101 0.0339666
0.258381 0.954101 0.0339666
0.375616 0.954101 0.0339666
0.500328 0.954101 0.0339666
0.617533 0.954101 0.0339666
0.729809 0.954101 0.0339666
0.842176 0.954101 0.0339666
0.954101 0.954101 0.0339666
0.0339666 0.0339666 0.145876
0.145876 0.0339666 0.145876
0.258381 0.0339666 0.145876
0.375616 0.0339666 0.145876
0.500328 0.0339666 0.145876
0.617533 0.0339666 0.145876
0.729809 0.0339666 0.145876
0.842176 0.0339666 0.145876
0.954101 0.0339666 0.145876
0.0339666 0.145876 0.145876
0.145876 0.145876 0.145876
0.258381 0.145876 0.145876
0.375616 0.145876 0.145876
0.500328 0.145876 0.145876
0.617533 0.145876 0.145876
0.729809 0.145876 0.145876
0.842176 0.145876 0.145876
0.954101 0.145876 0.145876
0.0339666 0.258381 0.145876
0.145876 0.258381 0.145876
0.258381 0.258381 0.145876
0.375616 0.258381 0.145876
0.500328 0.258381 0.145876
0.617533 0.258381 0.145876
0.729809 0.258381 0.145876
0.842176 0.258381 0.145876
0.954101 0.258381 0.145876
0.0339666 0.375616 0.145876
0.145876 0.375616 0.145876
0.258381 0.375616 0.145876
0.375616 0.375616 0.145876
0.500328 0.375616 0.145876
0.617533 0.375616 0.145876
0.729809 0.375616 0.145876
0.842176 0.375616 0.145876
0.954101 0.375616 0.145876
0.0339666 0.500328 0.145876
0.145876 0.500328 0.145876
0.258381 0.500328 0.145876
0.375616 0.500328 0.145876
0.500328 0.500328 0.145876
0.617533 0.500328 0.145876
0.729809 0.500328 0.145876
0.842176 0.500328 0.145876
0.954101 0.500328 0.145876
0.0339666 0.617533 0.145876
0.145876 0.617533 0.145876
0.258381 0.617533 0.145876
0.375616 0.617533 0.145876
0.500328 0.617533 0.145876
0.617533 0.617533 0.145876
0.729809 0.617517 0.145876
0.842176 0.617533 0.145876
0.954101 0.617533 0.145876
0.0339666 0.729809 0.145876
0.145876 0.729809 0.145876
0.258381 0.729809 0.145876
0.375616 0.729809 0.145876
0.500328 0.729809 0.145876
0.617533 0.729809 0.145876
0.729809 0.729809 0.145876
0.842176 0.729809 0.145876
0.954101 0.729809 0.145876
0.0339666 0.842176 0.145876
0.145876 0.842176 0.145876
0.258381 0.842176 0.145876
0.375616 0.842176 0.145876
0.500328 0.842176 0.145876
0.617533 0.842176 0.145876
0.729809 0.842176 0.145876
0.842176 0.842176 0.145876
0.954101 0.842176 0.145876
0.0339666 0.954101 0.145876
0.145876 0.954101 0.145876
0.258381 0.954101 0.145876
0.375616 0.954101 0.145876
0.500328 0.954101 0.145876
0.617533 0.954101 0.145876
0.729809 0.954101 0.145876
0.842176 0.954101 0.145876
0.954101 0.954101 0.145876
0.0339666 0.0339666 0.258381
0.145876 0.0339666 0.258381
0.258381 0.0339666 0.258381
0.375616 0.0339666 0.258381
0.500328 0.0339666 0.258381
0.617533 0.0339666 0.258381
0.729809 0.0339666 0.258381
0.842176 0.0339666 0.258381
0.954101 0.0339666 0.258381
0.0339666 0.145876 0.258381
0.145876 0.145876 0.258381
0.258381 0.145876 0.258381
0.375616 0.145876 0.258381
0.500328 0.145876 0.258381
0.617533 0.145876 0.258381
0.729809 0.145876 0.258381
0.842176 0.145876 0.258381
0.954101 0.145876 0.258381
0.0339666 0.258381 0.258381
0.145876 0.258381 0.258381
0.258381 0.258381 0.258381
0.375616 0.258381 0.258381
0.500328 0.258381 0.258381
0.617533 0.258381 0.258381
0.729809 0.258381 0.258381
0.842176 0.258381 0.258381
0.954101 0.258381 0.258381
0.0339666 0.375616 0.258381
0.145876 0.375616 0.258381
0.258381 0.375616 0.258381
0.375616 0.375616 0.258381
0.500328 0.375616 0.258381
0.617533 0.375616 0.258381
0.729809 0.375616 0.258381
0.842176 0.375616 0.258381
0.954101 0.375616 0.258381
0.0339666 0.500328 0.258381
0.145876 0.500328 0.258381
0.258381 0.500328 0.258381
0.375616 0.500328 0.258381
0.500328 0.500328 0.258381
0.617533 0.500328 0.258381
0.729809 0.500328 0.258381
0.842176 0.500328 0.258381
0.954101 0.500328 0.258381
0.0339666 0.617533 0.258381
0.145876 0.617533 0.258381
0.258381 0.617533 0.258381
0.375616 0.617517 0.258381
0.500328 0.617533 0.258381
0.617533 0.617533 0.258381
0.729809 0.617517 0.258381
0.842176 0.617533 0.258381
0.954101 0.617533 0.258381
0.0339666 0.729809 0.258381
0.145876 0.729809 0.258381
0.258381 0.729809 0.258381
0.375616 0.729809 0.258381
0.500328 0.729809 0.258381
0.617517 0.729809 0.258381
0.729809 0.729809 0.258381
0.842176 0.729809 0.258381
0.954101 0.729809 0.258381
0.0339666 0.842176 0.258381
0.145876 0.842176 0.258381
0.258381 0.842176 0.258381
0.375616 0.842176 0.258381
0.500328 0.842176 0.258381
0.617533 0.842176 0.258381
0.729809 0.842176 0.258381
0.842176 0.842176 0.258381
0.954101 0.842176 0.258381
0.0339666 0.954101 0.258381
0.145876 0.954101 0.258381
0.258381 0.954101 0.258381
0.375616 0.954101 0.258381
0.500328 0.954101 0.258381
0.617533 0.954101 0.258381
0.729809 0.954101 0.258381
0.842176 0.954101 0.258381
0.954101 0.954101 0.258381
0.0339666 0.0339666 0.375616
0.145876 0.0339666 0.375616
0.258381 0.0339666 0.375616
0.375616 0.0339666 0.375616
0.500328 0.0339666 0.375616
0.617533 0.0339666 0.375616
0.729809 0.0339666 0.375616
0.842176 0.0339666 0.375616
0.954101 0.0339666 0.375616
0.0339666 0.145876 0.375616
0.145876 0.145876 0.375616
0.258381 0.145876 0.375616
0.375616 0.145876 0.375616
0.500328 0.145876 0.375616
0.617533 0.145876 0.375616
0.729809 0.145876 0.375616
0.842176 0.145876 0.375616
0.954101 0.145876 0.375616
0.0339666 0.258381 0.375616
0.145876 0.258381 0.375616
0.258381 0.258381 0.375616
0.375616 0.258381 0.375616
0.500328 0.258381 0.375616
0.617533 0.258381 0.375616
0.729809 0.258381 0.375616
0.842176 0.258381 0.375616
0.954101 0.258381 0.375616
0.0339666 0.375616 0.375616
0.145876 0.375616 0.375616
0.258381 0.375616 0.375616
0.375616 0.375616 0.375616
0.500328 0.375616 0.375616
0.617533 0.375616 0.375616
0.729809 0.375616 0.375616
0.842176 0.375616 0.375616
0.954101 0.375616 0.375616
0.0339666 0.500328 0.375616
0.145876 0.500328 0.375616
0.258381 0.500328 0.375616
0.375616 0.500328 0.375616
0.500328 0.500328 0.375616
0.617533 0.500328 0.375616
0.729809 0.500328 0.375616
0.842176 0.500328 0.375616
0.954101 0.500328 0.375616
0.0339666 0.617533 0.375616
0.145876 0.617533 0.375616
0.258381 0.617533 0.375616
0.375616 0.617517 0.375616
0.500328 0.617533 0.375616
0.617533 0.617533 0.375616
0.729809 0.617517 0.375616
0.842176 0.617533 0.375616
0.954101 0.617533 0.375616
0.0339666 0.729809 0.375616
0.145876 0.729809 0.375616
0.258381 0.729809 0.375616
0.375616 0.729809 0.375616
0.500328 0.729809 0.375616
0.617517 0.729809 0.375616
0.729809 0.729809 0.375616
0.842176 0.729809 0.375616
0.954101 0.729809 0.375616
0.0339666 0.842176 0.375616
0.145876 0.842176 0.375616
0.258381 0.842176 0.375616
0.375616 0.842176 0.375616
0.500328 0.842176 0.375616
0.617533 0.842176 0.375616
0.729809 0.842176 0.375616
0.842176 0.842176 0.375616
0.954101 0.842176 0.375616
0.0339666 0.954101 0.375616
0.145876 0.954101 0.375616
0.258381 0.954101 0.375616
0.375616 0.954101 0.375616
0.500328 0.954101 0.375616
0.617533 0.954101 0.375616
0.729809 0.954101 0.375616
0.842176 0.954101 0.375616
0.954101 0.954101 0.375616
0.0339666 0.0339666 0.500328
0.145876 0.0339666 0.500328
0.258381 0.0339666 0.500328
0.375616 0.0339666 0.500328
0.500328 0.0339666 0.500328
0.617533 0.0339666 0.500328
0.729809 0.0339666 0.500328
0.842176 0.0339666 0.500328
0.954101 0.0339666 0.500328
0.0339666 0.145876 0.500328
0.145876 0.145876 0.500328
0.258381 0.145876 0.500328
0.375616 0.145876 0.500328
0.500328 0.145876 0.500328
0.617533 0.145876 0.500328
0.729809 0.145876 0.500328
0.842176 0.145876 0.500328
0.954101 0.145876 0.500328
0.0339666 0.258381 0.500328
0.145876 0.258381 0.500328
0.258381 0.258381 0.500328
0.375616 0.258381 0.500328
0.500328 0.258381 0.500328
0.617533 0.258381 0.500328
0.729809 0.258381 0.500328
0.842176 0.258381 0.500328
0.954101 0.258381 0.500328
0.0339666 0.375616 0.500328
0.145876 0.375616 0.500328
0.258381 0.375616 0.500328
0.375616 0.375616 0.500328
0.500328 0.375616 0.500328
0.617533 0.375616 0.500328
0.729809 0.375616 0.500328
0.842176 0.375616 0.500328
0.954101 0.375616 0.500328
0.0339666 0.500328 0.500328
0.145876 0.500328 0.500328
0.258381 0.500328 0.500328
0.375616 0.500328 0.500328
0.500328 0.500328 0.500328
0.617533 0.500328 0.500328
0.729809 0.500328 0.500328
0.842176 0.500328 0.500328
0.954101 0.500328 0.500328
0.0339666 0.617533 0.500328
0.145876 0.617533 0.500328
0.258381 0.617533 0.500328
0.375616 0.617533 0.500328
0.500328 0.617533 0.500328
0.617533 0.617533 0.500328
0.729809 0.617517 0.500328
0.842176 0.617533 0.500328
0.954101 0.617533 0.500328
0.0339666 0.729809 0.500328
0.145876 0.729809 0.500328
0.258381 0.729809 0.500328
0.375616 0.729809 0.500328
0.500328 0.729809 0.500328
0.617517 0.729809 0.500328
0.729809 0.729809 0.500328
0.842176 0.729809 0.500328
0.954101 0.729809 0.500328
0.0339666 0.842176 0.500328
0.145876 0.842176 0.500328
0.258381 0.842176 0.500328
0.375616 0.842176 0.500328
0.500328 0.842176 0.500328
0.617533 0.842176 0.500328
0.729809 0.842176 0.500328
0.842176 0.842176 0.500328
0.954101 0.842176 0.500328
0.0339666 0.954101 0.500328
0.145876 0.954101 0.500328
0.258381 0.954101 0.500328
0.375616 0.954101 0.500328
0.500328 0.954101 0.500328
0.617533 0.954101 0.500328
0.729809 0.954101 0.500328
0.842176 0.954101 0.500328
0.954101 0.954101 0.500328
0.0339666 0.0339666 0.617533
0.145876 0.0339666 0.617533
0.258381 0.0339666 0.617533
0.375616 0.0339666 0.617533
0.500328 0.0339666 0.617533
0.617533 0.0339666 0.617533
0.729809 0.0339666 0.617533
0.842176 0.0339666 0.617533
0.954101 0.0339666 0.617533
0.0339666 0.145876 0.617533
0.145876 0.145876 0.617533
0.258381 0.145876 0.617533
0.375616 0.145876 0.617533
0.500328 0.145876 0.617533
0.617533 0.145876 0.617533
0.729809 0.145876 0.617533
0.842176 0.145876 0.617533
0.954101 0.145876 0.617533
0.0339666 0.258381 0.617533
0.145876 0.258381 0.617533
0.258381 0.258381 0.617533
0.375616 0.258381 0.617533
0.500328 0.258381 0.617533
0.617533 0.258381 0.617533
0.729809 0.258381 0.617533
0.842176 0.258381 0.617533
0.954101 0.258381 0.617533
0.0339666 0.375616 0.617533
0.145876 0.375616 0.617533
0.258381 0.375616 0.617533
0.375616 0.375616 0.617533
0.500328 0.375616 0.617533
0.617533 0.375616 0.617533
0.729809 0.375616 0.617533
0.842176 0.375616 0.617533
0.954101 0.375616 0.617533
0.0339666 0.500328 0.617533
0.145876 0.500328 0.617533
0.258381 0.500328 0.617533
0.375616 0.500328 0.617533
0.500328 0.500328 0.617533
0.617533 0.500328 0.617533
0.729809 0.500328 0.617533
0.842176 0.500328 0.617533
0.954101 0.500328 0.617533
0.0339666 0.617533 0.617533
0.145876 0.617533 0.617533
0.258381 0.617533 0.617533
0.375616 0.617517 0.617517
0.500328 0.617533 0.617533
0.617533 0.617533 0.617533
0.729809 0.617517 0.617517
0.842176 0.617533 0.617533
0.954101 0.617533 0.617533
0.0339666 0.729809 0.617517
0.145876 0.729809 0.617533
0.258381 0.729809 0.617517
0.375616 0.729809 0.617517
0.500328 0.729809 0.617517
0.617533 0.729809 0.617533
0.729809 0.729809 0.617517
0.842176 0.729809 0.617517
0.954101 0.729809 0.617517
0.0339666 0.842176 0.617533
0.145876 0.842176 0.617533
0.258381 0.842176 0.617533
0.375616 0.842176 0.617533
0.500328 0.842176 0.617533
0.617533 0.842176 0.617533
0.729809 0.842176 0.617517
0.842176 0.842176 0.617533
0.954101 0.842176 0.617533
0.0339666 0.954101 0.617533
0.145876 0.954101 0.617533
0.258381 0.954101 0.617533
0.375616 0.954101 0.617533
0.500328 0.954101 0.617533
0.617533 0.954101 0.617533
0.729809 0.954101 0.617517
0.842176 0.954101 0.617533
0.954101 0.954101 0.617533
0.0339666 0.0339666 0.729809
0.145876 0.0339666 0.729809
0.258381 0.0339666 0.729809
0.375616 0.0339666 0.729809
0.500328 0.0339666 0.729809
0.617533 0.0339666 0.729809
0.729809 0.0339666 0.729809
0.842176 0.0339666 0.729809
0.954101 0.0339666 0.729809
0.0339666 0.145876 0.729809
0.145876 0.145876 0.729809
0.258381 0.145876 0.729809
0.375616 0.145876 0.729809
0.500328 0.145876 0.729809
0.617533 0.145876 0.729809
0.729809 0.145876 0.729809
0.842176 0.145876 0.729809
0.954101 0.145876 0.729809
0.0339666 0.258381 0.729809
0.145876 0.258381 0.729809
0.258381 0.258381 0.729809
0.375616 0.258381 0.729809
0.500328 0.258381 0.729809
0.617533 0.258381 0.729809
0.729809 0.258381 0.729809
0.842176 0.258381 0.729809
0.954101 0.258381 0.729809
0.0339666 0.375616 0.729809
0.145876 0.375616 0.729809
0.258381 0.375616 0.729809
0.375616 0.375616 0.729809
0.500328 0.375616 0.729809
0.617533 0.375616 0.729809
0.729809 0.375616 0.729809
0.842176 0.375616 0.729809
0.954101 0.375616 0.729809
0.0339666 0.500328 0.729809
0.145876 0.500328 0.729809
0.258381 0.500328 0.729809
0.375616 0.500328 0.729809
0.500328 0.500328 0.729809
0.617533 0.500328 0.729809
0.729809 0.500328 0.729809
0.842176 0.500328 0.729809
0.954101 0.500328 0.729809
0.0339666 0.617533 0.729809
0.145876 0.617533 0.729809
0.258381 0.617533 0.729809
0.375616 0.617517 0.729809
0.500328 0.617533 0.729809
0.617533 0.617533 0.729809
0.729809 0.617533 0.729809
0.842176 0.617533 0.729809
0.954101 0.617533 0.729809
0.0339666 0.729809 0.729809
0.145876 0.729809 0.729809
0.258381 0.729809 0.729809
0.375616 0.729809 0.729809
0.500328 0.729809 0.729809
0.617533 0.729809 0.729809
0.729809 0.729809 0.729809
0.842176 0.729809 0.729809
0.954101 0.729809 0.729809
0.0339666 0.842176 0.729809
0.145876 0.842176 0.729809
0.258381 0.842176 0.729809
0.375616 0.842176 0.729809
0.500328 0.842176 0.729809
0.617533 0.842176 0.729809
0.729809 0.842176 0.729809
0.842176 0.842176 0.729809
0.954101 0.842176 0.729809
0.0339666 0.954101 0.729809
0.145876 0.954101 0.729809
0.258381 0.954101 0.729809
0.375616 0.954101 0.729809
0.500328 0.954101 0.729809
0.617533 0.954101 0.729809
0.729809 0.954101 0.729809
0.842176 0.954101 0.729809
0.954101 0.954101 0.729809
0.0339666 0.0339666 0.842176
0.145876 0.0339666 0.842176
0.258381 0.0339666 0.842176
0.375616 0.0339666 0.842176
0.500328 0.0339666 0.842176
0.617533 0.0339666 0.842176
0.729809 0.0339666 0.842176
0.842176 0.0339666 0.842176
0.954101 0.0339666 0.842176
0.0339666 0.145876 0.842176
0.145876 0.145876 0.842176
0.258381 0.145876 0.842176
0.375616 0.145876 0.842176
0.500328 0.145876 0.842176
0.617533 0.145876 0.842176
0.729809 0.145876 0.842176
0.842176 0.145876 0.842176
0.954101 0.145876 0.842176
0.0339666 0.258381 0.842176
0.145876 0.258381 0.842176
0.258381 0.258381 0.842176
0.375616 0.258381 0.842176
0.500328 0.258381 0.842176
0.617533 0.258381 0.842176
0.729809 0.258381 0.842176
0.842176 0.258381 0.842176
0.954101 0.258381 0.842176
0.0339666 0.375616 0.842176
0.145876 0.375616 0.842176
0.258381 0.375616 0.842176
0.375616 0.375616 0.842176
0.500328 0.375616 0.842176
0.617533 0.375616 0.842176
0.729809 0.375616 0.842176
0.842176 0.375616 0.842176
0.954101 0.375616 0.842176
0.0339666 0.500328 0.842176
0.145876 0.500328 0.842176
0.258381 0.500328 0.842176
0.375616 0.500328 0.842176
0.500328 0.500328 0.842176
0.617533 0.500328 0.842176
0.729809 0.500328 0.842176
0.842176 0.500328 0.842176
0.954101 0.500328 0.842176
0.0339666 0.617533 0.842176
0.145876 0.617533 0.842176
0.258381 0.617533 0.842176
0.375616 0.617533 0.842176
0.500328 0.617533 0.842176
0.617533 0.617533 0.842176
0.729809 0.617517 0.842176
0.842176 0.617533 0.842176
0.954101 0.617533 0.842176
0.0339666 0.729809 0.842176
0.145876 0.729809 0.842176
0.258381 0.729809 0.842176
0.375616 0.729809 0.842176
0.500328 0.729809 0.842176
0.617533 0.729809 0.842176
0.729809 0.729809 0.842176
0.842176 0.729809 0.842176
0.954101 0.729809 0.842176
0.0339666 0.842176 0.842176
0.145876 0.842176 0.842176
0.258381 0.842176 0.842176
0.375616 0.842176 0.842176
0.500328 0.842176 0.842176
0.617533 0.842176 0.842176
0.729809 0.842176 0.842176
0.842176 0.842176 0.842176
0.954101 0.842176 0.842176
0.0339666 0.954101 0.842176
0.145876 0.954101 0.842176
0.258381 0.954101 0.842176
0.375616 0.954101 0.842176
0.500328 0.954101 0.842176
0.617533 0.954101 0.842176
0.729809 0.954101 0.842176
0.842176 0.954101 0.842176
0.954101 0.954101 0.842176
0.0339666 0.0339666 0.954101
0.145876 0.0339666 0.954101
0.258381 0.0339666 0.954101
0.375616 0.0339666 0.954101
0.500328 0.0339666 0.954101
0.617533 0.0339666 0.954101
0.729809 0.0339666 0.954101
0.842176 0.0339666 0.954101
0.954101 0.0339666 0.954101
0.0339666 0.145876 0.954101
0.145876 0.145876 0.954101
0.258381 0.145876 0.954101
0.375616 0.145876 0.954101
0.500328 0.145876 0.954101
0.617533 0.145876 0.954101
0.729809 0.145876 0.954101
0.842176 0.145876 0.954101
0.954101 0.145876 0.954101
0.0339666 0.258381 0.954101
0.145876 0.258381 0.954101
0.258381 0.258381 0.954101
0.375616 0.258381 0.954101
0.500328 0.258381 0.954101
0.617533 0.258381 0.954101
0.729809 0.258381 0.954101
0.842176 0.258381 0.954101
0.954101 0.258381 0.954101
0.0339666 0.375616 0.954101
0.145876 0.375616 0.954101
0.258381 0.375616 0.954101
0.375616 0.375616 0.954101
0.500328 0.375616 0.954101
0.617533 0.375616 0.954101
0.729809 0.375616 0.954101
0.842176 0.375616 0.954101
0.954101 0.375616 0.954101
0.0339666 0.500328 0.954101
0.145876 0.500328 0.954101
0.258381 0.500328 0.954101
0.375616 0.500328 0.954101
0.500328 0.500328 0.954101
0.617533 0.500328 0.954101
0.729809 0.500328 0.954101
0.842176 0.500328 0.954101
0.954101 0.500328 0.954101
0.0339666 0.617533 0.954101
0.145876 0.617533 0.954101
0.258381 0.617533 0.954101
0.375616 0.617517 0.954101
0.500328 0.617533 0.954101
0.617533 0.617533 0.954101
0.729809 0.617533 0.954101
0.842176 0.617533 0.954101
0.954101 0.617533 0.954101
0.0339666 0.729809 0.954101
0.145876 0.729809 0.954101
0.258381 0.729809 0.954101
0.375616 0.729809 0.954101
0.500328 0.729809 0.954101
0.617517 0.729809 0.954101
0.729809 0.729809 0.954101
0.842176 0.729809 0.954101
0.954101 0.729809 0.954101
0.0339666 0.842176 0.954101
0.145876 0.842176 0.954101
0.258381 0.842176 0.954101
0.375616 0.842176 0.954101
0.500328 0.842176 0.954101
0.617533 0.842176 0.954101
0.729809 0.842176 0.954101
0.842176 0.842176 0.954101
0.954101 0.842176 0.954101
0.0339666 0.954101 0.954101
0.145876 0.954101 0.954101
0.258381 0.954101 0.954101
0.375616 0.954101 0.954101
0.500328 0.954101 0.954101
0.617533 0.954101 0.954101
0.729809 0.954101 0.954101
0.842176 0.954101 0.954101
0.954101 0.954101 0.954101
