public/LUTS/Balanced/Balanced_02.cube
TITLE "Generated by Resolve"
LUT_3D_SIZE 33
0.0153201 0.0153201 0.0153201
0.0446784 0.0153201 0.0153201
0.0745251 0.0153201 0.0153201
0.104356 0.0153201 0.0153201
0.134203 0.0153201 0.0153201
0.16405 0.0153201 0.0153201
0.193896 0.0153201 0.0153201
0.223651 0.0153201 0.0153201
0.253651 0.0153201 0.0153201
0.283909 0.0153201 0.0153201
0.314229 0.0153201 0.0153201
0.344732 0.0153201 0.0153201
0.375509 0.0153201 0.0153201
0.40676 0.0153201 0.0153201
0.438087 0.0153201 0.0153201
0.469398 0.0153201 0.0153201
0.500435 0.0153201 0.0153201
0.531014 0.0153201 0.0153201
0.561318 0.0153201 0.0153201
0.59147 0.0153201 0.0153201
0.621241 0.0153201 0.0153201
0.650874 0.0153201 0.0153201
0.680522 0.0153201 0.0153201
0.71017 0.0153201 0.0153201
0.739834 0.0153201 0.0153201
0.769482 0.0153201 0.0153201
0.79913 0.0153201 0.0153201
0.828794 0.0153201 0.0153201
0.858442 0.0153201 0.0153201
0.888106 0.0153201 0.0153201
0.917754 0.0153201 0.0153201
0.947402 0.0153201 0.0153201
0.976593 0.0153201 0.0153201
0.0153201 0.0446784 0.0153201
0.0446784 0.0446784 0.0153201
0.0745251 0.0446784 0.0153201
0.104356 0.0446784 0.0153201
0.134203 0.0446784 0.0153201
0.16405 0.0446784 0.0153201
0.193896 0.0446784 0.0153201
0.223651 0.0446784 0.0153201
0.253651 0.0446784 0.0153201
0.283909 0.0446784 0.0153201
0.314229 0.0446784 0.0153201
0.344732 0.0446784 0.0153201
0.375509 0.0446784 0.0153201
0.40676 0.0446784 0.0153201
0.438087 0.0446784 0.0153201
0.469398 0.0446784 0.0153201
0.500435 0.0446784 0.0153201
0.531014 0.0446784 0.0153201
0.561318 0.0446784 0.0153201
0.59147 0.0446784 0.0153201
0.621241 0.0446784 0.0153201
0.650874 0.0446784 0.0153201
0.680522 0.0446784 0.0153201
0.71017 0.0446784 0.0153201
0.739834 0.0446784 0.0153201
0.769482 0.0446784 0.0153201
0.79913 0.0446784 0.0153201
0.828794 0.0446784 0.0153201
0.858442 0.0446784 0.0153201
0.888106 0.0446784 0.0153201
0.917754 0.0446784 0.0153201
0.947402 0.0446784 0.0153201
0.976593 0.0446784 0.0153201
0.0153201 0.0745251 0.0153201
0.0446784 0.0745251 0.0153201
0.0745251 0.0745251 0.0153201
0.104356 0.0745251 0.0153201
0.134203 0.0745251 0.0153201
0.16405 0.0745251 0.0153201
0.193896 0.0745251 0.0153201
0.223651 0.0745251 0.0153201
0.253651 0.0745251 0.0153201
0.283909 0.0745251 0.0153201
0.314229 0.0745251 0.0153201
0.344732 0.0745251 0.0153201
0.375509 0.0745251 0.0153201
0.40676 0.0745251 0.0153201
0.438087 0.0745251 0.0153201
0.469398 0.0745251 0.0153201
0.500435 0.0745251 0.0153201
0.531014 0.0745251 0.0153201
0.561318 0.0745251 0.0153201
0.59147 0.0745251 0.0153201
0.621241 0.0745251 0.0153201
0.650874 0.0745251 0.0153201
0.680522 0.0745251 0.0153201
0.71017 0.0745251 0.0153201
0.739834 0.0745251 0.0153201
0.769482 0.0745251 0.0153201
0.79913 0.0745251 0.0153201
0.828794 0.0745251 0.0153201
0.858442 0.0745251 0.0153201
0.888106 0.0745251 0.0153201
0.917754 0.0745251 0.0153201
0.947402 0.0745251 0.0153201
0.976593 0.0745251 0.0153201
0.0153201 0.104356 0.0153201
0.0446784 0.104356 0.0153201
0.0745251 0.104356 0.0153201
0.104356 0.104356 0.0153201
0.134203 0.104356 0.0153201
0.16405 0.104356 0.0153201
0.193896 0.104356 0.0153201
0.223651 0.104356 0.0153201
0.253651 0.104356 0.0153201
0.283909 0.104356 0.0153201
0.314229 0.104356 0.0153201
0.344732 0.104356 0.0153201
0.375509 0.104356 0.0153201
0.40676 0.104356 0.0153201
0.438087 0.104356 0.0153201
0.469398 0.104356 0.0153201
0.500435 0.104356 0.0153201
0.531014 0.104356 0.0153201
0.561318 0.104356 0.0153201
0.59147 0.104356 0.0153201
0.621241 0.104356 0.0153201
0.650874 0.104356 0.0153201
0.680522 0.104356 0.0153201
0.71017 0.104356 0.0153201
0.739834 0.104356 0.0153201
0.769482 0.104356 0.0153201
0.79913 0.104356 0.0153201
0.828794 0.104356 0.0153201
0.858442 0.104356 0.0153201
0.888106 0.104356 0.0153201
0.917754 0.104356 0.0153201
0.947402 0.104356 0.0153201
0.976593 0.104356 0.0153201
0.0153201 0.134203 0.0153201
0.0446784 0.134203 0.0153201
0.0745251 0.134203 0.0153201
0.104356 0.134203 0.0153201
0.134203 0.134203 0.0153201
0.16405 0.134203 0.0153201
0.193896 0.134203 0.0153201
0.223651 0.134203 0.0153201
0.253651 0.134203 0.0153201
0.283909 0.134203 0.0153201
0.314229 0.134203 0.0153201
0.344732 0.134203 0.0153201
0.375509 0.134203 0.0153201
0.40676 0.134203 0.0153201
0.438087 0.134203 0.0153201
0.469398 0.134203 0.0153201
0.500435 0.134203 0.0153201
0.531014 0.134203 0.0153201
0.561318 0.134203 0.0153201
0.59147 0.134203 0.0153201
0.621241 0.134203 0.0153201
0.650874 0.134203 0.0153201
0.680522 0.134203 0.0153201
0.71017 0.134203 0.0153201
0.739834 0.134203 0.0153201
0.769482 0.134203 0.0153201
0.79913 0.134203 0.0153201
0.828794 0.134203 0.0153201
0.858442 0.134203 0.0153201
0.888106 0.134203 0.0153201
0.917754 0.134203 0.0153201
0.947402 0.134203 0.0153201
0.976593 0.134203 0.0153201
0.0153201 0.16405 0.0153201
0.0446784 0.16405 0.0153201
0.0745251 0.16405 0.0153201
0.104356 0.16405 0.0153201
0.134203 0.16405 0.0153201
0.16405 0.16405 0.0153201
0.193896 0.16405 0.0153201
0.223651 0.16405 0.0153201
0.253651 0.16405 0.0153201
0.283909 0.16405 0.0153201
0.314229 0.16405 0.0153201
0.344732 0.16405 0.0153201
0.375509 0.16405 0.0153201
0.40676 0.16405 0.0153201
0.438087 0.16405 0.0153201
0.469398 0.16405 0.0153201
0.500435 0.16405 0.0153201
0.531014 0.16405 0.0153201
0.561318 0.16405 0.0153201
0.59147 0.16405 0.0153201
0.621241 0.16405 0.0153201
0.650874 0.16405 0.0153201
0.680522 0.16405 0.0153201
0.71017 0.16405 0.0153201
0.739834 0.16405 0.0153201
0.769482 0.16405 0.0153201
0.79913 0.16405 0.0153201
0.828794 0.16405 0.0153201
0.858442 0.16405 0.0153201
0.888106 0.16405 0.0153201
0.917754 0.16405 0.0153201
0.947402 0.16405 0.0153201
0.976593 0.16405 0.0153201
0.0153201 0.193896 0.0153201
0.0446784 0.193896 0.0153201
0.0745251 0.193896 0.0153201
0.104356 0.193896 0.0153201
0.134203 0.193896 0.0153201
0.16405 0.193896 0.0153201
0.193896 0.193896 0.0153201
0.223651 0.193896 0.0153201
0.253651 0.193896 0.0153201
0.283909 0.193896 0.0153201
0.314229 0.193896 0.0153201
0.344732 0.193896 0.0153201
0.375509 0.193896 0.0153201
0.40676 0.193896 0.0153201
0.438087 0.193896 0.0153201
0.469398 0.193896 0.0153201
0.500435 0.193896 0.0153201
0.531014 0.193896 0.0153201
0.561318 0.193896 0.0153201
0.59147 0.193896 0.0153201
0.621241 0.193896 0.0153201
0.650874 0.193896 0.0153201
0.680522 0.193896 0.0153201
0.71017 0.193896 0.0153201
0.739834 0.193896 0.0153201
0.769482 0.193896 0.0153201
0.79913 0.193896 0.0153201
0.828794 0.193896 0.0153201
0.858442 0.193896 0.0153201
0.888106 0.193896 0.0153201
0.917754 0.193896 0.0153201
0.947402 0.193896 0.0153201
0.976593 0.193896 0.0153201
0.0153201 0.223651 0.0153201
0.0446784 0.223651 0.0153201
0.0745251 0.223651 0.0153201
0.104356 0.223651 0.0153201
0.134203 0.223651 0.0153201
0.16405 0.223651 0.0153201
0.193896 0.223651 0.0153201
0.223651 0.223651 0.0153201
0.253651 0.223651 0.0153201
0.283909 0.223651 0.0153201
0.314229 0.223651 0.0153201
0.344732 0.223651 0.0153201
0.375509 0.223651 0.0153201
0.40676 0.223651 0.0153201
0.438087 0.223651 0.0153201
0.469398 0.223651 0.0153201
0.500435 0.223651 0.0153201
0.531014 0.223651 0.0153201
0.561318 0.223651 0.0153201
0.59147 0.223651 0.0153201
0.621241 0.223651 0.0153201
0.650874 0.223651 0.0153201
0.680522 0.223651 0.0153201
0.71017 0.223651 0.0153201
0.739834 0.223651 0.0153201
0.769482 0.223651 0.0153201
0.79913 0.223651 0.0153201
0.828794 0.223651 0.0153201
0.858442 0.223651 0.0153201
0.888106 0.223651 0.0153201
0.917754 0.223651 0.0153201
0.947402 0.223651 0.0153201
0.976593 0.223651 0.0153201
0.0153201 0.253651 0.0153201
0.0446784 0.253651 0.0153201
0.0745251 0.253651 0.0153201
0.104356 0.253651 0.0153201
0.134203 0.253651 0.0153201
0.16405 0.253651 0.0153201
0.193896 0.253651 0.0153201
0.223651 0.253651 0.0153201
0.253651 0.253651 0.0153201
0.283909 0.253651 0.0153201
0.314229 0.253651 0.0153201
0.344732 0.253651 0.0153201
0.375509 0.253651 0.0153201
0.40676 0.253651 0.0153201
0.438087 0.253651 0.0153201
0.469398 0.253651 0.0153201
0.500435 0.253651 0.0153201
0.531014 0.253651 0.0153201
0.561318 0.253651 0.0153201
0.59147 0.253651 0.0153201
0.621241 0.253651 0.0153201
0.650874 0.253651 0.0153201
0.680522 0.253651 0.0153201
0.71017 0.253651 0.0153201
0.739834 0.253651 0.0153201
0.769482 0.253651 0.0153201
0.79913 0.253651 0.0153201
0.828794 0.253651 0.0153201
0.858442 0.253651 0.0153201
0.888106 0.253651 0.0153201
0.917754 0.253651 0.0153201
0.947402 0.253651 0.0153201
0.976593 0.253651 0.0153201
0.0153201 0.283909 0.0153201
0.0446784 0.283909 0.0153201
0.0745251 0.283909 0.0153201
0.104356 0.283909 0.0153201
0.134203 0.283909 0.0153201
0.16405 0.283909 0.0153201
0.193896 0.283909 0.0153201
0.223651 0.283909 0.0153201
0.253651 0.283909 0.0153201
0.283909 0.283909 0.0153201
0.314229 0.283909 0.0153201
0.344732 0.283909 0.0153201
0.375509 0.283909 0.0153201
0.40676 0.283909 0.0153201
0.438087 0.283909 0.0153201
0.469398 0.283909 0.0153201
0.500435 0.283909 0.0153201
0.531014 0.283909 0.0153201
0.561318 0.283909 0.0153201
0.59147 0.283909 0.0153201
0.621241 0.283909 0.0153201
0.650874 0.283909 0.0153201
0.680522 0.283909 0.0153201
0.71017 0.283909 0.0153201
0.739834 0.283909 0.0153201
0.769482 0.283909 0.0153201
0.79913 0.283909 0.0153201
0.828794 0.283909 0.0153201
0.858442 0.283909 0.0153201
0.888106 0.283909 0.0153201
0.917754 0.283909 0.0153201
0.947402 0.283909 0.0153201
0.976593 0.283909 0.0153201
0.0153201 0.314229 0.0153201
0.0446784 0.314229 0.0153201
0.0745251 0.314229 0.0153201
0.104356 0.314229 0.0153201
0.134203 0.314229 0.0153201
0.16405 0.314229 0.0153201
0.193896 0.314229 0.0153201
0.223651 0.314229 0.0153201
0.253651 0.314229 0.0153201
0.283909 0.314229 0.0153201
0.314229 0.314229 0.0153201
0.344732 0.314229 0.0153201
0.375509 0.314229 0.0153201
0.40676 0.314229 0.0153201
0.438087 0.314229 0.0153201
0.469398 0.314229 0.0153201
0.500435 0.314229 0.0153201
0.531014 0.314229 0.0153201
0.561318 0.314229 0.0153201
0.59147 0.314229 0.0153201
0.621241 0.314229 0.0153201
0.650874 0.314229 0.0153201
0.680522 0.314229 0.0153201
0.71017 0.314229 0.0153201
0.739834 0.314229 0.0153201
0.769482 0.314229 0.0153201
0.79913 0.314229 0.0153201
0.828794 0.314229 0.0153201
0.858442 0.314229 0.0153201
0.888106 0.314229 0.0153201
0.917754 0.314229 0.0153201
0.947402 0.314229 0.0153201
0.976593 0.314229 0.0153201
0.0153201 0.344732 0.0153201
0.0446784 0.344732 0.0153201
0.0745251 0.344732 0.0153201
0.104356 0.344732 0.0153201
0.134203 0.344732 0.0153201
0.16405 0.344732 0.0153201
0.193896 0.344732 0.0153201
0.223651 0.344732 0.0153201
0.253651 0.344732 0.0153201
0.283909 0.344732 0.0153201
0.314229 0.344732 0.0153201
0.344732 0.344732 0.0153201
0.375509 0.344732 0.0153201
0.40676 0.344732 0.0153201
0.438087 0.344732 0.0153201
0.469398 0.344732 0.0153201
0.500435 0.344732 0.0153201
0.531014 0.344732 0.0153201
0.561318 0.344732 0.0153201
0.59147 0.344732 0.0153201
0.621241 0.344732 0.0153201
0.650874 0.344732 0.0153201
0.680522 0.344732 0.0153201
0.71017 0.344732 0.0153201
0.739834 0.344732 0.0153201
0.769482 0.344732 0.0153201
0.79913 0.344732 0.0153201
0.828794 0.344732 0.0153201
0.858442 0.344732 0.0153201
0.888106 0.344732 0.0153201
0.917754 0.344732 0.0153201
0.947402 0.344732 0.0153201
0.976593 0.344732 0.0153201
0.0153201 0.375509 0.0153201
0.0446784 0.375509 0.0153201
0.0745251 0.375509 0.0153201
0.104356 0.375509 0.0153201
0.134203 0.375509 0.0153201
0.16405 0.375509 0.0153201
0.193896 0.375509 0.0153201
0.223651 0.375509 0.0153201
0.253651 0.375509 0.0153201
0.283909 0.375509 0.0153201
0.314229 0.375509 0.0153201
0.344732 0.375509 0.0153201
0.375509 0.375509 0.0153201
0.40676 0.375509 0.0153201
0.438087 0.375509 0.0153201
0.469398 0.375509 0.0153201
0.500435 0.375509 0.0153201
0.531014 0.375509 0.0153201
0.561318 0.375509 0.0153201
0.59147 0.375509 0.0153201
0.621241 0.375509 0.0153201
0.650874 0.375509 0.0153201
0.680522 0.375509 0.0153201
0.71017 0.375509 0.0153201
0.739834 0.375509 0.0153201
0.769482 0.375509 0.0153201
0.79913 0.375509 0.0153201
0.828794 0.375509 0.0153201
0.858442 0.375509 0.0153201
0.888106 0.375509 0.0153201
0.917754 0.375509 0.0153201
0.947402 0.375509 0.0153201
0.976593 0.375509 0.0153201
0.0153201 0.40676 0.0153201
0.0446784 0.40676 0.0153201
0.0745251 0.40676 0.0153201
0.104356 0.40676 0.0153201
0.134203 0.40676 0.0153201
0.16405 0.40676 0.0153201
0.193896 0.40676 0.0153201
0.223651 0.40676 0.0153201
0.253651 0.40676 0.0153201
0.283909 0.40676 0.0153201
0.314229 0.40676 0.0153201
0.344732 0.40676 0.0153201
0.375509 0.40676 0.0153201
0.40676 0.40676 0.0153201
0.438087 0.40676 0.0153201
0.469398 0.40676 0.0153201
0.500435 0.40676 0.0153201
0.531014 0.40676 0.0153201
0.561318 0.40676 0.0153201
0.59147 0.40676 0.0153201
0.621241 0.40676 0.0153201
0.650874 0.40676 0.0153201
0.680522 0.40676 0.0153201
0.71017 0.40676 0.0153201
0.739834 0.40676 0.0153201
0.769482 0.40676 0.0153201
0.79913 0.40676 0.0153201
0.828794 0.40676 0.0153201
0.858442 0.40676 0.0153201
0.888106 0.40676 0.0153201
0.917754 0.40676 0.0153201
0.947402 0.40676 0.0153201
0.976593 0.40676 0.0153201
0.0153201 0.438087 0.0153201
0.0446784 0.438087 0.0153201
0.0745251 0.438087 0.0153201
0.104356 0.438087 0.0153201
0.134203 0.438087 0.0153201
0.16405 0.438087 0.0153201
0.193896 0.438087 0.0153201
0.223651 0.438087 0.0153201
0.253651 0.438087 0.0153201
0.283909 0.438087 0.0153201
0.314229 0.438087 0.0153201
0.344732 0.438087 0.0153201
0.375509 0.438087 0.0153201
0.40676 0.438087 0.0153201
0.438087 0.438087 0.0153201
0.469398 0.438087 0.0153201
0.500435 0.438087 0.0153201
0.531014 0.438087 0.0153201
0.561318 0.438087 0.0153201
0.59147 0.438087 0.0153201
0.621241 0.438087 0.0153201
0.650874 0.438087 0.0153201
0.680522 0.438087 0.0153201
0.71017 0.438087 0.0153201
0.739834 0.438087 0.0153201
0.769482 0.438087 0.0153201
0.79913 0.438087 0.0153201
0.828794 0.438087 0.0153201
0.858442 0.438087 0.0153201
0.888106 0.438087 0.0153201
0.917754 0.438087 0.0153201
0.947402 0.438087 0.0153201
0.976593 0.438087 0.0153201
0.0153201 0.469398 0.0153201
0.0446784 0.469398 0.0153201
0.0745251 0.469398 0.0153201
0.104356 0.469398 0.0153201
0.134203 0.469398 0.0153201
0.16405 0.469398 0.0153201
0.193896 0.469398 0.0153201
0.223651 0.469398 0.0153201
0.253651 0.469398 0.0153201
0.283909 0.469398 0.0153201
0.314229 0.469398 0.0153201
0.344732 0.469398 0.0153201
0.375509 0.469398 0.0153201
0.40676 0.469398 0.0153201
0.438087 0.469398 0.0153201
0.469398 0.469398 0.0153201
0.500435 0.469398 0.0153201
0.531014 0.469398 0.0153201
0.561318 0.469398 0.0153201
0.59147 0.469398 0.0153201
0.621241 0.469398 0.0153201
0.650874 0.469398 0.0153201
0.680522 0.469398 0.0153201
0.71017 0.469398 0.0153201
0.739834 0.469398 0.0153201
0.769482 0.469398 0.0153201
0.79913 0.469398 0.0153201
0.828794 0.469398 0.0153201
0.858442 0.469398 0.0153201
0.888106 0.469398 0.0153201
0.917754 0.469398 0.0153201
0.947402 0.469398 0.0153201
0.976593 0.469398 0.0153201
0.0153201 0.500435 0.0153201
0.0446784 0.500435 0.0153201
0.0745251 0.500435 0.0153201
0.104356 0.500435 0.0153201
0.134203 0.500435 0.0153201
0.16405 0.500435 0.0153201
0.193896 0.500435 0.0153201
0.223651 0.500435 0.0153201
0.253651 0.500435 0.0153201
0.283909 0.500435 0.0153201
0.314229 0.500435 0.0153201
0.344732 0.500435 0.0153201
0.375509 0.500435 0.0153201
0.40676 0.500435 0.0153201
0.438087 0.500435 0.0153201
0.469398 0.500435 0.0153201
0.500435 0.500435 0.0153201
0.531014 0.500435 0.0153201
0.561318 0.500435 0.0153201
0.59147 0.500435 0.0153201
0.621241 0.500435 0.0153201
0.650874 0.500435 0.0153201
0.680522 0.500435 0.0153201
0.71017 0.500435 0.0153201
0.739834 0.500435 0.0153201
0.769482 0.500435 0.0153201
0.79913 0.500435 0.0153201
0.828794 0.500435 0.0153201
0.858442 0.500435 0.0153201
0.888106 0.500435 0.0153201
0.917754 0.500435 0.0153201
0.947402 0.500435 0.0153201
0.976593 0.500435 0.0153201
0.0153201 0.531014 0.0153201
0.0446784 0.531014 0.0153201
0.0745251 0.531014 0.0153201
0.104356 0.531014 0.0153201
0.134203 0.531014 0.0153201
0.16405 0.531014 0.0153201
0.193896 0.531014 0.0153201
0.223651 0.531014 0.0153201
0.253651 0.531014 0.0153201
0.283909 0.531014 0.0153201
0.314229 0.531014 0.0153201
0.344732 0.531014 0.0153201
0.375509 0.531014 0.0153201
0.40676 0.531014 0.0153201
0.438087 0.531014 0.0153201
0.469398 0.531014 0.0153201
0.500435 0.531014 0.0153201
0.531014 0.531014 0.0153201
0.561318 0.531014 0.0153201
0.59147 0.531014 0.0153201
0.621241 0.531014 0.0153201
0.650874 0.531014 0.0153201
0.680522 0.531014 0.0153201
0.71017 0.531014 0.0153201
0.739834 0.531014 0.0153201
0.769482 0.531014 0.0153201
0.79913 0.531014 0.0153201
0.828794 0.531014 0.0153201
0.858442 0.531014 0.0153201
0.888106 0.531014 0.0153201
0.917754 0.531014 0.0153201
0.947402 0.531014 0.0153201
0.976593 0.531014 0.0153201
0.0153201 0.561318 0.0153201
0.0446784 0.561318 0.0153201
0.0745251 0.561318 0.0153201
0.104356 0.561318 0.0153201
0.134203 0.561318 0.0153201
0.16405 0.561318 0.0153201
0.193896 0.561318 0.0153201
0.223651 0.561318 0.0153201
0.253651 0.561318 0.0153201
0.283909 0.561318 0.0153201
0.314229 0.561318 0.0153201
0.344732 0.561318 0.0153201
0.375509 0.561318 0.0153201
0.40676 0.561318 0.0153201
0.438087 0.561318 0.0153201
0.469398 0.561318 0.0153201
0.500435 0.561318 0.0153201
0.531014 0.561318 0.0153201
0.561318 0.561318 0.0153201
0.59147 0.561318 0.0153201
0.621241 0.561318 0.0153201
0.650874 0.561318 0.0153201
0.680522 0.561318 0.0153201
0.71017 0.561318 0.0153201
0.739834 0.561318 0.0153201
0.769482 0.561318 0.0153201
0.79913 0.561318 0.0153201
0.828794 0.561318 0.0153201
0.858442 0.561318 0.0153201
0.888106 0.561318 0.0153201
0.917754 0.561318 0.0153201
0.947402 0.561318 0.0153201
0.976593 0.561318 0.0153201
0.0153201 0.59147 0.0153201
0.0446784 0.59147 0.0153201
0.0745251 0.59147 0.0153201
0.104356 0.59147 0.0153201
0.134203 0.59147 0.0153201
0.16405 0.59147 0.0153201
0.193896 0.59147 0.0153201
0.223651 0.59147 0.0153201
0.253651 0.59147 0.0153201
0.283909 0.59147 0.0153201
0.314229 0.59147 0.0153201
0.344732 0.59147 0.0153201
0.375509 0.59147 0.0153201
0.40676 0.59147 0.0153201
0.438087 0.59147 0.0153201
0.469398 0.59147 0.0153201
0.500435 0.59147 0.0153201
0.531014 0.59147 0.0153201
0.561318 0.59147 0.0153201
0.59147 0.59147 0.0153201
0.621241 0.59147 0.0153201
0.650874 0.59147 0.0153201
0.680522 0.59147 0.0153201
0.71017 0.59147 0.0153201
0.739834 0.59147 0.0153201
0.769482 0.59147 0.0153201
0.79913 0.59147 0.0153201
0.828794 0.59147 0.0153201
0.858442 0.59147 0.0153201
0.888106 0.59147 0.0153201
0.917754 0.59147 0.0153201
0.947402 0.59147 0.0153201
0.976593 0.59147 0.0153201
0.0153201 0.621241 0.0153201
0.0446784 0.621241 0.0153201
0.0745251 0.621241 0.0153201
0.104356 0.621241 0.0153201
0.134203 0.621241 0.0153201
0.16405 0.621241 0.0153201
0.193896 0.621241 0.0153201
0.223651 0.621241 0.0153201
0.253651 0.621241 0.0153201
0.283909 0.621241 0.0153201
0.314229 0.621241 0.0153201
0.344732 0.621241 0.0153201
0.375509 0.621241 0.0153201
0.40676 0.621241 0.0153201
0.438087 0.621241 0.0153201
0.469398 0.621241 0.0153201
0.500435 0.621241 0.0153201
0.531014 0.621241 0.0153201
0.561318 0.621241 0.0153201
0.59147 0.621241 0.0153201
0.621241 0.621241 0.0153201
0.650874 0.621241 0.0153201
0.680522 0.621241 0.0153201
0.71017 0.621241 0.0153201
0.739834 0.621241 0.0153201
0.769482 0.621241 0.0153201
0.79913 0.621241 0.0153201
0.828794 0.621241 0.0153201
0.858442 0.621241 0.0153201
0.888106 0.621241 0.0153201
0.917754 0.621241 0.0153201
0.947402 0.621241 0.0153201
0.976593 0.621241 0.0153201
0.0153201 0.650874 0.0153201
0.0446784 0.650874 0.0153201
0.0745251 0.650874 0.0153201
0.104356 0.650874 0.0153201
0.134203 0.650874 0.0153201
0.16405 0.650874 0.0153201
0.193896 0.650874 0.0153201
0.223651 0.650874 0.0153201
0.253651 0.650874 0.0153201
0.283909 0.650874 0.0153201
0.314229 0.650874 0.0153201
0.344732 0.650874 0.0153201
0.375509 0.650874 0.0153201
0.40676 0.650874 0.0153201
0.438087 0.650874 0.0153201
0.469398 0.650874 0.0153201
0.500435 0.650874 0.0153201
0.531014 0.650874 0.0153201
0.561318 0.650874 0.0153201
0.59147 0.650874 0.0153201
0.621241 0.650874 0.0153201
0.650874 0.650874 0.0153201
0.680522 0.650874 0.0153201
0.71017 0.650874 0.0153201
0.739834 0.650874 0.0153201
0.769482 0.650874 0.0153201
0.79913 0.650874 0.0153201
0.828794 0.650874 0.0153201
0.858442 0.650874 0.0153201
0.888106 0.650874 0.0153201
0.917754 0.650874 0.0153201
0.947402 0.650874 0.0153201
0.976593 0.650874 0.0153201
0.0153201 0.680522 0.0153201
0.0446784 0.680522 0.0153201
0.0745251 0.680522 0.0153201
0.104356 0.680522 0.0153201
0.134203 0.680522 0.0153201
0.16405 0.680522 0.0153201
0.193896 0.680522 0.0153201
0.223651 0.680522 0.0153201
0.253651 0.680522 0.0153201
0.283909 0.680522 0.0153201
0.314229 0.680522 0.0153201
0.344732 0.680522 0.0153201
0.375509 0.680522 0.0153201
0.40676 0.680522 0.0153201
0.438087 0.680522 0.0153201
0.469398 0.680522 0.0153201
0.500435 0.680522 0.0153201
0.531014 0.680522 0.0153201
0.561318 0.680522 0.0153201
0.59147 0.680522 0.0153201
0.621241 0.680522 0.0153201
0.650874 0.680522 0.0153201
0.680522 0.680522 0.0153201
0.71017 0.680522 0.0153201
0.739834 0.680522 0.0153201
0.769482 0.680522 0.0153201
0.79913 0.680522 0.0153201
0.828794 0.680522 0.0153201
0.858442 0.680522 0.0153201
0.888106 0.680522 0.0153201
0.917754 0.680522 0.0153201
0.947402 0.680522 0.0153201
0.976593 0.680522 0.0153201
0.0153201 0.71017 0.0153201
0.0446784 0.71017 0.0153201
0.0745251 0.71017 0.0153201
0.104356 0.71017 0.0153201
0.134203 0.71017 0.0153201
0.16405 0.71017 0.0153201
0.193896 0.71017 0.0153201
0.223651 0.71017 0.0153201
0.253651 0.71017 0.0153201
0.283909 0.71017 0.0153201
0.314229 0.71017 0.0153201
0.344732 0.71017 0.0153201
0.375509 0.71017 0.0153201
0.40676 0.71017 0.0153201
0.438087 0.71017 0.0153201
0.469398 0.71017 0.0153201
0.500435 0.71017 0.0153201
0.531014 0.71017 0.0153201
0.561318 0.71017 0.0153201
0.59147 0.71017 0.0153201
0.621241 0.71017 0.0153201
0.650874 0.71017 0.0153201
0.680522 0.71017 0.0153201
0.71017 0.71017 0.0153201
0.739834 0.71017 0.0153201
0.769482 0.71017 0.0153201
0.79913 0.71017 0.0153201
0.828794 0.71017 0.0153201
0.858442 0.71017 0.0153201
0.888106 0.71017 0.0153201
0.917754 0.71017 0.0153201
0.947402 0.71017 0.0153201
0.976593 0.71017 0.0153201
0.0153201 0.739834 0.0153201
0.0446784 0.739834 0.0153201
0.0745251 0.739834 0.0153201
0.104356 0.739834 0.0153201
0.134203 0.739834 0.0153201
0.16405 0.739834 0.0153201
0.193896 0.739834 0.0153201
0.223651 0.739834 0.0153201
0.253651 0.739834 0.0153201
0.283909 0.739834 0.0153201
0.314229 0.739834 0.0153201
0.344732 0.739834 0.0153201
0.375509 0.739834 0.0153201
0.40676 0.739834 0.0153201
0.438087 0.739834 0.0153201
0.469398 0.739834 0.0153201
0.500435 0.739834 0.0153201
0.531014 0.739834 0.0153201
0.561318 0.739834 0.0153201
0.59147 0.739834 0.0153201
0.621241 0.739834 0.0153201
0.650874 0.739834 0.0153201
0.680522 0.739834 0.0153201
0.71017 0.739834 0.0153201
0.739834 0.739834 0.0153201
0.769482 0.739834 0.0153201
0.79913 0.739834 0.0153201
0.828794 0.739834 0.0153201
0.858442 0.739834 0.0153201
0.888106 0.739834 0.0153201
0.917754 0.739834 0.0153201
0.947402 0.739834 0.0153201
0.976593 0.739834 0.0153201
0.0153201 0.769482 0.0153201
0.0446784 0.769482 0.0153201
0.0745251 0.769482 0.0153201
0.104356 0.769482 0.0153201
0.134203 0.769482 0.0153201
0.16405 0.769482 0.0153201
0.193896 0.769482 0.0153201
0.223651 0.769482 0.0153201
0.253651 0.769482 0.0153201
0.283909 0.769482 0.0153201
0.314229 0.769482 0.0153201
0.344732 0.769482 0.0153201
0.375509 0.769482 0.0153201
0.40676 0.769482 0.0153201
0.438087 0.769482 0.0153201
0.469398 0.769482 0.0153201
0.500435 0.769482 0.0153201
0.531014 0.769482 0.0153201
0.561318 0.769482 0.0153201
0.59147 0.769482 0.0153201
0.621241 0.769482 0.0153201
0.650874 0.769482 0.0153201
0.680522 0.769482 0.0153201
0.71017 0.769482 0.0153201
0.739834 0.769482 0.0153201
0.769482 0.769482 0.0153201
0.79913 0.769482 0.0153201
0.828794 0.769482 0.0153201
0.858442 0.769482 0.0153201
0.888106 0.769482 0.0153201
0.917754 0.769482 0.0153201
0.947402 0.769482 0.0153201
0.976593 0.769482 0.0153201
