public/LUTS/Balanced/Balanced_06.cube
TITLE "Generated by Resolve"
LUT_3D_SIZE 33
0.0486152 0.0486152 0.0486152
0.0749065 0.0486152 0.0486152
0.10161 0.0486152 0.0486152
0.128328 0.0486152 0.0486152
0.155047 0.0486152 0.0486152
0.181765 0.0486152 0.0486152
0.208469 0.0486152 0.0486152
0.234821 0.0486152 0.0486152
0.262242 0.0486152 0.0486152
0.291173 0.0486152 0.0486152
0.320562 0.0486152 0.0486152
0.350561 0.0486152 0.0486152
0.381353 0.0486152 0.0486152
0.413291 0.0486152 0.0486152
0.444907 0.0486152 0.0486152
0.476097 0.0486152 0.0486152
0.505867 0.0486152 0.0486152
0.5337 0.0486152 0.0486152
0.560433 0.0486152 0.0486152
0.587015 0.0486152 0.0486152
0.613581 0.0486152 0.0486152
0.640009 0.0486152 0.0486152
0.666484 0.0486152 0.0486152
0.692943 0.0486152 0.0486152
0.719402 0.0486152 0.0486152
0.745861 0.0486152 0.0486152
0.772335 0.0486152 0.0486152
0.798795 0.0486152 0.0486152
0.825254 0.0486152 0.0486152
0.851728 0.0486152 0.0486152
0.878187 0.0486152 0.0486152
0.904646 0.0486152 0.0486152
0.930694 0.0486152 0.0486152
0.0486152 0.0749065 0.0486152
0.0749065 0.0749065 0.0486152
0.10161 0.0749065 0.0486152
0.128328 0.0749065 0.0486152
0.155047 0.0749065 0.0486152
0.181765 0.0749065 0.0486152
0.208469 0.0749065 0.0486152
0.234821 0.0749065 0.0486152
0.262242 0.0749065 0.0486152
0.291173 0.0749065 0.0486152
0.320562 0.0749065 0.0486152
0.350561 0.0749065 0.0486152
0.381353 0.0749065 0.0486152
0.413291 0.0749065 0.0486152
0.444907 0.0749065 0.0486152
0.476097 0.0749065 0.0486152
0.505867 0.0749065 0.0486152
0.5337 0.0749065 0.0486152
0.560433 0.0749065 0.0486152
0.587015 0.0749065 0.0486152
0.613581 0.0749065 0.0486152
0.640009 0.0749065 0.0486152
0.666484 0.0749065 0.0486152
0.692943 0.0749065 0.0486152
0.719402 0.0749065 0.0486152
0.745861 0.0749065 0.0486152
0.772335 0.0749065 0.0486152
0.798795 0.0749065 0.0486152
0.825254 0.0749065 0.0486152
0.851728 0.0749065 0.0486152
0.878187 0.0749065 0.0486152
0.904646 0.0749065 0.0486152
0.930694 0.0749065 0.0486152
0.0486152 0.10161 0.0486152
0.0749065 0.10161 0.0486152
0.10161 0.10161 0.0486152
0.128328 0.10161 0.0486152
0.155047 0.10161 0.0486152
0.181765 0.10161 0.0486152
0.208469 0.10161 0.0486152
0.234821 0.10161 0.0486152
0.262242 0.10161 0.0486152
0.291173 0.10161 0.0486152
0.320562 0.10161 0.0486152
0.350561 0.10161 0.0486152
0.381353 0.10161 0.0486152
0.413291 0.10161 0.0486152
0.444907 0.10161 0.0486152
0.476097 0.10161 0.0486152
0.505867 0.10161 0.0486152
0.5337 0.10161 0.0486152
0.560433 0.10161 0.0486152
0.587015 0.10161 0.0486152
0.613581 0.10161 0.0486152
0.640009 0.10161 0.0486152
0.666484 0.10161 0.0486152
0.692943 0.10161 0.0486152
0.719402 0.10161 0.0486152
0.745861 0.10161 0.0486152
0.772335 0.10161 0.0486152
0.798795 0.10161 0.0486152
0.825254 0.10161 0.0486152
0.851728 0.10161 0.0486152
0.878187 0.10161 0.0486152
0.904646 0.10161 0.0486152
0.930694 0.10161 0.0486152
0.0486152 0.128328 0.0486152
0.0749065 0.128328 0.0486152
0.10161 0.128328 0.0486152
0.128328 0.128328 0.0486152
0.155047 0.128328 0.0486152
0.181765 0.128328 0.0486152
0.208469 0.128328 0.0486152
0.234821 0.128328 0.0486152
0.262242 0.128328 0.0486152
0.291173 0.128328 0.0486152
0.320562 0.128328 0.0486152
0.350561 0.128328 0.0486152
0.381353 0.128328 0.0486152
0.413291 0.128328 0.0486152
0.444907 0.128328 0.0486152
0.476097 0.128328 0.0486152
0.505867 0.128328 0.0486152
0.5337 0.128328 0.0486152
0.560433 0.128328 0.0486152
0.587015 0.128328 0.0486152
0.613581 0.128328 0.0486152
0.640009 0.128328 0.0486152
0.666484 0.128328 0.0486152
0.692943 0.128328 0.0486152
0.719402 0.128328 0.0486152
0.745861 0.128328 0.0486152
0.772335 0.128328 0.0486152
0.798795 0.128328 0.0486152
0.825254 0.128328 0.0486152
0.851728 0.128328 0.0486152
0.878187 0.128328 0.0486152
0.904646 0.128328 0.0486152
0.930694 0.128328 0.0486152
0.0486152 0.155047 0.0486152
0.0749065 0.155047 0.0486152
0.10161 0.155047 0.0486152
0.128328 0.155047 0.0486152
0.155047 0.155047 0.0486152
0.181765 0.155047 0.0486152
0.208469 0.155047 0.0486152
0.234821 0.155047 0.0486152
0.262242 0.155047 0.0486152
0.291173 0.155047 0.0486152
0.320562 0.155047 0.0486152
0.350561 0.155047 0.0486152
0.381353 0.155047 0.0486152
0.413291 0.155047 0.0486152
0.444907 0.155047 0.0486152
0.476097 0.155047 0.0486152
0.505867 0.155047 0.0486152
0.5337 0.155047 0.0486152
0.560433 0.155047 0.0486152
0.587015 0.155047 0.0486152
0.613581 0.155047 0.0486152
0.640009 0.155047 0.0486152
0.666484 0.155047 0.0486152
0.692943 0.155047 0.0486152
0.719402 0.155047 0.0486152
0.745861 0.155047 0.0486152
0.772335 0.155047 0.0486152
0.798795 0.155047 0.0486152
0.825254 0.155047 0.0486152
0.851728 0.155047 0.0486152
0.878187 0.155047 0.0486152
0.904646 0.155047 0.0486152
0.930694 0.155047 0.0486152
0.0486152 0.181765 0.0486152
0.0749065 0.181765 0.0486152
0.10161 0.181765 0.0486152
0.128328 0.181765 0.0486152
0.155047 0.181765 0.0486152
0.181765 0.181765 0.0486152
0.208469 0.181765 0.0486152
0.234821 0.181765 0.0486152
0.262242 0.181765 0.0486152
0.291173 0.181765 0.0486152
0.320562 0.181765 0.0486152
0.350561 0.181765 0.0486152
0.381353 0.181765 0.0486152
0.413291 0.181765 0.0486152
0.444907 0.181765 0.0486152
0.476097 0.181765 0.0486152
0.505867 0.181765 0.0486152
0.5337 0.181765 0.0486152
0.560433 0.181765 0.0486152
0.587015 0.181765 0.0486152
0.613581 0.181765 0.0486152
0.640009 0.181765 0.0486152
0.666484 0.181765 0.0486152
0.692943 0.181765 0.0486152
0.719402 0.181765 0.0486152
0.745861 0.181765 0.0486152
0.772335 0.181765 0.0486152
0.798795 0.181765 0.0486152
0.825254 0.181765 0.0486152
0.851728 0.181765 0.0486152
0.878187 0.181765 0.0486152
0.904646 0.181765 0.0486152
0.930694 0.181765 0.0486152
0.0486152 0.208469 0.0486152
0.0749065 0.208469 0.0486152
0.10161 0.208469 0.0486152
0.128328 0.208469 0.0486152
0.155047 0.208469 0.0486152
0.181765 0.208469 0.0486152
0.208469 0.208469 0.0486152
0.234821 0.208469 0.0486152
0.262242 0.208469 0.0486152
0.291173 0.208469 0.0486152
0.320562 0.208469 0.0486152
0.350561 0.208469 0.0486152
0.381353 0.208469 0.0486152
0.413291 0.208469 0.0486152
0.444907 0.208469 0.0486152
0.476097 0.208469 0.0486152
0.505867 0.208469 0.0486152
0.5337 0.208469 0.0486152
0.560433 0.208469 0.0486152
0.587015 0.208469 0.0486152
0.613581 0.208469 0.0486152
0.640009 0.208469 0.0486152
0.666484 0.208469 0.0486152
0.692943 0.208469 0.0486152
0.719402 0.208469 0.0486152
0.745861 0.208469 0.0486152
0.772335 0.208469 0.0486152
0.798795 0.208469 0.0486152
0.825254 0.208469 0.0486152
0.851728 0.208469 0.0486152
0.878187 0.208469 0.0486152
0.904646 0.208469 0.0486152
0.930694 0.208469 0.0486152
0.0486152 0.234821 0.0486152
0.0749065 0.234821 0.0486152
0.10161 0.234821 0.0486152
0.128328 0.234821 0.0486152
0.155047 0.234821 0.0486152
0.181765 0.234821 0.0486152
0.208469 0.234821 0.0486152
0.234821 0.234821 0.0486152
0.262242 0.234821 0.0486152
0.291173 0.234821 0.0486152
0.320562 0.234821 0.0486152
0.350561 0.234821 0.0486152
0.381353 0.234821 0.0486152
0.413291 0.234821 0.0486152
0.444907 0.234821 0.0486152
0.476097 0.234821 0.0486152
0.505867 0.234821 0.0486152
0.5337 0.234821 0.0486152
0.560433 0.234821 0.0486152
0.587015 0.234821 0.0486152
0.613581 0.234821 0.0486152
0.640009 0.234821 0.0486152
0.666484 0.234821 0.0486152
0.692943 0.234821 0.0486152
0.719402 0.234821 0.0486152
0.745861 0.234821 0.0486152
0.772335 0.234821 0.0486152
0.798795 0.234821 0.0486152
0.825254 0.234821 0.0486152
0.851728 0.234821 0.0486152
0.878187 0.234821 0.0486152
0.904646 0.234821 0.0486152
0.930694 0.234821 0.0486152
0.0486152 0.262242 0.0486152
0.0749065 0.262242 0.0486152
0.10161 0.262242 0.0486152
0.128328 0.262242 0.0486152
0.155047 0.262242 0.0486152
0.181765 0.262242 0.0486152
0.208469 0.262242 0.0486152
0.234821 0.262242 0.0486152
0.262242 0.262242 0.0486152
0.291173 0.262242 0.0486152
0.320562 0.262242 0.0486152
0.350561 0.262242 0.0486152
0.381353 0.262242 0.0486152
0.413291 0.262242 0.0486152
0.444907 0.262242 0.0486152
0.476097 0.262242 0.0486152
0.505867 0.262242 0.0486152
0.5337 0.262242 0.0486152
0.560433 0.262242 0.0486152
0.587015 0.262242 0.0486152
0.613581 0.262242 0.0486152
0.640009 0.262242 0.0486152
0.666484 0.262242 0.0486152
0.692943 0.262242 0.0486152
0.719402 0.262242 0.0486152
0.745861 0.262242 0.0486152
0.772335 0.262242 0.0486152
0.798795 0.262242 0.0486152
0.825254 0.262242 0.0486152
0.851728 0.262242 0.0486152
0.878187 0.262242 0.0486152
0.904646 0.262242 0.0486152
0.930694 0.262242 0.0486152
0.0486152 0.291173 0.0486152
0.0749065 0.291173 0.0486152
0.10161 0.291173 0.0486152
0.128328 0.291173 0.0486152
0.155047 0.291173 0.0486152
0.181765 0.291173 0.0486152
0.208469 0.291173 0.0486152
0.234821 0.291173 0.0486152
0.262242 0.291173 0.0486152
0.291173 0.291173 0.0486152
0.320562 0.291173 0.0486152
0.350561 0.291173 0.0486152
0.381353 0.291173 0.0486152
0.413291 0.291173 0.0486152
0.444907 0.291173 0.0486152
0.476097 0.291173 0.0486152
0.505867 0.291173 0.0486152
0.5337 0.291173 0.0486152
0.560433 0.291173 0.0486152
0.587015 0.291173 0.0486152
0.613581 0.291173 0.0486152
0.640009 0.291173 0.0486152
0.666484 0.291173 0.0486152
0.692943 0.291173 0.0486152
0.719402 0.291173 0.0486152
0.745861 0.291173 0.0486152
0.772335 0.291173 0.0486152
0.798795 0.291173 0.0486152
0.825254 0.291173 0.0486152
0.851728 0.291173 0.0486152
0.878187 0.291173 0.0486152
0.904646 0.291173 0.0486152
0.930694 0.291173 0.0486152
0.0486152 0.320562 0.0486152
0.0749065 0.320562 0.0486152
0.10161 0.320562 0.0486152
0.128328 0.320562 0.0486152
0.155047 0.320562 0.0486152
0.181765 0.320562 0.0486152
0.208469 0.320562 0.0486152
0.234821 0.320562 0.0486152
0.262242 0.320562 0.0486152
0.291173 0.320562 0.0486152
0.320562 0.320562 0.0486152
0.350561 0.320562 0.0486152
0.381353 0.320562 0.0486152
0.413291 0.320562 0.0486152
0.444907 0.320562 0.0486152
0.476097 0.320562 0.0486152
0.505867 0.320562 0.0486152
0.5337 0.320562 0.0486152
0.560433 0.320562 0.0486152
0.587015 0.320562 0.0486152
0.613581 0.320562 0.0486152
0.640009 0.320562 0.0486152
0.666484 0.320562 0.0486152
0.692943 0.320562 0.0486152
0.719402 0.320562 0.0486152
0.745861 0.320562 0.0486152
0.772335 0.320562 0.0486152
0.798795 0.320562 0.0486152
0.825254 0.320562 0.0486152
0.851728 0.320562 0.0486152
0.878187 0.320562 0.0486152
0.904646 0.320562 0.0486152
0.930694 0.320562 0.0486152
0.0486152 0.350561 0.0486152
0.0749065 0.350561 0.0486152
0.10161 0.350561 0.0486152
0.128328 0.350561 0.0486152
0.155047 0.350561 0.0486152
0.181765 0.350561 0.0486152
0.208469 0.350561 0.0486152
0.234821 0.350561 0.0486152
0.262242 0.350561 0.0486152
0.291173 0.350561 0.0486152
0.320562 0.350561 0.0486152
0.350561 0.350561 0.0486152
0.381353 0.350561 0.0486152
0.413291 0.350561 0.0486152
0.444907 0.350561 0.0486152
0.476097 0.350561 0.0486152
0.505867 0.350561 0.0486152
0.5337 0.350561 0.0486152
0.560433 0.350561 0.0486152
0.587015 0.350561 0.0486152
0.613581 0.350561 0.0486152
0.640009 0.350561 0.0486152
0.666484 0.350561 0.0486152
0.692943 0.350561 0.0486152
0.719402 0.350561 0.0486152
0.745861 0.350561 0.0486152
0.772335 0.350561 0.0486152
0.798795 0.350561 0.0486152
0.825254 0.350561 0.0486152
0.851728 0.350561 0.0486152
0.878187 0.350561 0.0486152
0.904646 0.350561 0.0486152
0.930694 0.350561 0.0486152
0.0486152 0.381353 0.0486152
0.0749065 0.381353 0.0486152
0.10161 0.381353 0.0486152
0.128328 0.381353 0.0486152
0.155047 0.381353 0.0486152
0.181765 0.381353 0.0486152
0.208469 0.381353 0.0486152
0.234821 0.381353 0.0486152
0.262242 0.381353 0.0486152
0.291173 0.381353 0.0486152
0.320562 0.381353 0.0486152
0.350561 0.381353 0.0486152
0.381353 0.381353 0.0486152
0.413291 0.381353 0.0486152
0.444907 0.381353 0.0486152
0.476097 0.381353 0.0486152
0.505867 0.381353 0.0486152
0.5337 0.381353 0.0486152
0.560433 0.381353 0.0486152
0.587015 0.381353 0.0486152
0.613581 0.381353 0.0486152
0.640009 0.381353 0.0486152
0.666484 0.381353 0.0486152
0.692943 0.381353 0.0486152
0.719402 0.381353 0.0486152
0.745861 0.381353 0.0486152
0.772335 0.381353 0.0486152
0.798795 0.381353 0.0486152
0.825254 0.381353 0.0486152
0.851728 0.381353 0.0486152
0.878187 0.381353 0.0486152
0.904646 0.381353 0.0486152
0.930694 0.381353 0.0486152
0.0486152 0.413291 0.0486152
0.0749065 0.413291 0.0486152
0.10161 0.413291 0.0486152
0.128328 0.413291 0.0486152
0.155047 0.413291 0.0486152
0.181765 0.413291 0.0486152
0.208469 0.413291 0.0486152
0.234821 0.413291 0.0486152
0.262242 0.413291 0.0486152
0.291173 0.413291 0.0486152
0.320562 0.413291 0.0486152
0.350561 0.413291 0.0486152
0.381353 0.413291 0.0486152
0.413291 0.413291 0.0486152
0.444907 0.413291 0.0486152
0.476097 0.413291 0.0486152
0.505867 0.413291 0.0486152
0.5337 0.413291 0.0486152
0.560433 0.413291 0.0486152
0.587015 0.413291 0.0486152
0.613581 0.413291 0.0486152
0.640009 0.413291 0.0486152
0.666484 0.413291 0.0486152
0.692943 0.413291 0.0486152
0.719402 0.413291 0.0486152
0.745861 0.413291 0.0486152
0.772335 0.413291 0.0486152
0.798795 0.413291 0.0486152
0.825254 0.413291 0.0486152
0.851728 0.413291 0.0486152
0.878187 0.413291 0.0486152
0.904646 0.413291 0.0486152
0.930694 0.413291 0.0486152
0.0486152 0.444907 0.0486152
0.0749065 0.444907 0.0486152
0.10161 0.444907 0.0486152
0.128328 0.444907 0.0486152
0.155047 0.444907 0.0486152
0.181765 0.444907 0.0486152
0.208469 0.444907 0.0486152
0.234821 0.444907 0.0486152
0.262242 0.444907 0.0486152
0.291173 0.444907 0.0486152
0.320562 0.444907 0.0486152
0.350561 0.444907 0.0486152
0.381353 0.444907 0.0486152
0.413291 0.444907 0.0486152
0.444907 0.444907 0.0486152
0.476097 0.444907 0.0486152
0.505867 0.444907 0.0486152
0.5337 0.444907 0.0486152
0.560433 0.444907 0.0486152
0.587015 0.444907 0.0486152
0.613581 0.444907 0.0486152
0.640009 0.444907 0.0486152
0.666484 0.444907 0.0486152
0.692943 0.444907 0.0486152
0.719402 0.444907 0.0486152
0.745861 0.444907 0.0486152
0.772335 0.444907 0.0486152
0.798795 0.444907 0.0486152
0.825254 0.444907 0.0486152
0.851728 0.444907 0.0486152
0.878187 0.444907 0.0486152
0.904646 0.444907 0.0486152
0.930694 0.444907 0.0486152
0.0486152 0.476097 0.0486152
0.0749065 0.476097 0.0486152
0.10161 0.476097 0.0486152
0.128328 0.476097 0.0486152
0.155047 0.476097 0.0486152
0.181765 0.476097 0.0486152
0.208469 0.476097 0.0486152
0.234821 0.476097 0.0486152
0.262242 0.476097 0.0486152
0.291173 0.476097 0.0486152
0.320562 0.476097 0.0486152
0.350561 0.476097 0.0486152
0.381353 0.476097 0.0486152
0.413291 0.476097 0.0486152
0.444907 0.476097 0.0486152
0.476097 0.476097 0.0486152
0.505867 0.476097 0.0486152
0.5337 0.476097 0.0486152
0.560433 0.476097 0.0486152
0.587015 0.476097 0.0486152
0.613581 0.476097 0.0486152
0.640009 0.476097 0.0486152
0.666484 0.476097 0.0486152
0.692943 0.476097 0.0486152
0.719402 0.476097 0.0486152
0.745861 0.476097 0.0486152
0.772335 0.476097 0.0486152
0.798795 0.476097 0.0486152
0.825254 0.476097 0.0486152
0.851728 0.476097 0.0486152
0.878187 0.476097 0.0486152
0.904646 0.476097 0.0486152
0.930694 0.476097 0.0486152
0.0486152 0.505867 0.0486152
0.0749065 0.505867 0.0486152
0.10161 0.505867 0.0486152
0.128328 0.505867 0.0486152
0.155047 0.505867 0.0486152
0.181765 0.505867 0.0486152
0.208469 0.505867 0.0486152
0.234821 0.505867 0.0486152
0.262242 0.505867 0.0486152
0.291173 0.505867 0.0486152
0.320562 0.505867 0.0486152
0.350561 0.505867 0.0486152
0.381353 0.505867 0.0486152
0.413291 0.505867 0.0486152
0.444907 0.505867 0.0486152
0.476097 0.505867 0.0486152
0.505867 0.505867 0.0486152
0.5337 0.505867 0.0486152
0.560433 0.505867 0.0486152
0.587015 0.505867 0.0486152
0.613581 0.505867 0.0486152
0.640009 0.505867 0.0486152
0.666484 0.505867 0.0486152
0.692943 0.505867 0.0486152
0.719402 0.505867 0.0486152
0.745861 0.505867 0.0486152
0.772335 0.505867 0.0486152
0.798795 0.505867 0.0486152
0.825254 0.505867 0.0486152
0.851728 0.505867 0.0486152
0.878187 0.505867 0.0486152
0.904646 0.505867 0.0486152
0.930694 0.505867 0.0486152
0.0486152 0.5337 0.0486152
0.0749065 0.5337 0.0486152
0.10161 0.5337 0.0486152
0.128328 0.5337 0.0486152
0.155047 0.5337 0.0486152
0.181765 0.5337 0.0486152
0.208469 0.5337 0.0486152
0.234821 0.5337 0.0486152
0.262242 0.5337 0.0486152
0.291173 0.5337 0.0486152
0.320562 0.5337 0.0486152
0.350561 0.5337 0.0486152
0.381353 0.5337 0.0486152
0.413291 0.5337 0.0486152
0.444907 0.5337 0.0486152
0.476097 0.5337 0.0486152
0.505867 0.5337 0.0486152
0.5337 0.5337 0.0486152
0.560433 0.5337 0.0486152
0.587015 0.5337 0.0486152
0.613581 0.5337 0.0486152
0.640009 0.5337 0.0486152
0.666484 0.5337 0.0486152
0.692943 0.5337 0.0486152
0.719402 0.5337 0.0486152
0.745861 0.5337 0.0486152
0.772335 0.5337 0.0486152
0.798795 0.5337 0.0486152
0.825254 0.5337 0.0486152
0.851728 0.5337 0.0486152
0.878187 0.5337 0.0486152
0.904646 0.5337 0.0486152
0.930694 0.5337 0.0486152
0.0486152 0.560433 0.0486152
0.0749065 0.560433 0.0486152
0.10161 0.560433 0.0486152
0.128328 0.560433 0.0486152
0.155047 0.560433 0.0486152
0.181765 0.560433 0.0486152
0.208469 0.560433 0.0486152
0.234821 0.560433 0.0486152
0.262242 0.560433 0.0486152
0.291173 0.560433 0.0486152
0.320562 0.560433 0.0486152
0.350561 0.560433 0.0486152
0.381353 0.560433 0.0486152
0.413291 0.560433 0.0486152
0.444907 0.560433 0.0486152
0.476097 0.560433 0.0486152
0.505867 0.560433 0.0486152
0.5337 0.560433 0.0486152
0.560433 0.560433 0.0486152
0.587015 0.560433 0.0486152
0.613581 0.560433 0.0486152
0.640009 0.560433 0.0486152
0.666484 0.560433 0.0486152
0.692943 0.560433 0.0486152
0.719402 0.560433 0.0486152
0.745861 0.560433 0.0486152
0.772335 0.560433 0.0486152
0.798795 0.560433 0.0486152
0.825254 0.560433 0.0486152
0.851728 0.560433 0.0486152
0.878187 0.560433 0.0486152
0.904646 0.560433 0.0486152
0.930694 0.560433 0.0486152
0.0486152 0.587015 0.0486152
0.0749065 0.587015 0.0486152
0.10161 0.587015 0.0486152
0.128328 0.587015 0.0486152
0.155047 0.587015 0.0486152
0.181765 0.587015 0.0486152
0.208469 0.587015 0.0486152
0.234821 0.587015 0.0486152
0.262242 0.587015 0.0486152
0.291173 0.587015 0.0486152
0.320562 0.587015 0.0486152
0.350561 0.587015 0.0486152
0.381353 0.587015 0.0486152
0.413291 0.587015 0.0486152
0.444907 0.587015 0.0486152
0.476097 0.587015 0.0486152
0.505867 0.587015 0.0486152
0.5337 0.587015 0.0486152
0.560433 0.587015 0.0486152
0.587015 0.587015 0.0486152
0.613581 0.587015 0.0486152
0.640009 0.587015 0.0486152
0.666484 0.587015 0.0486152
0.692943 0.587015 0.0486152
0.719402 0.587015 0.0486152
0.745861 0.587015 0.0486152
0.772335 0.587015 0.0486152
0.798795 0.587015 0.0486152
0.825254 0.587015 0.0486152
0.851728 0.587015 0.0486152
0.878187 0.587015 0.0486152
0.904646 0.587015 0.0486152
0.930694 0.587015 0.0486152
0.0486152 0.613581 0.0486152
0.0749065 0.613581 0.0486152
0.10161 0.613581 0.0486152
0.128328 0.613581 0.0486152
0.155047 0.613581 0.0486152
0.181765 0.613581 0.0486152
0.208469 0.613581 0.0486152
0.234821 0.613581 0.0486152
0.262242 0.613581 0.0486152
0.291173 0.613581 0.0486152
0.320562 0.613581 0.0486152
0.350561 0.613581 0.0486152
0.381353 0.613581 0.0486152
0.413291 0.613581 0.0486152
0.444907 0.613581 0.0486152
0.476097 0.613581 0.0486152
0.505867 0.613581 0.0486152
0.5337 0.613581 0.0486152
0.560433 0.613581 0.0486152
0.587015 0.613581 0.0486152
0.613581 0.613581 0.0486152
0.640009 0.613581 0.0486152
0.666484 0.613581 0.0486152
0.692943 0.613581 0.0486152
0.719402 0.613581 0.0486152
0.745861 0.613581 0.0486152
0.772335 0.613581 0.0486152
0.798795 0.613581 0.0486152
0.825254 0.613581 0.0486152
0.851728 0.613581 0.0486152
0.878187 0.613581 0.0486152
0.904646 0.613581 0.0486152
0.930694 0.613581 0.0486152
0.0486152 0.640009 0.0486152
0.0749065 0.640009 0.0486152
0.10161 0.640009 0.0486152
0.128328 0.640009 0.0486152
0.155047 0.640009 0.0486152
0.181765 0.640009 0.0486152
0.208469 0.640009 0.0486152
0.234821 0.640009 0.0486152
0.262242 0.640009 0.0486152
0.291173 0.640009 0.0486152
0.320562 0.640009 0.0486152
0.350561 0.640009 0.0486152
0.381353 0.640009 0.0486152
0.413291 0.640009 0.0486152
0.444907 0.640009 0.0486152
0.476097 0.640009 0.0486152
0.505867 0.640009 0.0486152
0.5337 0.640009 0.0486152
0.560433 0.640009 0.0486152
0.587015 0.640009 0.0486152
0.613581 0.640009 0.0486152
0.640009 0.640009 0.0486152
0.666484 0.640009 0.0486152
0.692943 0.640009 0.0486152
0.719402 0.640009 0.0486152
0.745861 0.640009 0.0486152
0.772335 0.640009 0.0486152
0.798795 0.640009 0.0486152
0.825254 0.640009 0.0486152
0.851728 0.640009 0.0486152
0.878187 0.640009 0.0486152
0.904646 0.640009 0.0486152
0.930694 0.640009 0.0486152
0.0486152 0.666484 0.0486152
0.0749065 0.666484 0.0486152
0.10161 0.666484 0.0486152
0.128328 0.666484 0.0486152
0.155047 0.666484 0.0486152
0.181765 0.666484 0.0486152
0.208469 0.666484 0.0486152
0.234821 0.666484 0.0486152
0.262242 0.666484 0.0486152
0.291173 0.666484 0.0486152
0.320562 0.666484 0.0486152
0.350561 0.666484 0.0486152
0.381353 0.666484 0.0486152
0.413291 0.666484 0.0486152
0.444907 0.666484 0.0486152
0.476097 0.666484 0.0486152
0.505867 0.666484 0.0486152
0.5337 0.666484 0.0486152
0.560433 0.666484 0.0486152
0.587015 0.666484 0.0486152
0.613581 0.666484 0.0486152
0.640009 0.666484 0.0486152
0.666484 0.666484 0.0486152
0.692943 0.666484 0.0486152
0.719402 0.666484 0.0486152
0.745861 0.666484 0.0486152
0.772335 0.666484 0.0486152
0.798795 0.666484 0.0486152
0.825254 0.666484 0.0486152
0.851728 0.666484 0.0486152
0.878187 0.666484 0.0486152
0.904646 0.666484 0.0486152
0.930694 0.666484 0.0486152
0.0486152 0.692943 0.0486152
0.0749065 0.692943 0.0486152
0.10161 0.692943 0.0486152
0.128328 0.692943 0.0486152
0.155047 0.692943 0.0486152
0.181765 0.692943 0.0486152
0.208469 0.692943 0.0486152
0.234821 0.692943 0.0486152
0.262242 0.692943 0.0486152
0.291173 0.692943 0.0486152
0.320562 0.692943 0.0486152
0.350561 0.692943 0.0486152
0.381353 0.692943 0.0486152
0.413291 0.692943 0.0486152
0.444907 0.692943 0.0486152
0.476097 0.692943 0.0486152
0.505867 0.692943 0.0486152
0.5337 0.692943 0.0486152
0.560433 0.692943 0.0486152
0.587015 0.692943 0.0486152
0.613581 0.692943 0.0486152
0.640009 0.692943 0.0486152
0.666484 0.692943 0.0486152
0.692943 0.692943 0.0486152
0.719402 0.692943 0.0486152
0.745861 0.692943 0.0486152
0.772335 0.692943 0.0486152
0.798795 0.692943 0.0486152
0.825254 0.692943 0.0486152
0.851728 0.692943 0.0486152
0.878187 0.692943 0.0486152
0.904646 0.692943 0.0486152
0.930694 0.692943 0.0486152
0.0486152 0.719402 0.0486152
0.0749065 0.719402 0.0486152
0.10161 0.719402 0.0486152
0.128328 0.719402 0.0486152
0.155047 0.719402 0.0486152
0.181765 0.719402 0.0486152
0.208469 0.719402 0.0486152
0.234821 0.719402 0.0486152
0.262242 0.719402 0.0486152
0.291173 0.719402 0.0486152
0.320562 0.719402 0.0486152
0.350561 0.719402 0.0486152
0.381353 0.719402 0.0486152
0.413291 0.719402 0.0486152
0.444907 0.719402 0.0486152
0.476097 0.719402 0.0486152
0.505867 0.719402 0.0486152
0.5337 0.719402 0.0486152
0.560433 0.719402 0.0486152
0.587015 0.719402 0.0486152
0.613581 0.719402 0.0486152
0.640009 0.719402 0.0486152
0.666484 0.719402 0.0486152
0.692943 0.719402 0.0486152
0.719402 0.719402 0.0486152
0.745861 0.719402 0.0486152
0.772335 0.719402 0.0486152
0.798795 0.719402 0.0486152
0.825254 0.719402 0.0486152
0.851728 0.719402 0.0486152
0.878187 0.719402 0.0486152
0.904646 0.719402 0.0486152
0.930694 0.719402 0.0486152
0.0486152 0.745861 0.0486152
0.0749065 0.745861 0.0486152
0.10161 0.745861 0.0486152
0.128328 0.745861 0.0486152
0.155047 0.745861 0.0486152
0.181765 0.745861 0.0486152
0.208469 0.745861 0.0486152
0.234821 0.745861 0.0486152
0.262242 0.745861 0.0486152
0.291173 0.745861 0.0486152
0.320562 0.745861 0.0486152
0.350561 0.745861 0.0486152
0.381353 0.745861 0.0486152
0.413291 0.745861 0.0486152
0.444907 0.745861 0.0486152
0.476097 0.745861 0.0486152
0.505867 0.745861 0.0486152
0.5337 0.745861 0.0486152
0.560433 0.745861 0.0486152
0.587015 0.745861 0.0486152
0.613581 0.745861 0.0486152
0.640009 0.745861 0.0486152
0.666484 0.745861 0.0486152
0.692943 0.745861 0.0486152
0.719402 0.745861 0.0486152
0.745861 0.745861 0.0486152
0.772335 0.745861 0.0486152
0.798795 0.745861 0.0486152
0.825254 0.745861 0.0486152
0.851728 0.745861 0.0486152
0.878187 0.745861 0.0486152
0.904646 0.745861 0.0486152
