public/LUTS/Balanced/Balanced_02.cube
TITLE "Generated by Resolve"
LUT_3D_SIZE 9
0.0153201 0.0153201 0.0153201
0.134203 0.0153201 0.0153201
0.253651 0.0153201 0.0153201
0.375509 0.0153201 0.0153201
0.500435 0.0153201 0.0153201
0.621241 0.0153201 0.0153201
0.739834 0.0153201 0.0153201
0.858442 0.0153201 0.0153201
0.976593 0.0153201 0.0153201
0.0153201 0.134203 0.0153201
0.134203 0.134203 0.0153201
0.253651 0.134203 0.0153201
0.375509 0.134203 0.0153201
0.500435 0.134203 0.0153201
0.621241 0.134203 0.0153201
0.739834 0.134203 0.0153201
0.858442 0.134203 0.0153201
0.976593 0.134203 0.0153201
0.0153201 0.253651 0.0153201
0.134203 0.253651 0.0153201
0.253651 0.253651 0.0153201
0.375509 0.253651 0.0153201
0.500435 0.253651 0.0153201
0.621241 0.253651 0.0153201
0.739834 0.253651 0.0153201
0.858442 0.253651 0.0153201
0.976593 0.253651 0.0153201
0.0153201 0.375509 0.0153201
0.134203 0.375509 0.0153201
0.253651 0.375509 0.0153201
0.375509 0.375509 0.0153201
0.500435 0.375509 0.0153201
0.621241 0.375509 0.0153201
0.739834 0.375509 0.0153201
0.858442 0.375509 0.0153201
0.976593 0.375509 0.0153201
0.0153201 0.500435 0.0153201
0.134203 0.500435 0.0153201
0.253651 0.500435 0.0153201
0.375509 0.500435 0.0153201
0.500435 0.500435 0.0153201
0.621241 0.500435 0.0153201
0.739834 0.500435 0.0153201
0.858442 0.500435 0.0153201
0.976593 0.500435 0.0153201
0.0153201 0.621241 0.0153201
0.134203 0.621241 0.0153201
0.253651 0.621241 0.0153201
0.375509 0.621241 0.0153201
0.500435 0.621241 0.0153201
0.621241 0.621241 0.0153201
0.739834 0.621241 0.0153201
0.858442 0.621241 0.0153201
0.976593 0.621241 0.0153201
0.0153201 0.739834 0.0153201
0.134203 0.739834 0.0153201
0.253651 0.739834 0.0153201
0.375509 0.739834 0.0153201
0.500435 0.739834 0.0153201
0.621241 0.739834 0.0153201
0.739834 0.739834 0.0153201
0.858442 0.739834 0.0153201
0.976593 0.739834 0.0153201
0.0153201 0.858442 0.0153201
0.134203 0.858442 0.0153201
0.253651 0.858442 0.0153201
0.375509 0.858442 0.0153201
0.500435 0.858442 0.0153201
0.621241 0.858442 0.0153201
0.739834 0.858442 0.0153201
0.858442 0.858442 0.0153201
0.976593 0.858442 0.0153201
0.0153201 0.976593 0.0153201
0.134203 0.976593 0.0153201
0.253651 0.976593 0.0153201
0.375509 0.976593 0.0153201
0.500435 0.976593 0.0153201
0.621241 0.976593 0.0153201
0.739834 0.976593 0.0153201
0.858442 0.976593 0.0153201
0.976593 0.976593 0.0153201
0.0153201 0.0153201 0.134203
0.134203 0.0153201 0.134203
0.253651 0.0153201 0.134203
0.375509 0.0153201 0.134203
0.500435 0.0153201 0.134203
0.621241 0.0153201 0.134203
0.739834 0.0153201 0.134203
0.858442 0.0153201 0.134203
0.976593 0.0153201 0.134203
0.0153201 0.134203 0.134203
0.134203 0.134203 0.134203
0.253651 0.134203 0.134203
0.375509 0.134203 0.134203
0.500435 0.134203 0.134203
0.621241 0.134203 0.134203
0.739834 0.134203 0.134203
0.858442 0.134203 0.134203
0.976593 0.134203 0.134203
0.0153201 0.253651 0.134203
0.134203 0.253651 0.134203
0.253651 0.253651 0.134203
0.375509 0.253651 0.134203
0.500435 0.253651 0.134203
0.621241 0.253651 0.134203
0.739834 0.253651 0.134203
0.858442 0.253651 0.134203
0.976593 0.253651 0.134203
0.0153201 0.375509 0.134203
0.134203 0.375509 0.134203
0.253651 0.375509 0.134203
0.375509 0.375509 0.134203
0.500435 0.375509 0.134203
0.621241 0.375509 0.134203
0.739834 0.375509 0.134203
0.858442 0.375509 0.134203
0.976593 0.375509 0.134203
0.0153201 0.500435 0.134203
0.134203 0.500435 0.134203
0.253651 0.500435 0.134203
0.375509 0.500435 0.134203
0.500435 0.500435 0.134203
0.621241 0.500435 0.134203
0.739834 0.500435 0.134203
0.858442 0.500435 0.134203
0.976593 0.500435 0.134203
0.0153201 0.621241 0.134203
0.134203 0.621241 0.134203
0.253651 0.621241 0.134203
0.375509 0.621241 0.134203
0.500435 0.621241 0.134203
0.621241 0.621241 0.134203
0.739834 0.621241 0.134203
0.858442 0.621241 0.134203
0.976593 0.621241 0.134203
0.0153201 0.739834 0.134203
0.134203 0.739834 0.134203
0.253651 0.739834 0.134203
0.375509 0.739834 0.134203
0.500435 0.739834 0.134203
0.621241 0.739834 0.134203
0.739834 0.739834 0.134203
0.858442 0.739834 0.134203
0.976593 0.739834 0.134203
0.0153201 0.858442 0.134203
0.134203 0.858442 0.134203
0.253651 0.858442 0.134203
0.375509 0.858442 0.134203
0.500435 0.858442 0.134203
0.621241 0.858442 0.134203
0.739834 0.858442 0.134203
0.858442 0.858442 0.134203
0.976593 0.858442 0.134203
0.0153201 0.976593 0.134203
0.134203 0.976593 0.134203
0.253651 0.976593 0.134203
0.375509 0.976593 0.134203
0.500435 0.976593 0.134203
0.621241 0.976593 0.134203
0.739834 0.976593 0.134203
0.858442 0.976593 0.134203
0.976593 0.976593 0.134203
0.0153201 0.0153201 0.253651
0.134203 0.0153201 0.253651
0.253651 0.0153201 0.253651
0.375509 0.0153201 0.253651
0.500435 0.0153201 0.253651
0.621241 0.0153201 0.253651
0.739834 0.0153201 0.253651
0.858442 0.0153201 0.253651
0.976593 0.0153201 0.253651
0.0153201 0.134203 0.253651
0.134203 0.134203 0.253651
0.253651 0.134203 0.253651
0.375509 0.134203 0.253651
0.500435 0.134203 0.253651
0.621241 0.134203 0.253651
0.739834 0.134203 0.253651
0.858442 0.134203 0.253651
0.976593 0.134203 0.253651
0.0153201 0.253651 0.253651
0.134203 0.253651 0.253651
0.253651 0.253651 0.253651
0.375509 0.253651 0.253651
0.500435 0.253651 0.253651
0.621241 0.253651 0.253651
0.739834 0.253651 0.253651
0.858442 0.253651 0.253651
0.976593 0.253651 0.253651
0.0153201 0.375509 0.253651
0.134203 0.375509 0.253651
0.253651 0.375509 0.253651
0.375509 0.375509 0.253651
0.500435 0.375509 0.253651
0.621241 0.375509 0.253651
0.739834 0.375509 0.253651
0.858442 0.375509 0.253651
0.976593 0.375509 0.253651
0.0153201 0.500435 0.253651
0.134203 0.500435 0.253651
0.253651 0.500435 0.253651
0.375509 0.500435 0.253651
0.500435 0.500435 0.253651
0.621241 0.500435 0.253651
0.739834 0.500435 0.253651
0.858442 0.500435 0.253651
0.976593 0.500435 0.253651
0.0153201 0.621241 0.253651
0.134203 0.621241 0.253651
0.253651 0.621241 0.253651
0.375509 0.621241 0.253651
0.500435 0.621241 0.253651
0.621241 0.621241 0.253651
0.739834 0.621241 0.253651
0.858442 0.621241 0.253651
0.976593 0.621241 0.253651
0.0153201 0.739834 0.253651
0.134203 0.739834 0.253651
0.253651 0.739834 0.253651
0.375509 0.739834 0.253651
0.500435 0.739834 0.253651
0.621241 0.739834 0.253651
0.739834 0.739834 0.253651
0.858442 0.739834 0.253651
0.976593 0.739834 0.253651
0.0153201 0.858442 0.253651
0.134203 0.858442 0.253651
0.253651 0.858442 0.253651
0.375509 0.858442 0.253651
0.500435 0.858442 0.253651
0.621241 0.858442 0.253651
0.739834 0.858442 0.253651
0.858442 0.858442 0.253651
0.976593 0.858442 0.253651
0.0153201 0.976593 0.253651
0.134203 0.976593 0.253651
0.253651 0.976593 0.253651
0.375509 0.976593 0.253651
0.500435 0.976593 0.253651
0.621241 0.976593 0.253651
0.739834 0.976593 0.253651
0.858442 0.976593 0.253651
0.976593 0.976593 0.253651
0.0153201 0.0153201 0.375509
0.134203 0.0153201 0.375509
0.253651 0.0153201 0.375509
0.375509 0.0153201 0.375509
0.500435 0.0153201 0.375509
0.621241 0.0153201 0.375509
0.739834 0.0153201 0.375509
0.858442 0.0153201 0.375509
0.976593 0.0153201 0.375509
0.0153201 0.134203 0.375509
0.134203 0.134203 0.375509
0.253651 0.134203 0.375509
0.375509 0.134203 0.375509
0.500435 0.134203 0.375509
0.621241 0.134203 0.375509
0.739834 0.134203 0.375509
0.858442 0.134203 0.375509
0.976593 0.134203 0.375509
0.0153201 0.253651 0.375509
0.134203 0.253651 0.375509
0.253651 0.253651 0.375509
0.375509 0.253651 0.375509
0.500435 0.253651 0.375509
0.621241 0.253651 0.375509
0.739834 0.253651 0.375509
0.858442 0.253651 0.375509
0.976593 0.253651 0.375509
0.0153201 0.375509 0.375509
0.134203 0.375509 0.375509
0.253651 0.375509 0.375509
0.375509 0.375509 0.375509
0.500435 0.375509 0.375509
0.621241 0.375509 0.375509
0.739834 0.375509 0.375509
0.858442 0.375509 0.375509
0.976593 0.375509 0.375509
0.0153201 0.500435 0.375509
0.134203 0.500435 0.375509
0.253651 0.500435 0.375509
0.375509 0.500435 0.375509
0.500435 0.500435 0.375509
0.621241 0.500435 0.375509
0.739834 0.500435 0.375509
0.858442 0.500435 0.375509
0.976593 0.500435 0.375509
0.0153201 0.621241 0.375509
0.134203 0.621241 0.375509
0.253651 0.621241 0.375509
0.375509 0.621241 0.375509
0.500435 0.621241 0.375509
0.621241 0.621241 0.375509
0.739834 0.621241 0.375509
0.858442 0.621241 0.375509
0.976593 0.621241 0.375509
0.0153201 0.739834 0.375509
0.134203 0.739834 0.375509
0.253651 0.739834 0.375509
0.375509 0.739834 0.375509
0.500435 0.739834 0.375509
0.621241 0.739834 0.375509
0.739834 0.739834 0.375509
0.858442 0.739834 0.375509
0.976593 0.739834 0.375509
0.0153201 0.858442 0.375509
0.134203 0.858442 0.375509
0.253651 0.858442 0.375509
0.375509 0.858442 0.375509
0.500435 0.858442 0.375509
0.621241 0.858442 0.375509
0.739834 0.858442 0.375509
0.858442 0.858442 0.375509
0.976593 0.858442 0.375509
0.0153201 0.976593 0.375509
0.134203 0.976593 0.375509
0.253651 0.976593 0.375509
0.375509 0.976593 0.375509
0.500435 0.976593 0.375509
0.621241 0.976593 0.375509
0.739834 0.976593 0.375509
0.858442 0.976593 0.375509
0.976593 0.976593 0.375509
0.0153201 0.0153201 0.500435
0.134203 0.0153201 0.500435
0.253651 0.0153201 0.500435
0.375509 0.0153201 0.500435
0.500435 0.0153201 0.500435
0.621241 0.0153201 0.500435
0.739834 0.0153201 0.500435
0.858442 0.0153201 0.500435
0.976593 0.0153201 0.500435
0.0153201 0.134203 0.500435
0.134203 0.134203 0.500435
0.253651 0.134203 0.500435
0.375509 0.134203 0.500435
0.500435 0.134203 0.500435
0.621241 0.134203 0.500435
0.739834 0.134203 0.500435
0.858442 0.134203 0.500435
0.976593 0.134203 0.500435
0.0153201 0.253651 0.500435
0.134203 0.253651 0.500435
0.253651 0.253651 0.500435
0.375509 0.253651 0.500435
0.500435 0.253651 0.500435
0.621241 0.253651 0.500435
0.739834 0.253651 0.500435
0.858442 0.253651 0.500435
0.976593 0.253651 0.500435
0.0153201 0.375509 0.500435
0.134203 0.375509 0.500435
0.253651 0.375509 0.500435
0.375509 0.375509 0.500435
0.500435 0.375509 0.500435
0.621241 0.375509 0.500435
0.739834 0.375509 0.500435
0.858442 0.375509 0.500435
0.976593 0.375509 0.500435
0.0153201 0.500435 0.500435
0.134203 0.500435 0.500435
0.253651 0.500435 0.500435
0.375509 0.500435 0.500435
0.500435 0.500435 0.500435
0.621241 0.500435 0.500435
0.739834 0.500435 0.500435
0.858442 0.500435 0.500435
0.976593 0.500435 0.500435
0.0153201 0.621241 0.500435
0.134203 0.621241 0.500435
0.253651 0.621241 0.500435
0.375509 0.621241 0.500435
0.500435 0.621241 0.500435
0.621241 0.621241 0.500435
0.739834 0.621241 0.500435
0.858442 0.621241 0.500435
0.976593 0.621241 0.500435
0.0153201 0.739834 0.500435
0.134203 0.739834 0.500435
0.253651 0.739834 0.500435
0.375509 0.739834 0.500435
0.500435 0.739834 0.500435
0.621241 0.739834 0.500435
0.739834 0.739834 0.500435
0.858442 0.739834 0.500435
0.976593 0.739834 0.500435
0.0153201 0.858442 0.500435
0.134203 0.858442 0.500435
0.253651 0.858442 0.500435
0.375509 0.858442 0.500435
0.500435 0.858442 0.500435
0.621241 0.858442 0.500435
0.739834 0.858442 0.500435
0.858442 0.858442 0.500435
0.976593 0.858442 0.500435
0.0153201 0.976593 0.500435
0.134203 0.976593 0.500435
0.253651 0.976593 0.500435
0.375509 0.976593 0.500435
0.500435 0.976593 0.500435
0.621241 0.976593 0.500435
0.739834 0.976593 0.500435
0.858442 0.976593 0.500435
0.976593 0.976593 0.500435
0.0153201 0.0153201 0.621241
0.134203 0.0153201 0.621241
0.253651 0.0153201 0.621241
0.375509 0.0153201 0.621241
0.500435 0.0153201 0.621241
0.621241 0.0153201 0.621241
0.739834 0.0153201 0.621241
0.858442 0.0153201 0.621241
0.976593 0.0153201 0.621241
0.0153201 0.134203 0.621241
0.134203 0.134203 0.621241
0.253651 0.134203 0.621241
0.375509 0.134203 0.621241
0.500435 0.134203 0.621241
0.621241 0.134203 0.621241
0.739834 0.134203 0.621241
0.858442 0.134203 0.621241
0.976593 0.134203 0.621241
0.0153201 0.253651 0.621241
0.134203 0.253651 0.621241
0.253651 0.253651 0.621241
0.375509 0.253651 0.621241
0.500435 0.253651 0.621241
0.621241 0.253651 0.621241
0.739834 0.253651 0.621241
0.858442 0.253651 0.621241
0.976593 0.253651 0.621241
0.0153201 0.375509 0.621241
0.134203 0.375509 0.621241
0.253651 0.375509 0.621241
0.375509 0.375509 0.621241
0.500435 0.375509 0.621241
0.621241 0.375509 0.621241
0.739834 0.375509 0.621241
0.858442 0.375509 0.621241
0.976593 0.375509 0.621241
0.0153201 0.500435 0.621241
0.134203 0.500435 0.621241
0.253651 0.500435 0.621241
0.375509 0.500435 0.621241
0.500435 0.500435 0.621241
0.621241 0.500435 0.621241
0.739834 0.500435 0.621241
0.858442 0.500435 0.621241
0.976593 0.500435 0.621241
0.0153201 0.621241 0.621241
0.134203 0.621241 0.621241
0.253651 0.621241 0.621241
0.375509 0.621241 0.621241
0.500435 0.621241 0.621241
0.621241 0.621241 0.621241
0.739834 0.621241 0.621241
0.858442 0.621241 0.621241
0.976593 0.621241 0.621241
0.0153201 0.739834 0.621241
0.134203 0.739834 0.621241
0.253651 0.739834 0.621241
0.375509 0.739834 0.621241
0.500435 0.739834 0.621241
0.621241 0.739834 0.621241
0.739834 0.739834 0.621241
0.858442 0.739834 0.621241
0.976593 0.739834 0.621241
0.0153201 0.858442 0.621241
0.134203 0.858442 0.621241
0.253651 0.858442 0.621241
0.375509 0.858442 0.621241
0.500435 0.858442 0.621241
0.621241 0.858442 0.621241
0.739834 0.858442 0.621241
0.858442 0.858442 0.621241
0.976593 0.858442 0.621241
0.0153201 0.976593 0.621241
0.134203 0.976593 0.621241
0.253651 0.976593 0.621241
0.375509 0.976593 0.621241
0.500435 0.976593 0.621241
0.621241 0.976593 0.621241
0.739834 0.976593 0.621241
0.858442 0.976593 0.621241
0.976593 0.976593 0.621241
0.0153201 0.0153201 0.739834
0.134203 0.0153201 0.739834
0.253651 0.0153201 0.739834
0.375509 0.0153201 0.739834
0.500435 0.0153201 0.739834
0.621241 0.0153201 0.739834
0.739834 0.0153201 0.739834
0.858442 0.0153201 0.739834
0.976593 0.0153201 0.739834
0.0153201 0.134203 0.739834
0.134203 0.134203 0.739834
0.253651 0.134203 0.739834
0.375509 0.134203 0.739834
0.500435 0.134203 0.739834
0.621241 0.134203 0.739834
0.739834 0.134203 0.739834
0.858442 0.134203 0.739834
0.976593 0.134203 0.739834
0.0153201 0.253651 0.739834
0.134203 0.253651 0.739834
0.253651 0.253651 0.739834
0.375509 0.253651 0.739834
0.500435 0.253651 0.739834
0.621241 0.253651 0.739834
0.739834 0.253651 0.739834
0.858442 0.253651 0.739834
0.976593 0.253651 0.739834
0.0153201 0.375509 0.739834
0.134203 0.375509 0.739834
0.253651 0.375509 0.739834
0.375509 0.375509 0.739834
0.500435 0.375509 0.739834
0.621241 0.375509 0.739834
0.739834 0.375509 0.739834
0.858442 0.375509 0.739834
0.976593 0.375509 0.739834
0.0153201 0.500435 0.739834
0.134203 0.500435 0.739834
0.253651 0.500435 0.739834
0.375509 0.500435 0.739834
0.500435 0.500435 0.739834
0.621241 0.500435 0.739834
0.739834 0.500435 0.739834
0.858442 0.500435 0.739834
0.976593 0.500435 0.739834
0.0153201 0.621241 0.739834
0.134203 0.621241 0.739834
0.253651 0.621241 0.739834
0.375509 0.621241 0.739834
0.500435 0.621241 0.739834
0.621241 0.621241 0.739834
0.739834 0.621241 0.739834
0.858442 0.621241 0.739834
0.976593 0.621241 0.739834
0.0153201 0.739834 0.739834
0.134203 0.739834 0.739834
0.253651 0.739834 0.739834
0.375509 0.739834 0.739834
0.500435 0.739834 0.739834
0.621241 0.739834 0.739834
0.739834 0.739834 0.739834
0.858442 0.739834 0.739834
0.976593 0.739834 0.739834
0.0153201 0.858442 0.739834
0.134203 0.858442 0.739834
0.253651 0.858442 0.739834
0.375509 0.858442 0.739834
0.500435 0.858442 0.739834
0.621241 0.858442 0.739834
0.739834 0.858442 0.739834
0.858442 0.858442 0.739834
0.976593 0.858442 0.739834
0.0153201 0.976593 0.739834
0.134203 0.976593 0.739834
0.253651 0.976593 0.739834
0.375509 0.976593 0.739834
0.500435 0.976593 0.739834
0.621241 0.976593 0.739834
0.739834 0.976593 0.739834
0.858442 0.976593 0.739834
0.976593 0.976593 0.739834
0.0153201 0.0153201 0.858442
0.134203 0.0153201 0.858442
0.253651 0.0153201 0.858442
0.375509 0.0153201 0.858442
0.500435 0.0153201 0.858442
0.621241 0.0153201 0.858442
0.739834 0.0153201 0.858442
0.858442 0.0153201 0.858442
0.976593 0.0153201 0.858442
0.0153201 0.134203 0.858442
0.134203 0.134203 0.858442
0.253651 0.134203 0.858442
0.375509 0.134203 0.858442
0.500435 0.134203 0.858442
0.621241 0.134203 0.858442
0.739834 0.134203 0.858442
0.858442 0.134203 0.858442
0.976593 0.134203 0.858442
0.0153201 0.253651 0.858442
0.134203 0.253651 0.858442
0.253651 0.253651 0.858442
0.375509 0.253651 0.858442
0.500435 0.253651 0.858442
0.621241 0.253651 0.858442
0.739834 0.253651 0.858442
0.858442 0.253651 0.858442
0.976593 0.253651 0.858442
0.0153201 0.375509 0.858442
0.134203 0.375509 0.858442
0.253651 0.375509 0.858442
0.375509 0.375509 0.858442
0.500435 0.375509 0.858442
0.621241 0.375509 0.858442
0.739834 0.375509 0.858442
0.858442 0.375509 0.858442
0.976593 0.375509 0.858442
0.0153201 0.500435 0.858442
0.134203 0.500435 0.858442
0.253651 0.500435 0.858442
0.375509 0.500435 0.858442
0.500435 0.500435 0.858442
0.621241 0.500435 0.858442
0.739834 0.500435 0.858442
0.858442 0.500435 0.858442
0.976593 0.500435 0.858442
0.0153201 0.621241 0.858442
0.134203 0.621241 0.858442
0.253651 0.621241 0.858442
0.375509 0.621241 0.858442
0.500435 0.621241 0.858442
0.621241 0.621241 0.858442
0.739834 0.621241 0.858442
0.858442 0.621241 0.858442
0.976593 0.621241 0.858442
0.0153201 0.739834 0.858442
0.134203 0.739834 0.858442
0.253651 0.739834 0.858442
0.375509 0.739834 0.858442
0.500435 0.739834 0.858442
0.621241 0.739834 0.858442
0.739834 0.739834 0.858442
0.858442 0.739834 0.858442
0.976593 0.739834 0.858442
0.0153201 0.858442 0.858442
0.134203 0.858442 0.858442
0.253651 0.858442 0.858442
0.375509 0.858442 0.858442
0.500435 0.858442 0.858442
0.621241 0.858442 0.858442
0.739834 0.858442 0.858442
0.858442 0.858442 0.858442
0.976593 0.858442 0.858442
0.0153201 0.976593 0.858442
0.134203 0.976593 0.858442
0.253651 0.976593 0.858442
0.375509 0.976593 0.858442
0.500435 0.976593 0.858442
0.621241 0.976593 0.858442
0.739834 0.976593 0.858442
0.858442 0.976593 0.858442
0.976593 0.976593 0.858442
0.0153201 0.0153201 0.976593
0.134203 0.0153201 0.976593
0.253651 0.0153201 0.976593
0.375509 0.0153201 0.976593
0.500435 0.0153201 0.976593
0.621241 0.0153201 0.976593
0.739834 0.0153201 0.976593
0.858442 0.0153201 0.976593
0.976593 0.0153201 0.976593
0.0153201 0.134203 0.976593
0.134203 0.134203 0.976593
0.253651 0.134203 0.976593
0.375509 0.134203 0.976593
0.500435 0.134203 0.976593
0.621241 0.134203 0.976593
0.739834 0.134203 0.976593
0.858442 0.134203 0.976593
0.976593 0.134203 0.976593
0.0153201 0.253651 0.976593
0.134203 0.253651 0.976593
0.253651 0.253651 0.976593
0.375509 0.253651 0.976593
0.500435 0.253651 0.976593
0.621241 0.253651 0.976593
0.739834 0.253651 0.976593
0.858442 0.253651 0.976593
0.976593 0.253651 0.976593
0.0153201 0.375509 0.976593
0.134203 0.375509 0.976593
0.253651 0.375509 0.976593
0.375509 0.375509 0.976593
0.500435 0.375509 0.976593
0.621241 0.375509 0.976593
0.739834 0.375509 0.976593
0.858442 0.375509 0.976593
0.976593 0.375509 0.976593
0.0153201 0.500435 0.976593
0.134203 0.500435 0.976593
0.253651 0.500435 0.976593
0.375509 0.500435 0.976593
0.500435 0.500435 0.976593
0.621241 0.500435 0.976593
0.739834 0.500435 0.976593
0.858442 0.500435 0.976593
0.976593 0.500435 0.976593
0.0153201 0.621241 0.976593
0.134203 0.621241 0.976593
0.253651 0.621241 0.976593
0.375509 0.621241 0.976593
0.500435 0.621241 0.976593
0.621241 0.621241 0.976593
0.739834 0.621241 0.976593
0.858442 0.621241 0.976593
0.976593 0.621241 0.976593
0.0153201 0.739834 0.976593
0.134203 0.739834 0.976593
0.253651 0.739834 0.976593
0.375509 0.739834 0.976593
0.500435 0.739834 0.976593
0.621241 0.739834 0.976593
0.739834 0.739834 0.976593
0.858442 0.739834 0.976593
0.976593 0.739834 0.976593
0.0153201 0.858442 0.976593
0.134203 0.858442 0.976593
0.253651 0.858442 0.976593
0.375509 0.858442 0.976593
0.500435 0.858442 0.976593
0.621241 0.858442 0.976593
0.739834 0.858442 0.976593
0.858442 0.858442 0.976593
0.976593 0.858442 0.976593
0.0153201 0.976593 0.976593
0.134203 0.976593 0.976593
0.253651 0.976593 0.976593
0.375509 0.976593 0.976593
0.500435 0.976593 0.976593
0.621241 0.976593 0.976593
0.739834 0.976593 0.976593
0.858442 0.976593 0.976593
0.976593 0.976593 0.976593
