public/LUTS/Balanced/Balanced_01.cube
TITLE "Generated by Resolve"
LUT_3D_SIZE 9
0.0179751 0.0179751 0.0179751
0.135882 0.0179751 0.0179751
0.254307 0.0179751 0.0179751
0.375006 0.0179751 0.0179751
0.499992 0.0179751 0.0179751
0.625116 0.0179751 0.0179751
0.75024 0.0179751 0.0179751
0.875364 0.0179751 0.0179751
1 0.0179751 0.0179751
0.0179751 0.135882 0.0179751
0.135882 0.135882 0.0179751
0.254307 0.135882 0.0179751
0.375006 0.135882 0.0179751
0.499992 0.135882 0.0179751
0.625116 0.135882 0.0179751
0.75024 0.135866 0.0179751
0.875364 0.135882 0.0179751
1 0.135882 0.0179751
0.0179751 0.254307 0.0179751
0.135866 0.254307 0.0179751
0.254307 0.254307 0.0179751
0.375006 0.254307 0.0179751
0.499992 0.254307 0.0179751
0.625116 0.254307 0.0179751
0.75024 0.254307 0.0179751
0.875364 0.254307 0.0179751
1 0.254307 0.0179751
0.0179751 0.375006 0.0179751
0.135866 0.375006 0.0179751
0.254307 0.37499 0.0179751
0.375006 0.375006 0.0179751
0.499992 0.375006 0.0179751
0.625116 0.375006 0.0179751
0.75024 0.375006 0.0179751
0.875364 0.375006 0.0179751
1 0.375006 0.0179751
0.0179751 0.499992 0.0179751
0.135882 0.499992 0.0179751
0.254307 0.499992 0.0179751
0.375006 0.499992 0.0179751
0.499992 0.499992 0.0179751
0.625116 0.499992 0.0179751
0.75024 0.499992 0.0179751
0.875364 0.499992 0.0179751
1 0.499992 0.0179751
0.0179751 0.625116 0.0179751
0.135882 0.625116 0.0179751
0.254307 0.625116 0.0179751
0.375006 0.625116 0.0179751
0.499992 0.625116 0.0179751
0.625116 0.625116 0.0179751
0.75024 0.625116 0.0179751
0.875364 0.625116 0.0179751
1 0.625116 0.0179751
0.0179751 0.75024 0.0179751
0.135882 0.75024 0.0179751
0.254307 0.75024 0.0179751
0.37499 0.75024 0.0179751
0.499992 0.75024 0.0179751
0.625116 0.75024 0.0179751
0.75024 0.75024 0.0179751
0.875364 0.75024 0.0179751
1 0.75024 0.0179751
0.0179751 0.875364 0.0179751
0.135882 0.875364 0.0179751
0.254307 0.875364 0.0179751
0.37499 0.875364 0.0179751
0.499992 0.875364 0.0179751
0.625116 0.875364 0.0179751
0.75024 0.875364 0.0179751
0.875364 0.875364 0.0179751
1 0.875364 0.0179751
0.0179751 1 0.0179751
0.135882 1 0.0179751
0.254307 1 0.0179751
0.37499 1 0.0179751
0.499992 1 0.0179751
0.625116 1 0.0179751
0.75024 1 0.0179751
0.875364 1 0.0179751
1 1 0.0179751
0.0179751 0.0179751 0.135882
0.135882 0.0179751 0.135882
0.254307 0.0179751 0.135882
0.375006 0.0179751 0.135866
0.499992 0.0179751 0.135882
0.625116 0.0179751 0.135882
0.75024 0.0179751 0.135882
0.875364 0.0179751 0.135882
1 0.0179751 0.135882
0.0179751 0.135882 0.135882
0.135882 0.135882 0.135882
0.254307 0.135866 0.135866
0.375006 0.135866 0.135866
0.499992 0.135882 0.135882
0.625116 0.135882 0.135882
0.75024 0.135882 0.135882
0.875364 0.135882 0.135882
1 0.135882 0.135882
0.0179751 0.254307 0.135866
0.135882 0.254307 0.135882
0.254307 0.254307 0.135882
0.375006 0.254307 0.135866
0.499992 0.254307 0.135882
0.625116 0.254307 0.135882
0.75024 0.254307 0.135882
0.875364 0.254307 0.135882
1 0.254307 0.135882
0.0179751 0.375006 0.135866
0.135882 0.375006 0.135882
0.254307 0.375006 0.135866
0.375006 0.375006 0.135866
0.499992 0.375006 0.135866
0.625116 0.375006 0.135882
0.75024 0.375006 0.135882
0.875364 0.375006 0.135866
1 0.375006 0.135866
0.0179751 0.499992 0.135882
0.135882 0.499992 0.135882
0.254307 0.499992 0.135866
0.375006 0.499992 0.135882
0.499992 0.499992 0.135882
0.625116 0.499992 0.135882
0.75024 0.499992 0.135882
0.875364 0.499992 0.135882
1 0.499992 0.135882
0.0179751 0.625116 0.135882
0.135882 0.625116 0.135882
0.254307 0.625116 0.135882
0.375006 0.625116 0.135882
0.499992 0.625116 0.135882
0.625116 0.625116 0.135882
0.75024 0.625116 0.135866
0.875364 0.625116 0.135882
1 0.625116 0.135882
0.0179751 0.75024 0.135882
0.135866 0.75024 0.135866
0.254307 0.75024 0.135882
0.37499 0.75024 0.135866
0.499992 0.75024 0.135866
0.625116 0.75024 0.135882
0.75024 0.75024 0.135866
0.875364 0.75024 0.135882
1 0.75024 0.135866
0.0179751 0.875364 0.135882
0.135882 0.875364 0.135882
0.254307 0.875364 0.135882
0.37499 0.875364 0.135866
0.499992 0.875364 0.135882
0.625116 0.875364 0.135882
0.75024 0.875364 0.135866
0.875364 0.875364 0.135882
1 0.875364 0.135882
0.0179751 1 0.135882
0.135882 1 0.135882
0.254307 1 0.135882
0.37499 1 0.135866
0.499992 1 0.135882
0.625116 1 0.135882
0.75024 1 0.135866
0.875364 1 0.135882
1 1 0.135882
0.0179751 0.0179751 0.254307
0.135882 0.0179751 0.254307
0.254307 0.0179751 0.254307
0.375006 0.0179751 0.254307
0.499992 0.0179751 0.254307
0.625116 0.0179751 0.254307
0.75024 0.0179751 0.254307
0.875364 0.0179751 0.254307
1 0.0179751 0.254307
0.0179751 0.135882 0.254307
0.135882 0.135882 0.254307
0.254307 0.135882 0.254307
0.375006 0.135882 0.254307
0.499992 0.135882 0.254307
0.625116 0.135882 0.254307
0.75024 0.135866 0.254307
0.875364 0.135882 0.254307
1 0.135882 0.254307
0.0179751 0.254307 0.254307
0.135882 0.254307 0.254307
0.254307 0.254307 0.254307
0.375006 0.254307 0.254307
0.499992 0.254307 0.254307
0.625116 0.254307 0.254307
0.75024 0.254307 0.254307
0.875364 0.254307 0.254307
1 0.254307 0.254307
0.0179751 0.375006 0.254307
0.135866 0.375006 0.254307
0.254307 0.375006 0.254307
0.375006 0.375006 0.254307
0.499992 0.375006 0.254307
0.625116 0.375006 0.254307
0.75024 0.375006 0.254307
0.875364 0.375006 0.254307
1 0.375006 0.254307
0.0179751 0.499992 0.254307
0.135882 0.499992 0.254307
0.254307 0.499992 0.254307
0.375006 0.499992 0.254307
0.499992 0.499992 0.254307
0.625116 0.499992 0.254307
0.75024 0.499992 0.254307
0.875364 0.499992 0.254307
1 0.499992 0.254307
0.0179751 0.625116 0.254307
0.135882 0.625116 0.254307
0.254307 0.625116 0.254307
0.37499 0.625116 0.254307
0.499992 0.625116 0.254307
0.625116 0.625116 0.254307
0.75024 0.625116 0.254307
0.875364 0.625116 0.254307
1 0.625116 0.254307
0.0179751 0.75024 0.254307
0.135866 0.75024 0.254307
0.254307 0.75024 0.254307
0.37499 0.75024 0.254307
0.499992 0.75024 0.254307
0.625116 0.75024 0.254307
0.75024 0.75024 0.254307
0.875364 0.75024 0.254307
1 0.75024 0.254307
0.0179751 0.875364 0.254307
0.135882 0.875364 0.254307
0.254307 0.875364 0.254307
0.375006 0.875364 0.254307
0.499992 0.875364 0.254307
0.625116 0.875364 0.254307
0.75024 0.875364 0.254307
0.875364 0.875364 0.254307
1 0.875364 0.254307
0.0179751 1 0.254307
0.135882 1 0.254307
0.254307 1 0.254307
0.37499 1 0.254307
0.499992 1 0.254307
0.625116 1 0.254307
0.75024 1 0.254307
0.875364 1 0.254307
1 1 0.254307
0.0179751 0.0179751 0.375006
0.135882 0.0179751 0.375006
0.254307 0.0179751 0.375006
0.375006 0.0179751 0.375006
0.499992 0.0179751 0.375006
0.625116 0.0179751 0.375006
0.75024 0.0179751 0.375006
0.875364 0.0179751 0.375006
1 0.0179751 0.375006
0.0179751 0.135882 0.375006
0.135882 0.135882 0.375006
0.254307 0.135882 0.375006
0.375006 0.135882 0.375006
0.499992 0.135882 0.375006
0.625116 0.135882 0.375006
0.75024 0.135882 0.375006
0.875364 0.135882 0.375006
1 0.135882 0.375006
0.0179751 0.254307 0.375006
0.135882 0.254307 0.375006
0.254307 0.254307 0.375006
0.375006 0.254307 0.375006
0.499992 0.254307 0.375006
0.625116 0.254307 0.375006
0.75024 0.254307 0.375006
0.875364 0.254307 0.375006
1 0.254307 0.375006
0.0179751 0.375006 0.375006
0.135882 0.375006 0.375006
0.254307 0.37499 0.37499
0.375006 0.375006 0.375006
0.499992 0.375006 0.375006
0.625116 0.375006 0.375006
0.75024 0.375006 0.375006
0.875364 0.375006 0.375006
1 0.375006 0.375006
0.0179751 0.499992 0.375006
0.135882 0.499992 0.375006
0.254307 0.499992 0.375006
0.375006 0.499992 0.375006
0.499992 0.499992 0.375006
0.625116 0.499992 0.375006
0.75024 0.499992 0.375006
0.875364 0.499992 0.375006
1 0.499992 0.375006
0.0179751 0.625116 0.375006
0.135882 0.625116 0.375006
0.254307 0.625116 0.375006
0.37499 0.625116 0.37499
0.499992 0.625116 0.375006
0.625116 0.625116 0.375006
0.75024 0.625116 0.37499
0.875364 0.625116 0.375006
1 0.625116 0.375006
0.0179751 0.75024 0.375006
0.135866 0.75024 0.37499
0.254307 0.75024 0.37499
0.37499 0.75024 0.37499
0.499992 0.75024 0.37499
0.625116 0.75024 0.37499
0.75024 0.75024 0.37499
0.875364 0.75024 0.375006
1 0.75024 0.375006
0.0179751 0.875364 0.375006
0.135882 0.875364 0.375006
0.254307 0.875364 0.375006
0.37499 0.875364 0.37499
0.499992 0.875364 0.375006
0.625116 0.875364 0.375006
0.75024 0.875364 0.37499
0.875364 0.875364 0.375006
1 0.875364 0.375006
0.0179751 1 0.375006
0.135882 1 0.375006
0.254307 1 0.375006
0.37499 1 0.37499
0.499992 1 0.375006
0.625116 1 0.375006
0.75024 1 0.37499
0.875364 1 0.375006
1 1 0.375006
0.0179751 0.0179751 0.499992
0.135882 0.0179751 0.499992
0.254307 0.0179751 0.499992
0.375006 0.0179751 0.499992
0.499992 0.0179751 0.499992
0.625116 0.0179751 0.499992
0.75024 0.0179751 0.499992
0.875364 0.0179751 0.499992
1 0.0179751 0.499992
0.0179751 0.135882 0.499992
0.135882 0.135882 0.499992
0.254307 0.135882 0.499992
0.375006 0.135882 0.499992
0.499992 0.135882 0.499992
0.625116 0.135882 0.499992
0.75024 0.135866 0.499992
0.875364 0.135882 0.499992
1 0.135882 0.499992
0.0179751 0.254307 0.499992
0.135882 0.254307 0.499992
0.254307 0.254307 0.499992
0.375006 0.254307 0.499992
0.499992 0.254307 0.499992
0.625116 0.254307 0.499992
0.75024 0.254307 0.499992
0.875364 0.254307 0.499992
1 0.254307 0.499992
0.0179751 0.375006 0.499992
0.135882 0.375006 0.499992
0.254307 0.37499 0.499992
0.375006 0.375006 0.499992
0.499992 0.375006 0.499992
0.625116 0.375006 0.499992
0.75024 0.375006 0.499992
0.875364 0.375006 0.499992
1 0.37499 0.499992
0.0179751 0.499992 0.499992
0.135882 0.499992 0.499992
0.254307 0.499992 0.499992
0.375006 0.499992 0.499992
0.499992 0.499992 0.499992
0.625116 0.499992 0.499992
0.75024 0.499992 0.499992
0.875364 0.499992 0.499992
1 0.499992 0.499992
0.0179751 0.625116 0.499992
0.135882 0.625116 0.499992
0.254307 0.625116 0.499992
0.375006 0.625116 0.499992
0.499992 0.625116 0.499992
0.625116 0.625116 0.499992
0.75024 0.625116 0.499992
0.875364 0.625116 0.499992
1 0.625116 0.499992
0.0179751 0.75024 0.499992
0.135866 0.75024 0.499992
0.254307 0.75024 0.499992
0.37499 0.75024 0.499992
0.499992 0.75024 0.499992
0.625116 0.75024 0.499992
0.75024 0.75024 0.499992
0.875364 0.75024 0.499992
1 0.75024 0.499992
0.0179751 0.875364 0.499992
0.135882 0.875364 0.499992
0.254307 0.875364 0.499992
0.37499 0.875364 0.499992
0.499992 0.875364 0.499992
0.625116 0.875364 0.499992
0.75024 0.875364 0.499992
0.875364 0.875364 0.499992
1 0.875364 0.499992
0.0179751 1 0.499992
0.135882 1 0.499992
0.254307 1 0.499992
0.37499 1 0.499992
0.499992 1 0.499992
0.625116 1 0.499992
0.75024 1 0.499992
0.875364 1 0.499992
1 1 0.499992
0.0179751 0.0179751 0.625116
0.135882 0.0179751 0.625116
0.254307 0.0179751 0.625116
0.375006 0.0179751 0.625116
0.499992 0.0179751 0.625116
0.625116 0.0179751 0.625116
0.75024 0.0179751 0.625116
0.875364 0.0179751 0.625116
1 0.0179751 0.625116
0.0179751 0.135882 0.625116
0.135882 0.135882 0.625116
0.254307 0.135882 0.625116
0.375006 0.135882 0.625116
0.499992 0.135882 0.625116
0.625116 0.135882 0.625116
0.75024 0.135866 0.625116
0.875364 0.135882 0.625116
1 0.135882 0.625116
0.0179751 0.254307 0.625116
0.135882 0.254307 0.625116
0.254307 0.254307 0.625116
0.375006 0.254307 0.625116
0.499992 0.254307 0.625116
0.625116 0.254307 0.625116
0.75024 0.254307 0.625116
0.875364 0.254307 0.625116
1 0.254307 0.625116
0.0179751 0.375006 0.625116
0.135866 0.375006 0.625116
0.254307 0.375006 0.625116
0.375006 0.375006 0.625116
0.499992 0.375006 0.625116
0.625116 0.375006 0.625116
0.75024 0.375006 0.625116
0.875364 0.375006 0.625116
1 0.375006 0.625116
0.0179751 0.499992 0.625116
0.135882 0.499992 0.625116
0.254307 0.499992 0.625116
0.375006 0.499992 0.625116
0.499992 0.499992 0.625116
0.625116 0.499992 0.625116
0.75024 0.499992 0.625116
0.875364 0.499992 0.625116
1 0.499992 0.625116
0.0179751 0.625116 0.625116
0.135882 0.625116 0.625116
0.254307 0.625116 0.625116
0.37499 0.625116 0.625116
0.499992 0.625116 0.625116
0.625116 0.625116 0.625116
0.75024 0.625116 0.625116
0.875364 0.625116 0.625116
1 0.625116 0.625116
0.0179751 0.75024 0.625116
0.135882 0.75024 0.625116
0.254307 0.75024 0.625116
0.37499 0.75024 0.625116
0.499992 0.75024 0.625116
0.625116 0.75024 0.625116
0.75024 0.75024 0.625116
0.875364 0.75024 0.625116
1 0.75024 0.625116
0.0179751 0.875364 0.625116
0.135882 0.875364 0.625116
0.254307 0.875364 0.625116
0.375006 0.875364 0.625116
0.499992 0.875364 0.625116
0.625116 0.875364 0.625116
0.75024 0.875364 0.625116
0.875364 0.875364 0.625116
1 0.875364 0.625116
0.0179751 1 0.625116
0.135882 1 0.625116
0.254307 1 0.625116
0.375006 1 0.625116
0.499992 1 0.625116
0.625116 1 0.625116
0.75024 1 0.625116
0.875364 1 0.625116
1 1 0.625116
0.0179751 0.0179751 0.75024
0.135882 0.0179751 0.75024
0.254307 0.0179751 0.75024
0.375006 0.0179751 0.75024
0.499992 0.0179751 0.75024
0.625116 0.0179751 0.75024
0.75024 0.0179751 0.75024
0.875364 0.0179751 0.75024
1 0.0179751 0.75024
0.0179751 0.135882 0.75024
0.135882 0.135882 0.75024
0.254307 0.135866 0.75024
0.375006 0.135882 0.75024
0.499992 0.135882 0.75024
0.625116 0.135882 0.75024
0.75024 0.135882 0.75024
0.875364 0.135882 0.75024
1 0.135882 0.75024
0.0179751 0.254307 0.75024
0.135882 0.254307 0.75024
0.254307 0.254307 0.75024
0.375006 0.254307 0.75024
0.499992 0.254307 0.75024
0.625116 0.254307 0.75024
0.75024 0.254307 0.75024
0.875364 0.254307 0.75024
1 0.254307 0.75024
0.0179751 0.375006 0.75024
0.135866 0.37499 0.75024
0.254307 0.37499 0.75024
0.375006 0.375006 0.75024
0.499992 0.375006 0.75024
0.625116 0.375006 0.75024
0.75024 0.375006 0.75024
0.875364 0.37499 0.75024
1 0.375006 0.75024
0.0179751 0.499992 0.75024
0.135882 0.499992 0.75024
0.254307 0.499992 0.75024
0.375006 0.499992 0.75024
0.499992 0.499992 0.75024
0.625116 0.499992 0.75024
0.75024 0.499992 0.75024
0.875364 0.499992 0.75024
1 0.499992 0.75024
0.0179751 0.625116 0.75024
0.135882 0.625116 0.75024
0.254307 0.625116 0.75024
0.37499 0.625116 0.75024
0.499992 0.625116 0.75024
0.625116 0.625116 0.75024
0.75024 0.625116 0.75024
0.875364 0.625116 0.75024
1 0.625116 0.75024
0.0179751 0.75024 0.75024
0.135866 0.75024 0.75024
0.254307 0.75024 0.75024
0.37499 0.75024 0.75024
0.499992 0.75024 0.75024
0.625116 0.75024 0.75024
0.75024 0.75024 0.75024
0.875364 0.75024 0.75024
1 0.75024 0.75024
0.0179751 0.875364 0.75024
0.135882 0.875364 0.75024
0.254307 0.875364 0.75024
0.375006 0.875364 0.75024
0.499992 0.875364 0.75024
0.625116 0.875364 0.75024
0.75024 0.875364 0.75024
0.875364 0.875364 0.75024
1 0.875364 0.75024
0.0179751 1 0.75024
0.135882 1 0.75024
0.254307 1 0.75024
0.375006 1 0.75024
0.499992 1 0.75024
0.625116 1 0.75024
0.75024 1 0.75024
0.875364 1 0.75024
1 1 0.75024
0.0179751 0.0179751 0.875364
0.135882 0.0179751 0.875364
0.254307 0.0179751 0.875364
0.375006 0.0179751 0.875364
0.499992 0.0179751 0.875364
0.625116 0.0179751 0.875364
0.75024 0.0179751 0.875364
0.875364 0.0179751 0.875364
1 0.0179751 0.875364
0.0179751 0.135882 0.875364
0.135882 0.135882 0.875364
0.254307 0.135866 0.875364
0.375006 0.135882 0.875364
0.499992 0.135882 0.875364
0.625116 0.135882 0.875364
0.75024 0.135882 0.875364
0.875364 0.135882 0.875364
1 0.135882 0.875364
0.0179751 0.254307 0.875364
0.135882 0.254307 0.875364
0.254307 0.254307 0.875364
0.375006 0.254307 0.875364
0.499992 0.254307 0.875364
0.625116 0.254307 0.875364
0.75024 0.254307 0.875364
0.875364 0.254307 0.875364
1 0.254307 0.875364
0.0179751 0.375006 0.875364
0.135866 0.375006 0.875364
0.254307 0.37499 0.875364
0.375006 0.375006 0.875364
0.499992 0.375006 0.875364
0.625116 0.375006 0.875364
0.75024 0.375006 0.875364
0.875364 0.375006 0.875364
1 0.375006 0.875364
0.0179751 0.499992 0.875364
0.135882 0.499992 0.875364
0.254307 0.499992 0.875364
0.375006 0.499992 0.875364
0.499992 0.499992 0.875364
0.625116 0.499992 0.875364
0.75024 0.499992 0.875364
0.875364 0.499992 0.875364
1 0.499992 0.875364
0.0179751 0.625116 0.875364
0.135882 0.625116 0.875364
0.254307 0.625116 0.875364
0.375006 0.625116 0.875364
0.499992 0.625116 0.875364
0.625116 0.625116 0.875364
0.75024 0.625116 0.875364
0.875364 0.625116 0.875364
1 0.625116 0.875364
0.0179751 0.75024 0.875364
0.135866 0.75024 0.875364
0.254307 0.75024 0.875364
0.37499 0.75024 0.875364
0.499992 0.75024 0.875364
0.625116 0.75024 0.875364
0.75024 0.75024 0.875364
0.875364 0.75024 0.875364
1 0.75024 0.875364
0.0179751 0.875364 0.875364
0.135882 0.875364 0.875364
0.254307 0.875364 0.875364
0.37499 0.875364 0.875364
0.499992 0.875364 0.875364
0.625116 0.875364 0.875364
0.75024 0.875364 0.875364
0.875364 0.875364 0.875364
1 0.875364 0.875364
0.0179751 1 0.875364
0.135882 1 0.875364
0.254307 1 0.875364
0.37499 1 0.875364
0.499992 1 0.875364
0.625116 1 0.875364
0.75024 1 0.875364
0.875364 1 0.875364
1 1 0.875364
0.0179751 0.0179751 1
0.135882 0.0179751 1
0.254307 0.0179751 1
0.375006 0.0179751 1
0.499992 0.0179751 1
0.625116 0.0179751 1
0.75024 0.0179751 1
0.875364 0.0179751 1
1 0.0179751 1
0.0179751 0.135882 1
0.135882 0.135882 1
0.254307 0.135882 1
0.375006 0.135866 1
0.499992 0.135882 1
0.625116 0.135882 1
0.75024 0.135866 1
0.875364 0.135882 1
1 0.135882 1
0.0179751 0.254307 1
0.135882 0.254307 1
0.254307 0.254307 1
0.375006 0.254307 1
0.499992 0.254307 1
0.625116 0.254307 1
0.75024 0.254307 1
0.875364 0.254307 1
1 0.254307 1
0.0179751 0.375006 1
0.135866 0.375006 1
0.254307 0.37499 1
0.375006 0.375006 1
0.499992 0.375006 1
0.625116 0.375006 1
0.75024 0.375006 1
0.875364 0.375006 1
1 0.375006 1
0.0179751 0.499992 1
0.135882 0.499992 1
0.254307 0.499992 1
0.375006 0.499992 1
0.499992 0.499992 1
0.625116 0.499992 1
0.75024 0.499992 1
0.875364 0.499992 1
1 0.499992 1
0.0179751 0.625116 1
0.135882 0.625116 1
0.254307 0.625116 1
0.37499 0.625116 1
0.499992 0.625116 1
0.625116 0.625116 1
0.75024 0.625116 1
0.875364 0.625116 1
1 0.625116 1
0.0179751 0.75024 1
0.135866 0.75024 1
0.254307 0.75024 1
0.37499 0.75024 1
0.499992 0.75024 1
0.625116 0.75024 1
0.75024 0.75024 1
0.875364 0.75024 1
1 0.75024 1
0.0179751 0.875364 1
0.135882 0.875364 1
0.254307 0.875364 1
0.375006 0.875364 1
0.499992 0.875364 1
0.625116 0.875364 1
0.75024 0.875364 1
0.875364 0.875364 1
1 0.875364 1
0.0179751 1 1
0.135882 1 1
0.254307 1 1
0.37499 1 1
0.499992 1 1
0.625116 1 1
0.75024 1 1
0.875364 1 1
1 1 1
