public/LUTS/Balanced/Balanced_07.cube
TITLE "Generated by Resolve"
LUT_3D_SIZE 9
0.0478828 0.0478828 0.0478828
0.154314 0.0478828 0.0478828
0.261509 0.0478828 0.0478828
0.380621 0.0478828 0.0478828
0.505135 0.0478828 0.0478828
0.606485 0.0478828 0.0478828
0.694759 0.0478828 0.0478828
0.771862 0.0478828 0.0478828
0.837537 0.0478828 0.0478828
0.0478828 0.154314 0.0478828
0.154314 0.154314 0.0478828
0.261509 0.154314 0.0478828
0.380621 0.154314 0.0478828
0.505135 0.154314 0.0478828
0.606485 0.154314 0.0478828
0.694759 0.154314 0.0478828
0.771862 0.154314 0.0478828
0.837537 0.154314 0.0478828
0.0478828 0.261509 0.0478828
0.154314 0.261509 0.0478828
0.261509 0.261509 0.0478828
0.380621 0.261509 0.0478828
0.505135 0.261509 0.0478828
0.606485 0.261509 0.0478828
0.694759 0.261509 0.0478828
0.771862 0.261509 0.0478828
0.837537 0.261509 0.0478828
0.0478828 0.380621 0.0478828
0.154314 0.380621 0.0478828
0.261509 0.380621 0.0478828
0.380621 0.380621 0.0478828
0.505135 0.380621 0.0478828
0.606485 0.380621 0.0478828
0.694759 0.380621 0.0478828
0.771862 0.380621 0.0478828
0.837537 0.380621 0.0478828
0.0478828 0.505135 0.0478828
0.154314 0.505135 0.0478828
0.261509 0.505135 0.0478828
0.380621 0.505135 0.0478828
0.505135 0.505135 0.0478828
0.606485 0.505135 0.0478828
0.694759 0.505135 0.0478828
0.771862 0.505135 0.0478828
0.837537 0.505135 0.0478828
0.0478828 0.606485 0.0478828
0.154314 0.606485 0.0478828
0.261509 0.606485 0.0478828
0.380621 0.606485 0.0478828
0.505135 0.606485 0.0478828
0.606485 0.606485 0.0478828
0.694759 0.606485 0.0478828
0.771862 0.606485 0.0478828
0.837537 0.606485 0.0478828
0.0478828 0.694759 0.0478828
0.154314 0.694759 0.0478828
0.261509 0.694759 0.0478828
0.380621 0.694759 0.0478828
0.505135 0.694759 0.0478828
0.606485 0.694759 0.0478828
0.694759 0.694759 0.0478828
0.771862 0.694759 0.0478828
0.837537 0.694759 0.0478828
0.0478828 0.771862 0.0478828
0.154314 0.771862 0.0478828
0.261509 0.771862 0.0478828
0.380621 0.771862 0.0478828
0.505135 0.771862 0.0478828
0.606485 0.771862 0.0478828
0.694759 0.771862 0.0478828
0.771862 0.771862 0.0478828
0.837537 0.771862 0.0478828
0.0478828 0.837537 0.0478828
0.154314 0.837537 0.0478828
0.261509 0.837537 0.0478828
0.380621 0.837537 0.0478828
0.505135 0.837537 0.0478828
0.606485 0.837537 0.0478828
0.694759 0.837537 0.0478828
0.771862 0.837537 0.0478828
0.837537 0.837537 0.0478828
0.0478828 0.0478828 0.154314
0.154314 0.0478828 0.154314
0.261509 0.0478828 0.154314
0.380621 0.0478828 0.154314
0.505135 0.0478828 0.154314
0.606485 0.0478828 0.154314
0.694759 0.0478828 0.154314
0.771862 0.0478828 0.154314
0.837537 0.0478828 0.154314
0.0478828 0.154314 0.154314
0.154314 0.154314 0.154314
0.261509 0.154314 0.154314
0.380621 0.154314 0.154314
0.505135 0.154314 0.154314
0.606485 0.154314 0.154314
0.694759 0.154314 0.154314
0.771862 0.154314 0.154314
0.837537 0.154314 0.154314
0.0478828 0.261509 0.154314
0.154314 0.261509 0.154314
0.261509 0.261509 0.154314
0.380621 0.261509 0.154314
0.505135 0.261509 0.154314
0.606485 0.261509 0.154314
0.694759 0.261509 0.154314
0.771862 0.261509 0.154314
0.837537 0.261509 0.154314
0.0478828 0.380621 0.154314
0.154314 0.380621 0.154314
0.261509 0.380621 0.154314
0.380621 0.380621 0.154314
0.505135 0.380621 0.154314
0.606485 0.380621 0.154314
0.694759 0.380621 0.154314
0.771862 0.380621 0.154314
0.837537 0.380621 0.154314
0.0478828 0.505135 0.154314
0.154314 0.505135 0.154314
0.261509 0.505135 0.154314
0.380621 0.505135 0.154314
0.505135 0.505135 0.154314
0.606485 0.505135 0.154314
0.694759 0.505135 0.154314
0.771862 0.505135 0.154314
0.837537 0.505135 0.154314
0.0478828 0.606485 0.154314
0.154314 0.606485 0.154314
0.261509 0.606485 0.154314
0.380621 0.606485 0.154314
0.505135 0.606485 0.154314
0.606485 0.606485 0.154314
0.694759 0.606485 0.154314
0.771862 0.606485 0.154314
0.837537 0.606485 0.154314
0.0478828 0.694759 0.154314
0.154314 0.694759 0.154314
0.261509 0.694759 0.154314
0.380621 0.694759 0.154314
0.505135 0.694759 0.154314
0.606485 0.694759 0.154314
0.694759 0.694759 0.154314
0.771862 0.694759 0.154314
0.837537 0.694759 0.154314
0.0478828 0.771862 0.154314
0.154314 0.771862 0.154314
0.261509 0.771862 0.154314
0.380621 0.771862 0.154314
0.505135 0.771862 0.154314
0.606485 0.771862 0.154314
0.694759 0.771862 0.154314
0.771862 0.771862 0.154314
0.837537 0.771862 0.154314
0.0478828 0.837537 0.154314
0.154314 0.837537 0.154314
0.261509 0.837537 0.154314
0.380621 0.837537 0.154314
0.505135 0.837537 0.154314
0.606485 0.837537 0.154314
0.694759 0.837537 0.154314
0.771862 0.837537 0.154314
0.837537 0.837537 0.154314
0.0478828 0.0478828 0.261509
0.154314 0.0478828 0.261509
0.261509 0.0478828 0.261509
0.380621 0.0478828 0.261509
0.505135 0.0478828 0.261509
0.606485 0.0478828 0.261509
0.694759 0.0478828 0.261509
0.771862 0.0478828 0.261509
0.837537 0.0478828 0.261509
0.0478828 0.154314 0.261509
0.154314 0.154314 0.261509
0.261509 0.154314 0.261509
0.380621 0.154314 0.261509
0.505135 0.154314 0.261509
0.606485 0.154314 0.261509
0.694759 0.154314 0.261509
0.771862 0.154314 0.261509
0.837537 0.154314 0.261509
0.0478828 0.261509 0.261509
0.154314 0.261509 0.261509
0.261509 0.261509 0.261509
0.380621 0.261509 0.261509
0.505135 0.261509 0.261509
0.606485 0.261509 0.261509
0.694759 0.261509 0.261509
0.771862 0.261509 0.261509
0.837537 0.261509 0.261509
0.0478828 0.380621 0.261509
0.154314 0.380621 0.261509
0.261509 0.380621 0.261509
0.380621 0.380621 0.261509
0.505135 0.380621 0.261509
0.606485 0.380621 0.261509
0.694759 0.380621 0.261509
0.771862 0.380621 0.261509
0.837537 0.380621 0.261509
0.0478828 0.505135 0.261509
0.154314 0.505135 0.261509
0.261509 0.505135 0.261509
0.380621 0.505135 0.261509
0.505135 0.505135 0.261509
0.606485 0.505135 0.261509
0.694759 0.505135 0.261509
0.771862 0.505135 0.261509
0.837537 0.505135 0.261509
0.0478828 0.606485 0.261509
0.154314 0.606485 0.261509
0.261509 0.606485 0.261509
0.380621 0.606485 0.261509
0.505135 0.606485 0.261509
0.606485 0.606485 0.261509
0.694759 0.606485 0.261509
0.771862 0.606485 0.261509
0.837537 0.606485 0.261509
0.0478828 0.694759 0.261509
0.154314 0.694759 0.261509
0.261509 0.694759 0.261509
0.380621 0.694759 0.261509
0.505135 0.694759 0.261509
0.606485 0.694759 0.261509
0.694759 0.694759 0.261509
0.771862 0.694759 0.261509
0.837537 0.694759 0.261509
0.0478828 0.771862 0.261509
0.154314 0.771862 0.261509
0.261509 0.771862 0.261509
0.380621 0.771862 0.261509
0.505135 0.771862 0.261509
0.606485 0.771862 0.261509
0.694759 0.771862 0.261509
0.771862 0.771862 0.261509
0.837537 0.771862 0.261509
0.0478828 0.837537 0.261509
0.154314 0.837537 0.261509
0.261509 0.837537 0.261509
0.380621 0.837537 0.261509
0.505135 0.837537 0.261509
0.606485 0.837537 0.261509
0.694759 0.837537 0.261509
0.771862 0.837537 0.261509
0.837537 0.837537 0.261509
0.0478828 0.0478828 0.380621
0.154314 0.0478828 0.380621
0.261509 0.0478828 0.380621
0.380621 0.0478828 0.380621
0.505135 0.0478828 0.380621
0.606485 0.0478828 0.380621
0.694759 0.0478828 0.380621
0.771862 0.0478828 0.380621
0.837537 0.0478828 0.380621
0.0478828 0.154314 0.380621
0.154314 0.154314 0.380621
0.261509 0.154314 0.380621
0.380621 0.154314 0.380621
0.505135 0.154314 0.380621
0.606485 0.154314 0.380621
0.694759 0.154314 0.380621
0.771862 0.154314 0.380621
0.837537 0.154314 0.380621
0.0478828 0.261509 0.380621
0.154314 0.261509 0.380621
0.261509 0.261509 0.380621
0.380621 0.261509 0.380621
0.505135 0.261509 0.380621
0.606485 0.261509 0.380621
0.694759 0.261509 0.380621
0.771862 0.261509 0.380621
0.837537 0.261509 0.380621
0.0478828 0.380621 0.380621
0.154314 0.380621 0.380621
0.261509 0.380621 0.380621
0.380621 0.380621 0.380621
0.505135 0.380621 0.380621
0.606485 0.380621 0.380621
0.694759 0.380621 0.380621
0.771862 0.380621 0.380621
0.837537 0.380621 0.380621
0.0478828 0.505135 0.380621
0.154314 0.505135 0.380621
0.261509 0.505135 0.380621
0.380621 0.505135 0.380621
0.505135 0.505135 0.380621
0.606485 0.505135 0.380621
0.694759 0.505135 0.380621
0.771862 0.505135 0.380621
0.837537 0.505135 0.380621
0.0478828 0.606485 0.380621
0.154314 0.606485 0.380621
0.261509 0.606485 0.380621
0.380621 0.606485 0.380621
0.505135 0.606485 0.380621
0.606485 0.606485 0.380621
0.694759 0.606485 0.380621
0.771862 0.606485 0.380621
0.837537 0.606485 0.380621
0.0478828 0.694759 0.380621
0.154314 0.694759 0.380621
0.261509 0.694759 0.380621
0.380621 0.694759 0.380621
0.505135 0.694759 0.380621
0.606485 0.694759 0.380621
0.694759 0.694759 0.380621
0.771862 0.694759 0.380621
0.837537 0.694759 0.380621
0.0478828 0.771862 0.380621
0.154314 0.771862 0.380621
0.261509 0.771862 0.380621
0.380621 0.771862 0.380621
0.505135 0.771862 0.380621
0.606485 0.771862 0.380621
0.694759 0.771862 0.380621
0.771862 0.771862 0.380621
0.837537 0.771862 0.380621
0.0478828 0.837537 0.380621
0.154314 0.837537 0.380621
0.261509 0.837537 0.380621
0.380621 0.837537 0.380621
0.505135 0.837537 0.380621
0.606485 0.837537 0.380621
0.694759 0.837537 0.380621
0.771862 0.837537 0.380621
0.837537 0.837537 0.380621
0.0478828 0.0478828 0.505135
0.154314 0.0478828 0.505135
0.261509 0.0478828 0.505135
0.380621 0.0478828 0.505135
0.505135 0.0478828 0.505135
0.606485 0.0478828 0.505135
0.694759 0.0478828 0.505135
0.771862 0.0478828 0.505135
0.837537 0.0478828 0.505135
0.0478828 0.154314 0.505135
0.154314 0.154314 0.505135
0.261509 0.154314 0.505135
0.380621 0.154314 0.505135
0.505135 0.154314 0.505135
0.606485 0.154314 0.505135
0.694759 0.154314 0.505135
0.771862 0.154314 0.505135
0.837537 0.154314 0.505135
0.0478828 0.261509 0.505135
0.154314 0.261509 0.505135
0.261509 0.261509 0.505135
0.380621 0.261509 0.505135
0.505135 0.261509 0.505135
0.606485 0.261509 0.505135
0.694759 0.261509 0.505135
0.771862 0.261509 0.505135
0.837537 0.261509 0.505135
0.0478828 0.380621 0.505135
0.154314 0.380621 0.505135
0.261509 0.380621 0.505135
0.380621 0.380621 0.505135
0.505135 0.380621 0.505135
0.606485 0.380621 0.505135
0.694759 0.380621 0.505135
0.771862 0.380621 0.505135
0.837537 0.380621 0.505135
0.0478828 0.505135 0.505135
0.154314 0.505135 0.505135
0.261509 0.505135 0.505135
0.380621 0.505135 0.505135
0.505135 0.505135 0.505135
0.606485 0.505135 0.505135
0.694759 0.505135 0.505135
0.771862 0.505135 0.505135
0.837537 0.505135 0.505135
0.0478828 0.606485 0.505135
0.154314 0.606485 0.505135
0.261509 0.606485 0.505135
0.380621 0.606485 0.505135
0.505135 0.606485 0.505135
0.606485 0.606485 0.505135
0.694759 0.606485 0.505135
0.771862 0.606485 0.505135
0.837537 0.606485 0.505135
0.0478828 0.694759 0.505135
0.154314 0.694759 0.505135
0.261509 0.694759 0.505135
0.380621 0.694759 0.505135
0.505135 0.694759 0.505135
0.606485 0.694759 0.505135
0.694759 0.694759 0.505135
0.771862 0.694759 0.505135
0.837537 0.694759 0.505135
0.0478828 0.771862 0.505135
0.154314 0.771862 0.505135
0.261509 0.771862 0.505135
0.380621 0.771862 0.505135
0.505135 0.771862 0.505135
0.606485 0.771862 0.505135
0.694759 0.771862 0.505135
0.771862 0.771862 0.505135
0.837537 0.771862 0.505135
0.0478828 0.837537 0.505135
0.154314 0.837537 0.505135
0.261509 0.837537 0.505135
0.380621 0.837537 0.505135
0.505135 0.837537 0.505135
0.606485 0.837537 0.505135
0.694759 0.837537 0.505135
0.771862 0.837537 0.505135
0.837537 0.837537 0.505135
0.0478828 0.0478828 0.606485
0.154314 0.0478828 0.606485
0.261509 0.0478828 0.606485
0.380621 0.0478828 0.606485
0.505135 0.0478828 0.606485
0.606485 0.0478828 0.606485
0.694759 0.0478828 0.606485
0.771862 0.0478828 0.606485
0.837537 0.0478828 0.606485
0.0478828 0.154314 0.606485
0.154314 0.154314 0.606485
0.261509 0.154314 0.606485
0.380621 0.154314 0.606485
0.505135 0.154314 0.606485
0.606485 0.154314 0.606485
0.694759 0.154314 0.606485
0.771862 0.154314 0.606485
0.837537 0.154314 0.606485
0.0478828 0.261509 0.606485
0.154314 0.261509 0.606485
0.261509 0.261509 0.606485
0.380621 0.261509 0.606485
0.505135 0.261509 0.606485
0.606485 0.261509 0.606485
0.694759 0.261509 0.606485
0.771862 0.261509 0.606485
0.837537 0.261509 0.606485
0.0478828 0.380621 0.606485
0.154314 0.380621 0.606485
0.261509 0.380621 0.606485
0.380621 0.380621 0.606485
0.505135 0.380621 0.606485
0.606485 0.380621 0.606485
0.694759 0.380621 0.606485
0.771862 0.380621 0.606485
0.837537 0.380621 0.606485
0.0478828 0.505135 0.606485
0.154314 0.505135 0.606485
0.261509 0.505135 0.606485
0.380621 0.505135 0.606485
0.505135 0.505135 0.606485
0.606485 0.505135 0.606485
0.694759 0.505135 0.606485
0.771862 0.505135 0.606485
0.837537 0.505135 0.606485
0.0478828 0.606485 0.606485
0.154314 0.606485 0.606485
0.261509 0.606485 0.606485
0.380621 0.606485 0.606485
0.505135 0.606485 0.606485
0.606485 0.606485 0.606485
0.694759 0.606485 0.606485
0.771862 0.606485 0.606485
0.837537 0.606485 0.606485
0.0478828 0.694759 0.606485
0.154314 0.694759 0.606485
0.261509 0.694759 0.606485
0.380621 0.694759 0.606485
0.505135 0.694759 0.606485
0.606485 0.694759 0.606485
0.694759 0.694759 0.606485
0.771862 0.694759 0.606485
0.837537 0.694759 0.606485
0.0478828 0.771862 0.606485
0.154314 0.771862 0.606485
0.261509 0.771862 0.606485
0.380621 0.771862 0.606485
0.505135 0.771862 0.606485
0.606485 0.771862 0.606485
0.694759 0.771862 0.606485
0.771862 0.771862 0.606485
0.837537 0.771862 0.606485
0.0478828 0.837537 0.606485
0.154314 0.837537 0.606485
0.261509 0.837537 0.606485
0.380621 0.837537 0.606485
0.505135 0.837537 0.606485
0.606485 0.837537 0.606485
0.694759 0.837537 0.606485
0.771862 0.837537 0.606485
0.837537 0.837537 0.606485
0.0478828 0.0478828 0.694759
0.154314 0.0478828 0.694759
0.261509 0.0478828 0.694759
0.380621 0.0478828 0.694759
0.505135 0.0478828 0.694759
0.606485 0.0478828 0.694759
0.694759 0.0478828 0.694759
0.771862 0.0478828 0.694759
0.837537 0.0478828 0.694759
0.0478828 0.154314 0.694759
0.154314 0.154314 0.694759
0.261509 0.154314 0.694759
0.380621 0.154314 0.694759
0.505135 0.154314 0.694759
0.606485 0.154314 0.694759
0.694759 0.154314 0.694759
0.771862 0.154314 0.694759
0.837537 0.154314 0.694759
0.0478828 0.261509 0.694759
0.154314 0.261509 0.694759
0.261509 0.261509 0.694759
0.380621 0.261509 0.694759
0.505135 0.261509 0.694759
0.606485 0.261509 0.694759
0.694759 0.261509 0.694759
0.771862 0.261509 0.694759
0.837537 0.261509 0.694759
0.0478828 0.380621 0.694759
0.154314 0.380621 0.694759
0.261509 0.380621 0.694759
0.380621 0.380621 0.694759
0.505135 0.380621 0.694759
0.606485 0.380621 0.694759
0.694759 0.380621 0.694759
0.771862 0.380621 0.694759
0.837537 0.380621 0.694759
0.0478828 0.505135 0.694759
0.154314 0.505135 0.694759
0.261509 0.505135 0.694759
0.380621 0.505135 0.694759
0.505135 0.505135 0.694759
0.606485 0.505135 0.694759
0.694759 0.505135 0.694759
0.771862 0.505135 0.694759
0.837537 0.505135 0.694759
0.0478828 0.606485 0.694759
0.154314 0.606485 0.694759
0.261509 0.606485 0.694759
0.380621 0.606485 0.694759
0.505135 0.606485 0.694759
0.606485 0.606485 0.694759
0.694759 0.606485 0.694759
0.771862 0.606485 0.694759
0.837537 0.606485 0.694759
0.0478828 0.694759 0.694759
0.154314 0.694759 0.694759
0.261509 0.694759 0.694759
0.380621 0.694759 0.694759
0.505135 0.694759 0.694759
0.606485 0.694759 0.694759
0.694759 0.694759 0.694759
0.771862 0.694759 0.694759
0.837537 0.694759 0.694759
0.0478828 0.771862 0.694759
0.154314 0.771862 0.694759
0.261509 0.771862 0.694759
0.380621 0.771862 0.694759
0.505135 0.771862 0.694759
0.606485 0.771862 0.694759
0.694759 0.771862 0.694759
0.771862 0.771862 0.694759
0.837537 0.771862 0.694759
0.0478828 0.837537 0.694759
0.154314 0.837537 0.694759
0.261509 0.837537 0.694759
0.380621 0.837537 0.694759
0.505135 0.837537 0.694759
0.606485 0.837537 0.694759
0.694759 0.837537 0.694759
0.771862 0.837537 0.694759
0.837537 0.837537 0.694759
0.0478828 0.0478828 0.771862
0.154314 0.0478828 0.771862
0.261509 0.0478828 0.771862
0.380621 0.0478828 0.771862
0.505135 0.0478828 0.771862
0.606485 0.0478828 0.771862
0.694759 0.0478828 0.771862
0.771862 0.0478828 0.771862
0.837537 0.0478828 0.771862
0.0478828 0.154314 0.771862
0.154314 0.154314 0.771862
0.261509 0.154314 0.771862
0.380621 0.154314 0.771862
0.505135 0.154314 0.771862
0.606485 0.154314 0.771862
0.694759 0.154314 0.771862
0.771862 0.154314 0.771862
0.837537 0.154314 0.771862
0.0478828 0.261509 0.771862
0.154314 0.261509 0.771862
0.261509 0.261509 0.771862
0.380621 0.261509 0.771862
0.505135 0.261509 0.771862
0.606485 0.261509 0.771862
0.694759 0.261509 0.771862
0.771862 0.261509 0.771862
0.837537 0.261509 0.771862
0.0478828 0.380621 0.771862
0.154314 0.380621 0.771862
0.261509 0.380621 0.771862
0.380621 0.380621 0.771862
0.505135 0.380621 0.771862
0.606485 0.380621 0.771862
0.694759 0.380621 0.771862
0.771862 0.380621 0.771862
0.837537 0.380621 0.771862
0.0478828 0.505135 0.771862
0.154314 0.505135 0.771862
0.261509 0.505135 0.771862
0.380621 0.505135 0.771862
0.505135 0.505135 0.771862
0.606485 0.505135 0.771862
0.694759 0.505135 0.771862
0.771862 0.505135 0.771862
0.837537 0.505135 0.771862
0.0478828 0.606485 0.771862
0.154314 0.606485 0.771862
0.261509 0.606485 0.771862
0.380621 0.606485 0.771862
0.505135 0.606485 0.771862
0.606485 0.606485 0.771862
0.694759 0.606485 0.771862
0.771862 0.606485 0.771862
0.837537 0.606485 0.771862
0.0478828 0.694759 0.771862
0.154314 0.694759 0.771862
0.261509 0.694759 0.771862
0.380621 0.694759 0.771862
0.505135 0.694759 0.771862
0.606485 0.694759 0.771862
0.694759 0.694759 0.771862
0.771862 0.694759 0.771862
0.837537 0.694759 0.771862
0.0478828 0.771862 0.771862
0.154314 0.771862 0.771862
0.261509 0.771862 0.771862
0.380621 0.771862 0.771862
0.505135 0.771862 0.771862
0.606485 0.771862 0.771862
0.694759 0.771862 0.771862
0.771862 0.771862 0.771862
0.837537 0.771862 0.771862
0.0478828 0.837537 0.771862
0.154314 0.837537 0.771862
0.261509 0.837537 0.771862
0.380621 0.837537 0.771862
0.505135 0.837537 0.771862
0.606485 0.837537 0.771862
0.694759 0.837537 0.771862
0.771862 0.837537 0.771862
0.837537 0.837537 0.771862
0.0478828 0.0478828 0.837537
0.154314 0.0478828 0.837537
0.261509 0.0478828 0.837537
0.380621 0.0478828 0.837537
0.505135 0.0478828 0.837537
0.606485 0.0478828 0.837537
0.694759 0.0478828 0.837537
0.771862 0.0478828 0.837537
0.837537 0.0478828 0.837537
0.0478828 0.154314 0.837537
0.154314 0.154314 0.837537
0.261509 0.154314 0.837537
0.380621 0.154314 0.837537
0.505135 0.154314 0.837537
0.606485 0.154314 0.837537
0.694759 0.154314 0.837537
0.771862 0.154314 0.837537
0.837537 0.154314 0.837537
0.0478828 0.261509 0.837537
0.154314 0.261509 0.837537
0.261509 0.261509 0.837537
0.380621 0.261509 0.837537
0.505135 0.261509 0.837537
0.606485 0.261509 0.837537
0.694759 0.261509 0.837537
0.771862 0.261509 0.837537
0.837537 0.261509 0.837537
0.0478828 0.380621 0.837537
0.154314 0.380621 0.837537
0.261509 0.380621 0.837537
0.380621 0.380621 0.837537
0.505135 0.380621 0.837537
0.606485 0.380621 0.837537
0.694759 0.380621 0.837537
0.771862 0.380621 0.837537
0.837537 0.380621 0.837537
0.0478828 0.505135 0.837537
0.154314 0.505135 0.837537
0.261509 0.505135 0.837537
0.380621 0.505135 0.837537
0.505135 0.505135 0.837537
0.606485 0.505135 0.837537
0.694759 0.505135 0.837537
0.771862 0.505135 0.837537
0.837537 0.505135 0.837537
0.0478828 0.606485 0.837537
0.154314 0.606485 0.837537
0.261509 0.606485 0.837537
0.380621 0.606485 0.837537
0.505135 0.606485 0.837537
0.606485 0.606485 0.837537
0.694759 0.606485 0.837537
0.771862 0.606485 0.837537
0.837537 0.606485 0.837537
0.0478828 0.694759 0.837537
0.154314 0.694759 0.837537
0.261509 0.694759 0.837537
0.380621 0.694759 0.837537
0.505135 0.694759 0.837537
0.606485 0.694759 0.837537
0.694759 0.694759 0.837537
0.771862 0.694759 0.837537
0.837537 0.694759 0.837537
0.0478828 0.771862 0.837537
0.154314 0.771862 0.837537
0.261509 0.771862 0.837537
0.380621 0.771862 0.837537
0.505135 0.771862 0.837537
0.606485 0.771862 0.837537
0.694759 0.771862 0.837537
0.771862 0.771862 0.837537
0.837537 0.771862 0.837537
0.0478828 0.837537 0.837537
0.154314 0.837537 0.837537
0.261509 0.837537 0.837537
0.380621 0.837537 0.837537
0.505135 0.837537 0.837537
0.606485 0.837537 0.837537
0.694759 0.837537 0.837537
0.771862 0.837537 0.837537
0.837537 0.837537 0.837537
