public/LUTS/Balanced/Balanced_04.cube
TITLE "Generated by Resolve"
LUT_3D_SIZE 5
0.0339666 0.0339666 0.0339666
0.258381 0.0339666 0.0339666
0.500328 0.0339666 0.0339666
0.729809 0.0339666 0.0339666
0.954101 0.0339666 0.0339666
0.0339666 0.258381 0.0339666
0.258381 0.258381 0.0339666
0.500328 0.258381 0.0339666
0.729809 0.258381 0.0339666
0.954101 0.258381 0.0339666
0.0339666 0.500328 0.0339666
0.258381 0.500328 0.0339666
0.500328 0.500328 0.0339666
0.729809 0.500328 0.0339666
0.954101 0.500328 0.0339666
0.0339666 0.729809 0.0339666
0.258381 0.729809 0.0339666
0.500328 0.729809 0.0339666
0.729809 0.729809 0.0339666
0.954101 0.729809 0.0339666
0.0339666 0.954101 0.0339666
0.258381 0.954101 0.0339666
0.500328 0.954101 0.0339666
0.729809 0.954101 0.0339666
0.954101 0.954101 0.0339666
0.0339666 0.0339666 0.258381
0.258381 0.0339666 0.258381
0.500328 0.0339666 0.258381
0.729809 0.0339666 0.258381
0.954101 0.0339666 0.258381
0.0339666 0.258381 0.258381
0.258381 0.258381 0.258381
0.500328 0.258381 0.258381
0.729809 0.258381 0.258381
0.954101 0.258381 0.258381
0.0339666 0.500328 0.258381
0.258381 0.500328 0.258381
0.500328 0.500328 0.258381
0.729809 0.500328 0.258381
0.954101 0.500328 0.258381
0.0339666 0.729809 0.258381
0.258381 0.729809 0.258381
0.500328 0.729809 0.258381
0.729809 0.729809 0.258381
0.954101 0.729809 0.258381
0.0339666 0.954101 0.258381
0.258381 0.954101 0.258381
0.500328 0.954101 0.258381
0.729809 0.954101 0.258381
0.954101 0.954101 0.258381
0.0339666 0.0339666 0.500328
0.258381 0.0339666 0.500328
0.500328 0.0339666 0.500328
0.729809 0.0339666 0.500328
0.954101 0.0339666 0.500328
0.0339666 0.258381 0.500328
0.258381 0.258381 0.500328
0.500328 0.258381 0.500328
0.729809 0.258381 0.500328
0.954101 0.258381 0.500328
0.0339666 0.500328 0.500328
0.258381 0.500328 0.500328
0.500328 0.500328 0.500328
0.729809 0.500328 0.500328
0.954101 0.500328 0.500328
0.0339666 0.729809 0.500328
0.258381 0.729809 0.500328
0.500328 0.729809 0.500328
0.729809 0.729809 0.500328
0.954101 0.729809 0.500328
0.0339666 0.954101 0.500328
0.258381 0.954101 0.500328
0.500328 0.954101 0.500328
0.729809 0.954101 0.500328
0.954101 0.954101 0.500328
0.0339666 0.0339666 0.729809
0.258381 0.0339666 0.729809
0.500328 0.0339666 0.729809
0.729809 0.0339666 0.729809
0.954101 0.0339666 0.729809
0.0339666 0.258381 0.729809
0.258381 0.258381 0.729809
0.500328 0.258381 0.729809
0.729809 0.258381 0.729809
0.954101 0.258381 0.729809
0.0339666 0.500328 0.729809
0.258381 0.500328 0.729809
0.500328 0.500328 0.729809
0.729809 0.500328 0.729809
0.954101 0.500328 0.729809
0.0339666 0.729809 0.729809
0.258381 0.729809 0.729809
0.500328 0.729809 0.729809
0.729809 0.729809 0.729809
0.954101 0.729809 0.729809
0.0339666 0.954101 0.729809
0.258381 0.954101 0.729809
0.500328 0.954101 0.729809
0.729809 0.954101 0.729809
0.954101 0.954101 0.729809
0.0339666 0.0339666 0.954101
0.258381 0.0339666 0.954101
0.500328 0.0339666 0.954101
0.729809 0.0339666 0.954101
0.954101 0.0339666 0.954101
0.0339666 0.258381 0.954101
0.258381 0.258381 0.954101
0.500328 0.258381 0.954101
0.729809 0.258381 0.954101
0.954101 0.258381 0.954101
0.0339666 0.500328 0.954101
0.258381 0.500328 0.954101
0.500328 0.500328 0.954101
0.729809 0.500328 0.954101
0.954101 0.500328 0.954101
0.0339666 0.729809 0.954101
0.258381 0.729809 0.954101
0.500328 0.729809 0.954101
0.729809 0.729809 0.954101
0.954101 0.729809 0.954101
0.0339666 0.954101 0.954101
0.258381 0.954101 0.954101
0.500328 0.954101 0.954101
0.729809 0.954101 0.954101
0.954101 0.954101 0.954101
