public/LUTS/Balanced/Balanced_05.cube
TITLE "Generated by Resolve"
LUT_3D_SIZE 9
0.0486152 0.0486152 0.0486152
0.155047 0.0486152 0.0486152
0.262089 0.0486152 0.0486152
0.375708 0.0486152 0.0486152
0.500206 0.0486152 0.0486152
0.613657 0.0486152 0.0486152
0.719402 0.0486152 0.0486152
0.825254 0.0486152 0.0486152
0.930694 0.0486152 0.0486152
0.0486152 0.155047 0.0486152
0.155047 0.155047 0.0486152
0.262089 0.155047 0.0486152
0.375708 0.155047 0.0486152
0.500206 0.155047 0.0486152
0.613657 0.155047 0.0486152
0.719402 0.155047 0.0486152
0.825254 0.155047 0.0486152
0.930694 0.155047 0.0486152
0.0486152 0.262089 0.0486152
0.155047 0.262089 0.0486152
0.262089 0.262089 0.0486152
0.375708 0.262089 0.0486152
0.500206 0.262089 0.0486152
0.613657 0.262089 0.0486152
0.719402 0.262089 0.0486152
0.825254 0.262089 0.0486152
0.930694 0.262089 0.0486152
0.0486152 0.375708 0.0486152
0.155047 0.375708 0.0486152
0.262089 0.375708 0.0486152
0.375708 0.375708 0.0486152
0.500206 0.375708 0.0486152
0.613657 0.375708 0.0486152
0.719402 0.375708 0.0486152
0.825254 0.375708 0.0486152
0.930694 0.375708 0.0486152
0.0486152 0.500206 0.0486152
0.155047 0.500206 0.0486152
0.262089 0.500206 0.0486152
0.375708 0.500206 0.0486152
0.500206 0.500206 0.0486152
0.613657 0.500206 0.0486152
0.719402 0.500206 0.0486152
0.825254 0.500206 0.0486152
0.930694 0.500206 0.0486152
0.0486152 0.613657 0.0486152
0.155047 0.613657 0.0486152
0.262089 0.613657 0.0486152
0.375708 0.613657 0.0486152
0.500206 0.613657 0.0486152
0.613657 0.613657 0.0486152
0.719402 0.613657 0.0486152
0.825254 0.613657 0.0486152
0.930694 0.613657 0.0486152
0.0486152 0.719402 0.0486152
0.155047 0.719402 0.0486152
0.262089 0.719402 0.0486152
0.375708 0.719402 0.0486152
0.500206 0.719402 0.0486152
0.613657 0.719402 0.0486152
0.719402 0.719402 0.0486152
0.825254 0.719402 0.0486152
0.930694 0.719402 0.0486152
0.0486152 0.825254 0.0486152
0.155047 0.825254 0.0486152
0.262089 0.825254 0.0486152
0.375708 0.825254 0.0486152
0.500206 0.825254 0.0486152
0.613657 0.825254 0.0486152
0.719402 0.825254 0.0486152
0.825254 0.825254 0.0486152
0.930694 0.825254 0.0486152
0.0486152 0.930694 0.0486152
0.155047 0.930694 0.0486152
0.262089 0.930694 0.0486152
0.375708 0.930694 0.0486152
0.500206 0.930694 0.0486152
0.613657 0.930694 0.0486152
0.719402 0.930694 0.0486152
0.825254 0.930694 0.0486152
0.930694 0.930694 0.0486152
0.0486152 0.0486152 0.155047
0.155047 0.0486152 0.155047
0.262089 0.0486152 0.155047
0.375708 0.0486152 0.155047
0.500206 0.0486152 0.155047
0.613657 0.0486152 0.155047
0.719402 0.0486152 0.155047
0.825254 0.0486152 0.155047
0.930694 0.0486152 0.155047
0.0486152 0.155047 0.155047
0.155047 0.155047 0.155047
0.262089 0.155047 0.155047
0.375708 0.155047 0.155047
0.500206 0.155047 0.155047
0.613657 0.155047 0.155047
0.719402 0.155047 0.155047
0.825254 0.155047 0.155047
0.930694 0.155047 0.155047
0.0486152 0.262089 0.155047
0.155047 0.262089 0.155047
0.262089 0.262089 0.155047
0.375708 0.262089 0.155047
0.500206 0.262089 0.155047
0.613657 0.262089 0.155047
0.719402 0.262089 0.155047
0.825254 0.262089 0.155047
0.930694 0.262089 0.155047
0.0486152 0.375708 0.155047
0.155047 0.375708 0.155047
0.262089 0.375708 0.155047
0.375708 0.375708 0.155047
0.500206 0.375708 0.155047
0.613657 0.375708 0.155047
0.719402 0.375708 0.155047
0.825254 0.375708 0.155047
0.930694 0.375708 0.155047
0.0486152 0.500206 0.155047
0.155047 0.500206 0.155047
0.262089 0.500206 0.155047
0.375708 0.500206 0.155047
0.500206 0.500206 0.155047
0.613657 0.500206 0.155047
0.719402 0.500206 0.155047
0.825254 0.500206 0.155047
0.930694 0.500206 0.155047
0.0486152 0.613657 0.155047
0.155047 0.613657 0.155047
0.262089 0.613657 0.155047
0.375708 0.613657 0.155047
0.500206 0.613657 0.155047
0.613657 0.613657 0.155047
0.719402 0.613657 0.155047
0.825254 0.613657 0.155047
0.930694 0.613657 0.155047
0.0486152 0.719402 0.155047
0.155047 0.719402 0.155047
0.262089 0.719402 0.155047
0.375708 0.719402 0.155047
0.500206 0.719402 0.155047
0.613657 0.719402 0.155047
0.719402 0.719402 0.155047
0.825254 0.719402 0.155047
0.930694 0.719402 0.155047
0.0486152 0.825254 0.155047
0.155047 0.825254 0.155047
0.262089 0.825254 0.155047
0.375708 0.825254 0.155047
0.500206 0.825254 0.155047
0.613657 0.825254 0.155047
0.719402 0.825254 0.155047
0.825254 0.825254 0.155047
0.930694 0.825254 0.155047
0.0486152 0.930694 0.155047
0.155047 0.930694 0.155047
0.262089 0.930694 0.155047
0.375708 0.930694 0.155047
0.500206 0.930694 0.155047
0.613657 0.930694 0.155047
0.719402 0.930694 0.155047
0.825254 0.930694 0.155047
0.930694 0.930694 0.155047
0.0486152 0.0486152 0.262089
0.155047 0.0486152 0.262089
0.262089 0.0486152 0.262089
0.375708 0.0486152 0.262089
0.500206 0.0486152 0.262089
0.613657 0.0486152 0.262089
0.719402 0.0486152 0.262089
0.825254 0.0486152 0.262089
0.930694 0.0486152 0.262089
0.0486152 0.155047 0.262089
0.155047 0.155047 0.262089
0.262089 0.155047 0.262089
0.375708 0.155047 0.262089
0.500206 0.155047 0.262089
0.613657 0.155047 0.262089
0.719402 0.155047 0.262089
0.825254 0.155047 0.262089
0.930694 0.155047 0.262089
0.0486152 0.262089 0.262089
0.155047 0.262089 0.262089
0.262089 0.262089 0.262089
0.375708 0.262089 0.262089
0.500206 0.262089 0.262089
0.613657 0.262089 0.262089
0.719402 0.262089 0.262089
0.825254 0.262089 0.262089
0.930694 0.262089 0.262089
0.0486152 0.375708 0.262089
0.155047 0.375708 0.262089
0.262089 0.375708 0.262089
0.375708 0.375708 0.262089
0.500206 0.375708 0.262089
0.613657 0.375708 0.262089
0.719402 0.375708 0.262089
0.825254 0.375708 0.262089
0.930694 0.375708 0.262089
0.0486152 0.500206 0.262089
0.155047 0.500206 0.262089
0.262089 0.500206 0.262089
0.375708 0.500206 0.262089
0.500206 0.500206 0.262089
0.613657 0.500206 0.262089
0.719402 0.500206 0.262089
0.825254 0.500206 0.262089
0.930694 0.500206 0.262089
0.0486152 0.613657 0.262089
0.155047 0.613657 0.262089
0.262089 0.613657 0.262089
0.375708 0.613657 0.262089
0.500206 0.613657 0.262089
0.613657 0.613657 0.262089
0.719402 0.613657 0.262089
0.825254 0.613657 0.262089
0.930694 0.613657 0.262089
0.0486152 0.719402 0.262089
0.155047 0.719402 0.262089
0.262089 0.719402 0.262089
0.375708 0.719402 0.262089
0.500206 0.719402 0.262089
0.613657 0.719402 0.262089
0.719402 0.719402 0.262089
0.825254 0.719402 0.262089
0.930694 0.719402 0.262089
0.0486152 0.825254 0.262089
0.155047 0.825254 0.262089
0.262089 0.825254 0.262089
0.375708 0.825254 0.262089
0.500206 0.825254 0.262089
0.613657 0.825254 0.262089
0.719402 0.825254 0.262089
0.825254 0.825254 0.262089
0.930694 0.825254 0.262089
0.0486152 0.930694 0.262089
0.155047 0.930694 0.262089
0.262089 0.930694 0.262089
0.375708 0.930694 0.262089
0.500206 0.930694 0.262089
0.613657 0.930694 0.262089
0.719402 0.930694 0.262089
0.825254 0.930694 0.262089
0.930694 0.930694 0.262089
0.0486152 0.0486152 0.375708
0.155047 0.0486152 0.375708
0.262089 0.0486152 0.375708
0.375708 0.0486152 0.375708
0.500206 0.0486152 0.375708
0.613657 0.0486152 0.375708
0.719402 0.0486152 0.375708
0.825254 0.0486152 0.375708
0.930694 0.0486152 0.375708
0.0486152 0.155047 0.375708
0.155047 0.155047 0.375708
0.262089 0.155047 0.375708
0.375708 0.155047 0.375708
0.500206 0.155047 0.375708
0.613657 0.155047 0.375708
0.719402 0.155047 0.375708
0.825254 0.155047 0.375708
0.930694 0.155047 0.375708
0.0486152 0.262089 0.375708
0.155047 0.262089 0.375708
0.262089 0.262089 0.375708
0.375708 0.262089 0.375708
0.500206 0.262089 0.375708
0.613657 0.262089 0.375708
0.719402 0.262089 0.375708
0.825254 0.262089 0.375708
0.930694 0.262089 0.375708
0.0486152 0.375708 0.375708
0.155047 0.375708 0.375708
0.262089 0.375708 0.375708
0.375708 0.375708 0.375708
0.500206 0.375708 0.375708
0.613657 0.375708 0.375708
0.719402 0.375708 0.375708
0.825254 0.375708 0.375708
0.930694 0.375708 0.375708
0.0486152 0.500206 0.375708
0.155047 0.500206 0.375708
0.262089 0.500206 0.375708
0.375708 0.500206 0.375708
0.500206 0.500206 0.375708
0.613657 0.500206 0.375708
0.719402 0.500206 0.375708
0.825254 0.500206 0.375708
0.930694 0.500206 0.375708
0.0486152 0.613657 0.375708
0.155047 0.613657 0.375708
0.262089 0.613657 0.375708
0.375708 0.613657 0.375708
0.500206 0.613657 0.375708
0.613657 0.613657 0.375708
0.719402 0.613657 0.375708
0.825254 0.613657 0.375708
0.930694 0.613657 0.375708
0.0486152 0.719402 0.375708
0.155047 0.719402 0.375708
0.262089 0.719402 0.375708
0.375708 0.719402 0.375708
0.500206 0.719402 0.375708
0.613657 0.719402 0.375708
0.719402 0.719402 0.375708
0.825254 0.719402 0.375708
0.930694 0.719402 0.375708
0.0486152 0.825254 0.375708
0.155047 0.825254 0.375708
0.262089 0.825254 0.375708
0.375708 0.825254 0.375708
0.500206 0.825254 0.375708
0.613657 0.825254 0.375708
0.719402 0.825254 0.375708
0.825254 0.825254 0.375708
0.930694 0.825254 0.375708
0.0486152 0.930694 0.375708
0.155047 0.930694 0.375708
0.262089 0.930694 0.375708
0.375708 0.930694 0.375708
0.500206 0.930694 0.375708
0.613657 0.930694 0.375708
0.719402 0.930694 0.375708
0.825254 0.930694 0.375708
0.930694 0.930694 0.375708
0.0486152 0.0486152 0.500206
0.155047 0.0486152 0.500206
0.262089 0.0486152 0.500206
0.375708 0.0486152 0.500206
0.500206 0.0486152 0.500206
0.613657 0.0486152 0.500206
0.719402 0.0486152 0.500206
0.825254 0.0486152 0.500206
0.930694 0.0486152 0.500206
0.0486152 0.155047 0.500206
0.155047 0.155047 0.500206
0.262089 0.155047 0.500206
0.375708 0.155047 0.500206
0.500206 0.155047 0.500206
0.613657 0.155047 0.500206
0.719402 0.155047 0.500206
0.825254 0.155047 0.500206
0.930694 0.155047 0.500206
0.0486152 0.262089 0.500206
0.155047 0.262089 0.500206
0.262089 0.262089 0.500206
0.375708 0.262089 0.500206
0.500206 0.262089 0.500206
0.613657 0.262089 0.500206
0.719402 0.262089 0.500206
0.825254 0.262089 0.500206
0.930694 0.262089 0.500206
0.0486152 0.375708 0.500206
0.155047 0.375708 0.500206
0.262089 0.375708 0.500206
0.375708 0.375708 0.500206
0.500206 0.375708 0.500206
0.613657 0.375708 0.500206
0.719402 0.375708 0.500206
0.825254 0.375708 0.500206
0.930694 0.375708 0.500206
0.0486152 0.500206 0.500206
0.155047 0.500206 0.500206
0.262089 0.500206 0.500206
0.375708 0.500206 0.500206
0.500206 0.500206 0.500206
0.613657 0.500206 0.500206
0.719402 0.500206 0.500206
0.825254 0.500206 0.500206
0.930694 0.500206 0.500206
0.0486152 0.613657 0.500206
0.155047 0.613657 0.500206
0.262089 0.613657 0.500206
0.375708 0.613657 0.500206
0.500206 0.613657 0.500206
0.613657 0.613657 0.500206
0.719402 0.613657 0.500206
0.825254 0.613657 0.500206
0.930694 0.613657 0.500206
0.0486152 0.719402 0.500206
0.155047 0.719402 0.500206
0.262089 0.719402 0.500206
0.375708 0.719402 0.500206
0.500206 0.719402 0.500206
0.613657 0.719402 0.500206
0.719402 0.719402 0.500206
0.825254 0.719402 0.500206
0.930694 0.719402 0.500206
0.0486152 0.825254 0.500206
0.155047 0.825254 0.500206
0.262089 0.825254 0.500206
0.375708 0.825254 0.500206
0.500206 0.825254 0.500206
0.613657 0.825254 0.500206
0.719402 0.825254 0.500206
0.825254 0.825254 0.500206
0.930694 0.825254 0.500206
0.0486152 0.930694 0.500206
0.155047 0.930694 0.500206
0.262089 0.930694 0.500206
0.375708 0.930694 0.500206
0.500206 0.930694 0.500206
0.613657 0.930694 0.500206
0.719402 0.930694 0.500206
0.825254 0.930694 0.500206
0.930694 0.930694 0.500206
0.0486152 0.0486152 0.613657
0.155047 0.0486152 0.613657
0.262089 0.0486152 0.613657
0.375708 0.0486152 0.613657
0.500206 0.0486152 0.613657
0.613657 0.0486152 0.613657
0.719402 0.0486152 0.613657
0.825254 0.0486152 0.613657
0.930694 0.0486152 0.613657
0.0486152 0.155047 0.613657
0.155047 0.155047 0.613657
0.262089 0.155047 0.613657
0.375708 0.155047 0.613657
0.500206 0.155047 0.613657
0.613657 0.155047 0.613657
0.719402 0.155047 0.613657
0.825254 0.155047 0.613657
0.930694 0.155047 0.613657
0.0486152 0.262089 0.613657
0.155047 0.262089 0.613657
0.262089 0.262089 0.613657
0.375708 0.262089 0.613657
0.500206 0.262089 0.613657
0.613657 0.262089 0.613657
0.719402 0.262089 0.613657
0.825254 0.262089 0.613657
0.930694 0.262089 0.613657
0.0486152 0.375708 0.613657
0.155047 0.375708 0.613657
0.262089 0.375708 0.613657
0.375708 0.375708 0.613657
0.500206 0.375708 0.613657
0.613657 0.375708 0.613657
0.719402 0.375708 0.613657
0.825254 0.375708 0.613657
0.930694 0.375708 0.613657
0.0486152 0.500206 0.613657
0.155047 0.500206 0.613657
0.262089 0.500206 0.613657
0.375708 0.500206 0.613657
0.500206 0.500206 0.613657
0.613657 0.500206 0.613657
0.719402 0.500206 0.613657
0.825254 0.500206 0.613657
0.930694 0.500206 0.613657
0.0486152 0.613657 0.613657
0.155047 0.613657 0.613657
0.262089 0.613657 0.613657
0.375708 0.613657 0.613657
0.500206 0.613657 0.613657
0.613657 0.613657 0.613657
0.719402 0.613657 0.613657
0.825254 0.613657 0.613657
0.930694 0.613657 0.613657
0.0486152 0.719402 0.613657
0.155047 0.719402 0.613657
0.262089 0.719402 0.613657
0.375708 0.719402 0.613657
0.500206 0.719402 0.613657
0.613657 0.719402 0.613657
0.719402 0.719402 0.613657
0.825254 0.719402 0.613657
0.930694 0.719402 0.613657
0.0486152 0.825254 0.613657
0.155047 0.825254 0.613657
0.262089 0.825254 0.613657
0.375708 0.825254 0.613657
0.500206 0.825254 0.613657
0.613657 0.825254 0.613657
0.719402 0.825254 0.613657
0.825254 0.825254 0.613657
0.930694 0.825254 0.613657
0.0486152 0.930694 0.613657
0.155047 0.930694 0.613657
0.262089 0.930694 0.613657
0.375708 0.930694 0.613657
0.500206 0.930694 0.613657
0.613657 0.930694 0.613657
0.719402 0.930694 0.613657
0.825254 0.930694 0.613657
0.930694 0.930694 0.613657
0.0486152 0.0486152 0.719402
0.155047 0.0486152 0.719402
0.262089 0.0486152 0.719402
0.375708 0.0486152 0.719402
0.500206 0.0486152 0.719402
0.613657 0.0486152 0.719402
0.719402 0.0486152 0.719402
0.825254 0.0486152 0.719402
0.930694 0.0486152 0.719402
0.0486152 0.155047 0.719402
0.155047 0.155047 0.719402
0.262089 0.155047 0.719402
0.375708 0.155047 0.719402
0.500206 0.155047 0.719402
0.613657 0.155047 0.719402
0.719402 0.155047 0.719402
0.825254 0.155047 0.719402
0.930694 0.155047 0.719402
0.0486152 0.262089 0.719402
0.155047 0.262089 0.719402
0.262089 0.262089 0.719402
0.375708 0.262089 0.719402
0.500206 0.262089 0.719402
0.613657 0.262089 0.719402
0.719402 0.262089 0.719402
0.825254 0.262089 0.719402
0.930694 0.262089 0.719402
0.0486152 0.375708 0.719402
0.155047 0.375708 0.719402
0.262089 0.375708 0.719402
0.375708 0.375708 0.719402
0.500206 0.375708 0.719402
0.613657 0.375708 0.719402
0.719402 0.375708 0.719402
0.825254 0.375708 0.719402
0.930694 0.375708 0.719402
0.0486152 0.500206 0.719402
0.155047 0.500206 0.719402
0.262089 0.500206 0.719402
0.375708 0.500206 0.719402
0.500206 0.500206 0.719402
0.613657 0.500206 0.719402
0.719402 0.500206 0.719402
0.825254 0.500206 0.719402
0.930694 0.500206 0.719402
0.0486152 0.613657 0.719402
0.155047 0.613657 0.719402
0.262089 0.613657 0.719402
0.375708 0.613657 0.719402
0.500206 0.613657 0.719402
0.613657 0.613657 0.719402
0.719402 0.613657 0.719402
0.825254 0.613657 0.719402
0.930694 0.613657 0.719402
0.0486152 0.719402 0.719402
0.155047 0.719402 0.719402
0.262089 0.719402 0.719402
0.375708 0.719402 0.719402
0.500206 0.719402 0.719402
0.613657 0.719402 0.719402
0.719402 0.719402 0.719402
0.825254 0.719402 0.719402
0.930694 0.719402 0.719402
0.0486152 0.825254 0.719402
0.155047 0.825254 0.719402
0.262089 0.825254 0.719402
0.375708 0.825254 0.719402
0.500206 0.825254 0.719402
0.613657 0.825254 0.719402
0.719402 0.825254 0.719402
0.825254 0.825254 0.719402
0.930694 0.825254 0.719402
0.0486152 0.930694 0.719402
0.155047 0.930694 0.719402
0.262089 0.930694 0.719402
0.375708 0.930694 0.719402
0.500206 0.930694 0.719402
0.613657 0.930694 0.719402
0.719402 0.930694 0.719402
0.825254 0.930694 0.719402
0.930694 0.930694 0.719402
0.0486152 0.0486152 0.825254
0.155047 0.0486152 0.825254
0.262089 0.0486152 0.825254
0.375708 0.0486152 0.825254
0.500206 0.0486152 0.825254
0.613657 0.0486152 0.825254
0.719402 0.0486152 0.825254
0.825254 0.0486152 0.825254
0.930694 0.0486152 0.825254
0.0486152 0.155047 0.825254
0.155047 0.155047 0.825254
0.262089 0.155047 0.825254
0.375708 0.155047 0.825254
0.500206 0.155047 0.825254
0.613657 0.155047 0.825254
0.719402 0.155047 0.825254
0.825254 0.155047 0.825254
0.930694 0.155047 0.825254
0.0486152 0.262089 0.825254
0.155047 0.262089 0.825254
0.262089 0.262089 0.825254
0.375708 0.262089 0.825254
0.500206 0.262089 0.825254
0.613657 0.262089 0.825254
0.719402 0.262089 0.825254
0.825254 0.262089 0.825254
0.930694 0.262089 0.825254
0.0486152 0.375708 0.825254
0.155047 0.375708 0.825254
0.262089 0.375708 0.825254
0.375708 0.375708 0.825254
0.500206 0.375708 0.825254
0.613657 0.375708 0.825254
0.719402 0.375708 0.825254
0.825254 0.375708 0.825254
0.930694 0.375708 0.825254
0.0486152 0.500206 0.825254
0.155047 0.500206 0.825254
0.262089 0.500206 0.825254
0.375708 0.500206 0.825254
0.500206 0.500206 0.825254
0.613657 0.500206 0.825254
0.719402 0.500206 0.825254
0.825254 0.500206 0.825254
0.930694 0.500206 0.825254
0.0486152 0.613657 0.825254
0.155047 0.613657 0.825254
0.262089 0.613657 0.825254
0.375708 0.613657 0.825254
0.500206 0.613657 0.825254
0.613657 0.613657 0.825254
0.719402 0.613657 0.825254
0.825254 0.613657 0.825254
0.930694 0.613657 0.825254
0.0486152 0.719402 0.825254
0.155047 0.719402 0.825254
0.262089 0.719402 0.825254
0.375708 0.719402 0.825254
0.500206 0.719402 0.825254
0.613657 0.719402 0.825254
0.719402 0.719402 0.825254
0.825254 0.719402 0.825254
0.930694 0.719402 0.825254
0.0486152 0.825254 0.825254
0.155047 0.825254 0.825254
0.262089 0.825254 0.825254
0.375708 0.825254 0.825254
0.500206 0.825254 0.825254
0.613657 0.825254 0.825254
0.719402 0.825254 0.825254
0.825254 0.825254 0.825254
0.930694 0.825254 0.825254
0.0486152 0.930694 0.825254
0.155047 0.930694 0.825254
0.262089 0.930694 0.825254
0.375708 0.930694 0.825254
0.500206 0.930694 0.825254
0.613657 0.930694 0.825254
0.719402 0.930694 0.825254
0.825254 0.930694 0.825254
0.930694 0.930694 0.825254
0.0486152 0.0486152 0.930694
0.155047 0.0486152 0.930694
0.262089 0.0486152 0.930694
0.375708 0.0486152 0.930694
0.500206 0.0486152 0.930694
0.613657 0.0486152 0.930694
0.719402 0.0486152 0.930694
0.825254 0.0486152 0.930694
0.930694 0.0486152 0.930694
0.0486152 0.155047 0.930694
0.155047 0.155047 0.930694
0.262089 0.155047 0.930694
0.375708 0.155047 0.930694
0.500206 0.155047 0.930694
0.613657 0.155047 0.930694
0.719402 0.155047 0.930694
0.825254 0.155047 0.930694
0.930694 0.155047 0.930694
0.0486152 0.262089 0.930694
0.155047 0.262089 0.930694
0.262089 0.262089 0.930694
0.375708 0.262089 0.930694
0.500206 0.262089 0.930694
0.613657 0.262089 0.930694
0.719402 0.262089 0.930694
0.825254 0.262089 0.930694
0.930694 0.262089 0.930694
0.0486152 0.375708 0.930694
0.155047 0.375708 0.930694
0.262089 0.375708 0.930694
0.375708 0.375708 0.930694
0.500206 0.375708 0.930694
0.613657 0.375708 0.930694
0.719402 0.375708 0.930694
0.825254 0.375708 0.930694
0.930694 0.375708 0.930694
0.0486152 0.500206 0.930694
0.155047 0.500206 0.930694
0.262089 0.500206 0.930694
0.375708 0.500206 0.930694
0.500206 0.500206 0.930694
0.613657 0.500206 0.930694
0.719402 0.500206 0.930694
0.825254 0.500206 0.930694
0.930694 0.500206 0.930694
0.0486152 0.613657 0.930694
0.155047 0.613657 0.930694
0.262089 0.613657 0.930694
0.375708 0.613657 0.930694
0.500206 0.613657 0.930694
0.613657 0.613657 0.930694
0.719402 0.613657 0.930694
0.825254 0.613657 0.930694
0.930694 0.613657 0.930694
0.0486152 0.719402 0.930694
0.155047 0.719402 0.930694
0.262089 0.719402 0.930694
0.375708 0.719402 0.930694
0.500206 0.719402 0.930694
0.613657 0.719402 0.930694
0.719402 0.719402 0.930694
0.825254 0.719402 0.930694
0.930694 0.719402 0.930694
0.0486152 0.825254 0.930694
0.155047 0.825254 0.930694
0.262089 0.825254 0.930694
0.375708 0.825254 0.930694
0.500206 0.825254 0.930694
0.613657 0.825254 0.930694
0.719402 0.825254 0.930694
0.825254 0.825254 0.930694
0.930694 0.825254 0.930694
0.0486152 0.930694 0.930694
0.155047 0.930694 0.930694
0.262089 0.930694 0.930694
0.375708 0.930694 0.930694
0.500206 0.930694 0.930694
0.613657 0.930694 0.930694
0.719402 0.930694 0.930694
0.825254 0.930694 0.930694
0.930694 0.930694 0.930694
