public/LUTS/Balanced/Balanced_01.cube
TITLE "Generated by Resolve"
LUT_3D_SIZE 33
0.0179751 0.0179751 0.0179751
0.0470893 0.0179751 0.0179751
0.0766918 0.0179751 0.0179751
0.106279 0.0179751 0.0179751
0.135882 0.0179751 0.0179751
0.165469 0.0179751 0.0179751
0.195056 0.0179751 0.0179751
0.224582 0.0179751 0.0179751
0.254307 0.0179751 0.0179751
0.28426 0.0179751 0.0179751
0.31426 0.0179751 0.0179751
0.344457 0.0179751 0.0179751
0.375006 0.0179751 0.0179751
0.406149 0.0179751 0.0179751
0.43743 0.0179751 0.0179751
0.468711 0.0179751 0.0179751
0.499992 0.0179751 0.0179751
0.531273 0.0179751 0.0179751
0.562554 0.0179751 0.0179751
0.593835 0.0179751 0.0179751
0.625116 0.0179751 0.0179751
0.656397 0.0179751 0.0179751
0.687678 0.0179751 0.0179751
0.718959 0.0179751 0.0179751
0.75024 0.0179751 0.0179751
0.781521 0.0179751 0.0179751
0.812802 0.0179751 0.0179751
0.844083 0.0179751 0.0179751
0.875364 0.0179751 0.0179751
0.906645 0.0179751 0.0179751
0.937926 0.0179751 0.0179751
0.969207 0.0179751 0.0179751
1 0.0179751 0.0179751
0.0179751 0.0470893 0.0179751
0.0470893 0.0470893 0.0179751
0.0766918 0.0470893 0.0179751
0.106279 0.0470893 0.0179751
0.135882 0.0470893 0.0179751
0.165469 0.0470893 0.0179751
0.195056 0.0470893 0.0179751
0.224582 0.0470893 0.0179751
0.254307 0.0470893 0.0179751
0.28426 0.0470893 0.0179751
0.31426 0.0470893 0.0179751
0.344457 0.0470893 0.0179751
0.375006 0.0470893 0.0179751
0.406149 0.0470893 0.0179751
0.43743 0.0470893 0.0179751
0.468711 0.0470893 0.0179751
0.499992 0.0470893 0.0179751
0.531273 0.0470893 0.0179751
0.562554 0.0470893 0.0179751
0.593835 0.0470893 0.0179751
0.625116 0.0470893 0.0179751
0.656397 0.0470893 0.0179751
0.687678 0.0470893 0.0179751
0.718959 0.0470893 0.0179751
0.75024 0.0470893 0.0179751
0.781521 0.0470893 0.0179751
0.812802 0.0470893 0.0179751
0.844083 0.0470893 0.0179751
0.875364 0.0470893 0.0179751
0.906645 0.0470893 0.0179751
0.937926 0.0470893 0.0179751
0.969207 0.0470893 0.0179751
1 0.0470893 0.0179751
0.0179751 0.0766918 0.0179751
0.0470893 0.0766918 0.0179751
0.0766918 0.0766918 0.0179751
0.106279 0.0766918 0.0179751
0.135882 0.0766918 0.0179751
0.165469 0.0766918 0.0179751
0.195056 0.0766918 0.0179751
0.224582 0.0766918 0.0179751
0.254307 0.0766918 0.0179751
0.28426 0.0766918 0.0179751
0.31426 0.0766918 0.0179751
0.344457 0.0766918 0.0179751
0.375006 0.0766918 0.0179751
0.406149 0.0766918 0.0179751
0.43743 0.0766918 0.0179751
0.468711 0.0766918 0.0179751
0.499992 0.0766918 0.0179751
0.531273 0.0766918 0.0179751
0.562554 0.0766918 0.0179751
0.593835 0.0766918 0.0179751
0.625116 0.0766918 0.0179751
0.656397 0.0766918 0.0179751
0.687678 0.0766918 0.0179751
0.718959 0.0766918 0.0179751
0.75024 0.0766918 0.0179751
0.781521 0.0766918 0.0179751
0.812802 0.0766918 0.0179751
0.844083 0.0766918 0.0179751
0.875364 0.0766918 0.0179751
0.906645 0.0766918 0.0179751
0.937926 0.0766918 0.0179751
0.969207 0.0766918 0.0179751
1 0.0766918 0.0179751
0.0179751 0.106279 0.0179751
0.0470893 0.106279 0.0179751
0.0766918 0.106279 0.0179751
0.106279 0.106279 0.0179751
0.135882 0.106279 0.0179751
0.165469 0.106279 0.0179751
0.195056 0.106279 0.0179751
0.224582 0.106279 0.0179751
0.254307 0.106279 0.0179751
0.28426 0.106279 0.0179751
0.31426 0.106279 0.0179751
0.344457 0.106279 0.0179751
0.375006 0.106279 0.0179751
0.406149 0.106279 0.0179751
0.43743 0.106279 0.0179751
0.468711 0.106279 0.0179751
0.499992 0.106279 0.0179751
0.531273 0.106279 0.0179751
0.562554 0.106279 0.0179751
0.593835 0.106279 0.0179751
0.625116 0.106279 0.0179751
0.656397 0.106279 0.0179751
0.687678 0.106279 0.0179751
0.718959 0.106279 0.0179751
0.75024 0.106279 0.0179751
0.781521 0.106279 0.0179751
0.812802 0.106279 0.0179751
0.844083 0.106279 0.0179751
0.875364 0.106279 0.0179751
0.906645 0.106279 0.0179751
0.937926 0.106279 0.0179751
0.969207 0.106279 0.0179751
1 0.106279 0.0179751
0.0179751 0.135882 0.0179751
0.0470893 0.135882 0.0179751
0.0766918 0.135882 0.0179751
0.106279 0.135882 0.0179751
0.135882 0.135882 0.0179751
0.165469 0.135882 0.0179751
0.195056 0.135882 0.0179751
0.224582 0.135882 0.0179751
0.254307 0.135882 0.0179751
0.28426 0.135882 0.0179751
0.31426 0.135882 0.0179751
0.344457 0.135882 0.0179751
0.375006 0.135882 0.0179751
0.406149 0.135882 0.0179751
0.43743 0.135882 0.0179751
0.468711 0.135882 0.0179751
0.499992 0.135882 0.0179751
0.531273 0.135882 0.0179751
0.562554 0.135882 0.0179751
0.593835 0.135882 0.0179751
0.625116 0.135882 0.0179751
0.656397 0.135882 0.0179751
0.687678 0.135882 0.0179751
0.718959 0.135882 0.0179751
0.75024 0.135866 0.0179751
0.781521 0.135882 0.0179751
0.812802 0.135882 0.0179751
0.844083 0.135882 0.0179751
0.875364 0.135882 0.0179751
0.906645 0.135882 0.0179751
0.937926 0.135882 0.0179751
0.969207 0.135882 0.0179751
1 0.135882 0.0179751
0.0179751 0.165469 0.0179751
0.0470893 0.165469 0.0179751
0.0766918 0.165469 0.0179751
0.106279 0.165469 0.0179751
0.135882 0.165469 0.0179751
0.165469 0.165469 0.0179751
0.195056 0.165469 0.0179751
0.224582 0.165469 0.0179751
0.254307 0.165469 0.0179751
0.28426 0.165469 0.0179751
0.31426 0.165469 0.0179751
0.344457 0.165469 0.0179751
0.375006 0.165469 0.0179751
0.406149 0.165469 0.0179751
0.43743 0.165469 0.0179751
0.468711 0.165469 0.0179751
0.499992 0.165469 0.0179751
0.531273 0.165469 0.0179751
0.562554 0.165469 0.0179751
0.593835 0.165469 0.0179751
0.625116 0.165469 0.0179751
0.656397 0.165469 0.0179751
0.687678 0.165469 0.0179751
0.718959 0.165469 0.0179751
0.75024 0.165469 0.0179751
0.781521 0.165469 0.0179751
0.812802 0.165469 0.0179751
0.844083 0.165469 0.0179751
0.875364 0.165469 0.0179751
0.906645 0.165469 0.0179751
0.937926 0.165469 0.0179751
0.969207 0.165469 0.0179751
1 0.165469 0.0179751
0.0179751 0.195056 0.0179751
0.0470893 0.195056 0.0179751
0.0766918 0.195056 0.0179751
0.106279 0.195056 0.0179751
0.135882 0.195056 0.0179751
0.165469 0.195056 0.0179751
0.195056 0.195056 0.0179751
0.224582 0.195056 0.0179751
0.254307 0.195056 0.0179751
0.28426 0.195056 0.0179751
0.31426 0.195056 0.0179751
0.344457 0.195056 0.0179751
0.375006 0.195056 0.0179751
0.406149 0.195056 0.0179751
0.43743 0.195056 0.0179751
0.468711 0.195056 0.0179751
0.499992 0.195056 0.0179751
0.531273 0.195056 0.0179751
0.562554 0.195056 0.0179751
0.593835 0.195056 0.0179751
0.625116 0.195056 0.0179751
0.656397 0.195056 0.0179751
0.687678 0.195056 0.0179751
0.718959 0.195056 0.0179751
0.75024 0.195056 0.0179751
0.781521 0.195056 0.0179751
0.812802 0.195056 0.0179751
0.844083 0.195056 0.0179751
0.875364 0.195056 0.0179751
0.906645 0.195056 0.0179751
0.937926 0.195056 0.0179751
0.969207 0.195056 0.0179751
1 0.195056 0.0179751
0.0179751 0.224582 0.0179751
0.0470893 0.224582 0.0179751
0.0766918 0.224582 0.0179751
0.106279 0.224582 0.0179751
0.135882 0.224582 0.0179751
0.165469 0.224582 0.0179751
0.195056 0.224582 0.0179751
0.224582 0.224582 0.0179751
0.254307 0.224582 0.0179751
0.28426 0.224582 0.0179751
0.31426 0.224582 0.0179751
0.344457 0.224582 0.0179751
0.375006 0.224582 0.0179751
0.406149 0.224582 0.0179751
0.43743 0.224582 0.0179751
0.468711 0.224582 0.0179751
0.499992 0.224582 0.0179751
0.531273 0.224582 0.0179751
0.562554 0.224582 0.0179751
0.593835 0.224582 0.0179751
0.625116 0.224582 0.0179751
0.656397 0.224582 0.0179751
0.687678 0.224582 0.0179751
0.718959 0.224582 0.0179751
0.75024 0.224582 0.0179751
0.781521 0.224582 0.0179751
0.812802 0.224582 0.0179751
0.844083 0.224582 0.0179751
0.875364 0.224582 0.0179751
0.906645 0.224582 0.0179751
0.937926 0.224582 0.0179751
0.969207 0.224582 0.0179751
1 0.224582 0.0179751
0.0179751 0.254307 0.0179751
0.0470893 0.254307 0.0179751
0.0766918 0.254307 0.0179751
0.106279 0.254307 0.0179751
0.135866 0.254307 0.0179751
0.165469 0.254307 0.0179751
0.195056 0.254307 0.0179751
0.224582 0.254307 0.0179751
0.254307 0.254307 0.0179751
0.28426 0.254307 0.0179751
0.31426 0.254307 0.0179751
0.344457 0.254307 0.0179751
0.375006 0.254307 0.0179751
0.406149 0.254307 0.0179751
0.43743 0.254307 0.0179751
0.468711 0.254307 0.0179751
0.499992 0.254307 0.0179751
0.531273 0.254307 0.0179751
0.562554 0.254307 0.0179751
0.593835 0.254307 0.0179751
0.625116 0.254307 0.0179751
0.656397 0.254307 0.0179751
0.687678 0.254307 0.0179751
0.718959 0.254307 0.0179751
0.75024 0.254307 0.0179751
0.781521 0.254307 0.0179751
0.812802 0.254307 0.0179751
0.844083 0.254307 0.0179751
0.875364 0.254307 0.0179751
0.906645 0.254307 0.0179751
0.937926 0.254307 0.0179751
0.969207 0.254307 0.0179751
1 0.254307 0.0179751
0.0179751 0.28426 0.0179751
0.0470893 0.28426 0.0179751
0.0766918 0.28426 0.0179751
0.106279 0.28426 0.0179751
0.135882 0.28426 0.0179751
0.165469 0.28426 0.0179751
0.195056 0.28426 0.0179751
0.224582 0.28426 0.0179751
0.254307 0.28426 0.0179751
0.28426 0.28426 0.0179751
0.31426 0.28426 0.0179751
0.344457 0.28426 0.0179751
0.375006 0.28426 0.0179751
0.406149 0.28426 0.0179751
0.43743 0.28426 0.0179751
0.468711 0.28426 0.0179751
0.499992 0.28426 0.0179751
0.531273 0.28426 0.0179751
0.562554 0.28426 0.0179751
0.593835 0.28426 0.0179751
0.625116 0.28426 0.0179751
0.656397 0.28426 0.0179751
0.687678 0.28426 0.0179751
0.718959 0.28426 0.0179751
0.75024 0.28426 0.0179751
0.781521 0.28426 0.0179751
0.812802 0.28426 0.0179751
0.844083 0.28426 0.0179751
0.875364 0.28426 0.0179751
0.906645 0.28426 0.0179751
0.937926 0.28426 0.0179751
0.969207 0.28426 0.0179751
1 0.28426 0.0179751
0.0179751 0.31426 0.0179751
0.0470893 0.31426 0.0179751
0.0766918 0.31426 0.0179751
0.106279 0.31426 0.0179751
0.135882 0.31426 0.0179751
0.165469 0.31426 0.0179751
0.195056 0.31426 0.0179751
0.224582 0.31426 0.0179751
0.254307 0.31426 0.0179751
0.28426 0.31426 0.0179751
0.31426 0.31426 0.0179751
0.344457 0.31426 0.0179751
0.375006 0.31426 0.0179751
0.406149 0.31426 0.0179751
0.43743 0.31426 0.0179751
0.468711 0.31426 0.0179751
0.499992 0.31426 0.0179751
0.531273 0.31426 0.0179751
0.562554 0.31426 0.0179751
0.593835 0.31426 0.0179751
0.625116 0.31426 0.0179751
0.656397 0.31426 0.0179751
0.687678 0.31426 0.0179751
0.718959 0.31426 0.0179751
0.75024 0.31426 0.0179751
0.781521 0.31426 0.0179751
0.812802 0.31426 0.0179751
0.844083 0.31426 0.0179751
0.875364 0.31426 0.0179751
0.906645 0.31426 0.0179751
0.937926 0.31426 0.0179751
0.969207 0.31426 0.0179751
1 0.31426 0.0179751
0.0179751 0.344457 0.0179751
0.0470893 0.344457 0.0179751
0.0766918 0.344457 0.0179751
0.106279 0.344457 0.0179751
0.135882 0.344457 0.0179751
0.165469 0.344457 0.0179751
0.195056 0.344457 0.0179751
0.224582 0.344457 0.0179751
0.254307 0.344457 0.0179751
0.28426 0.344457 0.0179751
0.31426 0.344457 0.0179751
0.344457 0.344457 0.0179751
0.375006 0.344457 0.0179751
0.406149 0.344457 0.0179751
0.43743 0.344457 0.0179751
0.468711 0.344457 0.0179751
0.499992 0.344457 0.0179751
0.531273 0.344457 0.0179751
0.562554 0.344457 0.0179751
0.593835 0.344457 0.0179751
0.625116 0.344457 0.0179751
0.656397 0.344457 0.0179751
0.687678 0.344457 0.0179751
0.718959 0.344457 0.0179751
0.75024 0.344457 0.0179751
0.781521 0.344457 0.0179751
0.812802 0.344457 0.0179751
0.844083 0.344457 0.0179751
0.875364 0.344457 0.0179751
0.906645 0.344457 0.0179751
0.937926 0.344457 0.0179751
0.969207 0.344457 0.0179751
1 0.344457 0.0179751
0.0179751 0.375006 0.0179751
0.0470893 0.375006 0.0179751
0.0766918 0.375006 0.0179751
0.106279 0.375006 0.0179751
0.135866 0.375006 0.0179751
0.165469 0.37499 0.0179751
0.195056 0.375006 0.0179751
0.224582 0.375006 0.0179751
0.254307 0.37499 0.0179751
0.28426 0.375006 0.0179751
0.31426 0.375006 0.0179751
0.344457 0.375006 0.0179751
0.375006 0.375006 0.0179751
0.406149 0.375006 0.0179751
0.43743 0.375006 0.0179751
0.468711 0.375006 0.0179751
0.499992 0.375006 0.0179751
0.531273 0.375006 0.0179751
0.562554 0.375006 0.0179751
0.593835 0.375006 0.0179751
0.625116 0.375006 0.0179751
0.656397 0.375006 0.0179751
0.687678 0.375006 0.0179751
0.718959 0.375006 0.0179751
0.75024 0.375006 0.0179751
0.781521 0.375006 0.0179751
0.812802 0.375006 0.0179751
0.844083 0.375006 0.0179751
0.875364 0.375006 0.0179751
0.906645 0.375006 0.0179751
0.937926 0.375006 0.0179751
0.969207 0.37499 0.0179751
1 0.375006 0.0179751
0.0179751 0.406149 0.0179751
0.0470893 0.406149 0.0179751
0.0766918 0.406149 0.0179751
0.106279 0.406149 0.0179751
0.135882 0.406149 0.0179751
0.165469 0.406149 0.0179751
0.195056 0.406149 0.0179751
0.224582 0.406149 0.0179751
0.254307 0.406149 0.0179751
0.28426 0.406149 0.0179751
0.31426 0.406149 0.0179751
0.344457 0.406149 0.0179751
0.375006 0.406149 0.0179751
0.406149 0.406149 0.0179751
0.43743 0.406149 0.0179751
0.468711 0.406149 0.0179751
0.499992 0.406149 0.0179751
0.531273 0.406149 0.0179751
0.562554 0.406149 0.0179751
0.593835 0.406149 0.0179751
0.625116 0.406149 0.0179751
0.656397 0.406149 0.0179751
0.687678 0.406149 0.0179751
0.718959 0.406149 0.0179751
0.75024 0.406149 0.0179751
0.781521 0.406149 0.0179751
0.812802 0.406149 0.0179751
0.844083 0.406149 0.0179751
0.875364 0.406149 0.0179751
0.906645 0.406149 0.0179751
0.937926 0.406149 0.0179751
0.969207 0.406149 0.0179751
1 0.406149 0.0179751
0.0179751 0.43743 0.0179751
0.0470893 0.43743 0.0179751
0.0766918 0.43743 0.0179751
0.106279 0.43743 0.0179751
0.135882 0.43743 0.0179751
0.165469 0.43743 0.0179751
0.195056 0.43743 0.0179751
0.224582 0.43743 0.0179751
0.254307 0.43743 0.0179751
0.28426 0.43743 0.0179751
0.31426 0.43743 0.0179751
0.344457 0.43743 0.0179751
0.375006 0.43743 0.0179751
0.406149 0.43743 0.0179751
0.43743 0.43743 0.0179751
0.468711 0.43743 0.0179751
0.499992 0.43743 0.0179751
0.531273 0.43743 0.0179751
0.562554 0.43743 0.0179751
0.593835 0.43743 0.0179751
0.625116 0.43743 0.0179751
0.656397 0.43743 0.0179751
0.687678 0.43743 0.0179751
0.718959 0.43743 0.0179751
0.75024 0.43743 0.0179751
0.781521 0.43743 0.0179751
0.812802 0.43743 0.0179751
0.844083 0.43743 0.0179751
0.875364 0.43743 0.0179751
0.906645 0.43743 0.0179751
0.937926 0.43743 0.0179751
0.969207 0.43743 0.0179751
1 0.43743 0.0179751
0.0179751 0.468711 0.0179751
0.0470893 0.468711 0.0179751
0.0766918 0.468711 0.0179751
0.106279 0.468711 0.0179751
0.135882 0.468711 0.0179751
0.165469 0.468711 0.0179751
0.195056 0.468711 0.0179751
0.224582 0.468711 0.0179751
0.254307 0.468711 0.0179751
0.28426 0.468711 0.0179751
0.31426 0.468711 0.0179751
0.344457 0.468711 0.0179751
0.375006 0.468711 0.0179751
0.406149 0.468711 0.0179751
0.43743 0.468711 0.0179751
0.468711 0.468711 0.0179751
0.499992 0.468711 0.0179751
0.531273 0.468711 0.0179751
0.562554 0.468711 0.0179751
0.593835 0.468711 0.0179751
0.625116 0.468711 0.0179751
0.656397 0.468711 0.0179751
0.687678 0.468711 0.0179751
0.718959 0.468711 0.0179751
0.75024 0.468711 0.0179751
0.781521 0.468711 0.0179751
0.812802 0.468711 0.0179751
0.844083 0.468711 0.0179751
0.875364 0.468711 0.0179751
0.906645 0.468711 0.0179751
0.937926 0.468711 0.0179751
0.969207 0.468711 0.0179751
1 0.468711 0.0179751
0.0179751 0.499992 0.0179751
0.0470893 0.499992 0.0179751
0.0766918 0.499992 0.0179751
0.106279 0.499992 0.0179751
0.135882 0.499992 0.0179751
0.165469 0.499992 0.0179751
0.195056 0.499992 0.0179751
0.224582 0.499992 0.0179751
0.254307 0.499992 0.0179751
0.28426 0.499992 0.0179751
0.31426 0.499992 0.0179751
0.344457 0.499992 0.0179751
0.375006 0.499992 0.0179751
0.406149 0.499992 0.0179751
0.43743 0.499992 0.0179751
0.468711 0.499992 0.0179751
0.499992 0.499992 0.0179751
0.531273 0.499992 0.0179751
0.562554 0.499992 0.0179751
0.593835 0.499992 0.0179751
0.625116 0.499992 0.0179751
0.656397 0.499992 0.0179751
0.687678 0.499992 0.0179751
0.718959 0.499992 0.0179751
0.75024 0.499992 0.0179751
0.781521 0.499992 0.0179751
0.812802 0.499992 0.0179751
0.844083 0.499992 0.0179751
0.875364 0.499992 0.0179751
0.906645 0.499992 0.0179751
0.937926 0.499992 0.0179751
0.969207 0.499992 0.0179751
1 0.499992 0.0179751
0.0179751 0.531273 0.0179751
0.0470893 0.531273 0.0179751
0.0766918 0.531273 0.0179751
0.106279 0.531273 0.0179751
0.135882 0.531273 0.0179751
0.165469 0.531273 0.0179751
0.195056 0.531273 0.0179751
0.224582 0.531273 0.0179751
0.254307 0.531273 0.0179751
0.28426 0.531273 0.0179751
0.31426 0.531273 0.0179751
0.344457 0.531273 0.0179751
0.375006 0.531273 0.0179751
0.406149 0.531273 0.0179751
0.43743 0.531273 0.0179751
0.468711 0.531273 0.0179751
0.499992 0.531273 0.0179751
0.531273 0.531273 0.0179751
0.562554 0.531273 0.0179751
0.593835 0.531273 0.0179751
0.625116 0.531273 0.0179751
0.656397 0.531273 0.0179751
0.687678 0.531273 0.0179751
0.718959 0.531273 0.0179751
0.75024 0.531273 0.0179751
0.781521 0.531273 0.0179751
0.812802 0.531273 0.0179751
0.844083 0.531273 0.0179751
0.875364 0.531273 0.0179751
0.906645 0.531273 0.0179751
0.937926 0.531273 0.0179751
0.969207 0.531273 0.0179751
1 0.531273 0.0179751
0.0179751 0.562554 0.0179751
0.0470893 0.562554 0.0179751
0.0766918 0.562554 0.0179751
0.106279 0.562554 0.0179751
0.135882 0.562554 0.0179751
0.165469 0.562554 0.0179751
0.195056 0.562554 0.0179751
0.224582 0.562554 0.0179751
0.254307 0.562554 0.0179751
0.28426 0.562554 0.0179751
0.31426 0.562554 0.0179751
0.344457 0.562554 0.0179751
0.375006 0.562554 0.0179751
0.406149 0.562554 0.0179751
0.43743 0.562554 0.0179751
0.468711 0.562554 0.0179751
0.499992 0.562554 0.0179751
0.531273 0.562554 0.0179751
0.562554 0.562554 0.0179751
0.593835 0.562554 0.0179751
0.625116 0.562554 0.0179751
0.656397 0.562554 0.0179751
0.687678 0.562554 0.0179751
0.718959 0.562554 0.0179751
0.75024 0.562554 0.0179751
0.781521 0.562554 0.0179751
0.812802 0.562554 0.0179751
0.844083 0.562554 0.0179751
0.875364 0.562554 0.0179751
0.906645 0.562554 0.0179751
0.937926 0.562554 0.0179751
0.969207 0.562554 0.0179751
1 0.562554 0.0179751
0.0179751 0.593835 0.0179751
0.0470893 0.593835 0.0179751
0.0766918 0.593835 0.0179751
0.106279 0.593835 0.0179751
0.135882 0.593835 0.0179751
0.165469 0.593835 0.0179751
0.195056 0.593835 0.0179751
0.224582 0.593835 0.0179751
0.254307 0.593835 0.0179751
0.28426 0.593835 0.0179751
0.31426 0.593835 0.0179751
0.344457 0.593835 0.0179751
0.375006 0.593835 0.0179751
0.406149 0.593835 0.0179751
0.43743 0.593835 0.0179751
0.468711 0.593835 0.0179751
0.499992 0.593835 0.0179751
0.531273 0.593835 0.0179751
0.562554 0.593835 0.0179751
0.593835 0.593835 0.0179751
0.625116 0.593835 0.0179751
0.656397 0.593835 0.0179751
0.687678 0.593835 0.0179751
0.718959 0.593835 0.0179751
0.75024 0.593835 0.0179751
0.781521 0.593835 0.0179751
0.812802 0.593835 0.0179751
0.844083 0.593835 0.0179751
0.875364 0.593835 0.0179751
0.906645 0.593835 0.0179751
0.937926 0.593835 0.0179751
0.969207 0.593835 0.0179751
1 0.593835 0.0179751
0.0179751 0.625116 0.0179751
0.0470893 0.625116 0.0179751
0.0766918 0.625116 0.0179751
0.106279 0.625116 0.0179751
0.135882 0.625116 0.0179751
0.165469 0.625116 0.0179751
0.195056 0.625116 0.0179751
0.224582 0.625116 0.0179751
0.254307 0.625116 0.0179751
0.28426 0.625116 0.0179751
0.31426 0.625116 0.0179751
0.344457 0.625116 0.0179751
0.375006 0.625116 0.0179751
0.406149 0.625116 0.0179751
0.43743 0.625116 0.0179751
0.468711 0.625116 0.0179751
0.499992 0.625116 0.0179751
0.531273 0.625116 0.0179751
0.562554 0.625116 0.0179751
0.593835 0.625116 0.0179751
0.625116 0.625116 0.0179751
0.656397 0.625116 0.0179751
0.687678 0.625116 0.0179751
0.718959 0.625116 0.0179751
0.75024 0.625116 0.0179751
0.781521 0.625116 0.0179751
0.812802 0.625116 0.0179751
0.844083 0.625116 0.0179751
0.875364 0.625116 0.0179751
0.906645 0.625116 0.0179751
0.937926 0.625116 0.0179751
0.969207 0.625116 0.0179751
1 0.625116 0.0179751
0.0179751 0.656397 0.0179751
0.0470893 0.656397 0.0179751
0.0766918 0.656397 0.0179751
0.106279 0.656397 0.0179751
0.135882 0.656397 0.0179751
0.165469 0.656397 0.0179751
0.195056 0.656397 0.0179751
0.224582 0.656397 0.0179751
0.254307 0.656397 0.0179751
0.28426 0.656397 0.0179751
0.31426 0.656397 0.0179751
0.344457 0.656397 0.0179751
0.375006 0.656397 0.0179751
0.406149 0.656397 0.0179751
0.43743 0.656397 0.0179751
0.468711 0.656397 0.0179751
0.499992 0.656397 0.0179751
0.531273 0.656397 0.0179751
0.562554 0.656397 0.0179751
0.593835 0.656397 0.0179751
0.625116 0.656397 0.0179751
0.656397 0.656397 0.0179751
0.687678 0.656397 0.0179751
0.718959 0.656397 0.0179751
0.75024 0.656397 0.0179751
0.781521 0.656397 0.0179751
0.812802 0.656397 0.0179751
0.844083 0.656397 0.0179751
0.875364 0.656397 0.0179751
0.906645 0.656397 0.0179751
0.937926 0.656397 0.0179751
0.969207 0.656397 0.0179751
1 0.656397 0.0179751
0.0179751 0.687678 0.0179751
0.0470893 0.687678 0.0179751
0.0766918 0.687678 0.0179751
0.106279 0.687678 0.0179751
0.135882 0.687678 0.0179751
0.165469 0.687678 0.0179751
0.195056 0.687678 0.0179751
0.224582 0.687678 0.0179751
0.254307 0.687678 0.0179751
0.28426 0.687678 0.0179751
0.31426 0.687678 0.0179751
0.344457 0.687678 0.0179751
0.375006 0.687678 0.0179751
0.406149 0.687678 0.0179751
0.43743 0.687678 0.0179751
0.468711 0.687678 0.0179751
0.499992 0.687678 0.0179751
0.531273 0.687678 0.0179751
0.562554 0.687678 0.0179751
0.593835 0.687678 0.0179751
0.625116 0.687678 0.0179751
0.656397 0.687678 0.0179751
0.687678 0.687678 0.0179751
0.718959 0.687678 0.0179751
0.75024 0.687678 0.0179751
0.781521 0.687678 0.0179751
0.812802 0.687678 0.0179751
0.844083 0.687678 0.0179751
0.875364 0.687678 0.0179751
0.906645 0.687678 0.0179751
0.937926 0.687678 0.0179751
0.969207 0.687678 0.0179751
1 0.687678 0.0179751
0.0179751 0.718959 0.0179751
0.0470893 0.718959 0.0179751
0.0766918 0.718959 0.0179751
0.106279 0.718959 0.0179751
0.135882 0.718959 0.0179751
0.165469 0.718959 0.0179751
0.195056 0.718959 0.0179751
0.224582 0.718959 0.0179751
0.254307 0.718959 0.0179751
0.28426 0.718959 0.0179751
0.31426 0.718959 0.0179751
0.344457 0.718959 0.0179751
0.37499 0.718959 0.0179751
0.406149 0.718959 0.0179751
0.43743 0.718959 0.0179751
0.468711 0.718959 0.0179751
0.499992 0.718959 0.0179751
0.531273 0.718959 0.0179751
0.562554 0.718959 0.0179751
0.593835 0.718959 0.0179751
0.625116 0.718959 0.0179751
0.656397 0.718959 0.0179751
0.687678 0.718959 0.0179751
0.718959 0.718959 0.0179751
0.75024 0.718959 0.0179751
0.781521 0.718959 0.0179751
0.812802 0.718959 0.0179751
0.844083 0.718959 0.0179751
0.875364 0.718959 0.0179751
0.906645 0.718959 0.0179751
0.937926 0.718959 0.0179751
0.969207 0.718959 0.0179751
1 0.718959 0.0179751
0.0179751 0.75024 0.0179751
0.0470893 0.75024 0.0179751
0.0766918 0.75024 0.0179751
0.106279 0.75024 0.0179751
0.135882 0.75024 0.0179751
0.165469 0.75024 0.0179751
0.195056 0.75024 0.0179751
0.224582 0.75024 0.0179751
0.254307 0.75024 0.0179751
0.28426 0.75024 0.0179751
0.31426 0.75024 0.0179751
0.344457 0.75024 0.0179751
0.37499 0.75024 0.0179751
0.406149 0.75024 0.0179751
0.43743 0.75024 0.0179751
0.468711 0.75024 0.0179751
0.499992 0.75024 0.0179751
0.531273 0.75024 0.0179751
0.562554 0.75024 0.0179751
0.593835 0.75024 0.0179751
0.625116 0.75024 0.0179751
0.656397 0.75024 0.0179751
0.687678 0.75024 0.0179751
0.718959 0.75024 0.0179751
0.75024 0.75024 0.0179751
0.781521 0.75024 0.0179751
0.812802 0.75024 0.0179751
0.844083 0.75024 0.0179751
0.875364 0.75024 0.0179751
0.906645 0.75024 0.0179751
0.937926 0.75024 0.0179751
0.969207 0.75024 0.0179751
1 0.75024 0.0179751
0.0179751 0.781521 0.0179751
0.0470893 0.781521 0.0179751
0.0766918 0.781521 0.0179751
0.106279 0.781521 0.0179751
0.135882 0.781521 0.0179751
0.165469 0.781521 0.0179751
0.195056 0.781521 0.0179751
0.224582 0.781521 0.0179751
0.254307 0.781521 0.0179751
0.28426 0.781521 0.0179751
0.31426 0.781521 0.0179751
0.344457 0.781521 0.0179751
0.37499 0.781521 0.0179751
0.406149 0.781521 0.0179751
0.43743 0.781521 0.0179751
0.468711 0.781521 0.0179751
0.499992 0.781521 0.0179751
0.531273 0.781521 0.0179751
0.562554 0.781521 0.0179751
0.593835 0.781521 0.0179751
0.625116 0.781521 0.0179751
0.656397 0.781521 0.0179751
0.687678 0.781521 0.0179751
0.718959 0.781521 0.0179751
0.75024 0.781521 0.0179751
0.781521 0.781521 0.0179751
0.812802 0.781521 0.0179751
0.844083 0.781521 0.0179751
0.875364 0.781521 0.0179751
0.906645 0.781521 0.0179751
0.937926 0.781521 0.0179751
0.969207 0.781521 0.0179751
1 0.781521 0.0179751
0.0179751 0.812802 0.0179751
0.0470893 0.812802 0.0179751
0.0766918 0.812802 0.0179751
0.106279 0.812802 0.0179751
0.135882 0.812802 0.0179751
0.165469 0.812802 0.0179751
