public/LUTS/Balanced/Balanced_01.cube
TITLE "Generated by Resolve"
LUT_3D_SIZE 5
0.0179751 0.0179751 0.0179751
0.254307 0.0179751 0.0179751
0.499992 0.0179751 0.0179751
0.75024 0.0179751 0.0179751
1 0.0179751 0.0179751
0.0179751 0.254307 0.0179751
0.254307 0.254307 0.0179751
0.499992 0.254307 0.0179751
0.75024 0.254307 0.0179751
1 0.254307 0.0179751
0.0179751 0.499992 0.0179751
0.254307 0.499992 0.0179751
0.499992 0.499992 0.0179751
0.75024 0.499992 0.0179751
1 0.499992 0.0179751
0.0179751 0.75024 0.0179751
0.254307 0.75024 0.0179751
0.499992 0.75024 0.0179751
0.75024 0.75024 0.0179751
1 0.75024 0.0179751
0.0179751 1 0.0179751
0.254307 1 0.0179751
0.499992 1 0.0179751
0.75024 1 0.0179751
1 1 0.0179751
0.0179751 0.0179751 0.254307
0.254307 0.0179751 0.254307
0.499992 0.0179751 0.254307
0.75024 0.0179751 0.254307
1 0.0179751 0.254307
0.0179751 0.254307 0.254307
0.254307 0.254307 0.254307
0.499992 0.254307 0.254307
0.75024 0.254307 0.254307
1 0.254307 0.254307
0.0179751 0.499992 0.254307
0.254307 0.499992 0.254307
0.499992 0.499992 0.254307
0.75024 0.499992 0.254307
1 0.499992 0.254307
0.0179751 0.75024 0.254307
0.254307 0.75024 0.254307
0.499992 0.75024 0.254307
0.75024 0.75024 0.254307
1 0.75024 0.254307
0.0179751 1 0.254307
0.254307 1 0.254307
0.499992 1 0.254307
0.75024 1 0.254307
1 1 0.254307
0.0179751 0.0179751 0.499992
0.254307 0.0179751 0.499992
0.499992 0.0179751 0.499992
0.75024 0.0179751 0.499992
1 0.0179751 0.499992
0.0179751 0.254307 0.499992
0.254307 0.254307 0.499992
0.499992 0.254307 0.499992
0.75024 0.254307 0.499992
1 0.254307 0.499992
0.0179751 0.499992 0.499992
0.254307 0.499992 0.499992
0.499992 0.499992 0.499992
0.75024 0.499992 0.499992
1 0.499992 0.499992
0.0179751 0.75024 0.499992
0.254307 0.75024 0.499992
0.499992 0.75024 0.499992
0.75024 0.75024 0.499992
1 0.75024 0.499992
0.0179751 1 0.499992
0.254307 1 0.499992
0.499992 1 0.499992
0.75024 1 0.499992
1 1 0.499992
0.0179751 0.0179751 0.75024
0.254307 0.0179751 0.75024
0.499992 0.0179751 0.75024
0.75024 0.0179751 0.75024
1 0.0179751 0.75024
0.0179751 0.254307 0.75024
0.254307 0.254307 0.75024
0.499992 0.254307 0.75024
0.75024 0.254307 0.75024
1 0.254307 0.75024
0.0179751 0.499992 0.75024
0.254307 0.499992 0.75024
0.499992 0.499992 0.75024
0.75024 0.499992 0.75024
1 0.499992 0.75024
0.0179751 0.75024 0.75024
0.254307 0.75024 0.75024
0.499992 0.75024 0.75024
0.75024 0.75024 0.75024
1 0.75024 0.75024
0.0179751 1 0.75024
0.254307 1 0.75024
0.499992 1 0.75024
0.75024 1 0.75024
1 1 0.75024
0.0179751 0.0179751 1
0.254307 0.0179751 1
0.499992 0.0179751 1
0.75024 0.0179751 1
1 0.0179751 1
0.0179751 0.254307 1
0.254307 0.254307 1
0.499992 0.254307 1
0.75024 0.254307 1
1 0.254307 1
0.0179751 0.499992 1
0.254307 0.499992 1
0.499992 0.499992 1
0.75024 0.499992 1
1 0.499992 1
0.0179751 0.75024 1
0.254307 0.75024 1
0.499992 0.75024 1
0.75024 0.75024 1
1 0.75024 1
0.0179751 1 1
0.254307 1 1
0.499992 1 1
0.75024 1 1
1 1 1
