public/LUTS/Balanced/Balanced_03.cube
TITLE "Generated by Resolve"
LUT_3D_SIZE 5
0.0153201 0.0153201 0.0153201
0.253651 0.0153201 0.0153201
0.500328 0.0153201 0.0153201
0.729809 0.0153201 0.0153201
0.954101 0.0153201 0.0153201
0.0153201 0.253651 0.0153201
0.253651 0.253651 0.0153201
0.500328 0.253651 0.0153201
0.729809 0.253651 0.0153201
0.954101 0.253651 0.0153201
0.0153201 0.500328 0.0153201
0.253651 0.500328 0.0153201
0.500328 0.500328 0.0153201
0.729809 0.500328 0.0153201
0.954101 0.500328 0.0153201
0.0153201 0.729809 0.0153201
0.253651 0.729809 0.0153201
0.500328 0.729809 0.0153201
0.729809 0.729809 0.0153201
0.954101 0.729809 0.0153201
0.0153201 0.954101 0.0153201
0.253651 0.954101 0.0153201
0.500328 0.954101 0.0153201
0.729809 0.954101 0.0153201
0.954101 0.954101 0.0153201
0.0153201 0.0153201 0.253651
0.253651 0.0153201 0.253651
0.500328 0.0153201 0.253651
0.729809 0.0153201 0.253651
0.954101 0.0153201 0.253651
0.0153201 0.253651 0.253651
0.253651 0.253651 0.253651
0.500328 0.253651 0.253651
0.729809 0.253651 0.253651
0.954101 0.253651 0.253651
0.0153201 0.500328 0.253651
0.253651 0.500328 0.253651
0.500328 0.500328 0.253651
0.729809 0.500328 0.253651
0.954101 0.500328 0.253651
0.0153201 0.729809 0.253651
0.253651 0.729809 0.253651
0.500328 0.729809 0.253651
0.729809 0.729809 0.253651
0.954101 0.729809 0.253651
0.0153201 0.954101 0.253651
0.253651 0.954101 0.253651
0.500328 0.954101 0.253651
0.729809 0.954101 0.253651
0.954101 0.954101 0.253651
0.0153201 0.0153201 0.500328
0.253651 0.0153201 0.500328
0.500328 0.0153201 0.500328
0.729809 0.0153201 0.500328
0.954101 0.0153201 0.500328
0.0153201 0.253651 0.500328
0.253651 0.253651 0.500328
0.500328 0.253651 0.500328
0.729809 0.253651 0.500328
0.954101 0.253651 0.500328
0.0153201 0.500328 0.500328
0.253651 0.500328 0.500328
0.500328 0.500328 0.500328
0.729809 0.500328 0.500328
0.954101 0.500328 0.500328
0.0153201 0.729809 0.500328
0.253651 0.729809 0.500328
0.500328 0.729809 0.500328
0.729809 0.729809 0.500328
0.954101 0.729809 0.500328
0.0153201 0.954101 0.500328
0.253651 0.954101 0.500328
0.500328 0.954101 0.500328
0.729809 0.954101 0.500328
0.954101 0.954101 0.500328
0.0153201 0.0153201 0.729809
0.253651 0.0153201 0.729809
0.500328 0.0153201 0.729809
0.729809 0.0153201 0.729809
0.954101 0.0153201 0.729809
0.0153201 0.253651 0.729809
0.253651 0.253651 0.729809
0.500328 0.253651 0.729809
0.729809 0.253651 0.729809
0.954101 0.253651 0.729809
0.0153201 0.500328 0.729809
0.253651 0.500328 0.729809
0.500328 0.500328 0.729809
0.729809 0.500328 0.729809
0.954101 0.500328 0.729809
0.0153201 0.729809 0.729809
0.253651 0.729809 0.729809
0.500328 0.729809 0.729809
0.729809 0.729809 0.729809
0.954101 0.729809 0.729809
0.0153201 0.954101 0.729809
0.253651 0.954101 0.729809
0.500328 0.954101 0.729809
0.729809 0.954101 0.729809
0.954101 0.954101 0.729809
0.0153201 0.0153201 0.954101
0.253651 0.0153201 0.954101
0.500328 0.0153201 0.954101
0.729809 0.0153201 0.954101
0.954101 0.0153201 0.954101
0.0153201 0.253651 0.954101
0.253651 0.253651 0.954101
0.500328 0.253651 0.954101
0.729809 0.253651 0.954101
0.954101 0.253651 0.954101
0.0153201 0.500328 0.954101
0.253651 0.500328 0.954101
0.500328 0.500328 0.954101
0.729809 0.500328 0.954101
0.954101 0.500328 0.954101
0.0153201 0.729809 0.954101
0.253651 0.729809 0.954101
0.500328 0.729809 0.954101
0.729809 0.729809 0.954101
0.954101 0.729809 0.954101
0.0153201 0.954101 0.954101
0.253651 0.954101 0.954101
0.500328 0.954101 0.954101
0.729809 0.954101 0.954101
0.954101 0.954101 0.954101
