public/LUTS/Balanced/Balanced_05.cube
TITLE "Generated by Resolve"
LUT_3D_SIZE 5
0.0486152 0.0486152 0.0486152
0.262089 0.0486152 0.0486152
0.500206 0.0486152 0.0486152
0.719402 0.0486152 0.0486152
0.930694 0.0486152 0.0486152
0.0486152 0.262089 0.0486152
0.262089 0.262089 0.0486152
0.500206 0.262089 0.0486152
0.719402 0.262089 0.0486152
0.930694 0.262089 0.0486152
0.0486152 0.500206 0.0486152
0.262089 0.500206 0.0486152
0.500206 0.500206 0.0486152
0.719402 0.500206 0.0486152
0.930694 0.500206 0.0486152
0.0486152 0.719402 0.0486152
0.262089 0.719402 0.0486152
0.500206 0.719402 0.0486152
0.719402 0.719402 0.0486152
0.930694 0.719402 0.0486152
0.0486152 0.930694 0.0486152
0.262089 0.930694 0.0486152
0.500206 0.930694 0.0486152
0.719402 0.930694 0.0486152
0.930694 0.930694 0.0486152
0.0486152 0.0486152 0.262089
0.262089 0.0486152 0.262089
0.500206 0.0486152 0.262089
0.719402 0.0486152 0.262089
0.930694 0.0486152 0.262089
0.0486152 0.262089 0.262089
0.262089 0.262089 0.262089
0.500206 0.262089 0.262089
0.719402 0.262089 0.262089
0.930694 0.262089 0.262089
0.0486152 0.500206 0.262089
0.262089 0.500206 0.262089
0.500206 0.500206 0.262089
0.719402 0.500206 0.262089
0.930694 0.500206 0.262089
0.0486152 0.719402 0.262089
0.262089 0.719402 0.262089
0.500206 0.719402 0.262089
0.719402 0.719402 0.262089
0.930694 0.719402 0.262089
0.0486152 0.930694 0.262089
0.262089 0.930694 0.262089
0.500206 0.930694 0.262089
0.719402 0.930694 0.262089
0.930694 0.930694 0.262089
0.0486152 0.0486152 0.500206
0.262089 0.0486152 0.500206
0.500206 0.0486152 0.500206
0.719402 0.0486152 0.500206
0.930694 0.0486152 0.500206
0.0486152 0.262089 0.500206
0.262089 0.262089 0.500206
0.500206 0.262089 0.500206
0.719402 0.262089 0.500206
0.930694 0.262089 0.500206
0.0486152 0.500206 0.500206
0.262089 0.500206 0.500206
0.500206 0.500206 0.500206
0.719402 0.500206 0.500206
0.930694 0.500206 0.500206
0.0486152 0.719402 0.500206
0.262089 0.719402 0.500206
0.500206 0.719402 0.500206
0.719402 0.719402 0.500206
0.930694 0.719402 0.500206
0.0486152 0.930694 0.500206
0.262089 0.930694 0.500206
0.500206 0.930694 0.500206
0.719402 0.930694 0.500206
0.930694 0.930694 0.500206
0.0486152 0.0486152 0.719402
0.262089 0.0486152 0.719402
0.500206 0.0486152 0.719402
0.719402 0.0486152 0.719402
0.930694 0.0486152 0.719402
0.0486152 0.262089 0.719402
0.262089 0.262089 0.719402
0.500206 0.262089 0.719402
0.719402 0.262089 0.719402
0.930694 0.262089 0.719402
0.0486152 0.500206 0.719402
0.262089 0.500206 0.719402
0.500206 0.500206 0.719402
0.719402 0.500206 0.719402
0.930694 0.500206 0.719402
0.0486152 0.719402 0.719402
0.262089 0.719402 0.719402
0.500206 0.719402 0.719402
0.719402 0.719402 0.719402
0.930694 0.719402 0.719402
0.0486152 0.930694 0.719402
0.262089 0.930694 0.719402
0.500206 0.930694 0.719402
0.719402 0.930694 0.719402
0.930694 0.930694 0.719402
0.0486152 0.0486152 0.930694
0.262089 0.0486152 0.930694
0.500206 0.0486152 0.930694
0.719402 0.0486152 0.930694
0.930694 0.0486152 0.930694
0.0486152 0.262089 0.930694
0.262089 0.262089 0.930694
0.500206 0.262089 0.930694
0.719402 0.262089 0.930694
0.930694 0.262089 0.930694
0.0486152 0.500206 0.930694
0.262089 0.500206 0.930694
0.500206 0.500206 0.930694
0.719402 0.500206 0.930694
0.930694 0.500206 0.930694
0.0486152 0.719402 0.930694
0.262089 0.719402 0.930694
0.500206 0.719402 0.930694
0.719402 0.719402 0.930694
0.930694 0.719402 0.930694
0.0486152 0.930694 0.930694
0.262089 0.930694 0.930694
0.500206 0.930694 0.930694
0.719402 0.930694 0.930694
0.930694 0.930694 0.930694
