public/LUTS/Balanced/Balanced_03.cube
TITLE "Generated by Resolve"
LUT_3D_SIZE 33
0.0153201 0.0153201 0.0153201
0.0446784 0.0153201 0.0153201
0.0745251 0.0153201 0.0153201
0.104356 0.0153201 0.0153201
0.134203 0.0153201 0.0153201
0.16405 0.0153201 0.0153201
0.193896 0.0153201 0.0153201
0.223651 0.0153201 0.0153201
0.253651 0.0153201 0.0153201
0.283909 0.0153201 0.0153201
0.314229 0.0153201 0.0153201
0.344732 0.0153201 0.0153201
0.375509 0.0153201 0.0153201
0.40676 0.0153201 0.0153201
0.438087 0.0153201 0.0153201
0.469459 0.0153201 0.0153201
0.500328 0.0153201 0.0153201
0.530404 0.0153201 0.0153201
0.559945 0.0153201 0.0153201
0.589181 0.0153201 0.0153201
0.617533 0.0153201 0.0153201
0.645548 0.0153201 0.0153201
0.67364 0.0153201 0.0153201
0.701732 0.0153201 0.0153201
0.729809 0.0153201 0.0153201
0.7579 0.0153201 0.0153201
0.785992 0.0153201 0.0153201
0.814084 0.0153201 0.0153201
0.842176 0.0153201 0.0153201
0.870268 0.0153201 0.0153201
0.89836 0.0153201 0.0153201
0.926452 0.0153201 0.0153201
0.954101 0.0153201 0.0153201
0.0153201 0.0446784 0.0153201
0.0446784 0.0446784 0.0153201
0.0745251 0.0446784 0.0153201
0.104356 0.0446784 0.0153201
0.134203 0.0446784 0.0153201
0.16405 0.0446784 0.0153201
0.193896 0.0446784 0.0153201
0.223651 0.0446784 0.0153201
0.253651 0.0446784 0.0153201
0.283909 0.0446784 0.0153201
0.314229 0.0446784 0.0153201
0.344732 0.0446784 0.0153201
0.375509 0.0446784 0.0153201
0.40676 0.0446784 0.0153201
0.438087 0.0446784 0.0153201
0.469459 0.0446784 0.0153201
0.500328 0.0446784 0.0153201
0.530404 0.0446784 0.0153201
0.559945 0.0446784 0.0153201
0.589181 0.0446784 0.0153201
0.617533 0.0446784 0.0153201
0.645548 0.0446784 0.0153201
0.67364 0.0446784 0.0153201
0.701732 0.0446784 0.0153201
0.729809 0.0446784 0.0153201
0.7579 0.0446784 0.0153201
0.785992 0.0446784 0.0153201
0.814084 0.0446784 0.0153201
0.842176 0.0446784 0.0153201
0.870268 0.0446784 0.0153201
0.89836 0.0446784 0.0153201
0.926452 0.0446784 0.0153201
0.954101 0.0446784 0.0153201
0.0153201 0.0745251 0.0153201
0.0446784 0.0745251 0.0153201
0.0745251 0.0745251 0.0153201
0.104356 0.0745251 0.0153201
0.134203 0.0745251 0.0153201
0.16405 0.0745251 0.0153201
0.193896 0.0745251 0.0153201
0.223651 0.0745251 0.0153201
0.253651 0.0745251 0.0153201
0.283909 0.0745251 0.0153201
0.314229 0.0745251 0.0153201
0.344732 0.0745251 0.0153201
0.375509 0.0745251 0.0153201
0.40676 0.0745251 0.0153201
0.438087 0.0745251 0.0153201
0.469459 0.0745251 0.0153201
0.500328 0.0745251 0.0153201
0.530404 0.0745251 0.0153201
0.559945 0.0745251 0.0153201
0.589181 0.0745251 0.0153201
0.617533 0.0745251 0.0153201
0.645548 0.0745251 0.0153201
0.67364 0.0745251 0.0153201
0.701732 0.0745251 0.0153201
0.729809 0.0745251 0.0153201
0.7579 0.0745251 0.0153201
0.785992 0.0745251 0.0153201
0.814084 0.0745251 0.0153201
0.842176 0.0745251 0.0153201
0.870268 0.0745251 0.0153201
0.89836 0.0745251 0.0153201
0.926452 0.0745251 0.0153201
0.954101 0.0745251 0.0153201
0.0153201 0.104356 0.0153201
0.0446784 0.104356 0.0153201
0.0745251 0.104356 0.0153201
0.104356 0.104356 0.0153201
0.134203 0.104356 0.0153201
0.16405 0.104356 0.0153201
0.193896 0.104356 0.0153201
0.223651 0.104356 0.0153201
0.253651 0.104356 0.0153201
0.283909 0.104356 0.0153201
0.314229 0.104356 0.0153201
0.344732 0.104356 0.0153201
0.375509 0.104356 0.0153201
0.40676 0.104356 0.0153201
0.438087 0.104356 0.0153201
0.469459 0.104356 0.0153201
0.500328 0.104356 0.0153201
0.530404 0.104356 0.0153201
0.559945 0.104356 0.0153201
0.589181 0.104356 0.0153201
0.617533 0.104356 0.0153201
0.645548 0.104356 0.0153201
0.67364 0.104356 0.0153201
0.701732 0.104356 0.0153201
0.729809 0.104356 0.0153201
0.7579 0.104356 0.0153201
0.785992 0.104356 0.0153201
0.814084 0.104356 0.0153201
0.842176 0.104356 0.0153201
0.870268 0.104356 0.0153201
0.89836 0.104356 0.0153201
0.926452 0.104356 0.0153201
0.954101 0.104356 0.0153201
0.0153201 0.134203 0.0153201
0.0446784 0.134203 0.0153201
0.0745251 0.134203 0.0153201
0.104356 0.134203 0.0153201
0.134203 0.134203 0.0153201
0.16405 0.134203 0.0153201
0.193896 0.134203 0.0153201
0.223651 0.134203 0.0153201
0.253651 0.134203 0.0153201
0.283909 0.134203 0.0153201
0.314229 0.134203 0.0153201
0.344732 0.134203 0.0153201
0.375509 0.134203 0.0153201
0.40676 0.134203 0.0153201
0.438087 0.134203 0.0153201
0.469459 0.134203 0.0153201
0.500328 0.134203 0.0153201
0.530404 0.134203 0.0153201
0.559945 0.134203 0.0153201
0.589181 0.134203 0.0153201
0.617533 0.134203 0.0153201
0.645548 0.134203 0.0153201
0.67364 0.134203 0.0153201
0.701732 0.134203 0.0153201
0.729809 0.134203 0.0153201
0.7579 0.134203 0.0153201
0.785992 0.134203 0.0153201
0.814084 0.134203 0.0153201
0.842176 0.134203 0.0153201
0.870268 0.134203 0.0153201
0.89836 0.134203 0.0153201
0.926452 0.134203 0.0153201
0.954101 0.134203 0.0153201
0.0153201 0.16405 0.0153201
0.0446784 0.16405 0.0153201
0.0745251 0.16405 0.0153201
0.104356 0.16405 0.0153201
0.134203 0.16405 0.0153201
0.16405 0.16405 0.0153201
0.193896 0.16405 0.0153201
0.223651 0.16405 0.0153201
0.253651 0.16405 0.0153201
0.283909 0.16405 0.0153201
0.314229 0.16405 0.0153201
0.344732 0.16405 0.0153201
0.375509 0.16405 0.0153201
0.40676 0.16405 0.0153201
0.438087 0.16405 0.0153201
0.469459 0.16405 0.0153201
0.500328 0.16405 0.0153201
0.530404 0.16405 0.0153201
0.559945 0.16405 0.0153201
0.589181 0.16405 0.0153201
0.617533 0.16405 0.0153201
0.645548 0.16405 0.0153201
0.67364 0.16405 0.0153201
0.701732 0.16405 0.0153201
0.729809 0.16405 0.0153201
0.7579 0.16405 0.0153201
0.785992 0.16405 0.0153201
0.814084 0.16405 0.0153201
0.842176 0.16405 0.0153201
0.870268 0.16405 0.0153201
0.89836 0.16405 0.0153201
0.926452 0.16405 0.0153201
0.954101 0.16405 0.0153201
0.0153201 0.193896 0.0153201
0.0446784 0.193896 0.0153201
0.0745251 0.193896 0.0153201
0.104356 0.193896 0.0153201
0.134203 0.193896 0.0153201
0.16405 0.193896 0.0153201
0.193896 0.193896 0.0153201
0.223651 0.193896 0.0153201
0.253651 0.193896 0.0153201
0.283909 0.193896 0.0153201
0.314229 0.193896 0.0153201
0.344732 0.193896 0.0153201
0.375509 0.193896 0.0153201
0.40676 0.193896 0.0153201
0.438087 0.193896 0.0153201
0.469459 0.193896 0.0153201
0.500328 0.193896 0.0153201
0.530404 0.193896 0.0153201
0.559945 0.193896 0.0153201
0.589181 0.193896 0.0153201
0.617533 0.193896 0.0153201
0.645548 0.193896 0.0153201
0.67364 0.193896 0.0153201
0.701732 0.193896 0.0153201
0.729809 0.193896 0.0153201
0.7579 0.193896 0.0153201
0.785992 0.193896 0.0153201
0.814084 0.193896 0.0153201
0.842176 0.193896 0.0153201
0.870268 0.193896 0.0153201
0.89836 0.193896 0.0153201
0.926452 0.193896 0.0153201
0.954101 0.193896 0.0153201
0.0153201 0.223651 0.0153201
0.0446784 0.223651 0.0153201
0.0745251 0.223651 0.0153201
0.104356 0.223651 0.0153201
0.134203 0.223651 0.0153201
0.16405 0.223651 0.0153201
0.193896 0.223651 0.0153201
0.223651 0.223651 0.0153201
0.253651 0.223651 0.0153201
0.283909 0.223651 0.0153201
0.314229 0.223651 0.0153201
0.344732 0.223651 0.0153201
0.375509 0.223651 0.0153201
0.40676 0.223651 0.0153201
0.438087 0.223651 0.0153201
0.469459 0.223651 0.0153201
0.500328 0.223651 0.0153201
0.530404 0.223651 0.0153201
0.559945 0.223651 0.0153201
0.589181 0.223651 0.0153201
0.617533 0.223651 0.0153201
0.645548 0.223651 0.0153201
0.67364 0.223651 0.0153201
0.701732 0.223651 0.0153201
0.729809 0.223651 0.0153201
0.7579 0.223651 0.0153201
0.785992 0.223651 0.0153201
0.814084 0.223651 0.0153201
0.842176 0.223651 0.0153201
0.870268 0.223651 0.0153201
0.89836 0.223651 0.0153201
0.926452 0.223651 0.0153201
0.954101 0.223651 0.0153201
0.0153201 0.253651 0.0153201
0.0446784 0.253651 0.0153201
0.0745251 0.253651 0.0153201
0.104356 0.253651 0.0153201
0.134203 0.253651 0.0153201
0.16405 0.253651 0.0153201
0.193896 0.253651 0.0153201
0.223651 0.253651 0.0153201
0.253651 0.253651 0.0153201
0.283909 0.253651 0.0153201
0.314229 0.253651 0.0153201
0.344732 0.253651 0.0153201
0.375509 0.253651 0.0153201
0.40676 0.253651 0.0153201
0.438087 0.253651 0.0153201
0.469459 0.253651 0.0153201
0.500328 0.253651 0.0153201
0.530404 0.253651 0.0153201
0.559945 0.253651 0.0153201
0.589181 0.253651 0.0153201
0.617533 0.253651 0.0153201
0.645548 0.253651 0.0153201
0.67364 0.253651 0.0153201
0.701732 0.253651 0.0153201
0.729809 0.253651 0.0153201
0.7579 0.253651 0.0153201
0.785992 0.253651 0.0153201
0.814084 0.253651 0.0153201
0.842176 0.253651 0.0153201
0.870268 0.253651 0.0153201
0.89836 0.253651 0.0153201
0.926452 0.253651 0.0153201
0.954101 0.253651 0.0153201
0.0153201 0.283909 0.0153201
0.0446784 0.283909 0.0153201
0.0745251 0.283909 0.0153201
0.104356 0.283909 0.0153201
0.134203 0.283909 0.0153201
0.16405 0.283909 0.0153201
0.193896 0.283909 0.0153201
0.223651 0.283909 0.0153201
0.253651 0.283909 0.0153201
0.283909 0.283909 0.0153201
0.314229 0.283909 0.0153201
0.344732 0.283909 0.0153201
0.375509 0.283909 0.0153201
0.40676 0.283909 0.0153201
0.438087 0.283909 0.0153201
0.469459 0.283909 0.0153201
0.500328 0.283909 0.0153201
0.530404 0.283909 0.0153201
0.559945 0.283909 0.0153201
0.589181 0.283909 0.0153201
0.617533 0.283909 0.0153201
0.645548 0.283909 0.0153201
0.67364 0.283909 0.0153201
0.701732 0.283909 0.0153201
0.729809 0.283909 0.0153201
0.7579 0.283909 0.0153201
0.785992 0.283909 0.0153201
0.814084 0.283909 0.0153201
0.842176 0.283909 0.0153201
0.870268 0.283909 0.0153201
0.89836 0.283909 0.0153201
0.926452 0.283909 0.0153201
0.954101 0.283909 0.0153201
0.0153201 0.314229 0.0153201
0.0446784 0.314229 0.0153201
0.0745251 0.314229 0.0153201
0.104356 0.314229 0.0153201
0.134203 0.314229 0.0153201
0.16405 0.314229 0.0153201
0.193896 0.314229 0.0153201
0.223651 0.314229 0.0153201
0.253651 0.314229 0.0153201
0.283909 0.314229 0.0153201
0.314229 0.314229 0.0153201
0.344732 0.314229 0.0153201
0.375509 0.314229 0.0153201
0.40676 0.314229 0.0153201
0.438087 0.314229 0.0153201
0.469459 0.314229 0.0153201
0.500328 0.314229 0.0153201
0.530404 0.314229 0.0153201
0.559945 0.314229 0.0153201
0.589181 0.314229 0.0153201
0.617533 0.314229 0.0153201
0.645548 0.314229 0.0153201
0.67364 0.314229 0.0153201
0.701732 0.314229 0.0153201
0.729809 0.314229 0.0153201
0.7579 0.314229 0.0153201
0.785992 0.314229 0.0153201
0.814084 0.314229 0.0153201
0.842176 0.314229 0.0153201
0.870268 0.314229 0.0153201
0.89836 0.314229 0.0153201
0.926452 0.314229 0.0153201
0.954101 0.314229 0.0153201
0.0153201 0.344732 0.0153201
0.0446784 0.344732 0.0153201
0.0745251 0.344732 0.0153201
0.104356 0.344732 0.0153201
0.134203 0.344732 0.0153201
0.16405 0.344732 0.0153201
0.193896 0.344732 0.0153201
0.223651 0.344732 0.0153201
0.253651 0.344732 0.0153201
0.283909 0.344732 0.0153201
0.314229 0.344732 0.0153201
0.344732 0.344732 0.0153201
0.375509 0.344732 0.0153201
0.40676 0.344732 0.0153201
0.438087 0.344732 0.0153201
0.469459 0.344732 0.0153201
0.500328 0.344732 0.0153201
0.530404 0.344732 0.0153201
0.559945 0.344732 0.0153201
0.589181 0.344732 0.0153201
0.617533 0.344732 0.0153201
0.645548 0.344732 0.0153201
0.67364 0.344732 0.0153201
0.701732 0.344732 0.0153201
0.729809 0.344732 0.0153201
0.7579 0.344732 0.0153201
0.785992 0.344732 0.0153201
0.814084 0.344732 0.0153201
0.842176 0.344732 0.0153201
0.870268 0.344732 0.0153201
0.89836 0.344732 0.0153201
0.926452 0.344732 0.0153201
0.954101 0.344732 0.0153201
0.0153201 0.375509 0.0153201
0.0446784 0.375509 0.0153201
0.0745251 0.375509 0.0153201
0.104356 0.375509 0.0153201
0.134203 0.375509 0.0153201
0.16405 0.375509 0.0153201
0.193896 0.375509 0.0153201
0.223651 0.375509 0.0153201
0.253651 0.375509 0.0153201
0.283909 0.375509 0.0153201
0.314229 0.375509 0.0153201
0.344732 0.375509 0.0153201
0.375509 0.375509 0.0153201
0.40676 0.375509 0.0153201
0.438087 0.375509 0.0153201
0.469459 0.375509 0.0153201
0.500328 0.375509 0.0153201
0.530404 0.375509 0.0153201
0.559945 0.375509 0.0153201
0.589181 0.375509 0.0153201
0.617533 0.375509 0.0153201
0.645548 0.375509 0.0153201
0.67364 0.375509 0.0153201
0.701732 0.375509 0.0153201
0.729809 0.375509 0.0153201
0.7579 0.375509 0.0153201
0.785992 0.375509 0.0153201
0.814084 0.375509 0.0153201
0.842176 0.375509 0.0153201
0.870268 0.375509 0.0153201
0.89836 0.375509 0.0153201
0.926452 0.375509 0.0153201
0.954101 0.375509 0.0153201
0.0153201 0.40676 0.0153201
0.0446784 0.40676 0.0153201
0.0745251 0.40676 0.0153201
0.104356 0.40676 0.0153201
0.134203 0.40676 0.0153201
0.16405 0.40676 0.0153201
0.193896 0.40676 0.0153201
0.223651 0.40676 0.0153201
0.253651 0.40676 0.0153201
0.283909 0.40676 0.0153201
0.314229 0.40676 0.0153201
0.344732 0.40676 0.0153201
0.375509 0.40676 0.0153201
0.40676 0.40676 0.0153201
0.438087 0.40676 0.0153201
0.469459 0.40676 0.0153201
0.500328 0.40676 0.0153201
0.530404 0.40676 0.0153201
0.559945 0.40676 0.0153201
0.589181 0.40676 0.0153201
0.617533 0.40676 0.0153201
0.645548 0.40676 0.0153201
0.67364 0.40676 0.0153201
0.701732 0.40676 0.0153201
0.729809 0.40676 0.0153201
0.7579 0.40676 0.0153201
0.785992 0.40676 0.0153201
0.814084 0.40676 0.0153201
0.842176 0.40676 0.0153201
0.870268 0.40676 0.0153201
0.89836 0.40676 0.0153201
0.926452 0.40676 0.0153201
0.954101 0.40676 0.0153201
0.0153201 0.438087 0.0153201
0.0446784 0.438087 0.0153201
0.0745251 0.438087 0.0153201
0.104356 0.438087 0.0153201
0.134203 0.438087 0.0153201
0.16405 0.438087 0.0153201
0.193896 0.438087 0.0153201
0.223651 0.438087 0.0153201
0.253651 0.438087 0.0153201
0.283909 0.438087 0.0153201
0.314229 0.438087 0.0153201
0.344732 0.438087 0.0153201
0.375509 0.438087 0.0153201
0.40676 0.438087 0.0153201
0.438087 0.438087 0.0153201
0.469459 0.438087 0.0153201
0.500328 0.438087 0.0153201
0.530404 0.438087 0.0153201
0.559945 0.438087 0.0153201
0.589181 0.438087 0.0153201
0.617533 0.438087 0.0153201
0.645548 0.438087 0.0153201
0.67364 0.438087 0.0153201
0.701732 0.438087 0.0153201
0.729809 0.438087 0.0153201
0.7579 0.438087 0.0153201
0.785992 0.438087 0.0153201
0.814084 0.438087 0.0153201
0.842176 0.438087 0.0153201
0.870268 0.438087 0.0153201
0.89836 0.438087 0.0153201
0.926452 0.438087 0.0153201
0.954101 0.438087 0.0153201
0.0153201 0.469459 0.0153201
0.0446784 0.469459 0.0153201
0.0745251 0.469459 0.0153201
0.104356 0.469459 0.0153201
0.134203 0.469459 0.0153201
0.16405 0.469459 0.0153201
0.193896 0.469459 0.0153201
0.223651 0.469459 0.0153201
0.253651 0.469459 0.0153201
0.283909 0.469459 0.0153201
0.314229 0.469459 0.0153201
0.344732 0.469459 0.0153201
0.375509 0.469459 0.0153201
0.40676 0.469459 0.0153201
0.438087 0.469459 0.0153201
0.469459 0.469459 0.0153201
0.500328 0.469459 0.0153201
0.530404 0.469459 0.0153201
0.559945 0.469459 0.0153201
0.589181 0.469459 0.0153201
0.617533 0.469459 0.0153201
0.645548 0.469459 0.0153201
0.67364 0.469459 0.0153201
0.701732 0.469459 0.0153201
0.729809 0.469459 0.0153201
0.7579 0.469459 0.0153201
0.785992 0.469459 0.0153201
0.814084 0.469459 0.0153201
0.842176 0.469459 0.0153201
0.870268 0.469459 0.0153201
0.89836 0.469459 0.0153201
0.926452 0.469459 0.0153201
0.954101 0.469459 0.0153201
0.0153201 0.500328 0.0153201
0.0446784 0.500328 0.0153201
0.0745251 0.500328 0.0153201
0.104356 0.500328 0.0153201
0.134203 0.500328 0.0153201
0.16405 0.500328 0.0153201
0.193896 0.500328 0.0153201
0.223651 0.500328 0.0153201
0.253651 0.500328 0.0153201
0.283909 0.500328 0.0153201
0.314229 0.500328 0.0153201
0.344732 0.500328 0.0153201
0.375509 0.500328 0.0153201
0.40676 0.500328 0.0153201
0.438087 0.500328 0.0153201
0.469459 0.500328 0.0153201
0.500328 0.500328 0.0153201
0.530404 0.500328 0.0153201
0.559945 0.500328 0.0153201
0.589181 0.500328 0.0153201
0.617533 0.500328 0.0153201
0.645548 0.500328 0.0153201
0.67364 0.500328 0.0153201
0.701732 0.500328 0.0153201
0.729809 0.500328 0.0153201
0.7579 0.500328 0.0153201
0.785992 0.500328 0.0153201
0.814084 0.500328 0.0153201
0.842176 0.500328 0.0153201
0.870268 0.500328 0.0153201
0.89836 0.500328 0.0153201
0.926452 0.500328 0.0153201
0.954101 0.500328 0.0153201
0.0153201 0.530404 0.0153201
0.0446784 0.530404 0.0153201
0.0745251 0.530404 0.0153201
0.104356 0.530404 0.0153201
0.134203 0.530404 0.0153201
0.16405 0.530404 0.0153201
0.193896 0.530404 0.0153201
0.223651 0.530404 0.0153201
0.253651 0.530404 0.0153201
0.283909 0.530404 0.0153201
0.314229 0.530404 0.0153201
0.344732 0.530404 0.0153201
0.375509 0.530404 0.0153201
0.40676 0.530404 0.0153201
0.438087 0.530404 0.0153201
0.469459 0.530404 0.0153201
0.500328 0.530404 0.0153201
0.530404 0.530404 0.0153201
0.559945 0.530404 0.0153201
0.589181 0.530404 0.0153201
0.617533 0.530404 0.0153201
0.645548 0.530404 0.0153201
0.67364 0.530404 0.0153201
0.701732 0.530404 0.0153201
0.729809 0.530404 0.0153201
0.7579 0.530404 0.0153201
0.785992 0.530404 0.0153201
0.814084 0.530404 0.0153201
0.842176 0.530404 0.0153201
0.870268 0.530404 0.0153201
0.89836 0.530404 0.0153201
0.926452 0.530404 0.0153201
0.954101 0.530404 0.0153201
0.0153201 0.559945 0.0153201
0.0446784 0.559945 0.0153201
0.0745251 0.559945 0.0153201
0.104356 0.559945 0.0153201
0.134203 0.559945 0.0153201
0.16405 0.559945 0.0153201
0.193896 0.559945 0.0153201
0.223651 0.559945 0.0153201
0.253651 0.559945 0.0153201
0.283909 0.559945 0.0153201
0.314229 0.559945 0.0153201
0.344732 0.559945 0.0153201
0.375509 0.559945 0.0153201
0.40676 0.559945 0.0153201
0.438087 0.559945 0.0153201
0.469459 0.559945 0.0153201
0.500328 0.559945 0.0153201
0.530404 0.559945 0.0153201
0.559945 0.559945 0.0153201
0.589181 0.559945 0.0153201
0.617533 0.559945 0.0153201
0.645548 0.559945 0.0153201
0.67364 0.559945 0.0153201
0.701732 0.559945 0.0153201
0.729809 0.559945 0.0153201
0.7579 0.559945 0.0153201
0.785992 0.559945 0.0153201
0.814084 0.559945 0.0153201
0.842176 0.559945 0.0153201
0.870268 0.559945 0.0153201
0.89836 0.559945 0.0153201
0.926452 0.559945 0.0153201
0.954101 0.559945 0.0153201
0.0153201 0.589181 0.0153201
0.0446784 0.589181 0.0153201
0.0745251 0.589181 0.0153201
0.104356 0.589181 0.0153201
0.134203 0.589181 0.0153201
0.16405 0.589181 0.0153201
0.193896 0.589181 0.0153201
0.223651 0.589181 0.0153201
0.253651 0.589181 0.0153201
0.283909 0.589181 0.0153201
0.314229 0.589181 0.0153201
0.344732 0.589181 0.0153201
0.375509 0.589181 0.0153201
0.40676 0.589181 0.0153201
0.438087 0.589181 0.0153201
0.469459 0.589181 0.0153201
0.500328 0.589181 0.0153201
0.530404 0.589181 0.0153201
0.559945 0.589181 0.0153201
0.589181 0.589181 0.0153201
0.617533 0.589181 0.0153201
0.645548 0.589181 0.0153201
0.67364 0.589181 0.0153201
0.701732 0.589181 0.0153201
0.729809 0.589181 0.0153201
0.7579 0.589181 0.0153201
0.785992 0.589181 0.0153201
0.814084 0.589181 0.0153201
0.842176 0.589181 0.0153201
0.870268 0.589181 0.0153201
0.89836 0.589181 0.0153201
0.926452 0.589181 0.0153201
0.954101 0.589181 0.0153201
0.0153201 0.617533 0.0153201
0.0446784 0.617533 0.0153201
0.0745251 0.617533 0.0153201
0.104356 0.617533 0.0153201
0.134203 0.617533 0.0153201
0.16405 0.617533 0.0153201
0.193896 0.617533 0.0153201
0.223651 0.617533 0.0153201
0.253651 0.617533 0.0153201
0.283909 0.617533 0.0153201
0.314229 0.617533 0.0153201
0.344732 0.617533 0.0153201
0.375509 0.617533 0.0153201
0.40676 0.617533 0.0153201
0.438087 0.617533 0.0153201
0.469459 0.617533 0.0153201
0.500328 0.617533 0.0153201
0.530404 0.617533 0.0153201
0.559945 0.617533 0.0153201
0.589181 0.617533 0.0153201
0.617533 0.617533 0.0153201
0.645548 0.617533 0.0153201
0.67364 0.617533 0.0153201
0.701732 0.617533 0.0153201
0.729809 0.617533 0.0153201
0.7579 0.617533 0.0153201
0.785992 0.617533 0.0153201
0.814084 0.617533 0.0153201
0.842176 0.617533 0.0153201
0.870268 0.617533 0.0153201
0.89836 0.617533 0.0153201
0.926452 0.617533 0.0153201
0.954101 0.617533 0.0153201
0.0153201 0.645548 0.0153201
0.0446784 0.645548 0.0153201
0.0745251 0.645548 0.0153201
0.104356 0.645548 0.0153201
0.134203 0.645548 0.0153201
0.16405 0.645548 0.0153201
0.193896 0.645548 0.0153201
0.223651 0.645548 0.0153201
0.253651 0.645548 0.0153201
0.283909 0.645548 0.0153201
0.314229 0.645548 0.0153201
0.344732 0.645548 0.0153201
0.375509 0.645548 0.0153201
0.40676 0.645548 0.0153201
0.438087 0.645548 0.0153201
0.469459 0.645548 0.0153201
0.500328 0.645548 0.0153201
0.530404 0.645548 0.0153201
0.559945 0.645548 0.0153201
0.589181 0.645548 0.0153201
0.617533 0.645548 0.0153201
0.645548 0.645548 0.0153201
0.67364 0.645548 0.0153201
0.701732 0.645548 0.0153201
0.729809 0.645548 0.0153201
0.7579 0.645548 0.0153201
0.785992 0.645548 0.0153201
0.814084 0.645548 0.0153201
0.842176 0.645548 0.0153201
0.870268 0.645548 0.0153201
0.89836 0.645548 0.0153201
0.926452 0.645548 0.0153201
0.954101 0.645548 0.0153201
0.0153201 0.67364 0.0153201
0.0446784 0.67364 0.0153201
0.0745251 0.67364 0.0153201
0.104356 0.67364 0.0153201
0.134203 0.67364 0.0153201
0.16405 0.67364 0.0153201
0.193896 0.67364 0.0153201
0.223651 0.67364 0.0153201
0.253651 0.67364 0.0153201
0.283909 0.67364 0.0153201
0.314229 0.67364 0.0153201
0.344732 0.67364 0.0153201
0.375509 0.67364 0.0153201
0.40676 0.67364 0.0153201
0.438087 0.67364 0.0153201
0.469459 0.67364 0.0153201
0.500328 0.67364 0.0153201
0.530404 0.67364 0.0153201
0.559945 0.67364 0.0153201
0.589181 0.67364 0.0153201
0.617533 0.67364 0.0153201
0.645548 0.67364 0.0153201
0.67364 0.67364 0.0153201
0.701732 0.67364 0.0153201
0.729809 0.67364 0.0153201
0.7579 0.67364 0.0153201
0.785992 0.67364 0.0153201
0.814084 0.67364 0.0153201
0.842176 0.67364 0.0153201
0.870268 0.67364 0.0153201
0.89836 0.67364 0.0153201
0.926452 0.67364 0.0153201
0.954101 0.67364 0.0153201
0.0153201 0.701732 0.0153201
0.0446784 0.701732 0.0153201
0.0745251 0.701732 0.0153201
0.104356 0.701732 0.0153201
0.134203 0.701732 0.0153201
0.16405 0.701732 0.0153201
0.193896 0.701732 0.0153201
0.223651 0.701732 0.0153201
0.253651 0.701732 0.0153201
0.283909 0.701732 0.0153201
0.314229 0.701732 0.0153201
0.344732 0.701732 0.0153201
0.375509 0.701732 0.0153201
0.40676 0.701732 0.0153201
0.438087 0.701732 0.0153201
0.469459 0.701732 0.0153201
0.500328 0.701732 0.0153201
0.530404 0.701732 0.0153201
0.559945 0.701732 0.0153201
0.589181 0.701732 0.0153201
0.617517 0.701732 0.0153201
0.645548 0.701732 0.0153201
0.67364 0.701732 0.0153201
0.701732 0.701732 0.0153201
0.729809 0.701732 0.0153201
0.7579 0.701732 0.0153201
0.785992 0.701732 0.0153201
0.814084 0.701732 0.0153201
0.842176 0.701732 0.0153201
0.870268 0.701732 0.0153201
0.89836 0.701732 0.0153201
0.926452 0.701732 0.0153201
0.954101 0.701732 0.0153201
0.0153201 0.729809 0.0153201
0.0446784 0.729809 0.0153201
0.0745251 0.729809 0.0153201
0.104356 0.729809 0.0153201
0.134203 0.729809 0.0153201
0.16405 0.729809 0.0153201
0.193896 0.729809 0.0153201
0.223651 0.729809 0.0153201
0.253651 0.729809 0.0153201
0.283909 0.729809 0.0153201
0.314229 0.729809 0.0153201
0.344732 0.729809 0.0153201
0.375509 0.729809 0.0153201
0.40676 0.729809 0.0153201
0.438087 0.729809 0.0153201
0.469459 0.729809 0.0153201
0.500328 0.729809 0.0153201
0.530404 0.729809 0.0153201
0.559945 0.729809 0.0153201
0.589181 0.729809 0.0153201
0.617517 0.729809 0.0153201
0.645548 0.729809 0.0153201
0.67364 0.729809 0.0153201
0.701732 0.729809 0.0153201
0.729809 0.729809 0.0153201
0.7579 0.729809 0.0153201
0.785992 0.729809 0.0153201
0.814084 0.729809 0.0153201
0.842176 0.729809 0.0153201
0.870268 0.729809 0.0153201
0.89836 0.729809 0.0153201
0.926452 0.729809 0.0153201
0.954101 0.729809 0.0153201
0.0153201 0.7579 0.0153201
0.0446784 0.7579 0.0153201
0.0745251 0.7579 0.0153201
0.104356 0.7579 0.0153201
0.134203 0.7579 0.0153201
0.16405 0.7579 0.0153201
0.193896 0.7579 0.0153201
0.223651 0.7579 0.0153201
0.253651 0.7579 0.0153201
0.283909 0.7579 0.0153201
0.314229 0.7579 0.0153201
0.344732 0.7579 0.0153201
0.375509 0.7579 0.0153201
0.40676 0.7579 0.0153201
0.438087 0.7579 0.0153201
0.469459 0.7579 0.0153201
0.500328 0.7579 0.0153201
0.530404 0.7579 0.0153201
0.559945 0.7579 0.0153201
0.589181 0.7579 0.0153201
0.617533 0.7579 0.0153201
0.645548 0.7579 0.0153201
0.67364 0.7579 0.0153201
0.701732 0.7579 0.0153201
0.729809 0.7579 0.0153201
0.7579 0.7579 0.0153201
0.785992 0.7579 0.0153201
0.814084 0.7579 0.0153201
0.842176 0.7579 0.0153201
0.870268 0.7579 0.0153201
0.89836 0.7579 0.0153201
0.926452 0.7579 0.0153201
0.954101 0.7579 0.0153201
0.0153201 0.785992 0.0153201
0.0446784 0.785992 0.0153201
