public/LUTS/Balanced/Balanced_06.cube
TITLE "Generated by Resolve"
LUT_3D_SIZE 5
0.0486152 0.0486152 0.0486152
0.262242 0.0486152 0.0486152
0.505867 0.0486152 0.0486152
0.719402 0.0486152 0.0486152
0.930694 0.0486152 0.0486152
0.0486152 0.262242 0.0486152
0.262242 0.262242 0.0486152
0.505867 0.262242 0.0486152
0.719402 0.262242 0.0486152
0.930694 0.262242 0.0486152
0.0486152 0.505867 0.0486152
0.262242 0.505867 0.0486152
0.505867 0.505867 0.0486152
0.719402 0.505867 0.0486152
0.930694 0.505867 0.0486152
0.0486152 0.719402 0.0486152
0.262242 0.719402 0.0486152
0.505867 0.719402 0.0486152
0.719402 0.719402 0.0486152
0.930694 0.719402 0.0486152
0.0486152 0.930694 0.0486152
0.262242 0.930694 0.0486152
0.505867 0.930694 0.0486152
0.719402 0.930694 0.0486152
0.930694 0.930694 0.0486152
0.0486152 0.0486152 0.262242
0.262242 0.0486152 0.262242
0.505867 0.0486152 0.262242
0.719402 0.0486152 0.262242
0.930694 0.0486152 0.262242
0.0486152 0.262242 0.262242
0.262242 0.262242 0.262242
0.505867 0.262242 0.262242
0.719402 0.262242 0.262242
0.930694 0.262242 0.262242
0.0486152 0.505867 0.262242
0.262242 0.505867 0.262242
0.505867 0.505867 0.262242
0.719402 0.505867 0.262242
0.930694 0.505867 0.262242
0.0486152 0.719402 0.262242
0.262242 0.719402 0.262242
0.505867 0.719402 0.262242
0.719402 0.719402 0.262242
0.930694 0.719402 0.262242
0.0486152 0.930694 0.262242
0.262242 0.930694 0.262242
0.505867 0.930694 0.262242
0.719402 0.930694 0.262242
0.930694 0.930694 0.262242
0.0486152 0.0486152 0.505867
0.262242 0.0486152 0.505867
0.505867 0.0486152 0.505867
0.719402 0.0486152 0.505867
0.930694 0.0486152 0.505867
0.0486152 0.262242 0.505867
0.262242 0.262242 0.505867
0.505867 0.262242 0.505867
0.719402 0.262242 0.505867
0.930694 0.262242 0.505867
0.0486152 0.505867 0.505867
0.262242 0.505867 0.505867
0.505867 0.505867 0.505867
0.719402 0.505867 0.505867
0.930694 0.505867 0.505867
0.0486152 0.719402 0.505867
0.262242 0.719402 0.505867
0.505867 0.719402 0.505867
0.719402 0.719402 0.505867
0.930694 0.719402 0.505867
0.0486152 0.930694 0.505867
0.262242 0.930694 0.505867
0.505867 0.930694 0.505867
0.719402 0.930694 0.505867
0.930694 0.930694 0.505867
0.0486152 0.0486152 0.719402
0.262242 0.0486152 0.719402
0.505867 0.0486152 0.719402
0.719402 0.0486152 0.719402
0.930694 0.0486152 0.719402
0.0486152 0.262242 0.719402
0.262242 0.262242 0.719402
0.505867 0.262242 0.719402
0.719402 0.262242 0.719402
0.930694 0.262242 0.719402
0.0486152 0.505867 0.719402
0.262242 0.505867 0.719402
0.505867 0.505867 0.719402
0.719402 0.505867 0.719402
0.930694 0.505867 0.719402
0.0486152 0.719402 0.719402
0.262242 0.719402 0.719402
0.505867 0.719402 0.719402
0.719402 0.719402 0.719402
0.930694 0.719402 0.719402
0.0486152 0.930694 0.719402
0.262242 0.930694 0.719402
0.505867 0.930694 0.719402
0.719402 0.930694 0.719402
0.930694 0.930694 0.719402
0.0486152 0.0486152 0.930694
0.262242 0.0486152 0.930694
0.505867 0.0486152 0.930694
0.719402 0.0486152 0.930694
0.930694 0.0486152 0.930694
0.0486152 0.262242 0.930694
0.262242 0.262242 0.930694
0.505867 0.262242 0.930694
0.719402 0.262242 0.930694
0.930694 0.262242 0.930694
0.0486152 0.505867 0.930694
0.262242 0.505867 0.930694
0.505867 0.505867 0.930694
0.719402 0.505867 0.930694
0.930694 0.505867 0.930694
0.0486152 0.719402 0.930694
0.262242 0.719402 0.930694
0.505867 0.719402 0.930694
0.719402 0.719402 0.930694
0.930694 0.719402 0.930694
0.0486152 0.930694 0.930694
0.262242 0.930694 0.930694
0.505867 0.930694 0.930694
0.719402 0.930694 0.930694
0.930694 0.930694 0.930694
