public/LUTS/Balanced/Balanced_02.cube
TITLE "Generated by Resolve"
LUT_3D_SIZE 5
0.0153201 0.0153201 0.0153201
0.253651 0.0153201 0.0153201
0.500435 0.0153201 0.0153201
0.739834 0.0153201 0.0153201
0.976593 0.0153201 0.0153201
0.0153201 0.253651 0.0153201
0.253651 0.253651 0.0153201
0.500435 0.253651 0.0153201
0.739834 0.253651 0.0153201
0.976593 0.253651 0.0153201
0.0153201 0.500435 0.0153201
0.253651 0.500435 0.0153201
0.500435 0.500435 0.0153201
0.739834 0.500435 0.0153201
0.976593 0.500435 0.0153201
0.0153201 0.739834 0.0153201
0.253651 0.739834 0.0153201
0.500435 0.739834 0.0153201
0.739834 0.739834 0.0153201
0.976593 0.739834 0.0153201
0.0153201 0.976593 0.0153201
0.253651 0.976593 0.0153201
0.500435 0.976593 0.0153201
0.739834 0.976593 0.0153201
0.976593 0.976593 0.0153201
0.0153201 0.0153201 0.253651
0.253651 0.0153201 0.253651
0.500435 0.0153201 0.253651
0.739834 0.0153201 0.253651
0.976593 0.0153201 0.253651
0.0153201 0.253651 0.253651
0.253651 0.253651 0.253651
0.500435 0.253651 0.253651
0.739834 0.253651 0.253651
0.976593 0.253651 0.253651
0.0153201 0.500435 0.253651
0.253651 0.500435 0.253651
0.500435 0.500435 0.253651
0.739834 0.500435 0.253651
0.976593 0.500435 0.253651
0.0153201 0.739834 0.253651
0.253651 0.739834 0.253651
0.500435 0.739834 0.253651
0.739834 0.739834 0.253651
0.976593 0.739834 0.253651
0.0153201 0.976593 0.253651
0.253651 0.976593 0.253651
0.500435 0.976593 0.253651
0.739834 0.976593 0.253651
0.976593 0.976593 0.253651
0.0153201 0.0153201 0.500435
0.253651 0.0153201 0.500435
0.500435 0.0153201 0.500435
0.739834 0.0153201 0.500435
0.976593 0.0153201 0.500435
0.0153201 0.253651 0.500435
0.253651 0.253651 0.500435
0.500435 0.253651 0.500435
0.739834 0.253651 0.500435
0.976593 0.253651 0.500435
0.0153201 0.500435 0.500435
0.253651 0.500435 0.500435
0.500435 0.500435 0.500435
0.739834 0.500435 0.500435
0.976593 0.500435 0.500435
0.0153201 0.739834 0.500435
0.253651 0.739834 0.500435
0.500435 0.739834 0.500435
0.739834 0.739834 0.500435
0.976593 0.739834 0.500435
0.0153201 0.976593 0.500435
0.253651 0.976593 0.500435
0.500435 0.976593 0.500435
0.739834 0.976593 0.500435
0.976593 0.976593 0.500435
0.0153201 0.0153201 0.739834
0.253651 0.0153201 0.739834
0.500435 0.0153201 0.739834
0.739834 0.0153201 0.739834
0.976593 0.0153201 0.739834
0.0153201 0.253651 0.739834
0.253651 0.253651 0.739834
0.500435 0.253651 0.739834
0.739834 0.253651 0.739834
0.976593 0.253651 0.739834
0.0153201 0.500435 0.739834
0.253651 0.500435 0.739834
0.500435 0.500435 0.739834
0.739834 0.500435 0.739834
0.976593 0.500435 0.739834
0.0153201 0.739834 0.739834
0.253651 0.739834 0.739834
0.500435 0.739834 0.739834
0.739834 0.739834 0.739834
0.976593 0.739834 0.739834
0.0153201 0.976593 0.739834
0.253651 0.976593 0.739834
0.500435 0.976593 0.739834
0.739834 0.976593 0.739834
0.976593 0.976593 0.739834
0.0153201 0.0153201 0.976593
0.253651 0.0153201 0.976593
0.500435 0.0153201 0.976593
0.739834 0.0153201 0.976593
0.976593 0.0153201 0.976593
0.0153201 0.253651 0.976593
0.253651 0.253651 0.976593
0.500435 0.253651 0.976593
0.739834 0.253651 0.976593
0.976593 0.253651 0.976593
0.0153201 0.500435 0.976593
0.253651 0.500435 0.976593
0.500435 0.500435 0.976593
0.739834 0.500435 0.976593
0.976593 0.500435 0.976593
0.0153201 0.739834 0.976593
0.253651 0.739834 0.976593
0.500435 0.739834 0.976593
0.739834 0.739834 0.976593
0.976593 0.739834 0.976593
0.0153201 0.976593 0.976593
0.253651 0.976593 0.976593
0.500435 0.976593 0.976593
0.739834 0.976593 0.976593
0.976593 0.976593 0.976593
