public/LUTS/Black&White/Black&White_10.cube
TITLE "Generated by Resolve"
LUT_3D_SIZE 5
0 0 0
0 0 0
0 0 0
0 0 0
0.147234 0.0514229 0.0514229
0 0 0
0.125048 0.125048 0.101122
0.287037 0.263066 0.239139
0.448341 0.400397 0.376471
0.610101 0.538231 0.514305
0.426841 0.474739 0.426841
0.588113 0.612085 0.564187
0.749737 0.749737 0.701839
0.911406 0.887434 0.839536
1 1 0.976883
0.889387 0.961257 0.889387
1 1 1
1 1 1
1 1 1
1 1 1
1 1 1
1 1 1
1 1 1
1 1 1
1 1 1
0 0 0
0 0 0
0 0 0
0.032166 0 0
0.193652 0.0978561 0.121782
0.0106813 0.0346075 0.0346075
0.171939 0.171939 0.171939
0.333303 0.309331 0.309331
0.495232 0.447288 0.447288
0.656519 0.584649 0.584649
0.47306 0.520958 0.496986
0.635004 0.658976 0.635004
0.796323 0.796323 0.772335
0.958297 0.934325 0.910353
1 1 1
0.936126 1 0.960052
1 1 1
1 1 1
1 1 1
1 1 1
1 1 1
1 1 1
1 1 1
1 1 1
1 1 1
0 0 0
0 0 0
0 0 0
0.0790723 0.00720226 0.0551003
0.240345 0.144549 0.192447
0.0568856 0.0808118 0.104784
0.218845 0.218845 0.242817
0.380148 0.356176 0.380148
0.542138 0.494194 0.518166
0.70341 0.63154 0.655512
0.519966 0.567864 0.567864
0.681865 0.705837 0.705837
0.843214 0.843214 0.843214
1 0.980606 0.980606
1 1 1
0.983032 1 1
1 1 1
1 1 1
1 1 1
1 1 1
1 1 1
1 1 1
1 1 1
1 1 1
1 1 1
0 0 0
0 0 0
0 0 0
0.125811 0.0539406 0.125811
0.287236 0.19144 0.26331
0.103792 0.127718 0.175662
0.265431 0.265431 0.313375
0.427054 0.403067 0.451026
0.588357 0.540413 0.588357
0.750317 0.678431 0.72639
0.566857 0.614755 0.638727
0.72813 0.752102 0.776074
0.89012 0.89012 0.914092
1 1 1
1 1 1
1 1 1
1 1 1
1 1 1
1 1 1
1 1 1
1 1 1
1 1 1
1 1 1
1 1 1
1 1 1
0 0 0
0 0 0
0.0108644 0 0.0587778
0.172183 0.100313 0.196109
0.334142 0.238346 0.334142
0.150683 0.174609 0.246494
0.311955 0.311955 0.383825
0.473945 0.449958 0.521843
0.635264 0.58732 0.65919
0.79707 0.725185 0.79707
0.613748 0.661646 0.70956
0.775021 0.798993 0.846891
0.936706 0.936706 0.984604
1 1 1
1 1 1
1 1 1
1 1 1
1 1 1
1 1 1
1 1 1
1 1 1
1 1 1
1 1 1
1 1 1
1 1 1
