public/LUTS/Black&White/Black&White_05.cube
TITLE "Generated by Resolve"
LUT_3D_SIZE 9
0 0 0
0 0 0
0.00729381 0 0
0.0390936 0.024979 0.024979
0.0709087 0.0520943 0.0520943
0.102724 0.0792096 0.0792096
0.134295 0.10605 0.10605
0.16611 0.133165 0.133165
0.19791 0.160281 0.160281
0.0348821 0.0395666 0.0348821
0.0666819 0.0666819 0.0619974
0.0982376 0.0935225 0.088838
0.130053 0.120638 0.115953
0.161883 0.147753 0.143053
0.193423 0.174594 0.169909
0.225254 0.201709 0.197009
0.257069 0.228809 0.224125
0.288884 0.255924 0.25124
0.125841 0.135241 0.125841
0.157641 0.162356 0.152956
0.189197 0.189197 0.179797
0.221012 0.216312 0.206912
0.252842 0.243427 0.234028
0.284398 0.270268 0.260868
0.316213 0.297383 0.287984
0.348028 0.324483 0.315084
0.379767 0.351522 0.342123
0.2168 0.230915 0.2168
0.248508 0.257939 0.243824
0.280156 0.284871 0.270756
0.311986 0.311986 0.297871
0.343801 0.339086 0.324987
0.375357 0.365942 0.351827
0.407172 0.393042 0.378943
0.438987 0.420157 0.406043
0.470542 0.447013 0.432898
0.307759 0.326589 0.307759
0.3393 0.353429 0.334615
0.37113 0.380545 0.36173
0.402945 0.407645 0.38883
0.434623 0.434623 0.415808
0.466316 0.461601 0.442786
0.498146 0.488716 0.469902
0.529915 0.515785 0.496971
0.561502 0.542687 0.523857
0.398672 0.422202 0.398672
0.430259 0.449104 0.425574
0.462089 0.476219 0.452689
0.493904 0.503319 0.479789
0.52546 0.530175 0.506645
0.557275 0.557275 0.533745
0.589105 0.58439 0.560861
0.620737 0.611322 0.587793
0.652461 0.638346 0.614832
0.489479 0.517723 0.489479
0.521233 0.544778 0.516533
0.553048 0.571893 0.543648
0.584863 0.598993 0.570764
0.616419 0.625849 0.597604
0.648234 0.652949 0.62472
0.680064 0.680064 0.65182
0.71162 0.706905 0.678676
0.74342 0.73402 0.705791
0.580392 0.613336 0.580392
0.612192 0.640452 0.607492
0.644007 0.667552 0.634607
0.675578 0.694408 0.661463
0.707393 0.721508 0.688563
0.739208 0.748623 0.715679
0.771023 0.775738 0.742794
0.802579 0.802579 0.769635
0.834379 0.829694 0.79675
0.671366 0.708995 0.671366
0.703166 0.73611 0.698482
0.734981 0.763226 0.725582
0.766537 0.790066 0.752438
0.798367 0.817182 0.779538
0.830182 0.844282 0.806653
0.861967 0.871366 0.833722
0.893553 0.898253 0.860609
0.925368 0.925368 0.887724
0 0 0
0 0 0
0.0164797 0.00708019 0.01178
0.0482948 0.0341955 0.03888
0.0801251 0.0613107 0.0659953
0.111727 0.0881971 0.0928969
0.143496 0.115267 0.119951
0.175326 0.142367 0.147066
0.207004 0.169375 0.17406
0.0440986 0.0487831 0.0487831
0.075761 0.075761 0.075761
0.107439 0.102739 0.102739
0.139269 0.129854 0.129854
0.171084 0.156954 0.156954
0.20264 0.18381 0.18381
0.234455 0.21091 0.21091
0.266285 0.238025 0.238025
0.297826 0.264881 0.264881
0.135058 0.144457 0.139742
0.166598 0.171298 0.166598
0.198413 0.198413 0.193698
0.230228 0.225528 0.220813
0.262043 0.252628 0.247929
0.293599 0.279484 0.274769
0.325429 0.306584 0.301885
0.357244 0.3337 0.328984
0.388785 0.360555 0.35584
0.226017 0.240131 0.230701
0.257557 0.266972 0.257557
0.289372 0.294087 0.284657
0.321187 0.321187 0.311772
0.352743 0.348043 0.338613
0.384573 0.375143 0.365728
0.416388 0.402258 0.392844
0.448203 0.429374 0.419959
0.479744 0.45623 0.446799
0.316976 0.33579 0.321675
0.348516 0.362646 0.348516
0.380331 0.389746 0.375631
0.412161 0.416861 0.402731
0.443702 0.443702 0.429587
0.475532 0.470817 0.456687
0.507347 0.497932 0.483803
0.539055 0.524941 0.510811
0.570718 0.551888 0.537758
0.407813 0.431342 0.412512
0.439475 0.45832 0.439475
0.47129 0.48542 0.46659
0.50309 0.512505 0.493675
0.534676 0.539376 0.520546
0.566491 0.566491 0.547662
0.598321 0.593606 0.574762
0.629862 0.620447 0.601617
0.661677 0.647562 0.628733
0.498634 0.526879 0.503334
0.530434 0.553994 0.530434
0.562264 0.581094 0.557549
0.593912 0.608042 0.584497
0.625635 0.63505 0.611505
0.65745 0.662165 0.638621
0.689204 0.689204 0.66566
0.720836 0.716121 0.692576
0.752636 0.743236 0.719692
0.589593 0.622553 0.594293
0.621408 0.649653 0.621408
0.653223 0.676768 0.648508
0.684779 0.703609 0.675364
0.716594 0.730724 0.702464
0.748425 0.757839 0.72958
0.780011 0.784726 0.756466
0.811795 0.811795 0.783536
0.843595 0.838911 0.810651
0.680583 0.718212 0.685267
0.712383 0.745327 0.712383
0.744198 0.772427 0.739483
0.775753 0.799283 0.766339
0.807568 0.826383 0.793439
0.839399 0.853498 0.820554
0.870954 0.880354 0.84741
0.90277 0.907454 0.87451
0.934569 0.934569 0.901625
0 0 0
0 0 0
0.0256962 0.0162966 0.0256962
0.0575113 0.0434119 0.0527962
0.0893416 0.0705119 0.0799115
0.120897 0.0973678 0.106767
0.152712 0.124468 0.133867
0.184527 0.151583 0.160983
0.216159 0.178515 0.187915
0.0532998 0.0579995 0.0626993
0.0849165 0.0849165 0.0896162
0.116655 0.111955 0.116655
0.148486 0.139055 0.143771
0.180209 0.166079 0.170779
0.211856 0.193011 0.197726
0.243671 0.220127 0.224842
0.275502 0.247242 0.251942
0.307027 0.274083 0.278798
0.144259 0.153658 0.153658
0.175799 0.180514 0.180514
0.207614 0.207614 0.207614
0.239445 0.23473 0.23473
0.271015 0.261601 0.261601
0.302815 0.288685 0.288685
0.33463 0.315801 0.315801
0.366308 0.342763 0.342763
0.398001 0.369757 0.369757
0.235065 0.24918 0.244465
0.266758 0.276173 0.271473
0.298589 0.303288 0.298589
0.330404 0.330404 0.325704
0.361959 0.357244 0.352544
0.393774 0.38436 0.37966
0.425605 0.411475 0.40676
0.45716 0.438315 0.433616
0.48896 0.465431 0.460731
0.325933 0.344747 0.335317
0.357717 0.371847 0.362432
0.389548 0.398962 0.389548
0.421363 0.426078 0.416663
0.452918 0.452918 0.443503
0.484749 0.480034 0.470619
0.516564 0.507149 0.497719
0.548119 0.533989 0.524575
0.579919 0.561105 0.55169
0.416892 0.440421 0.426291
0.448692 0.467521 0.453407
0.480507 0.494636 0.480507
0.512062 0.521477 0.507362
0.543877 0.548592 0.534463
0.575708 0.575708 0.561578
0.607523 0.602808 0.588693
0.639078 0.629664 0.615534
0.670893 0.656779 0.642649
0.507851 0.53608 0.51725
0.539651 0.563195 0.544366
0.571466 0.590311 0.571466
0.603021 0.617151 0.598321
0.634852 0.644266 0.625422
0.666667 0.671382 0.652537
0.698344 0.698344 0.679515
0.730037 0.725338 0.706493
0.761852 0.752453 0.733608
0.59881 0.631754 0.608209
0.63061 0.658869 0.635325
0.662379 0.685924 0.662379
0.693996 0.712825 0.689281
0.725811 0.73994 0.716396
0.757626 0.767056 0.743496
0.789181 0.793896 0.770352
0.821012 0.821012 0.797452
0.852811 0.848127 0.824582
0.689784 0.727428 0.699184
0.721584 0.754543 0.726299
0.753201 0.781445 0.753201
0.78497 0.808499 0.780255
0.816785 0.835599 0.80737
0.848493 0.862608 0.834363
0.880156 0.889555 0.861326
0.911986 0.916671 0.888441
0.943786 0.943786 0.915557
0 0 0
0.00308232 0 0.0124971
0.0349126 0.0255131 0.0396124
0.0667277 0.0526131 0.0667277
0.0985275 0.0797131 0.0938125
0.130098 0.106569 0.120684
0.161929 0.133684 0.147799
0.193744 0.1608 0.174914
0.225284 0.18764 0.201755
0.0625162 0.0672007 0.0766308
0.0940566 0.0940566 0.103471
0.125872 0.121157 0.130587
0.157687 0.148272 0.157687
0.189242 0.175113 0.184543
0.221073 0.202228 0.211643
0.252888 0.229343 0.238758
0.284642 0.256382 0.265812
0.316243 0.283299 0.292714
0.153399 0.162799 0.167498
0.185016 0.189715 0.19443
0.216831 0.216831 0.221546
0.248646 0.243946 0.248646
0.280201 0.270787 0.275502
0.312032 0.297902 0.302617
0.343847 0.325017 0.329717
0.375463 0.351919 0.356619
0.407202 0.378973 0.383688
0.244221 0.25832 0.25832
0.275975 0.285389 0.285389
0.30779 0.312505 0.312505
0.339483 0.339483 0.339483
0.371176 0.366461 0.366461
0.402991 0.393576 0.393576
0.434806 0.420676 0.420676
0.466361 0.447532 0.447532
0.498177 0.474647 0.474647
0.335134 0.353948 0.349248
0.366934 0.381064 0.376349
0.398764 0.408179 0.403464
0.43032 0.435019 0.43032
0.462135 0.462135 0.45742
0.49395 0.48925 0.484535
0.525597 0.516182 0.511467
0.557336 0.543206 0.538491
0.589136 0.570321 0.565606
0.426093 0.449622 0.440208
0.457893 0.476738 0.467323
0.489723 0.503853 0.494423
0.521279 0.530694 0.521279
0.553094 0.557809 0.548394
0.584924 0.584924 0.575494
0.616464 0.611765 0.60235
0.648295 0.63888 0.62945
0.680095 0.665995 0.656565
0.517067 0.545296 0.531167
0.548867 0.572412 0.558282
0.580682 0.599527 0.585397
0.612238 0.626368 0.612238
0.644053 0.653483 0.639353
0.675883 0.680583 0.666468
0.707439 0.707439 0.693309
0.739254 0.734539 0.720424
0.771069 0.761669 0.747539
0.608026 0.64097 0.622141
0.639826 0.668086 0.649241
0.671382 0.694926 0.676097
0.703197 0.722042 0.703197
0.735027 0.749142 0.730312
0.766812 0.776226 0.757397
0.798398 0.803098 0.784268
0.830213 0.830213 0.811383
0.862028 0.857328 0.838499
0.699001 0.736645 0.713115
0.7308 0.763745 0.740215
0.762356 0.7906 0.767071
0.794171 0.8177 0.794171
0.826001 0.844816 0.821286
0.857649 0.871748 0.848234
0.889372 0.898772 0.875242
0.921187 0.925887 0.902358
0.952926 0.952926 0.929397
0 0 0
0.0122988 0.00761425 0.0264286
0.0441138 0.0347143 0.0535439
0.0759442 0.0618296 0.0806439
0.1075 0.0886702 0.1075
0.139315 0.115785 0.1346
0.17113 0.142901 0.161715
0.202701 0.169757 0.188571
0.234501 0.196857 0.215671
0.071458 0.0761425 0.0902724
0.103258 0.103258 0.117388
0.135088 0.130373 0.144503
0.166903 0.157488 0.171618
0.198459 0.184329 0.198459
0.230274 0.211444 0.225574
0.262104 0.23856 0.252674
0.29366 0.2654 0.27953
0.32546 0.292515 0.306645
0.162417 0.171817 0.181247
0.194217 0.198932 0.208347
0.226047 0.226047 0.235462
0.257816 0.253101 0.262531
0.289418 0.280003 0.289418
0.321248 0.307118 0.316533
0.353063 0.334218 0.343648
0.384619 0.361074 0.370489
0.416419 0.38819 0.397604
0.253391 0.267491 0.272206
0.285191 0.294606 0.299321
0.317006 0.321721 0.326421
0.348562 0.348562 0.353277
0.380377 0.375677 0.380377
0.412207 0.402792 0.407492
0.443931 0.429801 0.434501
0.475578 0.456748 0.461448
0.507378 0.483848 0.488563
0.34435 0.363165 0.363165
0.37615 0.39028 0.39028
0.40795 0.417365 0.417365
0.439521 0.444236 0.444236
0.471351 0.471351 0.471351
0.503166 0.498451 0.498451
0.534737 0.525322 0.525322
0.566537 0.552407 0.552407
0.598352 0.579522 0.579522
0.435309 0.458839 0.454124
0.467109 0.485954 0.481239
0.498772 0.512901 0.508186
0.53048 0.53991 0.535195
0.56231 0.567025 0.56231
0.594125 0.594125 0.589426
0.625681 0.620981 0.616266
0.657511 0.648081 0.643381
0.689311 0.675196 0.670497
0.526268 0.554513 0.545098
0.558068 0.581613 0.572198
0.589624 0.608469 0.599054
0.621454 0.635584 0.626154
0.653269 0.662684 0.653269
0.684886 0.689586 0.680171
0.71664 0.71664 0.707225
0.74847 0.743755 0.73434
0.78027 0.770871 0.761456
0.617243 0.650187 0.636057
0.649042 0.677287 0.663157
0.680598 0.704143 0.690013
0.712413 0.731258 0.717128
0.744228 0.758358 0.744228
0.775784 0.785214 0.771084
0.807614 0.812314 0.798184
0.839429 0.839429 0.825299
0.871229 0.866545 0.852415
0.708217 0.745846 0.727031
0.740001 0.772946 0.754131
0.771572 0.799802 0.780987
0.803388 0.826917 0.808103
0.835203 0.854032 0.835203
0.866758 0.880873 0.862058
0.898589 0.907988 0.889158
0.930404 0.935103 0.916274
0.961944 0.961944 0.94313
0 0 0.0133059
0.0215152 0.0168154 0.0403449
0.0533303 0.0439307 0.0674601
0.0850538 0.0709544 0.0944839
0.116701 0.0978866 0.121416
0.148531 0.125002 0.148531
0.180346 0.152117 0.175631
0.211902 0.178958 0.202487
0.243702 0.206073 0.229603
0.0806744 0.085359 0.104204
0.112474 0.112474 0.131319
0.144289 0.13959 0.158419
0.175875 0.166461 0.185306
0.207675 0.193545 0.212375
0.23949 0.220645 0.23949
0.271305 0.247761 0.266606
0.302861 0.274617 0.293446
0.334676 0.301732 0.320562
0.171633 0.181033 0.195163
0.203433 0.208148 0.222278
0.235264 0.235264 0.249393
0.266804 0.262104 0.276234
0.298634 0.289219 0.303349
0.330449 0.31632 0.330449
0.362005 0.343175 0.357305
0.393835 0.370291 0.384405
0.425635 0.397391 0.411521
0.262592 0.276707 0.286122
0.294392 0.303822 0.313237
0.326223 0.330938 0.340352
0.357778 0.357778 0.367193
0.389593 0.384894 0.394308
0.421408 0.411994 0.421408
0.452964 0.438849 0.448264
0.484794 0.46595 0.47538
0.516594 0.493065 0.50248
0.353552 0.372381 0.377081
0.385367 0.399496 0.404196
0.417105 0.42652 0.431235
0.448737 0.453452 0.458152
0.480552 0.480552 0.485267
0.512383 0.507668 0.512383
0.543938 0.534508 0.539223
0.575753 0.561624 0.566339
0.607553 0.588739 0.593454
0.444526 0.468055 0.468055
0.476326 0.495155 0.495155
0.507881 0.522011 0.522011
0.539696 0.549111 0.549111
0.571527 0.576226 0.576226
0.603204 0.603204 0.603204
0.634897 0.630182 0.630182
0.666712 0.657298 0.657298
0.698482 0.684382 0.684382
0.535485 0.563714 0.559014
0.567239 0.590784 0.586069
0.59884 0.617685 0.61297
0.630655 0.644785 0.640085
0.662486 0.671901 0.667185
0.694041 0.698756 0.694041
0.725856 0.725856 0.721141
0.757687 0.752972 0.748257
0.789303 0.779904 0.775189
0.626444 0.659403 0.649973
0.658061 0.686305 0.67689
0.689799 0.713359 0.703929
0.72163 0.740459 0.731044
0.753445 0.767575 0.75816
0.785 0.794415 0.785
0.816815 0.82153 0.812116
0.848646 0.848646 0.839231
0.880186 0.875486 0.866072
0.717433 0.755062 0.740948
0.748959 0.781903 0.767803
0.780774 0.809018 0.794903
0.812604 0.836133 0.822019
0.844175 0.862989 0.84889
0.875975 0.890089 0.875975
0.90779 0.917189 0.90309
0.93962 0.944305 0.930205
0.97116 0.97116 0.957046
0 0 0.0271611
0.0307164 0.0260319 0.0542763
0.0625467 0.0531472 0.0813764
0.0942092 0.0800946 0.108339
0.125917 0.107103 0.135332
0.157733 0.134203 0.162448
0.189502 0.161257 0.189502
0.221118 0.188174 0.216403
0.252918 0.21529 0.243519
0.0898909 0.0945754 0.11812
0.121691 0.121691 0.145235
0.153506 0.148806 0.172351
0.185061 0.175647 0.199191
0.216876 0.202762 0.226307
0.248707 0.229862 0.253407
0.280324 0.256779 0.280324
0.312078 0.283818 0.307362
0.343877 0.310933 0.334478
0.18085 0.190249 0.209079
0.21265 0.217365 0.236194
0.244343 0.244343 0.263188
0.27602 0.271321 0.29015
0.307851 0.298421 0.317266
0.339666 0.325536 0.344381
0.371221 0.352377 0.371221
0.403037 0.379492 0.398337
0.434852 0.406607 0.425452
0.271809 0.285924 0.300038
0.303609 0.313024 0.327153
0.335164 0.339879 0.354009
0.366979 0.366979 0.381109
0.39881 0.394095 0.408225
0.430625 0.42121 0.43534
0.462181 0.448051 0.462181
0.493996 0.475166 0.489296
0.525811 0.502281 0.516411
0.362768 0.381582 0.391012
0.394568 0.408698 0.418128
0.426123 0.435554 0.444968
0.457954 0.462654 0.472084
0.489769 0.489769 0.499184
0.521324 0.516609 0.52604
0.55314 0.543725 0.55314
0.58497 0.57084 0.580255
0.61677 0.597955 0.60737
0.453727 0.477256 0.481971
0.485542 0.504372 0.509087
0.517098 0.531228 0.535927
0.548913 0.558328 0.563043
0.580728 0.585443 0.590158
0.612284 0.612284 0.616999
0.644114 0.639399 0.644114
0.675929 0.666514 0.671214
0.707637 0.693523 0.698238
0.544701 0.572931 0.572931
0.576379 0.599939 0.599939
0.608057 0.626886 0.626886
0.639872 0.654002 0.654002
0.671672 0.681102 0.681102
0.703243 0.707958 0.707958
0.735073 0.735073 0.735073
0.766888 0.762188 0.762188
0.798428 0.789029 0.789029
0.63566 0.668605 0.66389
0.667201 0.695445 0.690745
0.699016 0.72256 0.717861
0.730831 0.749676 0.744961
0.762493 0.776623 0.771908
0.794217 0.803632 0.798917
0.826032 0.830747 0.826032
0.857786 0.857786 0.853071
0.889387 0.884703 0.879988
0.726558 0.764187 0.754788
0.758175 0.791119 0.78172
0.78999 0.818235 0.808835
0.821805 0.845335 0.835935
0.853376 0.87219 0.862791
0.885191 0.89929 0.889891
0.917006 0.926406 0.917006
0.948623 0.953307 0.943908
0.980362 0.980362 0.970962
0.00813306 0.00813306 0.0410773
0.0399329 0.0352483 0.0681926
0.0717479 0.0623484 0.0953078
0.103304 0.0892042 0.122148
0.135134 0.116304 0.149264
0.166949 0.14342 0.176364
0.198505 0.170275 0.20322
0.23032 0.197375 0.23032
0.262135 0.224491 0.257435
0.0990921 0.103792 0.132036
0.130892 0.130892 0.159152
0.162676 0.157961 0.186221
0.194278 0.184848 0.213107
0.226093 0.211963 0.240223
0.257908 0.239078 0.267338
0.289464 0.265919 0.294179
0.321294 0.293034 0.321294
0.353094 0.32015 0.348409
0.190066 0.199451 0.223011
0.221866 0.226566 0.250111
0.253498 0.253498 0.277043
0.285237 0.280522 0.304067
0.317052 0.307637 0.331182
0.348791 0.334661 0.358206
0.380438 0.361593 0.385138
0.412253 0.388708 0.412253
0.444053 0.415824 0.439368
0.281025 0.295125 0.31397
0.312825 0.32224 0.341085
0.344381 0.349081 0.367926
0.376196 0.376196 0.395041
0.408026 0.403311 0.422156
0.439597 0.430182 0.449027
0.471397 0.457267 0.476112
0.503212 0.484382 0.503212
0.53489 0.51136 0.53019
0.371984 0.390799 0.404929
0.403632 0.417762 0.431891
0.43534 0.444755 0.458885
0.467155 0.47187 0.486
0.498985 0.498985 0.513115
0.530541 0.525826 0.539956
0.562356 0.552941 0.567071
0.594171 0.580041 0.594171
0.625711 0.606897 0.621027
0.462943 0.486473 0.495888
0.494484 0.513313 0.522744
0.526299 0.540429 0.549859
0.558129 0.567544 0.576959
0.589944 0.594659 0.604074
0.6215 0.6215 0.630915
0.653315 0.648615 0.65803
0.685145 0.675715 0.685145
0.716686 0.702571 0.711986
0.553903 0.582147 0.586862
0.585443 0.608988 0.613703
0.617273 0.636103 0.640818
0.649088 0.663218 0.667918
0.680644 0.690059 0.694774
0.712459 0.717174 0.721874
0.744289 0.744289 0.748989
0.776104 0.771389 0.776104
0.807645 0.798245 0.802945
0.644862 0.677821 0.677821
0.676402 0.704662 0.704662
0.708232 0.731777 0.731777
0.740047 0.758892 0.758892
0.771603 0.785733 0.785733
0.803418 0.812848 0.812848
0.835248 0.839948 0.839948
0.866941 0.866941 0.866941
0.898604 0.893919 0.893919
0.735698 0.773342 0.768643
0.767391 0.800336 0.795636
0.799207 0.827451 0.822751
0.830976 0.854505 0.849805
0.862577 0.881407 0.876707
0.894392 0.908507 0.903822
0.926223 0.935622 0.930938
0.957778 0.962463 0.957778
0.989578 0.989578 0.984894
0.0173495 0.0173495 0.0549783
0.0491493 0.0444648 0.0820935
0.0807355 0.0713359 0.10898
0.11252 0.0984207 0.136049
0.144335 0.125521 0.163165
0.176165 0.152636 0.19028
0.207721 0.179477 0.217121
0.239536 0.206592 0.244236
0.271351 0.233707 0.271351
0.108309 0.112993 0.145953
0.140108 0.140108 0.173053
0.171664 0.166949 0.199908
0.203494 0.194064 0.227008
0.235309 0.22118 0.254124
0.267124 0.24828 0.281224
0.29868 0.275135 0.30808
0.33051 0.302251 0.335195
0.36231 0.329366 0.36231
0.199268 0.208667 0.236912
0.231083 0.235782 0.264027
0.262623 0.262623 0.290867
0.294453 0.289738 0.317983
0.326268 0.316854 0.345083
0.357824 0.343694 0.371939
0.389654 0.370809 0.399054
0.421469 0.397925 0.426154
0.453208 0.424979 0.453208
0.290242 0.304341 0.327871
0.321965 0.33138 0.35491
0.353597 0.358297 0.381826
0.385412 0.385412 0.408942
0.417227 0.412528 0.436057
0.448783 0.439368 0.462898
0.480613 0.466484 0.490013
0.512428 0.493584 0.517113
0.54403 0.5205 0.54403
0.381201 0.400015 0.41883
0.412787 0.426917 0.445731
0.444556 0.453971 0.472786
0.476371 0.481086 0.499901
0.50808 0.50808 0.526894
0.539757 0.535042 0.553857
0.571572 0.562158 0.580972
0.603387 0.589258 0.608087
0.634928 0.616114 0.634928
0.47216 0.495689 0.509804
0.5037 0.52253 0.536645
0.535515 0.549645 0.56376
0.56733 0.576761 0.59086
0.598901 0.603601 0.617716
0.630716 0.630716 0.644816
0.662531 0.657832 0.671931
0.694179 0.684764 0.698878
0.725887 0.711788 0.725887
0.562936 0.591165 0.60058
0.594659 0.618204 0.627604
0.626474 0.645319 0.654719
0.658305 0.672435 0.681834
0.68986 0.699275 0.708675
0.721675 0.72639 0.73579
0.753491 0.753491 0.76289
0.785046 0.780346 0.789746
0.816861 0.807462 0.816861
0.653819 0.686763 0.691463
0.685618 0.713878 0.718563
0.717433 0.740993 0.745678
0.749264 0.768093 0.772793
0.780819 0.794949 0.799634
0.812634 0.822049 0.826749
0.844465 0.849165 0.853864
0.876005 0.876005 0.880705
0.90782 0.903136 0.90782
0.744793 0.782437 0.782437
0.776593 0.809552 0.809552
0.808423 0.836652 0.836652
0.839979 0.863508 0.863508
0.871794 0.890608 0.890608
0.903609 0.917723 0.917723
0.935409 0.944808 0.944808
0.966995 0.971679 0.971679
0.99826 0.99826 0.99826
