public/LUTS/Black&White/Black&White_03.cube
TITLE "Generated by Resolve"
LUT_3D_SIZE 5
0.423575 0.423575 0.423575
0.481392 0.47248 0.47248
0.540642 0.52607 0.52607
0.59884 0.580743 0.580743
0.654826 0.633539 0.633539
0.598108 0.607004 0.598108
0.656977 0.656977 0.648081
0.708186 0.70251 0.693614
0.750774 0.741588 0.732692
0.786572 0.774182 0.765286
0.745449 0.760021 0.745449
0.78352 0.789197 0.774624
0.81561 0.81561 0.801038
0.843397 0.839887 0.825315
0.868742 0.862028 0.847456
0.835126 0.853223 0.835126
0.864424 0.87361 0.855528
0.889632 0.893141 0.875044
0.912123 0.912123 0.894026
0.933562 0.930358 0.912276
0.90251 0.923796 0.90251
0.928344 0.940734 0.919448
0.951308 0.958007 0.936721
0.972702 0.975891 0.954604
0.994186 0.994186 0.972915
0.439597 0.439597 0.448508
0.499046 0.49015 0.499046
0.558999 0.544411 0.553323
0.616724 0.598627 0.607538
0.67129 0.650004 0.658915
0.615671 0.624582 0.624582
0.672892 0.672892 0.672892
0.721706 0.71603 0.71603
0.762249 0.753063 0.753063
0.795941 0.783566 0.783566
0.755734 0.770306 0.764645
0.79263 0.798306 0.79263
0.823713 0.823713 0.818036
0.850736 0.847227 0.84155
0.875502 0.868803 0.863127
0.842252 0.860334 0.851148
0.871015 0.880201 0.871015
0.895781 0.89929 0.890105
0.917952 0.917952 0.908766
0.939269 0.93608 0.926894
0.908309 0.929595 0.91722
0.933959 0.946334 0.933959
0.95697 0.963668 0.951293
0.978393 0.981582 0.969207
1 1 0.987808
0.45658 0.45658 0.471153
0.517342 0.508431 0.523018
0.577249 0.562676 0.577249
0.634562 0.616464 0.631052
0.687388 0.666102 0.68069
0.632685 0.641596 0.647272
0.688334 0.688334 0.694011
0.734966 0.729305 0.734966
0.772961 0.763775 0.769451
0.80531 0.792935 0.798611
0.765942 0.780514 0.780514
0.801617 0.807279 0.807279
0.831769 0.831769 0.831769
0.85803 0.85452 0.85452
0.882322 0.875624 0.875624
0.849409 0.867491 0.863981
0.877562 0.886748 0.883238
0.902083 0.905592 0.902083
0.923949 0.923949 0.920439
0.945174 0.941985 0.938476
0.91429 0.935576 0.928878
0.939834 0.952209 0.94551
0.96289 0.969604 0.96289
0.984451 0.98764 0.980941
1 1 0.999695
0.474083 0.474083 0.49218
0.535958 0.527047 0.545144
0.595834 0.581247 0.599344
0.651942 0.63386 0.651942
0.703059 0.681788 0.69987
0.649622 0.658518 0.667704
0.703166 0.703166 0.712352
0.747402 0.741741 0.750927
0.78323 0.774044 0.78323
0.814481 0.802106 0.811292
0.775784 0.790356 0.793866
0.810285 0.815961 0.819471
0.839796 0.839796 0.843305
0.865339 0.86183 0.865339
0.889143 0.882445 0.885954
0.856519 0.874617 0.874617
0.884245 0.893431 0.893431
0.908415 0.911925 0.911925
0.930098 0.930098 0.930098
0.951141 0.947951 0.947951
0.920363 0.941649 0.93846
0.945891 0.958267 0.955077
0.968917 0.975616 0.972427
0.990738 0.993942 0.990738
1 1 1
0.49221 0.49221 0.513497
0.554482 0.545586 0.566857
0.614099 0.599527 0.620813
0.668757 0.650675 0.671962
0.718059 0.696773 0.718059
0.665919 0.674815 0.687205
0.717113 0.717113 0.729488
0.759243 0.753567 0.765957
0.793103 0.783917 0.796307
0.823301 0.81091 0.823301
0.78526 0.799847 0.806546
0.818845 0.824521 0.83122
0.847486 0.847486 0.854185
0.872511 0.869001 0.8757
0.895766 0.889067 0.895766
0.863447 0.881529 0.884733
0.890806 0.899992 0.903181
0.914626 0.918135 0.921324
0.936217 0.936217 0.939406
0.957214 0.954025 0.957214
0.92639 0.947677 0.947677
0.951965 0.96434 0.96434
0.975097 0.981811 0.981811
0.997147 1 1
1 1 1
