public/LUTS/Black&White/Black&White_08.cube
TITLE "Generated by Resolve"
LUT_3D_SIZE 5
0 0 0
0 0 0
0 0 0
0 0 0
0.0845045 0.03122 0.03122
0 0 0
0.0721599 0.0721599 0.058854
0.162264 0.148928 0.135622
0.252003 0.22533 0.212024
0.34197 0.301991 0.288685
0.24004 0.266682 0.24004
0.329747 0.343084 0.316442
0.419654 0.419654 0.393011
0.509575 0.496239 0.469596
0.599283 0.572641 0.545998
0.497322 0.537301 0.497322
0.58732 0.613993 0.574014
0.677058 0.690394 0.650416
0.767163 0.767163 0.727184
0.85687 0.843565 0.803586
0.754833 0.808133 0.754833
0.844923 0.884901 0.831617
0.934646 0.961303 0.908003
1 1 0.984726
1 1 1
0 0 0
0 0 0
0 0 0
0.0204929 0 0
0.110323 0.0570382 0.0703441
0.00854505 0.0218509 0.0218509
0.0982528 0.0982528 0.0982528
0.188006 0.17467 0.17467
0.27808 0.251408 0.251408
0.367803 0.32781 0.32781
0.265751 0.292393 0.279057
0.355825 0.369162 0.355825
0.445563 0.445563 0.432227
0.535668 0.522332 0.508995
0.625376 0.598733 0.585397
0.523323 0.563302 0.536629
0.613413 0.640085 0.613413
0.703136 0.716472 0.689799
0.793042 0.793042 0.766369
0.882963 0.869642 0.842985
0.780926 0.834211 0.794232
0.87071 0.910704 0.87071
0.960739 0.987381 0.947402
1 1 1
1 1 1
0 0 0
0 0 0
0 0 0
0.0465858 0.00660716 0.0332494
0.136294 0.0830091 0.109651
0.0342565 0.0475624 0.0608988
0.124331 0.124331 0.137667
0.214069 0.200732 0.214069
0.304173 0.277501 0.290837
0.393881 0.353902 0.367239
0.291829 0.318486 0.318486
0.381888 0.395224 0.395224
0.471641 0.471641 0.471641
0.56141 0.548074 0.548074
0.651453 0.624811 0.624811
0.549416 0.589395 0.576059
0.639124 0.665797 0.652461
0.729229 0.742565 0.729229
0.818952 0.818952 0.805615
0.909041 0.895735 0.882399
0.807019 0.860304 0.833661
0.896712 0.93669 0.910048
0.986816 1 0.986816
1 1 1
1 1 1
0 0 0
0 0 0
0 0 0
0.0725872 0.0326085 0.0725872
0.162387 0.109102 0.149081
0.0603342 0.07364 0.100313
0.150256 0.150256 0.176913
0.240146 0.22681 0.253483
0.329885 0.303212 0.329885
0.419959 0.37998 0.406653
0.317922 0.344564 0.3579
0.40763 0.420966 0.434302
0.497734 0.497734 0.51107
0.587457 0.574121 0.587457
0.677546 0.650904 0.66424
0.575494 0.615473 0.615473
0.665202 0.691875 0.691875
0.755291 0.768627 0.768627
0.845045 0.845045 0.845045
0.934752 0.921447 0.921447
0.832975 0.886275 0.872953
0.922805 0.962783 0.949477
1 1 1
1 1 1
1 1 1
0 0 0
0 0 0
0.00865187 0 0.0352941
0.0983749 0.0583963 0.111696
0.188479 0.13518 0.188479
0.0864271 0.099733 0.139712
0.176135 0.176135 0.216114
0.266239 0.252903 0.292882
0.355962 0.329305 0.369284
0.445975 0.405997 0.445975
0.343999 0.370657 0.397299
0.433707 0.447044 0.473686
0.523644 0.523644 0.550286
0.61355 0.600214 0.626856
0.703258 0.676616 0.703258
0.601328 0.641306 0.654612
0.691295 0.717968 0.731273
0.781018 0.794354 0.807675
0.871138 0.871138 0.884443
0.960845 0.947524 0.960845
0.858808 0.912093 0.912093
0.948898 0.988876 0.988876
1 1 1
1 1 1
1 1 1
