public/LUTS/Black&White/Black&White_07.cube
TITLE "Generated by Resolve"
LUT_3D_SIZE 5
0 0 0
0 0 0
0 0 0
0 0 0
0.0541543 0.0100252 0.0100252
0 0 0
0.0439307 0.0439307 0.0329137
0.118547 0.1075 0.0964828
0.192844 0.170748 0.159731
0.267338 0.234226 0.223209
0.182925 0.20499 0.182925
0.257206 0.268254 0.246189
0.331655 0.331655 0.30959
0.406104 0.395071 0.373007
0.480385 0.45832 0.436271
0.395956 0.429068 0.395956
0.470481 0.492561 0.459464
0.544778 0.55581 0.522713
0.619379 0.619379 0.586282
0.69366 0.682643 0.649531
0.609171 0.6533 0.609171
0.683772 0.716869 0.67274
0.758053 0.780118 0.736004
0.832624 0.843641 0.799527
0.90695 0.90695 0.862821
0 0 0
0 0 0
0 0 0
0.00115969 0 0
0.0755322 0.0314183 0.0424353
0 0.00227359 0.00227359
0.0655375 0.0655375 0.0655375
0.139849 0.128817 0.128817
0.214435 0.192355 0.192355
0.288716 0.255619 0.255619
0.204227 0.226276 0.215244
0.278798 0.289845 0.278798
0.353094 0.353094 0.342061
0.42771 0.416663 0.405615
0.501991 0.479927 0.468879
0.417487 0.450599 0.428504
0.492073 0.514153 0.492073
0.566369 0.577417 0.555322
0.640818 0.640818 0.618723
0.715251 0.704234 0.682155
0.630777 0.674907 0.641794
0.705119 0.738231 0.705119
0.77966 0.801724 0.768612
0.853956 0.864973 0.831876
0.928542 0.928542 0.895445
0 0 0
0 0 0
0 0 0
0.0227665 0 0.0117189
0.0970321 0.0529183 0.0749828
0.0125429 0.0235599 0.0346075
0.087129 0.087129 0.0981765
0.161425 0.150393 0.161425
0.236027 0.213947 0.224994
0.310307 0.277211 0.288243
0.225818 0.247883 0.247883
0.300389 0.311421 0.311421
0.374701 0.374701 0.374701
0.449012 0.43798 0.43798
0.523583 0.501518 0.501518
0.439094 0.47219 0.461158
0.513359 0.535454 0.524407
0.587976 0.599008 0.587976
0.662257 0.662257 0.651225
0.736858 0.725826 0.714794
0.652384 0.696498 0.674434
0.72665 0.759747 0.737697
0.801251 0.823316 0.801251
0.875547 0.886564 0.864515
0.949828 0.949828 0.927764
0 0 0
0 0 0
0 0 0
0.0442817 0.0111849 0.0442817
0.118639 0.0745098 0.107622
0.0341497 0.0451667 0.0672465
0.108583 0.108583 0.130678
0.183032 0.171984 0.194064
0.257328 0.235233 0.257328
0.331914 0.298802 0.320897
0.24741 0.269474 0.280522
0.321691 0.332738 0.343771
0.396292 0.396292 0.40734
0.470588 0.459556 0.470588
0.545174 0.523125 0.534157
0.460685 0.493782 0.493782
0.534966 0.557046 0.557046
0.609552 0.620584 0.620584
0.683864 0.683864 0.683864
0.758144 0.747127 0.747127
0.673884 0.717998 0.706981
0.748257 0.781353 0.770336
0.822538 0.844602 0.833585
0.897154 0.908171 0.897154
0.971435 0.971435 0.960403
0 0 0
0 0 0
0 0 0.0134127
0.0656443 0.0325475 0.0766613
0.140246 0.0961166 0.140246
0.0557412 0.0667582 0.0998703
0.130022 0.130022 0.163119
0.204623 0.193576 0.226688
0.27892 0.25684 0.289937
0.353445 0.320348 0.353445
0.269017 0.291081 0.313146
0.343282 0.35433 0.376394
0.417762 0.417762 0.439811
0.492195 0.481147 0.503212
0.566476 0.544411 0.566476
0.482063 0.515175 0.526192
0.556558 0.578637 0.58967
0.630854 0.641901 0.652918
0.70547 0.70547 0.716487
0.779736 0.768719 0.779736
0.695262 0.739391 0.739391
0.769848 0.80296 0.80296
0.844144 0.866209 0.866209
0.91873 0.929747 0.929747
0.992401 0.992401 0.992401
