public/LUTS/Black&White/Black&White_06.cube
TITLE "Generated by Resolve"
LUT_3D_SIZE 5
0 0 0
0 0 0
0 0 0
0.0656596 0.0352636 0.0352636
0.134142 0.0936294 0.0936294
0.0565652 0.0666819 0.0565652
0.124758 0.124758 0.114641
0.193271 0.183124 0.173007
0.261479 0.241215 0.231098
0.3299 0.299504 0.289372
0.252384 0.272648 0.252384
0.320592 0.330724 0.310475
0.388952 0.388952 0.368688
0.457313 0.447181 0.426917
0.525521 0.505257 0.485008
0.448005 0.478401 0.448005
0.516426 0.536706 0.50631
0.584634 0.594781 0.564385
0.653147 0.653147 0.622751
0.72134 0.711223 0.680827
0.643778 0.684291 0.643778
0.712261 0.742657 0.702144
0.780484 0.800748 0.760235
0.848951 0.859068 0.818555
0.917189 0.917189 0.876677
0 0 0
0 0 0
0.0172732 0 0.00712596
0.085481 0.0550851 0.0652018
0.15378 0.113268 0.123384
0.0764019 0.0865187 0.0865187
0.144594 0.144594 0.144594
0.212833 0.202701 0.202701
0.281315 0.261036 0.261036
0.349523 0.319127 0.319127
0.271946 0.292195 0.282063
0.340429 0.350561 0.340429
0.408637 0.408637 0.398505
0.47715 0.467002 0.45687
0.545357 0.525093 0.514961
0.467765 0.498161 0.477882
0.536248 0.556527 0.536248
0.604471 0.614603 0.594339
0.672831 0.672831 0.652552
0.741176 0.73106 0.710781
0.663615 0.704128 0.673732
0.731884 0.762264 0.731884
0.80032 0.820569 0.790173
0.868544 0.87866 0.848264
0.937026 0.937026 0.90663
0 0 0
0 0 0
0.03682 0.016556 0.03682
0.105318 0.0749218 0.0951858
0.173526 0.133013 0.153262
0.0959335 0.10605 0.116197
0.164431 0.164431 0.174563
0.232639 0.222507 0.232639
0.301152 0.280873 0.291005
0.369345 0.338964 0.349096
0.291768 0.312032 0.312032
0.360235 0.370382 0.370382
0.428473 0.428473 0.428473
0.496712 0.48658 0.48658
0.565179 0.54493 0.54493
0.487602 0.517998 0.507866
0.555795 0.576074 0.565942
0.624308 0.63444 0.624308
0.692515 0.692515 0.682383
0.761013 0.750896 0.740749
0.683452 0.723964 0.7037
0.751644 0.78204 0.761776
0.820142 0.840406 0.820142
0.888365 0.898482 0.878233
0.956573 0.956573 0.936309
0 0 0
0 0 0.00869764
0.0566415 0.0363928 0.0667887
0.125093 0.0946975 0.125093
0.193347 0.152834 0.18323
0.11577 0.125887 0.146166
0.184131 0.184131 0.20441
0.252476 0.242344 0.262623
0.320699 0.30042 0.320699
0.389181 0.358785 0.379065
0.311604 0.331853 0.342
0.379797 0.389944 0.400076
0.44831 0.44831 0.458442
0.516533 0.506386 0.516533
0.585016 0.564752 0.574899
0.507424 0.53782 0.53782
0.575631 0.595911 0.595911
0.644114 0.654261 0.654261
0.712352 0.712352 0.712352
0.78056 0.770443 0.770443
0.703182 0.743694 0.733577
0.771481 0.801877 0.79176
0.839689 0.859953 0.849836
0.908202 0.918318 0.908202
0.97641 0.97641 0.966278
0 0 0
0.00801099 0 0.038407
0.0764782 0.0562142 0.0967269
0.144701 0.114305 0.154818
0.213184 0.172671 0.213184
0.135607 0.145724 0.17612
0.2038 0.2038 0.234195
0.272312 0.262165 0.292561
0.340536 0.320256 0.350652
0.408957 0.378561 0.408957
0.331441 0.35169 0.371954
0.399634 0.409766 0.43003
0.468009 0.468009 0.488273
0.536355 0.526223 0.546487
0.604562 0.584314 0.604562
0.527062 0.557458 0.567575
0.595468 0.615747 0.625864
0.663691 0.673823 0.68394
0.732189 0.732189 0.742306
0.800397 0.79028 0.800397
0.72282 0.763333 0.763333
0.791318 0.821714 0.821714
0.859525 0.879789 0.879789
0.928008 0.938125 0.938125
0.995666 0.995666 0.995666
