public/LUTS/Black&White/Black&White_04.cube
TITLE "Generated by Resolve"
LUT_3D_SIZE 5
0 0 0
0.0596323 0.050721 0.050721
0.120012 0.102144 0.102144
0.180148 0.153353 0.153353
0.240528 0.204807 0.204807
0.172137 0.181048 0.172137
0.232258 0.232258 0.223331
0.292638 0.283711 0.274784
0.352789 0.334905 0.325994
0.413092 0.386297 0.377371
0.344762 0.362615 0.344762
0.404883 0.413825 0.395972
0.465141 0.465141 0.447288
0.525414 0.516472 0.498619
0.585534 0.567681 0.549828
0.517205 0.543999 0.517205
0.577523 0.595392 0.568597
0.637659 0.646601 0.619806
0.698054 0.698054 0.67126
0.758175 0.749249 0.722454
0.689799 0.725505 0.689799
0.750164 0.776959 0.741253
0.8103 0.828168 0.792447
0.870665 0.879576 0.84387
0.930816 0.930816 0.895109
0.0169833 0.0169833 0.0258946
0.0771038 0.0681773 0.0771038
0.137484 0.119631 0.128557
0.197635 0.17084 0.179751
0.257832 0.222126 0.231037
0.189624 0.198535 0.198535
0.249729 0.249729 0.249729
0.309895 0.300954 0.300954
0.37026 0.352392 0.352392
0.430396 0.403601 0.403601
0.362005 0.379858 0.370916
0.42237 0.431312 0.42237
0.482506 0.482506 0.473564
0.542901 0.533959 0.525017
0.603021 0.585168 0.576226
0.53463 0.561425 0.543557
0.59501 0.612879 0.59501
0.655146 0.664073 0.646204
0.715404 0.715404 0.69752
0.775662 0.766735 0.748867
0.707286 0.742992 0.716197
0.767452 0.794247 0.767452
0.827787 0.84564 0.818845
0.887938 0.896849 0.870054
0.948302 0.948302 0.921508
0.0344549 0.0344549 0.0523232
0.0945907 0.0856641 0.103517
0.154726 0.136873 0.154726
0.215106 0.188312 0.20618
0.275242 0.239521 0.257374
0.206851 0.215763 0.224704
0.267216 0.267216 0.276158
0.327352 0.318425 0.327352
0.387747 0.369879 0.378805
0.447868 0.421073 0.430014
0.379477 0.397345 0.397345
0.439841 0.448768 0.448768
0.499992 0.499992 0.499992
0.560143 0.551217 0.551217
0.620508 0.602655 0.602655
0.552117 0.578912 0.56997
0.612238 0.630106 0.62118
0.672633 0.681559 0.672633
0.732769 0.732769 0.723827
0.793133 0.784222 0.77528
0.724758 0.760479 0.742626
0.784878 0.811673 0.79382
0.845273 0.863127 0.845273
0.905409 0.914336 0.896468
0.96553 0.96553 0.947677
0.0516976 0.0516976 0.0784924
0.112062 0.103151 0.129946
0.172213 0.154345 0.18114
0.232547 0.205753 0.232547
0.292729 0.257008 0.283803
0.224323 0.233249 0.251118
0.284596 0.284596 0.302464
0.344839 0.335912 0.35378
0.404974 0.387106 0.404974
0.465354 0.43856 0.456443
0.396963 0.414816 0.423758
0.457084 0.466026 0.474968
0.517479 0.517479 0.526421
0.577615 0.568673 0.577615
0.637995 0.620127 0.629068
0.569589 0.596384 0.596384
0.629725 0.647593 0.647593
0.690089 0.699031 0.699031
0.750256 0.750256 0.750256
0.810376 0.80145 0.80145
0.742168 0.777874 0.768963
0.802365 0.82916 0.820249
0.862501 0.880369 0.871443
0.922896 0.931807 0.922896
0.983017 0.983017 0.974105
0.0691844 0.0691844 0.104891
0.129335 0.120409 0.15613
0.189685 0.171832 0.207553
0.249821 0.223026 0.258747
0.310201 0.274495 0.310201
0.24181 0.250736 0.277531
0.30193 0.30193 0.328725
0.362325 0.353384 0.380179
0.422461 0.404593 0.431388
0.48278 0.455985 0.48278
0.41445 0.432303 0.450156
0.474571 0.483513 0.501366
0.534844 0.534844 0.552697
0.595102 0.58616 0.604013
0.655222 0.637369 0.655222
0.586908 0.613703 0.622614
0.647196 0.66508 0.673991
0.707347 0.716274 0.7252
0.767727 0.767727 0.776654
0.827863 0.818936 0.827863
0.759472 0.795193 0.795193
0.819852 0.846647 0.846647
0.879988 0.897841 0.897841
0.940368 0.949279 0.949279
1 1 1
