public/LUTS/Black&White/Black&White_09.cube
TITLE "Generated by Resolve"
LUT_3D_SIZE 9
0 0 0
0 0 0
0 0 0
0 0 0
0 0 0
0 0 0
0 0 0
0.0504005 0 0
0.110079 0.0394598 0.0394598
0 0 0
0 0 0
0 0 0
0 0 0
0.0424659 0.0159457 0.00714122
0.101671 0.0663157 0.0575265
0.161379 0.117205 0.1084
0.221088 0.168063 0.159274
0.280781 0.218952 0.210163
0 0 0
0.0345159 0.0433509 0.0257115
0.0937362 0.0937362 0.0760967
0.153445 0.144594 0.12697
0.213153 0.195483 0.177844
0.272358 0.245853 0.228214
0.332082 0.296727 0.279088
0.391791 0.347601 0.329961
0.451331 0.398352 0.380713
0.145525 0.172 0.145525
0.205035 0.222721 0.196231
0.264424 0.273259 0.246784
0.324132 0.324132 0.297658
0.383856 0.375006 0.348531
0.443061 0.425391 0.398901
0.50277 0.476265 0.44979
0.562478 0.527138 0.500664
0.621668 0.577523 0.551049
0.316228 0.351537 0.316228
0.375402 0.401923 0.366598
0.435126 0.452796 0.417487
0.494835 0.50367 0.468345
0.554284 0.554284 0.518975
0.613748 0.604913 0.569604
0.673472 0.655787 0.620478
0.733104 0.706584 0.671275
0.79237 0.757046 0.721736
0.486809 0.530953 0.486809
0.546105 0.581445 0.537301
0.605814 0.632319 0.588174
0.665522 0.683192 0.639048
0.724743 0.733577 0.689433
0.784451 0.784451 0.740291
0.84416 0.835325 0.79118
0.903517 0.885847 0.841703
0.963058 0.936584 0.892439
0.657221 0.710216 0.657221
0.716793 0.760983 0.707988
0.776501 0.811856 0.758877
0.83621 0.86273 0.809735
0.89543 0.913115 0.860121
0.955139 0.963973 0.910994
1 1 0.961868
1 1 1
1 1 1
0.827802 0.889632 0.827802
0.88748 0.940505 0.878691
0.947204 0.991394 0.929564
1 1 0.979965
1 1 1
1 1 1
1 1 1
1 1 1
1 1 1
0.998535 1 0.998535
1 1 1
1 1 1
1 1 1
1 1 1
1 1 1
1 1 1
1 1 1
1 1 1
0 0 0
0 0 0
0 0 0
0 0 0
0 0 0
0 0 0
0.00796521 0 0
0.067689 0.00585946 0.0146639
0.127153 0.0565194 0.0653239
0 0 0
0 0 0
0 0 0
3.0518e-05 0 0
0.0597391 0.0332341 0.0332341
0.118959 0.0836042 0.0836042
0.178668 0.134478 0.134478
0.238376 0.185367 0.185367
0.297581 0.235752 0.235752
0 0.00976577 0.0009308
0.0513008 0.0601511 0.0513008
0.111009 0.111009 0.102174
0.170733 0.161898 0.153048
0.230442 0.212757 0.203922
0.289662 0.263142 0.254307
0.349355 0.314015 0.30518
0.409079 0.364889 0.356054
0.468269 0.415274 0.406439
0.162814 0.189288 0.171618
0.222004 0.239673 0.222004
0.281712 0.290547 0.272877
0.341421 0.341421 0.323751
0.400641 0.391791 0.374121
0.460349 0.442679 0.424994
0.520058 0.493538 0.475868
0.579767 0.544427 0.526741
0.638956 0.594812 0.577142
0.333516 0.368826 0.342321
0.392691 0.419211 0.392691
0.452399 0.470085 0.443565
0.512123 0.520958 0.494438
0.571328 0.571328 0.544823
0.631037 0.622202 0.595697
0.690761 0.673091 0.646571
0.750271 0.723751 0.697246
0.809659 0.77435 0.747829
0.503975 0.548119 0.512779
0.563394 0.598733 0.563394
0.623102 0.649607 0.614267
0.682765 0.700435 0.665095
0.742016 0.750866 0.715511
0.80174 0.80174 0.766384
0.861448 0.852613 0.817273
0.920668 0.902983 0.867643
0.980346 0.953872 0.918532
0.674403 0.727398 0.683207
0.734081 0.778271 0.734081
0.79379 0.829145 0.784955
0.853178 0.879698 0.835508
0.912718 0.930388 0.886198
0.972427 0.981262 0.937087
1 1 0.987823
1 1 1
1 1 1
0.845106 0.90692 0.853895
0.904784 0.957794 0.904784
0.964492 1 0.955642
1 1 1
1 1 1
1 1 1
1 1 1
1 1 1
1 1 1
1 1 1
1 1 1
1 1 1
1 1 1
1 1 1
1 1 1
1 1 1
1 1 1
1 1 1
0 0 0
0 0 0
0 0 0
0 0 0
0 0 0
0 0 0
0.0252537 0 0
0.0849775 0.0231479 0.0407874
0.14432 0.0736858 0.0913252
0 0 0
0 0 0
0 0 0
0.017319 0 0.00848402
0.0768444 0.0503395 0.0591745
0.136248 0.100893 0.109743
0.195956 0.151766 0.160601
0.255665 0.202655 0.21149
0.314855 0.253025 0.26186
0.00941482 0.0270542 0.0270542
0.0685893 0.0774243 0.0774243
0.128298 0.128298 0.128298
0.188022 0.179187 0.179187
0.247272 0.229603 0.229603
0.306935 0.28043 0.28043
0.366644 0.331304 0.331304
0.426093 0.381903 0.381903
0.485557 0.432563 0.432563
0.179797 0.206271 0.197436
0.239277 0.256962 0.248112
0.299001 0.307836 0.299001
0.358709 0.358709 0.349874
0.417914 0.409079 0.400244
0.477638 0.459968 0.451118
0.537346 0.510826 0.501991
0.596567 0.561212 0.552377
0.656245 0.6121 0.603265
0.350301 0.385611 0.367941
0.409979 0.436484 0.418814
0.469688 0.487358 0.469688
0.529412 0.538247 0.520562
0.588617 0.588617 0.570947
0.648325 0.63949 0.62182
0.708034 0.690364 0.672694
0.767254 0.740749 0.723064
0.826947 0.791623 0.773953
0.521004 0.565148 0.538628
0.580682 0.616022 0.589517
0.640391 0.666896 0.640391
0.699596 0.717281 0.690761
0.759304 0.768139 0.741634
0.819028 0.819028 0.792508
0.878737 0.869902 0.843381
0.937957 0.920272 0.893767
0.997635 0.97116 0.944656
0.691691 0.744686 0.709331
0.751369 0.79556 0.760204
0.811078 0.846433 0.811078
0.870298 0.896803 0.861463
0.930007 0.947677 0.912322
0.989715 0.99855 0.963211
1 1 1
1 1 1
1 1 1
0.862379 0.924208 0.880018
0.922072 0.975082 0.930907
0.981659 1 0.981659
1 1 1
1 1 1
1 1 1
1 1 1
1 1 1
1 1 1
1 1 1
1 1 1
1 1 1
1 1 1
1 1 1
1 1 1
1 1 1
1 1 1
1 1 1
0 0 0
0 0 0
0 0 0
0 0 0
0 0 0
0 0 0
0.0425422 0 0.0160372
0.102266 0.0404364 0.0669108
0.16144 0.0908217 0.117296
0 0 0
0 0 0
0 0 0
0.0346075 0.0169223 0.0346075
0.0938277 0.0673075 0.0849775
0.153536 0.118181 0.135866
0.213245 0.169055 0.186725
0.272831 0.219806 0.237491
0.332143 0.270314 0.287984
0.0265507 0.0441901 0.0530251
0.0858778 0.0947127 0.103548
0.145586 0.145586 0.154421
0.205295 0.19646 0.205295
0.264515 0.246845 0.25568
0.324224 0.297719 0.306554
0.383932 0.348592 0.357427
0.443259 0.399069 0.407904
0.502831 0.449851 0.458686
0.196963 0.223438 0.223438
0.256565 0.27425 0.27425
0.316289 0.325124 0.325124
0.375753 0.375753 0.375753
0.435203 0.426368 0.426368
0.494926 0.477256 0.477256
0.554635 0.528115 0.528115
0.613855 0.5785 0.5785
0.673533 0.629374 0.629374
0.36759 0.402899 0.394064
0.427268 0.453773 0.444938
0.486976 0.504646 0.495811
0.546197 0.555032 0.546197
0.605905 0.605905 0.59707
0.665614 0.656779 0.647944
0.724987 0.707317 0.698482
0.784543 0.758038 0.749187
0.844221 0.808911 0.800076
0.538293 0.582437 0.564767
0.597955 0.63331 0.615625
0.657679 0.684184 0.666514
0.716884 0.734569 0.716884
0.776593 0.785428 0.767758
0.836316 0.836316 0.818631
0.895521 0.886687 0.869017
0.95523 0.93756 0.91989
1 0.988449 0.970779
0.70898 0.761959 0.735454
0.768658 0.812833 0.786328
0.828367 0.863722 0.837201
0.887587 0.914092 0.887587
0.947295 0.964965 0.93846
1 1 0.989334
1 1 1
1 1 1
1 1 1
0.879667 0.941497 0.906142
0.939345 0.99237 0.957015
0.998566 1 1
1 1 1
1 1 1
1 1 1
1 1 1
1 1 1
1 1 1
1 1 1
1 1 1
1 1 1
1 1 1
1 1 1
1 1 1
1 1 1
1 1 1
1 1 1
0 0 0
0 0 0
0 0 0
0 0 0
0 0 0
0.000122072 0 0
0.0598306 0.0068513 0.0421607
0.119066 0.0572366 0.0925612
0.178729 0.10811 0.14342
0 0 0
0 0 0
0 0 0.00985733
0.0518959 0.0342107 0.0607309
0.111101 0.084596 0.111101
0.170809 0.13547 0.161975
0.230533 0.186343 0.212863
0.289754 0.236728 0.263233
0.349432 0.287602 0.314122
0.0434882 0.0611276 0.0787976
0.103166 0.112001 0.129671
0.162875 0.162875 0.180545
0.222492 0.213657 0.231327
0.281804 0.264134 0.281804
0.341512 0.315007 0.332677
0.401221 0.365881 0.383551
0.460441 0.416251 0.433936
0.520119 0.46714 0.48481
0.214191 0.240665 0.2495
0.273854 0.291524 0.300374
0.333577 0.342412 0.351247
0.392782 0.392782 0.401617
0.452491 0.443656 0.452491
0.512215 0.494545 0.50338
0.57174 0.54522 0.554055
0.631144 0.595789 0.604623
0.690822 0.646662 0.655497
0.384878 0.420188 0.420188
0.444556 0.471061 0.471061
0.504234 0.521904 0.521904
0.56347 0.572305 0.572305
0.623194 0.623194 0.623194
0.682902 0.674067 0.674067
0.742153 0.724483 0.724483
0.801831 0.775326 0.775326
0.861509 0.8262 0.8262
0.555566 0.599725 0.59089
0.615244 0.650599 0.641749
0.674647 0.701167 0.692332
0.734173 0.751842 0.743008
0.793881 0.802716 0.793881
0.853605 0.853605 0.84477
0.91281 0.903975 0.89514
0.972519 0.954849 0.946014
1 1 0.996887
0.726268 0.779248 0.761578
0.785931 0.830121 0.812451
0.845151 0.880507 0.862837
0.90486 0.93138 0.913695
0.964584 0.982254 0.964584
1 1 1
1 1 1
1 1 1
1 1 1
0.896956 0.958785 0.93228
0.956634 1 0.983139
1 1 1
1 1 1
1 1 1
1 1 1
1 1 1
1 1 1
1 1 1
1 1 1
1 1 1
1 1 1
1 1 1
1 1 1
1 1 1
1 1 1
1 1 1
1 1 1
0 0 0
0 0 0
0 0 0
0 0 0
0 0 0
0.0174105 0 0.0174105
0.0771191 0.0241398 0.0682841
0.136324 0.0745098 0.118654
0.196017 0.125399 0.169543
0 0 0
0 0 0
0.00947585 0.000640879 0.0359808
0.0687419 0.0510719 0.0864118
0.128389 0.101884 0.13724
0.188098 0.152758 0.188098
0.247822 0.203632 0.238987
0.307042 0.254017 0.289357
0.36672 0.304891 0.340246
0.0607767 0.0784009 0.104921
0.120455 0.12929 0.155795
0.180163 0.180163 0.206683
0.239368 0.230533 0.257053
0.299092 0.281422 0.307927
0.358801 0.33228 0.358801
0.418021 0.382666 0.409171
0.477729 0.433539 0.46006
0.537408 0.484428 0.510933
0.231464 0.257939 0.275608
0.291142 0.308812 0.326497
0.350866 0.359701 0.377371
0.410071 0.410071 0.427741
0.46978 0.460945 0.478614
0.529488 0.511818 0.529488
0.588708 0.562203 0.579873
0.648432 0.613077 0.630747
0.70811 0.663951 0.68162
0.402152 0.437476 0.446311
0.461845 0.48835 0.497185
0.521401 0.539071 0.547906
0.580758 0.589593 0.598444
0.640482 0.640482 0.649317
0.700191 0.691356 0.700191
0.759396 0.741726 0.750561
0.81912 0.792599 0.80145
0.878798 0.843488 0.852323
0.572854 0.616999 0.616999
0.632532 0.667887 0.667887
0.691752 0.718257 0.718257
0.751461 0.769131 0.769131
0.81117 0.820005 0.820005
0.870634 0.870634 0.870634
0.930098 0.921263 0.921263
0.989807 0.972137 0.972137
1 1 1
0.743542 0.796536 0.787701
0.803128 0.847318 0.838483
0.86244 0.897795 0.88896
0.922148 0.948669 0.939818
0.981872 0.999542 0.990707
1 1 1
1 1 1
1 1 1
1 1 1
0.914244 0.976074 0.958404
0.973556 1 1
1 1 1
1 1 1
1 1 1
1 1 1
1 1 1
1 1 1
1 1 1
1 1 1
1 1 1
1 1 1
1 1 1
1 1 1
1 1 1
1 1 1
1 1 1
1 1 1
0 0 0
0 0 0
0 0 0
0 0 0
0 0 0
0.034699 0 0.043534
0.0943008 0.0413062 0.0943008
0.153613 0.0917983 0.144778
0.213306 0.142687 0.195666
0 0 0
0 0 0.0112306
0.0267643 0.0179141 0.0621042
0.0859693 0.0682994 0.112474
0.145678 0.119173 0.163363
0.205386 0.170047 0.214221
0.264729 0.220539 0.264729
0.324315 0.27129 0.31548
0.384009 0.322179 0.366369
0.0780652 0.0956893 0.131044
0.137743 0.146578 0.181918
0.197223 0.197223 0.232578
0.256657 0.247822 0.283177
0.316381 0.298711 0.334051
0.376089 0.349569 0.384924
0.435309 0.399954 0.435309
0.495018 0.450828 0.486168
0.554696 0.501717 0.537057
0.248753 0.275227 0.301732
0.308431 0.326101 0.352621
0.367651 0.376486 0.402991
0.427359 0.427359 0.453864
0.487068 0.478233 0.504753
0.546777 0.529107 0.555611
0.605997 0.579492 0.605997
0.665705 0.63035 0.65687
0.725399 0.681239 0.707759
0.41944 0.454765 0.472435
0.479118 0.505638 0.523308
0.538338 0.556023 0.573693
0.598047 0.606882 0.624567
0.657771 0.657771 0.675441
0.716976 0.708141 0.725811
0.776684 0.759014 0.776684
0.836408 0.809888 0.827573
0.896086 0.860777 0.878447
0.590143 0.634287 0.643122
0.649821 0.685176 0.694011
0.709041 0.735546 0.744381
0.76875 0.786419 0.795254
0.828458 0.837293 0.846128
0.887663 0.887663 0.896513
0.947387 0.938552 0.947387
1 0.989425 0.99826
1 1 1
0.76083 0.813825 0.813825
0.820294 0.864485 0.864485
0.879728 0.915084 0.915084
0.939437 0.965957 0.965957
0.999115 1 1
1 1 1
1 1 1
1 1 1
1 1 1
0.931533 0.993347 0.984512
0.990707 1 1
1 1 1
1 1 1
1 1 1
1 1 1
1 1 1
1 1 1
1 1 1
1 1 1
1 1 1
1 1 1
1 1 1
1 1 1
1 1 1
1 1 1
1 1 1
1 1 1
0 0 0
0 0 0
0 0 0
0 0 0
0 0 0.0187839
0.0519875 0.00782788 0.0696574
0.111192 0.0582132 0.120043
0.170901 0.109087 0.170901
0.230594 0.159976 0.22179
0 0 0
0 0 0.0373541
0.0439612 0.0351263 0.0881514
0.103258 0.0855879 0.138598
0.162966 0.136461 0.189487
0.222675 0.187335 0.24036
0.281895 0.237705 0.29073
0.341604 0.288579 0.341604
0.401297 0.339467 0.392493
0.0953384 0.112978 0.157168
0.155032 0.163867 0.208042
0.214389 0.214389 0.258579
0.273945 0.26511 0.3093
0.333669 0.315984 0.360174
0.39321 0.36669 0.41088
0.452598 0.417243 0.461433
0.512291 0.468116 0.512291
0.571984 0.51899 0.56318
0.266041 0.292515 0.327871
0.325719 0.343389 0.378744
0.384924 0.393759 0.429114
0.444648 0.444648 0.479988
0.504356 0.495521 0.530877
0.563622 0.545953 0.581308
0.623285 0.596765 0.63212
0.682994 0.647639 0.682994
0.742412 0.698268 0.733623
0.436728 0.472053 0.498558
0.496132 0.522637 0.549142
0.555627 0.573297 0.599802
0.615335 0.62417 0.65069
0.675059 0.675059 0.701564
0.734264 0.725429 0.751934
0.793973 0.776303 0.802823
0.853681 0.827176 0.853681
0.912871 0.877562 0.904067
0.607431 0.651576 0.669245
0.666606 0.701961 0.719631
0.726329 0.752834 0.770504
0.786038 0.803708 0.821378
0.845747 0.854582 0.872267
0.904952 0.904952 0.922637
0.964675 0.95584 0.97351
1 1 1
1 1 1
0.778119 0.831113 0.839948
0.837308 0.881483 0.890333
0.897017 0.932372 0.941207
0.956725 0.983246 0.992081
1 1 1
1 1 1
1 1 1
1 1 1
1 1 1
0.948806 1 1
1 1 1
1 1 1
1 1 1
1 1 1
1 1 1
1 1 1
1 1 1
1 1 1
1 1 1
1 1 1
1 1 1
1 1 1
1 1 1
1 1 1
1 1 1
1 1 1
1 1 1
0 0 0
0 0 0
0 0 0
0 0 0
0.00955215 0 0.0448768
0.069276 0.0251164 0.0957504
0.128481 0.0755016 0.14612
0.18819 0.126375 0.196994
0.247883 0.177264 0.247883
0 0 0.0125734
0.00161746 0.00161746 0.063447
0.0608225 0.0519875 0.113817
0.120546 0.102876 0.164691
0.180255 0.153735 0.215564
0.239948 0.204608 0.266423
0.299184 0.254994 0.316823
0.358892 0.305867 0.367697
0.418585 0.356756 0.418585
0.112642 0.130282 0.183261
0.17232 0.181155 0.234134
0.231525 0.231525 0.28452
0.291234 0.282399 0.335393
0.350942 0.333272 0.386267
0.410163 0.383658 0.436637
0.469886 0.434531 0.487526
0.529595 0.485405 0.538384
0.589166 0.536171 0.589166
0.28333 0.309804 0.353964
0.34287 0.36054 0.4047
0.402213 0.411063 0.455207
0.461936 0.461936 0.506081
0.521645 0.51281 0.55697
0.580865 0.56318 0.60734
0.640574 0.614069 0.658213
0.700282 0.664927 0.709087
0.759594 0.715434 0.759594
0.454017 0.489342 0.524651
0.513298 0.539803 0.575113
0.572915 0.590585 0.625895
0.632624 0.641459 0.676783
0.692119 0.692119 0.727428
0.751553 0.742718 0.778027
0.811276 0.793591 0.828901
0.87097 0.844465 0.879774
0.930159 0.89485 0.930159
0.62472 0.668864 0.695338
0.683894 0.719249 0.745724
0.743603 0.770123 0.796597
0.803326 0.820996 0.847471
0.862547 0.871382 0.897856
0.92224 0.92224 0.94873
0.981964 0.973129 0.999603
1 1 1
1 1 1
0.795056 0.848051 0.86569
0.854597 0.898787 0.916411
0.914305 0.949645 0.967285
0.974014 1 1
1 1 1
1 1 1
1 1 1
1 1 1
1 1 1
0.965606 1 1
1 1 1
1 1 1
1 1 1
1 1 1
1 1 1
1 1 1
1 1 1
1 1 1
1 1 1
1 1 1
1 1 1
1 1 1
1 1 1
1 1 1
1 1 1
1 1 1
1 1 1
