public/LUTS/Black&White/Black&White_02.cube
TITLE "Generated by Resolve"
LUT_3D_SIZE 5
0.288212 0.288212 0.288212
0.331197 0.324773 0.324773
0.374716 0.361837 0.361837
0.418067 0.398749 0.398749
0.461585 0.435828 0.435828
0.412284 0.418708 0.412284
0.455619 0.455619 0.449195
0.499153 0.492699 0.486275
0.542489 0.52961 0.523186
0.585962 0.566644 0.56022
0.536721 0.549584 0.536721
0.580056 0.586496 0.573617
0.623484 0.623484 0.61062
0.666926 0.660487 0.647608
0.710262 0.697398 0.68452
0.661006 0.680323 0.661006
0.704479 0.717372 0.698054
0.747829 0.754269 0.734966
0.791363 0.791363 0.772045
0.834699 0.828275 0.808957
0.785412 0.811154 0.785412
0.828931 0.848249 0.822507
0.872282 0.885145 0.859403
0.915785 0.92221 0.896468
0.959136 0.959136 0.933394
0.30045 0.30045 0.306874
0.343786 0.337362 0.343786
0.38732 0.374441 0.380865
0.430655 0.411353 0.417777
0.474052 0.44831 0.454734
0.424887 0.431312 0.431312
0.468223 0.468223 0.468223
0.511589 0.505135 0.505135
0.555093 0.542214 0.542214
0.598428 0.579126 0.579126
0.549142 0.562005 0.555566
0.592645 0.5991 0.592645
0.635996 0.635996 0.629557
0.67953 0.673091 0.666651
0.722866 0.710002 0.703548
0.673564 0.692882 0.680003
0.717083 0.729976 0.717083
0.760433 0.766873 0.753994
0.803861 0.803861 0.790982
0.847303 0.840879 0.827985
0.798016 0.823758 0.80444
0.841382 0.8607 0.841382
0.884871 0.897749 0.878431
0.928222 0.934661 0.915343
0.97174 0.97174 0.952438
0.313054 0.313054 0.325917
0.35639 0.34995 0.362829
0.399741 0.386862 0.399741
0.443259 0.423957 0.43682
0.486595 0.460853 0.473732
0.437308 0.443732 0.450172
0.480827 0.480827 0.487266
0.524163 0.517723 0.524163
0.567697 0.554818 0.561257
0.611032 0.591714 0.598169
0.561746 0.574609 0.574609
0.605249 0.611688 0.611688
0.6486 0.6486 0.6486
0.691966 0.685527 0.685527
0.73547 0.722591 0.722591
0.686168 0.705486 0.699046
0.729503 0.742397 0.735943
0.773037 0.779477 0.773037
0.816388 0.816388 0.809949
0.859907 0.853468 0.847028
0.81062 0.836362 0.823484
0.853956 0.873259 0.860395
0.897475 0.910353 0.897475
0.940826 0.94725 0.934386
0.984161 0.984161 0.971298
0.325475 0.325475 0.344778
0.368978 0.362554 0.381872
0.412329 0.399466 0.418784
0.455817 0.436515 0.455817
0.499199 0.473457 0.492775
0.449912 0.456336 0.469215
0.493339 0.493339 0.506218
0.536767 0.530327 0.543206
0.580118 0.567239 0.580118
0.623636 0.604318 0.617212
0.574334 0.587213 0.593652
0.61767 0.624125 0.630564
0.661204 0.661204 0.667643
0.704555 0.698116 0.704555
0.748074 0.735195 0.74165
0.698772 0.71809 0.71809
0.742107 0.755001 0.755001
0.785626 0.792065 0.792065
0.828992 0.828992 0.828992
0.872328 0.865888 0.865888
0.823163 0.848905 0.842466
0.86656 0.885863 0.879438
0.909895 0.922774 0.91635
0.953429 0.959854 0.953429
0.996765 0.996765 0.990341
0.338079 0.338079 0.363821
0.38143 0.375006 0.400748
0.424933 0.41207 0.437812
0.468284 0.448966 0.474708
0.511803 0.486061 0.511803
0.462501 0.46894 0.488258
0.505837 0.505837 0.525154
0.549371 0.542931 0.562249
0.592721 0.579843 0.599145
0.636194 0.616892 0.636194
0.586938 0.599817 0.61268
0.630274 0.636713 0.649592
0.673732 0.673732 0.686595
0.717159 0.710719 0.723583
0.760494 0.747616 0.760494
0.711254 0.730556 0.736996
0.754711 0.76759 0.774029
0.798062 0.804501 0.810925
0.841596 0.841596 0.84802
0.884932 0.878492 0.884932
0.835645 0.861387 0.861387
0.879149 0.898466 0.898466
0.922499 0.935378 0.935378
0.966018 0.972442 0.972442
1 1 1
