public/LUTS/Black&White/Black&White_04.cube
TITLE "Generated by Resolve"
LUT_3D_SIZE 9
0 0 0
0.0296788 0.0252232 0.0252232
0.0596323 0.050721 0.050721
0.0898146 0.0764172 0.0764172
0.120012 0.102144 0.102144
0.15021 0.127871 0.127871
0.180148 0.153353 0.153353
0.210346 0.17908 0.17908
0.240528 0.204807 0.204807
0.0858167 0.0902571 0.0858167
0.115999 0.115999 0.111543
0.145937 0.141466 0.137011
0.176135 0.167193 0.162737
0.206332 0.19292 0.188464
0.236271 0.218387 0.213947
0.266468 0.244129 0.239673
0.296666 0.269841 0.2654
0.326848 0.295583 0.291127
0.172137 0.181048 0.172137
0.202304 0.206775 0.197864
0.232258 0.232258 0.223331
0.262455 0.257984 0.249058
0.292638 0.283711 0.274784
0.322591 0.309178 0.300267
0.352789 0.334905 0.325994
0.382971 0.360632 0.351705
0.413092 0.386297 0.377371
0.258442 0.271839 0.258442
0.288548 0.297475 0.284092
0.318578 0.323033 0.309651
0.34876 0.34876 0.335378
0.378958 0.374487 0.361105
0.408896 0.399969 0.386572
0.439094 0.425696 0.412299
0.469291 0.451423 0.438025
0.499229 0.47689 0.463508
0.344762 0.362615 0.344762
0.374685 0.388098 0.370245
0.404883 0.413825 0.395972
0.43508 0.439551 0.421698
0.465141 0.465141 0.447288
0.495216 0.490745 0.472892
0.525414 0.516472 0.498619
0.555566 0.542168 0.524315
0.585534 0.567681 0.549828
0.431022 0.453346 0.431022
0.461006 0.478889 0.456565
0.491203 0.504616 0.482292
0.521401 0.530343 0.508003
0.551339 0.55581 0.533486
0.581537 0.581537 0.559213
0.611734 0.607263 0.584939
0.641749 0.632807 0.610483
0.671855 0.658473 0.636149
0.517205 0.543999 0.517205
0.547326 0.569665 0.54287
0.577523 0.595392 0.568597
0.607721 0.621118 0.594324
0.637659 0.646601 0.619806
0.667857 0.672328 0.645533
0.698054 0.698054 0.67126
0.727993 0.723522 0.696727
0.758175 0.749249 0.722454
0.603464 0.63473 0.603464
0.633646 0.660456 0.629191
0.663844 0.686183 0.654917
0.693797 0.711666 0.6804
0.72398 0.737377 0.706127
0.754177 0.763104 0.731838
0.78436 0.78883 0.75758
0.814313 0.814313 0.783047
0.844495 0.84004 0.808774
0.689799 0.725505 0.689799
0.719966 0.751232 0.715526
0.750164 0.776959 0.741253
0.780102 0.802441 0.76672
0.8103 0.828168 0.792447
0.840497 0.853895 0.818173
0.870665 0.879576 0.84387
0.900649 0.905089 0.869383
0.930816 0.930816 0.895109
0.00823987 0.00823987 0.0126955
0.038407 0.0339666 0.038407
0.0683604 0.0594339 0.0638895
0.098558 0.0851606 0.0896162
0.128756 0.110887 0.115343
0.15874 0.136416 0.140871
0.188891 0.162097 0.166537
0.219089 0.187823 0.192279
0.249149 0.213443 0.217884
0.0945602 0.0990005 0.0990005
0.12462 0.12462 0.12462
0.154681 0.15021 0.15021
0.184878 0.175937 0.175937
0.215061 0.201663 0.201663
0.245014 0.227131 0.227131
0.275212 0.252857 0.252857
0.305409 0.278584 0.278584
0.335332 0.304082 0.304082
0.18088 0.189792 0.185321
0.210803 0.215274 0.210803
0.241001 0.241001 0.23653
0.271199 0.266728 0.262257
0.301381 0.292439 0.287984
0.331334 0.317922 0.313451
0.361517 0.343648 0.339178
0.391714 0.369375 0.364904
0.421653 0.394858 0.390387
0.267185 0.280583 0.271641
0.297124 0.30605 0.297124
0.327306 0.331777 0.322835
0.357504 0.357504 0.348577
0.387442 0.382986 0.374044
0.417639 0.408713 0.399771
0.447837 0.43444 0.425498
0.478035 0.460166 0.451225
0.507973 0.485634 0.476707
0.353506 0.371359 0.357961
0.383429 0.396841 0.383429
0.413626 0.422568 0.409155
0.443824 0.448295 0.434882
0.473762 0.473762 0.460365
0.50396 0.499489 0.486091
0.534157 0.525216 0.511818
0.564248 0.550851 0.537438
0.594278 0.576425 0.563027
0.439704 0.462028 0.44416
0.469749 0.487633 0.469749
0.499947 0.513344 0.495476
0.530114 0.539055 0.521172
0.560082 0.564553 0.54667
0.59028 0.59028 0.572412
0.620478 0.616007 0.598138
0.650416 0.641474 0.623606
0.680598 0.667216 0.649332
0.525887 0.552682 0.530343
0.556069 0.578408 0.556069
0.586267 0.604135 0.581796
0.616297 0.629709 0.607355
0.646403 0.655344 0.63299
0.6766 0.681071 0.658717
0.706722 0.706722 0.684382
0.736736 0.732265 0.709926
0.766918 0.757992 0.735653
0.612207 0.643473 0.616663
0.64239 0.6692 0.64239
0.672572 0.694926 0.668116
0.702525 0.720394 0.693584
0.732723 0.74612 0.71931
0.762921 0.771847 0.745037
0.792905 0.797375 0.77055
0.823056 0.823056 0.796231
0.853239 0.848783 0.821973
0.698543 0.734249 0.702983
0.72871 0.759976 0.72871
0.758907 0.785702 0.754437
0.788846 0.811185 0.779919
0.819043 0.836896 0.805646
0.849241 0.862638 0.831373
0.879194 0.888106 0.85684
0.909377 0.913832 0.882567
0.939559 0.939559 0.908293
0.0169833 0.0169833 0.0258946
0.0471046 0.0426642 0.0515755
0.0771038 0.0681773 0.0771038
0.107301 0.093904 0.102831
0.137484 0.119631 0.128557
0.167437 0.145113 0.154025
0.197635 0.17084 0.179751
0.227832 0.196567 0.205478
0.257832 0.222126 0.231037
0.103304 0.107744 0.112215
0.133288 0.133288 0.137758
0.163424 0.158953 0.163424
0.193622 0.18468 0.189151
0.223713 0.210315 0.214786
0.253758 0.235874 0.240345
0.283955 0.261601 0.266072
0.314137 0.287327 0.291798
0.344076 0.31281 0.317281
0.189624 0.198535 0.198535
0.219547 0.224002 0.224002
0.249729 0.249729 0.249729
0.279927 0.275471 0.275471
0.309895 0.300954 0.300954
0.340078 0.326665 0.326665
0.37026 0.352392 0.352392
0.40032 0.377981 0.377981
0.430396 0.403601 0.403601
0.275776 0.289174 0.284703
0.305852 0.314794 0.310323
0.336049 0.34052 0.336049
0.366247 0.366247 0.361776
0.396185 0.39173 0.387259
0.426383 0.417456 0.412985
0.45658 0.443168 0.438712
0.486534 0.46865 0.464179
0.516716 0.494377 0.489921
0.362005 0.379858 0.370916
0.392172 0.405585 0.396643
0.42237 0.431312 0.42237
0.452567 0.457038 0.448096
0.482506 0.482506 0.473564
0.512703 0.508232 0.499306
0.542901 0.533959 0.525017
0.572839 0.559442 0.5505
0.603021 0.585168 0.576226
0.44831 0.470634 0.457237
0.478492 0.496376 0.482963
0.50869 0.522087 0.50869
0.538628 0.54757 0.534157
0.568826 0.573297 0.559884
0.599023 0.599023 0.585611
0.629221 0.62475 0.611337
0.659159 0.650217 0.63682
0.689342 0.675959 0.662547
0.53463 0.561425 0.543557
0.564813 0.587152 0.569284
0.59501 0.612879 0.59501
0.624949 0.638361 0.620478
0.655146 0.664073 0.646204
0.685344 0.689815 0.671931
0.715404 0.715404 0.69752
0.74548 0.741009 0.723125
0.775662 0.766735 0.748867
0.620951 0.652216 0.629862
0.651133 0.677943 0.655589
0.68127 0.703609 0.68127
0.711269 0.729137 0.706798
0.741451 0.754864 0.732525
0.771649 0.780591 0.758251
0.801602 0.806073 0.783719
0.8318 0.8318 0.809445
0.861982 0.857527 0.835187
0.707286 0.742992 0.716197
0.737453 0.768719 0.741924
0.767452 0.794247 0.767452
0.797589 0.819928 0.793133
0.827787 0.84564 0.818845
0.857877 0.871275 0.84448
0.887938 0.896849 0.870054
0.91812 0.922576 0.895781
0.948302 0.948302 0.921508
0.0257267 0.0257267 0.0391089
0.0556497 0.051194 0.0645914
0.0858473 0.0769207 0.0903182
0.11603 0.102647 0.11603
0.146212 0.128359 0.141741
0.176181 0.153841 0.167239
0.206378 0.179583 0.192966
0.236576 0.20531 0.218692
0.266499 0.230777 0.244175
0.112047 0.116487 0.125429
0.14197 0.14197 0.150896
0.172168 0.167697 0.176623
0.20235 0.193423 0.20235
0.232303 0.218891 0.227832
0.262501 0.244617 0.253559
0.292683 0.270344 0.279286
0.32282 0.29601 0.304952
0.352819 0.321553 0.33048
0.198276 0.207202 0.211673
0.228275 0.232746 0.237217
0.258473 0.258473 0.262943
0.28867 0.284199 0.28867
0.318624 0.309682 0.314153
0.348806 0.335409 0.339879
0.379004 0.361135 0.365606
0.409003 0.386664 0.391135
0.439124 0.412329 0.4168
0.284459 0.297841 0.297841
0.314595 0.323537 0.323537
0.344793 0.349264 0.349264
0.374868 0.374868 0.374868
0.404929 0.400458 0.400458
0.435126 0.4262 0.4262
0.465324 0.451911 0.451911
0.495262 0.477394 0.477394
0.525444 0.50312 0.50312
0.370733 0.388602 0.384131
0.400916 0.414328 0.409857
0.431113 0.440055 0.435584
0.461051 0.465522 0.461051
0.491249 0.491249 0.486778
0.521447 0.516976 0.512505
0.551476 0.542535 0.538064
0.581582 0.568185 0.563714
0.611765 0.593912 0.589441
0.457053 0.479377 0.470451
0.487236 0.505104 0.496162
0.517433 0.530831 0.521904
0.547372 0.556313 0.547372
0.577569 0.58204 0.573098
0.607767 0.607767 0.598825
0.637705 0.633234 0.624292
0.667903 0.658961 0.650034
0.698085 0.684703 0.675761
0.543374 0.570169 0.556756
0.573556 0.595895 0.582483
0.603738 0.621622 0.608209
0.633692 0.647105 0.633692
0.66389 0.672816 0.659419
0.694087 0.698543 0.685145
0.724025 0.724025 0.710613
0.754223 0.749752 0.736339
0.784405 0.775479 0.762081
0.629694 0.66096 0.643076
0.659861 0.686671 0.668803
0.689815 0.712154 0.694286
0.720012 0.737881 0.720012
0.750195 0.763607 0.745739
0.780377 0.789303 0.771435
0.810346 0.814801 0.796933
0.840543 0.840543 0.82266
0.870726 0.86627 0.848386
0.716014 0.751736 0.729412
0.746197 0.777462 0.755138
0.776135 0.80293 0.780606
0.806332 0.828656 0.806332
0.83653 0.854383 0.832059
0.86656 0.879957 0.857618
0.896666 0.905592 0.883268
0.926863 0.931319 0.908995
0.95697 0.95697 0.934646
0.0344549 0.0344549 0.0523232
0.0643931 0.0599374 0.0777905
0.0945907 0.0856641 0.103517
0.124773 0.111391 0.129244
0.154726 0.136873 0.154726
0.184924 0.162585 0.180453
0.215106 0.188312 0.20618
0.24506 0.213809 0.231662
0.275242 0.239521 0.257374
0.120531 0.124971 0.138384
0.150713 0.150713 0.164111
0.180896 0.17644 0.189837
0.211093 0.202152 0.215564
0.241047 0.227634 0.241047
0.271229 0.253361 0.266758
0.301427 0.279088 0.2925
0.33138 0.30457 0.317968
0.361563 0.330297 0.343694
0.206851 0.215763 0.224704
0.237018 0.241489 0.250431
0.267216 0.267216 0.276158
0.297368 0.292897 0.301839
0.327352 0.318425 0.327352
0.357549 0.344152 0.353094
0.387747 0.369879 0.378805
0.4177 0.395346 0.404288
0.447868 0.421073 0.430014
0.293172 0.306554 0.311025
0.323339 0.33228 0.336751
0.353536 0.358007 0.362478
0.383474 0.383474 0.387945
0.413672 0.409201 0.413672
0.44387 0.434928 0.439399
0.473976 0.460563 0.465034
0.504005 0.486137 0.490608
0.534188 0.511864 0.516335
0.379477 0.397345 0.397345
0.409659 0.423056 0.423056
0.439841 0.448768 0.448768
0.469795 0.474266 0.474266
0.499992 0.499992 0.499992
0.53019 0.525719 0.525719
0.560143 0.551217 0.551217
0.590326 0.576928 0.576928
0.620508 0.602655 0.602655
0.465797 0.488121 0.48365
0.495979 0.513848 0.509377
0.526009 0.539422 0.534951
0.556115 0.565057 0.560586
0.586313 0.590784 0.586313
0.61651 0.61651 0.612039
0.646448 0.641978 0.637507
0.676646 0.667704 0.663233
0.706828 0.693431 0.68896
0.552117 0.578912 0.56997
0.582284 0.604639 0.595697
0.612238 0.630106 0.62118
0.642435 0.655833 0.646891
0.672633 0.681559 0.672633
0.702617 0.707088 0.698146
0.732769 0.732769 0.723827
0.762966 0.758495 0.749554
0.793133 0.784222 0.77528
0.638437 0.669703 0.656291
0.668605 0.695415 0.682017
0.698558 0.720897 0.707485
0.728756 0.746624 0.733211
0.758938 0.772351 0.758938
0.788891 0.797818 0.784421
0.819074 0.823545 0.810147
0.849271 0.849271 0.835874
0.879454 0.875013 0.861601
0.724758 0.760479 0.742626
0.754925 0.786191 0.768338
0.784878 0.811673 0.79382
0.815076 0.8374 0.819547
0.845273 0.863127 0.845273
0.875212 0.888609 0.870756
0.905409 0.914336 0.896468
0.935607 0.940063 0.922194
0.96553 0.96553 0.947677
0.0430304 0.0430304 0.0653544
0.0731365 0.0686809 0.0910048
0.103319 0.0944076 0.116732
0.13344 0.120043 0.142367
0.16347 0.145602 0.167941
0.193652 0.171328 0.193652
0.22385 0.197055 0.219394
0.253803 0.222538 0.244862
0.283986 0.248264 0.270588
0.129274 0.133715 0.151598
0.159442 0.159442 0.177325
0.189639 0.185183 0.203052
0.219623 0.210681 0.22855
0.24979 0.236378 0.254246
0.279973 0.262104 0.279973
0.31017 0.287831 0.305699
0.340124 0.313298 0.331182
0.370291 0.33904 0.356909
0.215579 0.224506 0.237919
0.245762 0.250233 0.263645
0.275959 0.275959 0.289372
0.305898 0.301442 0.314839
0.336095 0.327169 0.340566
0.366293 0.35288 0.366293
0.396231 0.378363 0.391775
0.426429 0.404089 0.417502
0.456611 0.429816 0.443229
0.3019 0.315297 0.324224
0.332082 0.341024 0.34995
0.36228 0.366751 0.375692
0.392218 0.392218 0.40116
0.422415 0.417945 0.426886
0.452613 0.443671 0.452613
0.482551 0.469154 0.47808
0.512749 0.494881 0.503807
0.542931 0.520607 0.529549
0.38822 0.406073 0.410544
0.418402 0.4318 0.436271
0.448524 0.45745 0.461921
0.478538 0.483009 0.48748
0.508736 0.508736 0.513207
0.538933 0.534463 0.538933
0.568872 0.55993 0.564401
0.599069 0.585657 0.590127
0.629252 0.611399 0.615854
0.47454 0.496864 0.496864
0.504723 0.522591 0.522591
0.534661 0.548074 0.548074
0.564858 0.573785 0.573785
0.595056 0.599527 0.599527
0.625116 0.625116 0.625116
0.655192 0.650721 0.650721
0.685389 0.676448 0.676448
0.715526 0.702144 0.702144
0.560861 0.587655 0.583185
0.590982 0.613336 0.608865
0.620981 0.638849 0.634379
0.651164 0.664576 0.660105
0.681361 0.690303 0.685832
0.711315 0.715785 0.711315
0.741512 0.741512 0.737041
0.77171 0.767239 0.762768
0.801709 0.792798 0.788327
0.647181 0.678431 0.669505
0.677165 0.703975 0.695033
0.707301 0.729641 0.720699
0.737484 0.755367 0.746426
0.767681 0.781094 0.772152
0.797635 0.806561 0.797635
0.827817 0.832288 0.823362
0.858015 0.858015 0.849088
0.887953 0.883497 0.874556
0.733501 0.769223 0.755825
0.763424 0.79469 0.781308
0.793622 0.820417 0.807034
0.823819 0.846143 0.832761
0.853788 0.871641 0.858244
0.883955 0.897353 0.883955
0.914153 0.923079 0.909682
0.94435 0.948806 0.935409
0.974273 0.974273 0.960891
0.0516976 0.0516976 0.0784924
0.0818799 0.0774243 0.104219
0.112062 0.103151 0.129946
0.142107 0.128725 0.15552
0.172213 0.154345 0.18114
0.202396 0.180072 0.206867
0.232547 0.205753 0.232547
0.262531 0.231281 0.258076
0.292729 0.257008 0.283803
0.138018 0.142458 0.164813
0.168185 0.168185 0.190539
0.198383 0.193912 0.216266
0.228336 0.219394 0.241733
0.258518 0.245121 0.26746
0.288716 0.270848 0.293187
0.31873 0.296376 0.31873
0.348852 0.322042 0.344381
0.379034 0.347768 0.370123
0.224323 0.233249 0.251118
0.254505 0.258976 0.276844
0.284596 0.284596 0.302464
0.314641 0.31017 0.328054
0.344839 0.335912 0.35378
0.375036 0.361624 0.379507
0.404974 0.387106 0.404974
0.435172 0.412833 0.430701
0.465354 0.43856 0.456443
0.310643 0.324041 0.337438
0.340826 0.349767 0.363165
0.370764 0.375235 0.388647
0.400961 0.400961 0.414374
0.431159 0.426688 0.440101
0.461357 0.452415 0.465827
0.491295 0.477897 0.491295
0.521492 0.503609 0.517021
0.551675 0.529351 0.542748
0.396963 0.414816 0.423758
0.427146 0.440543 0.449485
0.457084 0.466026 0.474968
0.487282 0.491753 0.500679
0.517479 0.517479 0.526421
0.547417 0.542947 0.551888
0.577615 0.568673 0.577615
0.607813 0.5944 0.603342
0.637995 0.620127 0.629068
0.483284 0.505608 0.510079
0.513451 0.531334 0.535805
0.543404 0.556817 0.561273
0.573602 0.582528 0.586999
0.6038 0.608255 0.612726
0.633738 0.633738 0.638209
0.663935 0.659464 0.663935
0.694133 0.685191 0.689662
0.724208 0.710826 0.715297
0.569589 0.596384 0.596384
0.599664 0.622003 0.622003
0.629725 0.647593 0.647593
0.659907 0.67332 0.67332
0.690089 0.699031 0.699031
0.720058 0.724514 0.724514
0.750256 0.750256 0.750256
0.780438 0.775982 0.775982
0.810376 0.80145 0.80145
0.655909 0.687175 0.682704
0.685847 0.712657 0.708186
0.71603 0.738384 0.733913
0.746227 0.764111 0.75964
0.776272 0.789685 0.785214
0.806363 0.815305 0.810834
0.836561 0.841031 0.836561
0.866697 0.866697 0.862226
0.896681 0.892241 0.88777
0.742168 0.777874 0.768963
0.772168 0.803433 0.794507
0.802365 0.82916 0.820249
0.832563 0.854887 0.84596
0.862501 0.880369 0.871443
0.892699 0.906081 0.897169
0.922896 0.931807 0.922896
0.952895 0.957336 0.948425
0.983017 0.983017 0.974105
0.060441 0.060441 0.0917067
0.0906081 0.0861677 0.117433
0.120806 0.111894 0.143145
0.150759 0.137362 0.168627
0.180941 0.163088 0.194354
0.211139 0.188815 0.220081
0.241093 0.214298 0.245563
0.271275 0.240024 0.271275
0.301457 0.265751 0.297017
0.146761 0.151202 0.178012
0.176928 0.176928 0.203738
0.207095 0.202625 0.229435
0.237064 0.228138 0.254948
0.267262 0.253864 0.280674
0.297459 0.279591 0.306401
0.327413 0.305058 0.331868
0.357595 0.330785 0.357595
0.387778 0.356512 0.383337
0.233066 0.241993 0.264332
0.263249 0.26772 0.290059
0.293263 0.293263 0.315618
0.323384 0.318914 0.341268
0.353582 0.34464 0.366995
0.383688 0.370291 0.39263
0.413718 0.39585 0.418189
0.443915 0.421576 0.443915
0.474098 0.447303 0.469642
0.319387 0.332769 0.350652
0.349569 0.358511 0.376379
0.379507 0.383978 0.401846
0.409705 0.409705 0.427573
0.439902 0.435431 0.453315
0.469871 0.460929 0.478813
0.500038 0.486625 0.504509
0.530236 0.512352 0.530236
0.560281 0.537957 0.555825
0.405707 0.42356 0.436973
0.435737 0.449149 0.462547
0.465827 0.474769 0.488167
0.496025 0.500496 0.513893
0.526223 0.526223 0.53962
0.556161 0.55169 0.565103
0.586358 0.577417 0.590829
0.616556 0.603143 0.616556
0.646479 0.628626 0.642023
0.492027 0.514351 0.523278
0.52195 0.539818 0.54876
0.552148 0.565545 0.574487
0.582345 0.591272 0.600214
0.612528 0.616999 0.62594
0.642481 0.642481 0.651408
0.672679 0.668208 0.67715
0.702861 0.693935 0.702861
0.732799 0.719402 0.728344
0.578332 0.605127 0.609598
0.60827 0.63061 0.635081
0.638468 0.656336 0.660807
0.66865 0.682063 0.686534
0.698604 0.70753 0.712001
0.728786 0.733257 0.737728
0.758984 0.758984 0.763455
0.789181 0.78471 0.789181
0.81912 0.810193 0.814664
0.664652 0.695918 0.695918
0.694575 0.721401 0.721401
0.724773 0.747127 0.747127
0.754971 0.772854 0.772854
0.784924 0.798321 0.798321
0.815106 0.824048 0.824048
0.845304 0.849775 0.849775
0.87538 0.87538 0.87538
0.905425 0.900984 0.900984
0.750851 0.786557 0.782101
0.780911 0.812177 0.807721
0.811109 0.837903 0.833448
0.84126 0.863584 0.859129
0.871244 0.889097 0.884657
0.901442 0.914824 0.910384
0.93164 0.940551 0.93611
0.961578 0.966033 0.961578
0.99176 0.99176 0.987305
0.0691844 0.0691844 0.104891
0.0993515 0.0949111 0.130617
0.129335 0.120409 0.15613
0.159503 0.146105 0.181827
0.189685 0.171832 0.207553
0.219883 0.197559 0.23328
0.249821 0.223026 0.258747
0.280018 0.248768 0.284474
0.310201 0.274495 0.310201
0.155505 0.159945 0.191211
0.185672 0.185672 0.216938
0.21561 0.211154 0.242405
0.245808 0.236881 0.268147
0.276005 0.262608 0.293858
0.306203 0.288319 0.319585
0.336156 0.313802 0.345068
0.366339 0.339529 0.370794
0.396521 0.365255 0.396521
0.24181 0.250736 0.277531
0.271992 0.276463 0.303258
0.30193 0.30193 0.328725
0.332128 0.327657 0.354452
0.362325 0.353384 0.380179
0.392264 0.378866 0.405661
0.422461 0.404593 0.431388
0.452659 0.43032 0.457115
0.48278 0.455985 0.48278
0.32813 0.341512 0.363851
0.358236 0.367178 0.389502
0.388251 0.392721 0.415045
0.418448 0.418448 0.440772
0.448646 0.444175 0.466499
0.478584 0.469642 0.491981
0.508782 0.495369 0.517708
0.538979 0.521096 0.54342
0.568963 0.546639 0.568963
0.41445 0.432303 0.450156
0.444419 0.457832 0.475685
0.474571 0.483513 0.501366
0.504768 0.509239 0.527092
0.534844 0.534844 0.552697
0.564904 0.560433 0.578286
0.595102 0.58616 0.604013
0.625299 0.611887 0.62974
0.655222 0.637369 0.655222
0.500771 0.523095 0.536477
0.530694 0.548562 0.561959
0.560891 0.574289 0.587686
0.591089 0.600015 0.613413
0.621027 0.625498 0.63888
0.651225 0.651225 0.664607
0.681422 0.676951 0.690333
0.711452 0.70251 0.715892
0.741543 0.728145 0.741543
0.586908 0.613703 0.622614
0.617014 0.639353 0.64828
0.647196 0.66508 0.673991
0.677394 0.690806 0.699718
0.707347 0.716274 0.7252
0.73753 0.742 0.750927
0.767727 0.767727 0.776654
0.797681 0.79321 0.802121
0.827863 0.818936 0.827863
0.673152 0.704417 0.708858
0.703319 0.730144 0.734585
0.733516 0.755856 0.760311
0.763714 0.781598 0.786038
0.793667 0.807065 0.811521
0.82385 0.832792 0.837247
0.854047 0.858518 0.862974
0.883986 0.883986 0.888441
0.914168 0.909728 0.914168
0.759472 0.795193 0.795193
0.789654 0.82092 0.82092
0.819852 0.846647 0.846647
0.84979 0.872114 0.872114
0.879988 0.897841 0.897841
0.910185 0.923568 0.923568
0.940368 0.949279 0.949279
0.970321 0.974777 0.974777
1 1 1
