public/LUTS/Black&White/Black&White_08.cube
TITLE "Generated by Resolve"
LUT_3D_SIZE 9
0 0 0
0 0 0
0 0 0
0 0 0
0 0 0
0 0 0
0 0 0
0.0394598 0 0
0.0845045 0.03122 0.03122
0 0 0
0 0 0
0 0 0
0 0 0
0.0334783 0.0134737 0.00683604
0.0781567 0.0514839 0.0448463
0.123201 0.0898756 0.0832227
0.168261 0.128252 0.121614
0.213291 0.166644 0.160006
0 0 0
0.0274815 0.0341497 0.0208438
0.0721599 0.0721599 0.058854
0.11722 0.110552 0.0972305
0.162264 0.148928 0.135622
0.206943 0.186938 0.173632
0.252003 0.22533 0.212024
0.297047 0.263706 0.250401
0.34197 0.301991 0.288685
0.111238 0.131228 0.111238
0.156146 0.169482 0.149508
0.200946 0.207614 0.18764
0.246006 0.246006 0.226032
0.291066 0.284398 0.264408
0.335729 0.322393 0.302419
0.380789 0.360784 0.34081
0.425834 0.399161 0.379187
0.470497 0.437186 0.417212
0.24004 0.266682 0.24004
0.284688 0.304692 0.27805
0.329747 0.343084 0.316442
0.374792 0.38146 0.354818
0.419654 0.419654 0.393011
0.46453 0.457862 0.431205
0.509575 0.496239 0.469596
0.554574 0.534569 0.507927
0.599283 0.572641 0.545998
0.368734 0.40206 0.368734
0.413474 0.440146 0.406836
0.458534 0.478538 0.445228
0.503578 0.516915 0.483604
0.548257 0.554925 0.521614
0.593317 0.593317 0.560006
0.638376 0.631708 0.598383
0.683162 0.669825 0.636515
0.728084 0.708095 0.674784
0.497322 0.537301 0.497322
0.54226 0.575601 0.535622
0.58732 0.613993 0.574014
0.63238 0.652384 0.61239
0.677058 0.690394 0.650416
0.722103 0.728771 0.688792
0.767163 0.767163 0.727184
0.811841 0.805173 0.765194
0.85687 0.843565 0.803586
0.626032 0.672679 0.626032
0.671061 0.71107 0.664424
0.716106 0.749447 0.7028
0.7608 0.787472 0.740826
0.805844 0.825849 0.779202
0.850889 0.864225 0.817578
0.895949 0.902617 0.85597
0.940627 0.940627 0.89398
0.985656 0.979019 0.932372
0.754833 0.808133 0.754833
0.799863 0.84651 0.793225
0.844923 0.884901 0.831617
0.889601 0.922911 0.869627
0.934646 0.961303 0.908003
0.979706 0.99968 0.946395
1 1 0.984726
1 1 1
1 1 1
0 0 0
0 0 0
0 0 0
0 0 0
0 0 0
0 0 0
0.00746166 0 0
0.0525063 0.00585946 0.0124971
0.0973678 0.0440833 0.050721
0 0 0
0 0 0
0 0 0
0.00146487 0 0
0.0465248 0.0265202 0.0265202
0.0912032 0.0645304 0.0645304
0.136248 0.102907 0.102907
0.181308 0.141299 0.141299
0.225971 0.179324 0.179324
0 0.00880446 0.00213626
0.0401465 0.0468147 0.0401465
0.0852064 0.0852064 0.0785382
0.130251 0.123583 0.11693
0.175311 0.161975 0.155306
0.219989 0.199985 0.193317
0.265034 0.238361 0.231693
0.310094 0.276753 0.270085
0.354757 0.314778 0.30811
0.124285 0.144259 0.130938
0.168948 0.182284 0.168948
0.213993 0.220661 0.207324
0.259052 0.259052 0.245716
0.303716 0.297047 0.283726
0.348775 0.335439 0.322103
0.393835 0.373831 0.360494
0.43888 0.412207 0.398871
0.483543 0.450233 0.436896
0.253086 0.279728 0.259724
0.297734 0.317739 0.297734
0.342779 0.356115 0.33611
0.387839 0.394507 0.374502
0.432517 0.432517 0.412512
0.477562 0.470893 0.450904
0.522622 0.509285 0.489281
0.567529 0.547524 0.52752
0.612329 0.585687 0.565682
0.381689 0.415 0.388342
0.42652 0.453193 0.42652
0.47158 0.491569 0.464912
0.516594 0.529931 0.503258
0.561303 0.567971 0.541299
0.606363 0.606363 0.57969
0.651408 0.644739 0.618082
0.696086 0.68275 0.656077
0.741131 0.721141 0.694469
0.510292 0.550271 0.51693
0.555306 0.588647 0.555306
0.600366 0.627039 0.593698
0.645182 0.665171 0.631846
0.690089 0.703426 0.670085
0.735149 0.741817 0.708476
0.780102 0.780102 0.746761
0.824872 0.818204 0.784878
0.869917 0.856611 0.82327
0.639078 0.685725 0.645716
0.684108 0.724117 0.684108
0.729152 0.762493 0.722484
0.773831 0.800504 0.760494
0.818891 0.83888 0.798886
0.863935 0.877272 0.837263
0.908675 0.915343 0.875349
0.953674 0.953674 0.913664
0.998703 0.992065 0.952056
0.76788 0.82118 0.774517
0.812909 0.859556 0.812909
0.857969 0.897948 0.851301
0.902647 0.935958 0.889311
0.947692 0.974334 0.927687
0.992752 1 0.966079
1 1 1
1 1 1
1 1 1
0 0 0
0 0 0
0 0 0
0 0 0
0 0 0
0 0 0
0.0204929 0 0
0.0655528 0.0189059 0.0322118
0.110323 0.0570382 0.0703441
0 0 0
0 0 0
0 0 0
0.0145113 0.00117494 0.00784314
0.0594186 0.0394141 0.0460822
0.104234 0.0775769 0.0842451
0.149294 0.115953 0.122621
0.194354 0.154345 0.161013
0.239002 0.192355 0.199023
0.00854505 0.0218509 0.0218509
0.053193 0.0598611 0.0598611
0.0982528 0.0982528 0.0982528
0.143297 0.136629 0.136629
0.188006 0.17467 0.17467
0.233036 0.213031 0.213031
0.27808 0.251408 0.251408
0.322927 0.289586 0.289586
0.367803 0.32781 0.32781
0.137102 0.157076 0.150408
0.181979 0.195315 0.188647
0.227039 0.233707 0.227039
0.272099 0.272099 0.265431
0.316762 0.310094 0.303426
0.361822 0.348486 0.341817
0.406867 0.386862 0.380194
0.451545 0.424887 0.418219
0.49659 0.463279 0.456611
0.265751 0.292393 0.279057
0.310765 0.33077 0.317433
0.355825 0.369162 0.355825
0.400885 0.407553 0.394217
0.445563 0.445563 0.432227
0.490608 0.48394 0.470603
0.535668 0.522332 0.508995
0.580346 0.560342 0.547005
0.625376 0.598733 0.585397
0.394537 0.427848 0.407843
0.439567 0.466239 0.446235
0.484611 0.504616 0.484611
0.52929 0.542626 0.522622
0.57435 0.581018 0.561013
0.61941 0.61941 0.599405
0.664454 0.657786 0.637781
0.709133 0.695796 0.675792
0.754162 0.734188 0.714183
0.523323 0.563302 0.536629
0.568353 0.601694 0.575021
0.613413 0.640085 0.613413
0.658091 0.678096 0.651423
0.703136 0.716472 0.689799
0.748196 0.754864 0.728191
0.793042 0.793042 0.766369
0.837919 0.83125 0.804578
0.882963 0.869642 0.842985
0.652125 0.698772 0.665431
0.697154 0.737148 0.703807
0.742107 0.775448 0.742107
0.786877 0.81355 0.780209
0.831922 0.851926 0.818586
0.876982 0.890318 0.856977
0.92166 0.928328 0.894987
0.96672 0.96672 0.933379
1 1 0.971771
0.780926 0.834211 0.794232
0.825956 0.872602 0.832624
0.87071 0.910704 0.87071
0.915694 0.949004 0.909026
0.960739 0.987381 0.947402
1 1 0.985641
1 1 1
1 1 1
1 1 1
0 0 0
0 0 0
0 0 0
0 0 0
0 0 0
0 0 0
0.0335393 0 0.0135348
0.0785992 0.0319524 0.0519265
0.123247 0.0699626 0.0899367
0 0 0
0 0 0
0 0 0
0.0275425 0.0142061 0.0275425
0.0722362 0.0522316 0.065568
0.117281 0.0906081 0.103944
0.162341 0.129 0.142336
0.207294 0.167285 0.180621
0.252049 0.205402 0.218738
0.0214694 0.0347753 0.0414435
0.0662394 0.0729076 0.0795758
0.111284 0.111284 0.117952
0.156344 0.149676 0.156344
0.201022 0.187686 0.194354
0.246082 0.226078 0.232746
0.291127 0.264454 0.271122
0.335882 0.302541 0.309209
0.380835 0.340856 0.347524
0.150057 0.170031 0.170031
0.195026 0.208362 0.208362
0.240085 0.246754 0.246754
0.284947 0.284947 0.284947
0.329809 0.32314 0.32314
0.374868 0.361532 0.361532
0.419913 0.399908 0.399908
0.464591 0.437919 0.437919
0.509621 0.47631 0.47631
0.278798 0.30544 0.298772
0.323812 0.343816 0.337148
0.368872 0.382208 0.37554
0.41355 0.420218 0.41355
0.458595 0.458595 0.451926
0.503655 0.496986 0.490318
0.548455 0.535119 0.52845
0.593393 0.573388 0.56672
0.638422 0.611765 0.605097
0.407584 0.440894 0.427558
0.452598 0.479271 0.465934
0.497658 0.517662 0.504326
0.542336 0.555673 0.542336
0.587396 0.594064 0.580728
0.632441 0.632441 0.619104
0.677119 0.670451 0.657115
0.722179 0.708843 0.695506
0.767208 0.747234 0.733898
0.53637 0.576349 0.556344
0.581399 0.61474 0.594736
0.626444 0.653117 0.633112
0.671138 0.691127 0.671138
0.716182 0.729519 0.709514
0.761242 0.76791 0.747906
0.805905 0.805905 0.785901
0.850965 0.844297 0.824292
0.895994 0.882689 0.862684
0.665156 0.711803 0.685145
0.710185 0.750195 0.723522
0.754864 0.788205 0.761532
0.799924 0.826596 0.799924
0.844968 0.864973 0.8383
0.889982 0.903319 0.876646
0.934707 0.941375 0.914702
0.979751 0.979751 0.953079
1 1 0.991485
0.793973 0.847257 0.813947
0.839002 0.885649 0.852338
0.88368 0.923659 0.890349
0.928725 0.962036 0.928725
0.973785 1 0.967117
1 1 1
1 1 1
1 1 1
1 1 1
0 0 0
0 0 0
0 0 0
0 0 0
0 0 0
0.0015259 0 0
0.0465858 0.00660716 0.0332494
0.0912795 0.0446326 0.0712749
0.136294 0.0830091 0.109651
0 0 0
0 0 0
0 0 0.00888075
0.040589 0.0272526 0.0472572
0.0852674 0.0652628 0.0852674
0.130327 0.103655 0.123659
0.175372 0.142046 0.162036
0.220066 0.180056 0.200061
0.265095 0.218433 0.238437
0.0342565 0.0475624 0.0608988
0.0792706 0.0859388 0.0992752
0.124331 0.124331 0.137667
0.169314 0.162646 0.175982
0.214069 0.200732 0.214069
0.259113 0.239109 0.252445
0.304173 0.277501 0.290837
0.348852 0.315511 0.328847
0.393881 0.353902 0.367239
0.163043 0.183017 0.189685
0.208072 0.221408 0.228077
0.253117 0.259785 0.266453
0.297795 0.297795 0.304463
0.342855 0.336187 0.342855
0.387915 0.374578 0.381247
0.432822 0.412818 0.419486
0.477638 0.450965 0.457633
0.522667 0.489357 0.496025
0.291829 0.318486 0.318486
0.336858 0.356863 0.356863
0.381888 0.395224 0.395224
0.426581 0.433249 0.433249
0.471641 0.471641 0.471641
0.516701 0.510033 0.510033
0.56141 0.548074 0.548074
0.606424 0.586419 0.586419
0.651453 0.624811 0.624811
0.42063 0.453941 0.447272
0.465644 0.492317 0.485649
0.510475 0.53048 0.523812
0.555383 0.568719 0.562051
0.600427 0.607095 0.600427
0.645487 0.645487 0.638819
0.690166 0.683497 0.676829
0.735225 0.721889 0.715221
0.780255 0.760266 0.753597
0.549416 0.589395 0.576059
0.594446 0.627771 0.614435
0.639124 0.665797 0.652461
0.684169 0.704173 0.690837
0.729229 0.742565 0.729229
0.773983 0.780652 0.767315
0.818952 0.818952 0.805615
0.864012 0.857343 0.844007
0.909041 0.895735 0.882399
0.678203 0.724849 0.704845
0.723232 0.763241 0.743236
0.76791 0.801251 0.781247
0.81297 0.839643 0.819638
0.858015 0.878019 0.858015
0.902693 0.91603 0.896025
0.947738 0.954406 0.934401
0.992798 0.992798 0.972793
1 1 1
0.807019 0.860304 0.833661
0.852018 0.898665 0.872023
0.896712 0.93669 0.910048
0.941772 0.975082 0.94844
0.986816 1 0.986816
1 1 1
1 1 1
1 1 1
1 1 1
0 0 0
0 0 0
0 0 0
0 0 0
0 0 0
0.0145724 0 0.0145724
0.0596323 0.0196536 0.0529641
0.104311 0.0576638 0.0909743
0.14934 0.0960555 0.129366
0 0 0
0 0 0
0.00859083 0.00192264 0.0285954
0.0532998 0.0399634 0.0666361
0.0983139 0.0783093 0.104982
0.143374 0.116701 0.143374
0.188418 0.155077 0.18175
0.233097 0.193103 0.21976
0.278126 0.231479 0.258152
0.0472877 0.0605936 0.0805982
0.0923171 0.0989853 0.11899
0.137377 0.137377 0.157382
0.182055 0.175387 0.195392
0.2271 0.213764 0.233768
0.27216 0.252155 0.27216
0.316838 0.290166 0.31017
0.361898 0.328557 0.348562
0.406928 0.366949 0.386938
0.176089 0.196063 0.2094
0.221118 0.23444 0.247776
0.266163 0.272831 0.286168
0.310842 0.310842 0.324178
0.355901 0.349233 0.36257
0.400946 0.38761 0.400946
0.445624 0.42562 0.438956
0.490684 0.464012 0.477348
0.535714 0.502403 0.51574
0.304875 0.331518 0.338186
0.349905 0.369909 0.376577
0.394842 0.408179 0.414847
0.439628 0.446296 0.452964
0.484688 0.484688 0.491356
0.529732 0.523064 0.529732
0.574411 0.561074 0.567742
0.619471 0.599466 0.606134
0.6645 0.637858 0.644526
0.433661 0.466972 0.466972
0.478691 0.505364 0.505364
0.523369 0.543374 0.543374
0.568429 0.58175 0.58175
0.613474 0.620142 0.620142
0.658351 0.658351 0.658351
0.703212 0.696544 0.696544
0.748257 0.73492 0.73492
0.79324 0.773266 0.773266
0.562448 0.602426 0.595758
0.607416 0.640757 0.634089
0.652155 0.678828 0.67216
0.697215 0.71722 0.710552
0.742275 0.755596 0.748943
0.786954 0.793622 0.786954
0.831998 0.831998 0.82533
0.877058 0.87039 0.863722
0.921828 0.908522 0.901854
0.691249 0.737896 0.724559
0.736004 0.775998 0.762661
0.780957 0.814298 0.800961
0.826001 0.852674 0.839338
0.871061 0.891066 0.877729
0.91574 0.929076 0.91574
0.960784 0.967453 0.954116
1 1 0.992508
1 1 1
0.820066 0.87335 0.853376
0.864698 0.91136 0.891371
0.909758 0.949737 0.929763
0.954818 0.988128 0.968154
0.999527 1 1
1 1 1
1 1 1
1 1 1
1 1 1
0 0 0
0 0 0
0 0 0
0 0 0
0 0 0
0.0276188 0 0.034287
0.0725872 0.0326085 0.0725872
0.117342 0.0706951 0.110674
0.162387 0.109102 0.149081
0 0 0
0 0 0.00991836
0.0216373 0.0149691 0.0482948
0.0663005 0.0529641 0.086305
0.11136 0.0913558 0.124697
0.156405 0.129732 0.163073
0.201175 0.167834 0.201175
0.246143 0.206134 0.239475
0.291173 0.244526 0.277867
0.0603342 0.07364 0.100313
0.105364 0.112032 0.138705
0.150256 0.150256 0.176913
0.195102 0.188434 0.215091
0.240146 0.22681 0.253483
0.285206 0.265202 0.291875
0.329885 0.303212 0.329885
0.374929 0.341588 0.368261
0.419959 0.37998 0.406653
0.18912 0.20911 0.229099
0.23415 0.247486 0.267491
0.278828 0.285496 0.305501
0.323888 0.323888 0.343893
0.368948 0.36228 0.382269
0.413993 0.400656 0.420661
0.458671 0.438666 0.458671
0.503716 0.477043 0.497047
0.54876 0.51545 0.535439
0.317922 0.344564 0.3579
0.362951 0.382956 0.396277
0.40763 0.420966 0.434302
0.452674 0.459342 0.472679
0.497734 0.497734 0.51107
0.542412 0.535744 0.549065
0.587457 0.574121 0.587457
0.632517 0.612512 0.625849
0.677546 0.650904 0.66424
0.446708 0.480018 0.486686
0.491737 0.51841 0.525078
0.536416 0.55642 0.563088
0.58146 0.594797 0.601465
0.62652 0.633188 0.639857
0.671199 0.671199 0.677867
0.716258 0.70959 0.716258
0.761303 0.747967 0.754635
0.806195 0.786221 0.792889
0.575494 0.615473 0.615473
0.620371 0.653696 0.653696
0.665202 0.691875 0.691875
0.710262 0.730266 0.730266
0.755291 0.768627 0.768627
0.799985 0.806653 0.806653
0.845045 0.845045 0.845045
0.890105 0.883436 0.883436
0.934752 0.921447 0.921447
0.70428 0.750942 0.744274
0.748943 0.788952 0.782284
0.794003 0.827329 0.820661
0.839048 0.865721 0.859052
0.883864 0.903868 0.8972
0.928771 0.942107 0.935439
0.973831 0.980499 0.973831
1 1 1
1 1 1
0.832975 0.886275 0.872953
0.877745 0.924392 0.911086
0.922805 0.962783 0.949477
0.967849 1 0.987854
1 1 1
1 1 1
1 1 1
1 1 1
1 1 1
0 0 0
0 0 0
0 0 0
0 0 0
0 0 0.01561
0.0406653 0.00735485 0.0540017
0.0853437 0.0453651 0.0920119
0.130388 0.0837415 0.130388
0.175433 0.122133 0.16878
0 0 0
0 0 0.0296178
0.0346075 0.0279393 0.0679484
0.0793469 0.0660105 0.10602
0.124407 0.104402 0.144411
0.169451 0.142779 0.182788
0.21413 0.180789 0.220798
0.25919 0.219181 0.25919
0.304219 0.257572 0.297581
0.0733806 0.0866865 0.120027
0.11841 0.125078 0.158419
0.163195 0.163195 0.196536
0.208133 0.201465 0.234806
0.253193 0.239857 0.273198
0.298116 0.278111 0.311452
0.342931 0.316258 0.349599
0.387976 0.354635 0.387976
0.433005 0.393027 0.426368
0.202167 0.222141 0.248814
0.247196 0.260533 0.287205
0.291875 0.298543 0.325216
0.336934 0.336934 0.363607
0.381979 0.375311 0.401984
0.426703 0.413367 0.44004
0.471717 0.451713 0.478386
0.516762 0.490089 0.516762
0.561608 0.528283 0.554955
0.330968 0.35761 0.377615
0.375769 0.395773 0.415778
0.420661 0.433997 0.454002
0.465721 0.472389 0.492393
0.510781 0.510781 0.530785
0.555444 0.548775 0.56878
0.600504 0.587167 0.607172
0.645548 0.625559 0.645548
0.690211 0.663569 0.683574
0.459754 0.493065 0.506401
0.504402 0.531075 0.544411
0.549462 0.569467 0.582803
0.594507 0.607843 0.62118
0.639567 0.646235 0.659571
0.684245 0.684245 0.697581
0.72929 0.722622 0.735958
0.77435 0.761013 0.77435
0.818998 0.799023 0.81236
0.58854 0.628519 0.635187
0.633188 0.666529 0.673198
0.678248 0.704921 0.711589
0.723293 0.743297 0.749966
0.767987 0.781308 0.787976
0.813031 0.819699 0.826368
0.858091 0.858091 0.864759
0.903136 0.896468 0.903136
0.947799 0.934478 0.941146
0.717327 0.763973 0.763973
0.76199 0.801984 0.801984
0.807034 0.840375 0.840375
0.852094 0.878767 0.878767
0.896773 0.916777 0.916777
0.941817 0.955154 0.955154
0.986877 0.993545 0.993545
1 1 1
1 1 1
0.84593 0.899214 0.892576
0.890791 0.937438 0.9308
0.935851 0.97583 0.969192
0.980819 1 1
1 1 1
1 1 1
1 1 1
1 1 1
1 1 1
0 0 0
0 0 0
0 0 0
0 0 0
0.00865187 0 0.0352941
0.0537118 0.0204013 0.0736858
0.0983749 0.0583963 0.111696
0.143435 0.096788 0.150072
0.188479 0.13518 0.188479
0 0 0.0109255
0.00267033 0.00267033 0.0493172
0.0473335 0.0406653 0.0873121
0.0923934 0.079057 0.125704
0.137438 0.117433 0.164096
0.182483 0.15581 0.202457
0.227176 0.193835 0.240482
0.272236 0.232227 0.278874
0.317266 0.270619 0.317266
0.0864271 0.099733 0.139712
0.131456 0.138125 0.178103
0.176135 0.176135 0.216114
0.22118 0.214511 0.25449
0.266239 0.252903 0.292882
0.310918 0.290913 0.330892
0.355962 0.329305 0.369284
0.401022 0.367681 0.40766
0.445975 0.405997 0.445975
0.215213 0.235187 0.268498
0.260136 0.273472 0.306783
0.304921 0.311589 0.3449
0.349981 0.349981 0.383291
0.395026 0.388357 0.421668
0.439704 0.426368 0.459678
0.484764 0.464759 0.49807
0.529809 0.503136 0.536446
0.574563 0.541238 0.574563
0.343999 0.370657 0.397299
0.388724 0.408728 0.43537
0.433707 0.447044 0.473686
0.478767 0.485435 0.512078
0.523644 0.523644 0.550286
0.56849 0.561822 0.588464
0.61355 0.600214 0.626856
0.658595 0.63859 0.665248
0.703258 0.676616 0.703258
0.472801 0.506111 0.526085
0.517449 0.544121 0.564095
0.562493 0.582498 0.602472
0.607553 0.62089 0.640864
0.652232 0.6589 0.678874
0.697292 0.697292 0.717266
0.742336 0.735668 0.755642
0.787152 0.773816 0.79379
0.832044 0.81207 0.832044
0.601328 0.641306 0.654612
0.646235 0.679576 0.692882
0.691295 0.717968 0.731273
0.736339 0.756344 0.76965
0.781018 0.794354 0.807675
0.826078 0.832746 0.846052
0.871138 0.871138 0.884443
0.915801 0.909133 0.922438
0.960845 0.947524 0.960845
0.730007 0.776654 0.783291
0.775036 0.81503 0.821683
0.820081 0.853422 0.860059
0.865141 0.891814 0.898451
0.909819 0.929824 0.936461
0.954864 0.9682 0.974838
0.999924 1 1
1 1 1
1 1 1
0.858808 0.912093 0.912093
0.903838 0.950484 0.950484
0.948898 0.988876 0.988876
0.993576 1 1
1 1 1
1 1 1
1 1 1
1 1 1
1 1 1
