public/LUTS/Black&White/Black&White_10.cube
TITLE "Generated by Resolve"
LUT_3D_SIZE 33
0 0 0
0 0 0
0 0 0
0 0 0
0 0 0
0 0 0
0 0 0
0 0 0
0 0 0
0 0 0
0 0 0
0 0 0
0 0 0
0 0 0
0 0 0
0 0 0
0 0 0
0 0 0
0 0 0
0 0 0
0 0 0
0 0 0
0 0 0
0 0 0
0 0 0
0.00563058 0 0
0.0261082 0 0
0.0461891 0 0
0.0662699 0 0
0.0863508 0 0
0.106432 0.0165866 0.0165866
0.126909 0.0340581 0.0340581
0.147234 0.0514229 0.0514229
0 0 0
0 0 0
0 0 0
0 0 0
0 0 0
0 0 0
0 0 0
0 0 0
0 0 0
0 0 0
0 0 0
0 0 0
0 0 0
0 0 0
0 0 0
0 0 0
0 0 0
0 0 0
0 0 0
0 0 0
0 0 0
0 0 0
0.00285344 0 0
0.0229191 0 0
0.0432288 0 0
0.0637522 0 0
0.0838331 0.00891127 0.00596628
0.103914 0.0260014 0.0230564
0.12398 0.0430762 0.0401312
0.144076 0.0601511 0.0572061
0.164523 0.0776074 0.0746624
0.184909 0.0950027 0.0920577
0.204944 0.112093 0.109148
0 0 0
0 0 0
0 0 0
0 0 0
0 0 0
0 0 0
0 0 0
0 0 0
0 0 0
0 0 0
0 0 0
0 0 0
0 0 0
0 0 0
0 0 0
0 0 0
0 0 0
0 0 0
0 0 0
0.00030518 0 0
0.0203861 0 0
0.0404822 0 0
0.0605631 0.000610361 0
0.0813153 0.0183719 0.0124361
0.101396 0.035462 0.0295109
0.121462 0.0525368 0.0466011
0.141543 0.0696269 0.0636759
0.161624 0.0867018 0.080766
0.181872 0.103944 0.0980087
0.202472 0.121538 0.115602
0.222553 0.138628 0.132692
0.242618 0.155703 0.149767
0.262669 0.172808 0.166873
0 0 0
0 0 0
0 0 0
0 0 0
0 0 0
0 0 0
0 0 0
0 0 0
0 0 0
0 0 0
0 0 0
0 0 0
0 0 0
0 0 0
0 0 0
0 0 0
0 0 0
0.0178683 0 0
0.0379492 0 0
0.0580301 0.0100862 0.00114443
0.0781109 0.0271611 0.0182193
0.0981918 0.0442359 0.0353094
0.118959 0.0619974 0.0530709
0.139025 0.0790723 0.0701457
0.159106 0.0961624 0.0872358
0.179171 0.113237 0.104311
0.199252 0.130327 0.121401
0.219455 0.147524 0.138598
0.240101 0.165164 0.156237
0.260182 0.182254 0.173327
0.280262 0.199344 0.190402
0.300343 0.216419 0.207492
0.320378 0.233509 0.224582
0 0 0
0 0 0
0 0 0
0 0 0
0 0 0
0 0 0
0 0 0
0 0 0
0 0 0
0 0 0
0 0 0
0 0 0
0 0 0
0 0 0
0.0146639 0 0
0.0353704 0.00239567 0
0.0554971 0.0195468 0.00759899
0.0755779 0.0366217 0.0246738
0.0956588 0.0537118 0.0417639
0.11574 0.0707866 0.058854
0.135821 0.0878614 0.0759289
0.156588 0.105623 0.0936904
0.176669 0.122713 0.11078
0.196735 0.139788 0.127855
0.216815 0.156878 0.144945
0.236881 0.173953 0.16202
0.257649 0.191714 0.179782
0.277729 0.208804 0.196872
0.29781 0.225879 0.213947
0.317891 0.242969 0.231022
0.337972 0.26006 0.248112
0.358083 0.27718 0.265232
0.378759 0.294896 0.282963
0 0 0
0 0 0
0 0 0
0 0 0
0 0 0
0 0 0
0 0 0
0 0 0
0 0 0
0 0 0
0 0 0
0.0121157 0 0
0.0322118 0.0112459 0
0.0527352 0.0287633 0.0138094
0.0730449 0.0460822 0.0311437
0.0931258 0.0631723 0.0482185
0.113207 0.0802625 0.0653086
0.133288 0.0973373 0.0823835
0.153368 0.114412 0.0994736
0.173999 0.132052 0.117113
0.194202 0.149264 0.13431
0.214282 0.166339 0.1514
0.234363 0.183429 0.16849
0.254444 0.200504 0.185565
0.274525 0.217594 0.202655
0.295262 0.23534 0.220401
0.315343 0.25243 0.237491
0.335424 0.26952 0.254582
0.355505 0.286595 0.271656
0.375601 0.303685 0.288731
0.395682 0.32076 0.305821
0.416434 0.338521 0.323583
0.436469 0.355612 0.340673
0 0 0
0 0 0
0 0 0
0 0 0
0 0 0
0 0 0
0 0 0
0 0 0
0.00961318 0.00363165 0
0.0296788 0.0207065 0.00276188
0.0497597 0.0377966 0.019852
0.0698405 0.0548714 0.0369268
0.0903029 0.0723278 0.0543984
0.110689 0.0897078 0.0717784
0.13077 0.106798 0.0888533
0.150851 0.123873 0.105943
0.170932 0.140963 0.123033
0.190997 0.158038 0.140108
0.211582 0.175631 0.157687
0.23183 0.192889 0.17496
0.251911 0.209964 0.192035
0.272007 0.227054 0.20911
0.292088 0.244144 0.2262
0.312154 0.261219 0.243275
0.332921 0.278981 0.261036
0.352987 0.296056 0.278126
0.373068 0.313146 0.295201
0.393149 0.330236 0.312291
0.41323 0.347311 0.329366
0.433921 0.364996 0.347066
0.454078 0.382147 0.364218
0.474144 0.399222 0.381292
0.494194 0.416327 0.398383
0 0 0
0 0 0
0 0 0
0 0 0
0 0 0
0.00662242 0.012604 0
0.0271763 0.0301671 0.00923171
0.0472572 0.0472572 0.0263218
0.0673381 0.064332 0.0434119
0.0874037 0.0814069 0.0604868
0.107485 0.098497 0.0775769
0.128222 0.116258 0.0953231
0.148318 0.133333 0.112413
0.168414 0.150423 0.129488
0.188479 0.167498 0.146563
0.20856 0.184588 0.163653
0.228946 0.201984 0.181048
0.249393 0.219425 0.198505
0.269474 0.236515 0.215579
0.289555 0.253605 0.23267
0.309636 0.27068 0.249744
0.329717 0.287755 0.266835
0.350225 0.305272 0.284352
0.37055 0.322606 0.301671
0.390631 0.339696 0.318761
0.410697 0.356771 0.335836
0.430777 0.373846 0.352926
0.450858 0.390936 0.370016
0.471489 0.40856 0.38764
0.491707 0.425772 0.404837
0.511788 0.442863 0.421927
0.531868 0.459937 0.439002
0.551904 0.477043 0.456107
0 0 0
0 0.00479133 0
0.00389105 0.0218662 0
0.0239719 0.0389563 0.0150301
0.0447242 0.0567178 0.0327916
0.0648203 0.0737926 0.0498665
0.0848859 0.0908675 0.0669413
0.104967 0.107958 0.0840314
0.125048 0.125048 0.101122
0.145251 0.14226 0.118334
0.165881 0.159884 0.135958
0.185946 0.176959 0.153033
0.206043 0.194049 0.170123
0.226123 0.211139 0.187213
0.246204 0.228214 0.204288
0.266529 0.245548 0.221622
0.287037 0.263066 0.239139
0.307103 0.28014 0.256214
0.327184 0.29723 0.273304
0.347265 0.314305 0.290394
0.367346 0.33138 0.307469
0.387808 0.348837 0.324926
0.408194 0.366232 0.342306
0.42826 0.383307 0.35938
0.448341 0.400397 0.376471
0.468421 0.417472 0.393545
0.488502 0.434562 0.410636
0.509255 0.452323 0.428397
0.529335 0.469398 0.445472
0.549432 0.486488 0.462562
0.569512 0.503578 0.479652
0.589578 0.520653 0.496727
0.610101 0.538231 0.514305
0.0214847 0.0484016 0.0214847
0.0415198 0.0654917 0.0385748
0.0616007 0.0825818 0.0556649
0.0823529 0.100343 0.0734112
0.102434 0.117418 0.0905013
0.12253 0.134508 0.107591
0.142596 0.151583 0.124666
0.162676 0.168673 0.141756
0.182834 0.185824 0.158907
0.20351 0.20351 0.176593
0.22359 0.2206 0.193683
0.243656 0.237675 0.210758
0.263752 0.254765 0.227848
0.283848 0.271839 0.244923
0.304585 0.289601 0.262684
0.324666 0.306691 0.279759
0.344747 0.323766 0.296849
0.364828 0.340841 0.313924
0.384909 0.357931 0.331014
0.405173 0.375204 0.348287
0.425742 0.392767 0.36585
0.445838 0.409857 0.38294
0.465919 0.426947 0.400031
0.485985 0.444022 0.417105
0.506065 0.461112 0.434195
0.526452 0.478492 0.451575
0.546883 0.495949 0.469032
0.566979 0.513039 0.486122
0.587045 0.530114 0.503197
0.607141 0.547189 0.520272
0.627222 0.564279 0.537362
0.647715 0.581781 0.554864
0.668009 0.59913 0.572213
0.0792096 0.109117 0.0792096
0.0998093 0.126772 0.0968643
0.119997 0.143969 0.114061
0.140063 0.161044 0.131136
0.160159 0.178134 0.148226
0.180255 0.195209 0.165301
0.20032 0.212299 0.182376
0.221073 0.23006 0.200137
0.241154 0.24715 0.217227
0.261219 0.264225 0.234302
0.2813 0.2813 0.251392
0.301381 0.29839 0.268467
0.321477 0.31548 0.285557
0.342229 0.333227 0.303319
0.36231 0.350301 0.320394
0.382391 0.367391 0.337484
0.402472 0.384482 0.354574
0.422538 0.401556 0.371649
0.442741 0.418769 0.388861
0.463371 0.436408 0.4065
0.483452 0.453483 0.423575
0.503548 0.470573 0.44065
0.523629 0.487648 0.45774
0.543694 0.504738 0.474815
0.564034 0.522072 0.492149
0.584543 0.53959 0.509667
0.604608 0.556664 0.526741
0.624689 0.573739 0.543832
0.64477 0.590814 0.560906
0.664866 0.607904 0.577996
0.685618 0.625666 0.595758
0.705684 0.642741 0.612833
0.725734 0.659846 0.629938
0.137438 0.170336 0.137438
0.157626 0.187594 0.154681
0.177707 0.204685 0.171771
0.197787 0.221759 0.188846
0.217868 0.238834 0.205936
0.237964 0.255924 0.223026
0.258671 0.27364 0.240726
0.278798 0.290761 0.257862
0.298878 0.307851 0.274952
0.318944 0.324926 0.292027
0.339025 0.342016 0.309117
0.359091 0.359091 0.326192
0.379858 0.376852 0.343954
0.399954 0.393942 0.361028
0.42002 0.411017 0.378119
0.440101 0.428107 0.395193
0.460182 0.445197 0.412284
0.480934 0.462943 0.430045
0.501015 0.480034 0.44712
0.521096 0.497124 0.46421
0.541176 0.514199 0.481285
0.561257 0.531273 0.498375
0.581399 0.548424 0.515511
0.60209 0.566125 0.533211
0.622171 0.5832 0.550301
0.642252 0.60029 0.567391
0.662318 0.617365 0.584466
0.682399 0.634455 0.601556
0.702663 0.651713 0.618814
0.723247 0.669291 0.636393
0.743328 0.686381 0.653468
0.763409 0.703456 0.670542
0.783444 0.720546 0.687648
0.1953 0.23122 0.1953
0.215335 0.24831 0.21239
0.235416 0.2654 0.22948
0.255497 0.282475 0.246555
0.27602 0.300008 0.264088
0.296345 0.317311 0.281407
0.316411 0.334386 0.298482
0.336492 0.351476 0.315572
0.356573 0.368566 0.332662
0.376654 0.385641 0.349737
0.397299 0.403296 0.367391
0.417472 0.420478 0.384573
0.437568 0.437568 0.401663
0.457664 0.454658 0.418738
0.477729 0.471733 0.435813
0.49781 0.488823 0.452903
0.518563 0.506584 0.470665
0.538643 0.523659 0.487739
0.558724 0.540749 0.504829
0.578805 0.557839 0.52192
0.598886 0.574899 0.538994
0.618967 0.591989 0.556085
0.639735 0.609751 0.573846
0.6598 0.626825 0.590921
0.679881 0.643915 0.608011
0.699962 0.661006 0.625101
0.720027 0.67808 0.642176
0.74023 0.695293 0.659388
0.760861 0.712917 0.677012
0.780957 0.730007 0.694087
0.801038 0.747097 0.711177
0.821103 0.764172 0.728252
0.841154 0.781262 0.745357
0.25301 0.291936 0.25301
0.273045 0.309026 0.2701
0.293126 0.326101 0.28719
0.313588 0.343572 0.304662
0.333959 0.360937 0.322026
0.354055 0.378027 0.339117
0.374121 0.395102 0.356191
0.394202 0.412192 0.373281
0.414282 0.429282 0.390356
0.434867 0.446876 0.40795
0.455116 0.464118 0.425208
0.475181 0.481193 0.442283
0.495277 0.498283 0.459358
0.515373 0.515373 0.476448
0.535439 0.532448 0.493523
0.556191 0.55021 0.511284
0.576272 0.5673 0.528374
0.596353 0.584375 0.545449
0.616434 0.601465 0.562539
0.636515 0.61854 0.579629
0.657206 0.63624 0.59733
0.677348 0.653376 0.614466
0.697429 0.670466 0.631556
0.71751 0.687541 0.64863
0.737591 0.704631 0.665721
0.757671 0.721721 0.682795
0.778408 0.739467 0.700557
0.798489 0.756558 0.717647
0.81857 0.773632 0.734722
0.838666 0.790722 0.751797
0.858747 0.807813 0.768887
0.878874 0.824933 0.786023
0.899535 0.842649 0.803738
0.310735 0.352636 0.310735
0.33077 0.369726 0.327825
0.351522 0.387488 0.345586
0.371588 0.404562 0.362661
0.391684 0.421653 0.379736
0.411765 0.438743 0.396826
0.431846 0.455817 0.413901
0.452247 0.473228 0.431312
0.472679 0.490669 0.448753
0.492744 0.507744 0.465827
0.512825 0.524834 0.482918
0.532906 0.541924 0.500008
0.552987 0.558999 0.517082
0.573526 0.576516 0.534615
0.593835 0.593835 0.551919
0.613916 0.61091 0.569009
0.633997 0.628 0.586099
0.654063 0.645075 0.603174
0.674144 0.662165 0.620264
0.694789 0.67982 0.637903
0.714977 0.697002 0.6551
0.735073 0.714092 0.672175
0.755154 0.731182 0.689265
0.775219 0.748257 0.70634
0.7953 0.765347 0.72343
0.816068 0.783108 0.741192
0.836133 0.800183 0.758267
0.856214 0.817273 0.775357
0.876295 0.834348 0.792432
0.896376 0.851423 0.809522
0.916457 0.868513 0.826612
0.937209 0.886275 0.844358
0.957259 0.903365 0.861448
0.368597 0.413489 0.368597
0.389151 0.431113 0.386206
0.409232 0.448203 0.403296
0.429313 0.465278 0.420371
0.449393 0.482368 0.437461
0.46949 0.499443 0.454551
0.48983 0.516793 0.471885
0.510307 0.534295 0.489387
0.530404 0.551369 0.506477
0.550469 0.56846 0.523552
0.57055 0.585534 0.540642
0.590631 0.602625 0.557717
0.611093 0.620096 0.575189
0.631479 0.637461 0.592554
0.651545 0.654536 0.609628
0.671626 0.671626 0.626719
0.691707 0.688716 0.643809
0.711772 0.705791 0.660883
0.73254 0.723552 0.678645
0.752621 0.740642 0.695735
0.772702 0.757717 0.71281
0.792782 0.774807 0.7299
0.812863 0.791882 0.74699
0.833432 0.809461 0.764553
0.853697 0.826734 0.781826
0.873777 0.843809 0.798917
0.893843 0.860899 0.815991
0.913924 0.877974 0.833082
0.93402 0.895064 0.850156
0.954726 0.912764 0.867857
0.974853 0.9299 0.884993
0.994934 0.946975 0.902068
1 0.96408 0.919173
0.426841 0.474739 0.426841
0.446876 0.491829 0.443931
0.466957 0.508919 0.461021
0.487022 0.525994 0.478096
0.507118 0.543069 0.495171
0.527886 0.56083 0.512932
0.547951 0.577905 0.530007
0.568032 0.594995 0.547097
0.588113 0.612085 0.564187
0.608179 0.62916 0.581262
0.628458 0.646448 0.59855
0.649027 0.664012 0.616114
0.669108 0.681086 0.633188
0.689189 0.698177 0.650278
0.709255 0.715251 0.667353
0.729351 0.732341 0.684443
0.749737 0.749737 0.701839
0.770169 0.767178 0.71928
0.790249 0.784268 0.73637
0.81033 0.801358 0.75346
0.830411 0.818433 0.770535
0.850507 0.835508 0.78761
0.871031 0.85304 0.805142
0.891325 0.870344 0.822446
0.911406 0.887434 0.839536
0.931487 0.904524 0.856626
0.951568 0.921599 0.873701
0.971649 0.938689 0.890791
0.992294 0.956344 0.908431
1 0.973526 0.925628
1 0.990616 0.942718
1 1 0.959792
1 1 0.976883
0.48455 0.535454 0.48455
0.504585 0.552529 0.50164
0.524666 0.569619 0.51873
0.544762 0.586725 0.535836
0.565499 0.604456 0.553567
0.585595 0.621546 0.570657
0.605661 0.638621 0.587732
0.625742 0.655711 0.604822
0.645823 0.672801 0.621897
0.666041 0.690013 0.639124
0.686656 0.707637 0.656748
0.706737 0.724727 0.673838
0.726818 0.741802 0.690913
0.746914 0.758877 0.707988
0.766979 0.775967 0.725063
0.78732 0.793317 0.742412
0.807813 0.810803 0.759915
0.827893 0.827893 0.776989
0.847974 0.844968 0.794079
0.868055 0.862058 0.81117
0.888136 0.879133 0.828244
0.908888 0.896895 0.846006
0.928985 0.913985 0.863096
0.94905 0.93106 0.880171
0.969131 0.94815 0.897261
0.989212 0.96524 0.914336
1 0.982681 0.931792
1 1 0.949187
1 1 0.966262
1 1 0.983337
1 1 1
1 1 1
1 1 1
0.542275 0.596155 0.542275
0.56231 0.613245 0.559365
0.582391 0.630335 0.57644
0.603128 0.648081 0.594202
0.623224 0.665171 0.611292
0.643305 0.682261 0.628367
0.663386 0.699336 0.645441
0.683467 0.716426 0.662531
0.704219 0.734188 0.680293
0.724285 0.751263 0.697368
0.744366 0.768353 0.714458
0.764446 0.785428 0.731548
0.784527 0.802502 0.748623
0.8047 0.819669 0.765774
0.825376 0.837339 0.783459
0.845457 0.854429 0.800549
0.865538 0.871519 0.817639
0.885603 0.888594 0.834714
0.905684 0.905684 0.851804
0.925963 0.922972 0.869078
0.946517 0.94052 0.886641
0.966613 0.95761 0.903716
0.986694 0.974701 0.920806
1 0.991775 0.937881
1 1 0.954971
1 1 0.972381
1 1 0.989807
1 1 1
1 1 1
1 1 1
1 1 1
1 1 1
1 1 1
0.599985 0.65687 0.599985
0.6206 0.67454 0.617655
0.640772 0.691722 0.634836
0.660853 0.708797 0.651911
0.680934 0.725887 0.669001
0.70103 0.742962 0.686091
0.721096 0.760037 0.703166
0.741863 0.777798 0.720928
0.761944 0.794888 0.738018
0.78201 0.811963 0.755093
0.80209 0.829053 0.772183
0.822171 0.846143 0.789258
0.842268 0.863233 0.806363
0.86302 0.88098 0.824094
0.883085 0.898054 0.841169
0.903166 0.915145 0.858259
0.923247 0.932235 0.875349
0.943313 0.94931 0.892424
0.963546 0.966537 0.909651
0.984161 0.984161 0.927275
1 1 0.94435
1 1 0.96144
1 1 0.978531
1 1 0.995605
1 1 1
1 1 1
1 1 1
1 1 1
1 1 1
1 1 1
1 1 1
1 1 1
1 1 1
0.658228 0.718105 0.658228
0.678401 0.735348 0.675456
0.698482 0.752438 0.692546
0.718547 0.769512 0.709621
0.738643 0.786587 0.726711
0.75874 0.803677 0.743786
0.779477 0.821439 0.761547
0.799558 0.838514 0.778637
0.819638 0.855604 0.795727
0.839719 0.872679 0.812802
0.8598 0.889769 0.829877
0.880507 0.9075 0.847608
0.900633 0.924605 0.864729
0.920729 0.941695 0.881804
0.94081 0.958785 0.898894
0.960876 0.97586 0.915969
0.980957 0.99295 0.933059
1 1 0.950805
1 1 0.967895
1 1 0.984985
1 1 1
1 1 1
1 1 1
1 1 1
1 1 1
1 1 1
1 1 1
1 1 1
1 1 1
1 1 1
1 1 1
1 1 1
1 1 1
0.716075 0.778973 0.716075
0.73611 0.796063 0.733166
0.756191 0.813153 0.750256
0.776257 0.830228 0.76733
0.796811 0.847761 0.784878
0.817121 0.865064 0.802182
0.837186 0.882139 0.819257
0.857267 0.899229 0.836347
0.877348 0.91632 0.853422
0.897429 0.933394 0.870512
0.91809 0.951064 0.888167
0.938262 0.968246 0.905348
0.958343 0.985321 0.922423
0.978439 1 0.939513
0.99852 1 0.956603
1 1 0.973678
1 1 0.99144
1 1 1
1 1 1
1 1 1
1 1 1
1 1 1
1 1 1
1 1 1
1 1 1
1 1 1
1 1 1
1 1 1
1 1 1
1 1 1
1 1 1
1 1 1
1 1 1
0.7738 0.839689 0.7738
0.79382 0.856764 0.79089
0.813901 0.873854 0.807965
0.834379 0.89134 0.825452
0.854749 0.90869 0.842802
0.87483 0.92578 0.859892
0.894911 0.942855 0.876967
0.914992 0.959945 0.894057
0.935073 0.977035 0.911147
0.95581 0.994781 0.928893
0.975891 1 0.945983
0.995972 1 0.963073
1 1 0.980148
1 1 0.997238
1 1 1
1 1 1
1 1 1
1 1 1
1 1 1
1 1 1
1 1 1
1 1 1
1 1 1
1 1 1
1 1 1
1 1 1
1 1 1
1 1 1
1 1 1
1 1 1
1 1 1
1 1 1
1 1 1
0.83151 0.900389 0.83151
0.851759 0.917693 0.848814
0.872297 0.935241 0.866361
0.892378 0.952316 0.883436
0.912459 0.969406 0.900526
0.932555 0.986496 0.917617
0.952621 1 0.934691
0.973037 1 0.952102
0.993454 1 0.969543
1 1 0.986618
1 1 1
1 1 1
1 1 1
1 1 1
1 1 1
1 1 1
1 1 1
1 1 1
1 1 1
1 1 1
1 1 1
1 1 1
1 1 1
1 1 1
1 1 1
1 1 1
1 1 1
1 1 1
1 1 1
1 1 1
1 1 1
1 1 1
1 1 1
0.889387 0.961257 0.889387
0.909941 0.978866 0.906996
0.930022 0.995956 0.924086
0.950088 1 0.941161
0.970184 1 0.958236
0.990265 1 0.975326
1 1 0.992676
1 1 1
1 1 1
1 1 1
1 1 1
1 1 1
1 1 1
1 1 1
1 1 1
1 1 1
1 1 1
1 1 1
1 1 1
1 1 1
1 1 1
1 1 1
1 1 1
1 1 1
1 1 1
1 1 1
1 1 1
1 1 1
1 1 1
1 1 1
1 1 1
1 1 1
1 1 1
0.947616 1 0.947616
0.967651 1 0.964706
0.987732 1 0.981796
1 1 0.998871
1 1 1
1 1 1
1 1 1
1 1 1
1 1 1
1 1 1
1 1 1
1 1 1
1 1 1
1 1 1
1 1 1
1 1 1
1 1 1
1 1 1
1 1 1
1 1 1
1 1 1
1 1 1
1 1 1
1 1 1
1 1 1
1 1 1
1 1 1
1 1 1
1 1 1
1 1 1
1 1 1
1 1 1
1 1 1
1 1 1
1 1 1
1 1 1
1 1 1
1 1 1
1 1 1
1 1 1
1 1 1
1 1 1
1 1 1
1 1 1
1 1 1
1 1 1
1 1 1
1 1 1
1 1 1
1 1 1
1 1 1
1 1 1
1 1 1
1 1 1
1 1 1
1 1 1
1 1 1
1 1 1
1 1 1
1 1 1
1 1 1
1 1 1
1 1 1
1 1 1
1 1 1
1 1 1
1 1 1
1 1 1
1 1 1
1 1 1
1 1 1
1 1 1
1 1 1
1 1 1
1 1 1
