public/LUTS/Black&White/Black&White_10.cube
TITLE "Generated by Resolve"
LUT_3D_SIZE 9
0 0 0
0 0 0
0 0 0
0 0 0
0 0 0
0 0 0
0 0 0
0.0662699 0 0
0.147234 0.0514229 0.0514229
0 0 0
0 0 0
0 0 0
0 0 0
0.0554971 0.0195468 0.00759899
0.135821 0.0878614 0.0759289
0.216815 0.156878 0.144945
0.29781 0.225879 0.213947
0.378759 0.294896 0.282963
0 0 0
0.0447242 0.0567178 0.0327916
0.125048 0.125048 0.101122
0.206043 0.194049 0.170123
0.287037 0.263066 0.239139
0.367346 0.33138 0.307469
0.448341 0.400397 0.376471
0.529335 0.469398 0.445472
0.610101 0.538231 0.514305
0.1953 0.23122 0.1953
0.27602 0.300008 0.264088
0.356573 0.368566 0.332662
0.437568 0.437568 0.401663
0.518563 0.506584 0.470665
0.598886 0.574899 0.538994
0.679881 0.643915 0.608011
0.760861 0.712917 0.677012
0.841154 0.781262 0.745357
0.426841 0.474739 0.426841
0.507118 0.543069 0.495171
0.588113 0.612085 0.564187
0.669108 0.681086 0.633188
0.749737 0.749737 0.701839
0.830411 0.818433 0.770535
0.911406 0.887434 0.839536
0.992294 0.956344 0.908431
1 1 0.976883
0.658228 0.718105 0.658228
0.738643 0.786587 0.726711
0.819638 0.855604 0.795727
0.900633 0.924605 0.864729
0.980957 0.99295 0.933059
1 1 1
1 1 1
1 1 1
1 1 1
0.889387 0.961257 0.889387
0.970184 1 0.958236
1 1 1
1 1 1
1 1 1
1 1 1
1 1 1
1 1 1
1 1 1
1 1 1
1 1 1
1 1 1
1 1 1
1 1 1
1 1 1
1 1 1
1 1 1
1 1 1
1 1 1
1 1 1
1 1 1
1 1 1
1 1 1
1 1 1
1 1 1
1 1 1
1 1 1
0 0 0
0 0 0
0 0 0
0 0 0
0 0 0
0 0 0
0.0087129 0 0
0.0897231 0.00585946 0.017792
0.170367 0.0745708 0.0865187
0 0 0
0 0 0
0 0 0
0 0 0
0.0789502 0.0429847 0.0429847
0.159274 0.111315 0.111315
0.240253 0.180316 0.180316
0.321263 0.249332 0.249332
0.401556 0.317693 0.317693
0 0.0111543 0
0.0675059 0.0794842 0.0675059
0.148486 0.148486 0.136507
0.229496 0.217502 0.205509
0.310475 0.286503 0.27451
0.390799 0.354833 0.342855
0.471794 0.423835 0.411856
0.552789 0.492851 0.480873
0.633066 0.561196 0.549218
0.218753 0.254673 0.230701
0.299031 0.323003 0.299031
0.380026 0.392004 0.368032
0.461021 0.461021 0.437049
0.541329 0.529351 0.505379
0.622339 0.598352 0.57438
0.703319 0.667353 0.643381
0.784314 0.73637 0.712398
0.864607 0.804715 0.780743
0.450294 0.498192 0.462226
0.530571 0.566522 0.530571
0.611551 0.635523 0.599573
0.692561 0.70454 0.668574
0.772869 0.772869 0.736904
0.853864 0.841886 0.80592
0.934859 0.910887 0.874937
1 0.979614 0.943664
1 1 1
0.681514 0.74139 0.693446
0.762097 0.81004 0.762097
0.843091 0.879042 0.831098
0.924025 0.947997 0.900038
1 1 0.968444
1 1 1
1 1 1
1 1 1
1 1 1
0.912688 0.984558 0.92462
0.993637 1 0.993637
1 1 1
1 1 1
1 1 1
1 1 1
1 1 1
1 1 1
1 1 1
1 1 1
1 1 1
1 1 1
1 1 1
1 1 1
1 1 1
1 1 1
1 1 1
1 1 1
1 1 1
1 1 1
1 1 1
1 1 1
1 1 1
1 1 1
1 1 1
1 1 1
1 1 1
0 0 0
0 0 0
0 0 0
0 0 0
0 0 0
0 0 0
0.032166 0 0
0.113176 0.0293126 0.0532387
0.193652 0.0978561 0.121782
0 0 0
0 0 0
0 0 0
0.0214084 0 0.00941482
0.102144 0.0661784 0.078172
0.182712 0.134768 0.146761
0.263706 0.203769 0.215763
0.344701 0.272786 0.284764
0.424979 0.341115 0.353109
0.0106813 0.0346075 0.0346075
0.0909438 0.102922 0.102922
0.171939 0.171939 0.171939
0.252934 0.240955 0.240955
0.333303 0.309331 0.309331
0.414252 0.378286 0.378286
0.495232 0.447288 0.447288
0.57586 0.515923 0.515923
0.656519 0.584649 0.584649
0.241794 0.277699 0.265721
0.322469 0.346441 0.334462
0.403464 0.415457 0.403464
0.484474 0.484474 0.47248
0.564782 0.552804 0.54081
0.645777 0.621805 0.609827
0.726772 0.690806 0.678828
0.807095 0.759152 0.747158
0.88806 0.828168 0.816175
0.47306 0.520958 0.496986
0.554009 0.58996 0.565988
0.635004 0.658976 0.635004
0.715999 0.727993 0.704021
0.796323 0.796323 0.772335
0.877317 0.865324 0.841352
0.958297 0.934325 0.910353
1 1 0.978698
1 1 1
0.704601 0.764477 0.728527
0.78555 0.833494 0.797528
0.866529 0.902495 0.866529
0.946853 0.97084 0.934874
1 1 1
1 1 1
1 1 1
1 1 1
1 1 1
0.936126 1 0.960052
1 1 1
1 1 1
1 1 1
1 1 1
1 1 1
1 1 1
1 1 1
1 1 1
1 1 1
1 1 1
1 1 1
1 1 1
1 1 1
1 1 1
1 1 1
1 1 1
1 1 1
1 1 1
1 1 1
1 1 1
1 1 1
1 1 1
1 1 1
1 1 1
1 1 1
1 1 1
0 0 0
0 0 0
0 0 0
0 0 0
0 0 0
0 0 0
0.0556191 0 0.0196536
0.136614 0.0527657 0.0886702
0.216892 0.121096 0.157
0 0 0
0 0 0
0 0 0
0.0448463 0.0208743 0.0448463
0.12517 0.0892042 0.113176
0.206165 0.158221 0.182193
0.28716 0.227222 0.251194
0.367987 0.296071 0.320043
0.448432 0.364569 0.38854
0.0339208 0.057847 0.0698253
0.114397 0.126375 0.138369
0.195392 0.195392 0.20737
0.276371 0.264393 0.276371
0.356695 0.332723 0.344717
0.437705 0.40174 0.413733
0.518685 0.470741 0.482734
0.599145 0.539208 0.551202
0.679957 0.608087 0.620081
0.26508 0.300984 0.300984
0.345922 0.369894 0.369894
0.426917 0.438911 0.438911
0.507591 0.507591 0.507591
0.588235 0.576242 0.576242
0.66923 0.645258 0.645258
0.750225 0.71426 0.71426
0.830549 0.782589 0.782589
0.911498 0.851606 0.851606
0.496513 0.544411 0.532433
0.577447 0.613413 0.601434
0.658457 0.682429 0.670436
0.738781 0.750759 0.738781
0.81976 0.81976 0.807782
0.900771 0.888777 0.876783
0.981292 0.957321 0.945342
1 1 1
1 1 1
0.728054 0.78793 0.763958
0.808988 0.856931 0.832959
0.889982 0.925948 0.901976
0.970306 0.994278 0.970306
1 1 1
1 1 1
1 1 1
1 1 1
1 1 1
0.959579 1 0.995499
1 1 1
1 1 1
1 1 1
1 1 1
1 1 1
1 1 1
1 1 1
1 1 1
1 1 1
1 1 1
1 1 1
1 1 1
1 1 1
1 1 1
1 1 1
1 1 1
1 1 1
1 1 1
1 1 1
1 1 1
1 1 1
1 1 1
1 1 1
1 1 1
1 1 1
1 1 1
0 0 0
0 0 0
0 0 0
0 0 0
0 0 0
0 0 0
0.0790723 0.00720226 0.0551003
0.159411 0.0755474 0.123445
0.240345 0.144549 0.192447
0 0 0
0 0 0
0 0 0.0112764
0.0682994 0.0443122 0.0802777
0.148623 0.112657 0.148623
0.229603 0.181659 0.217624
0.310597 0.250675 0.286625
0.390921 0.319005 0.354971
0.471885 0.388022 0.423972
0.0568856 0.0808118 0.104784
0.137835 0.149828 0.1738
0.218845 0.218845 0.242817
0.299702 0.287709 0.311696
0.380148 0.356176 0.380148
0.461143 0.425193 0.449165
0.542138 0.494194 0.518166
0.622461 0.562524 0.586496
0.70341 0.63154 0.655512
0.288426 0.324346 0.336324
0.369375 0.393347 0.405325
0.45037 0.462364 0.474342
0.530678 0.530678 0.542672
0.611688 0.599695 0.611688
0.692683 0.668711 0.68069
0.773419 0.737453 0.749447
0.853986 0.806043 0.818036
0.934951 0.875059 0.887037
0.519966 0.567864 0.567864
0.6009 0.636866 0.636866
0.681865 0.705837 0.705837
0.762219 0.774197 0.774197
0.843214 0.843214 0.843214
0.924208 0.91223 0.91223
1 0.980606 0.980606
1 1 1
1 1 1
0.751492 0.811383 0.79939
0.832441 0.880385 0.868391
0.913024 0.948989 0.936996
0.993744 1 1
1 1 1
1 1 1
1 1 1
1 1 1
1 1 1
0.983032 1 1
1 1 1
1 1 1
1 1 1
1 1 1
1 1 1
1 1 1
1 1 1
1 1 1
1 1 1
1 1 1
1 1 1
1 1 1
1 1 1
1 1 1
1 1 1
1 1 1
1 1 1
1 1 1
1 1 1
1 1 1
1 1 1
1 1 1
1 1 1
1 1 1
1 1 1
1 1 1
0 0 0
0 0 0
0 0 0
0 0 0
0 0 0
0.0215152 0 0.0215152
0.10251 0.0306401 0.0905318
0.182834 0.09897 0.158862
0.263798 0.167987 0.227878
0 0 0
0 0 0
0.0107576 0 0.0467079
0.0911421 0.0671702 0.115129
0.172061 0.13611 0.184054
0.253056 0.205112 0.253056
0.334051 0.274113 0.322072
0.414374 0.342458 0.390402
0.495323 0.41146 0.459419
0.0803388 0.104265 0.14023
0.161288 0.173281 0.209232
0.242283 0.242283 0.278248
0.322606 0.310613 0.346578
0.403601 0.379629 0.415579
0.484581 0.448631 0.484581
0.564904 0.51696 0.552926
0.645914 0.585977 0.621942
0.726864 0.654994 0.690944
0.311864 0.347784 0.371756
0.392813 0.4168 0.440772
0.473823 0.485801 0.509773
0.554131 0.554131 0.578103
0.635126 0.623148 0.64712
0.716121 0.692149 0.716121
0.796445 0.760479 0.784451
0.87744 0.829496 0.853468
0.958389 0.898512 0.922484
0.543404 0.591302 0.603296
0.624353 0.660319 0.672297
0.70515 0.729122 0.7411
0.785672 0.79765 0.809644
0.866667 0.866667 0.878645
0.947646 0.935668 0.947646
1 1 1
1 1 1
1 1 1
0.774929 0.834821 0.834821
0.855879 0.903838 0.903838
0.936202 0.972168 0.972168
1 1 1
1 1 1
1 1 1
1 1 1
1 1 1
1 1 1
1 1 1
1 1 1
1 1 1
1 1 1
1 1 1
1 1 1
1 1 1
1 1 1
1 1 1
1 1 1
1 1 1
1 1 1
1 1 1
1 1 1
1 1 1
1 1 1
1 1 1
1 1 1
1 1 1
1 1 1
1 1 1
1 1 1
1 1 1
1 1 1
1 1 1
1 1 1
1 1 1
0 0 0
0 0 0
0 0 0
0 0 0
0 0 0
0.0449683 0 0.0569619
0.125811 0.0539406 0.125811
0.206287 0.122423 0.194293
0.287236 0.19144 0.26331
0 0 0
0 0 0.013138
0.0342107 0.0222171 0.0821546
0.114519 0.090547 0.150484
0.195514 0.159548 0.219486
0.276509 0.22855 0.288487
0.356985 0.297047 0.356985
0.437812 0.365896 0.425834
0.518776 0.434913 0.49485
0.103792 0.127718 0.175662
0.184741 0.196719 0.244678
0.265431 0.265431 0.313375
0.346044 0.334066 0.38201
0.427054 0.403067 0.451026
0.508034 0.472068 0.520027
0.588357 0.540413 0.588357
0.669352 0.609415 0.657359
0.750317 0.678431 0.72639
0.335317 0.371237 0.407187
0.416266 0.440238 0.476204
0.49659 0.508583 0.544533
0.577585 0.577585 0.613535
0.658579 0.646601 0.682551
0.739574 0.715602 0.751553
0.819898 0.783932 0.819898
0.900877 0.852934 0.888899
0.981842 0.92195 0.957916
0.566857 0.614755 0.638727
0.647807 0.683757 0.707744
0.72813 0.752102 0.776074
0.80911 0.821103 0.845075
0.89012 0.89012 0.914092
0.970428 0.958434 0.982406
1 1 1
1 1 1
1 1 1
0.798383 0.858274 0.870253
0.879332 0.927275 0.939269
0.959655 0.995621 1
1 1 1
1 1 1
1 1 1
1 1 1
1 1 1
1 1 1
1 1 1
1 1 1
1 1 1
1 1 1
1 1 1
1 1 1
1 1 1
1 1 1
1 1 1
1 1 1
1 1 1
1 1 1
1 1 1
1 1 1
1 1 1
1 1 1
1 1 1
1 1 1
1 1 1
1 1 1
1 1 1
1 1 1
1 1 1
1 1 1
1 1 1
1 1 1
1 1 1
0 0 0
0 0 0
0 0 0
0 0 0
0 0 0.0233768
0.0684215 0.00852979 0.0923934
0.148745 0.0768749 0.160723
0.229725 0.145876 0.229725
0.310689 0.214893 0.298756
0 0 0
0 0 0.0485695
0.0575418 0.0455482 0.117479
0.137972 0.113985 0.185916
0.218967 0.183001 0.254932
0.299947 0.252003 0.323934
0.38027 0.320348 0.392264
0.461265 0.389349 0.461265
0.542229 0.458366 0.530282
0.12723 0.151156 0.211093
0.208194 0.220172 0.28011
0.288701 0.288701 0.348638
0.369497 0.357504 0.417441
0.450492 0.42652 0.486458
0.531258 0.495293 0.55523
0.611811 0.563867 0.623789
0.692805 0.632868 0.692805
0.773754 0.701885 0.761822
0.35877 0.394675 0.442634
0.439719 0.463691 0.511635
0.520027 0.532021 0.579965
0.601038 0.601038 0.648981
0.682033 0.670039 0.717998
0.762417 0.738445 0.786389
0.843336 0.807385 0.855329
0.924331 0.876387 0.924331
1 0.945052 0.992996
0.590295 0.638193 0.674159
0.670863 0.706828 0.742779
0.751568 0.77554 0.811505
0.832563 0.844556 0.880507
0.913558 0.913558 0.949523
0.993881 0.981888 1
1 1 1
1 1 1
1 1 1
0.821836 0.881727 0.905699
0.902113 0.950057 0.974029
0.983108 1 1
1 1 1
1 1 1
1 1 1
1 1 1
1 1 1
1 1 1
1 1 1
1 1 1
1 1 1
1 1 1
1 1 1
1 1 1
1 1 1
1 1 1
1 1 1
1 1 1
1 1 1
1 1 1
1 1 1
1 1 1
1 1 1
1 1 1
1 1 1
1 1 1
1 1 1
1 1 1
1 1 1
1 1 1
1 1 1
1 1 1
1 1 1
1 1 1
1 1 1
0 0 0
0 0 0
0 0 0
0 0 0
0.0108644 0 0.0587778
0.0918746 0.0319829 0.127779
0.172183 0.100313 0.196109
0.253178 0.169329 0.265126
0.334142 0.238346 0.334142
0 0 0.0149538
0.000106813 0.000106813 0.0839704
0.080415 0.0684367 0.1523
0.161425 0.137438 0.221302
0.242405 0.206439 0.290303
0.323384 0.275441 0.359304
0.403723 0.343801 0.427649
0.484718 0.412802 0.496651
0.565682 0.481819 0.565682
0.150683 0.174609 0.246494
0.231632 0.243626 0.315496
0.311955 0.311955 0.383825
0.39295 0.380957 0.452842
0.473945 0.449958 0.521843
0.554269 0.518303 0.590173
0.635264 0.58732 0.65919
0.716243 0.656321 0.728191
0.79707 0.725185 0.79707
0.382223 0.418128 0.478019
0.462989 0.486961 0.546853
0.543481 0.555474 0.615351
0.624491 0.624491 0.684367
0.705486 0.693492 0.753384
0.785794 0.761822 0.821714
0.866789 0.830839 0.890715
0.947784 0.89984 0.959716
1 0.968338 1
0.613748 0.661646 0.70956
0.694148 0.730114 0.778012
0.775021 0.798993 0.846891
0.856016 0.868009 0.915908
0.936706 0.936706 0.984604
1 1 1
1 1 1
1 1 1
1 1 1
0.845289 0.905165 0.941085
0.925566 0.97351 1
1 1 1
1 1 1
1 1 1
1 1 1
1 1 1
1 1 1
1 1 1
1 1 1
1 1 1
1 1 1
1 1 1
1 1 1
1 1 1
1 1 1
1 1 1
1 1 1
1 1 1
1 1 1
1 1 1
1 1 1
1 1 1
1 1 1
1 1 1
1 1 1
1 1 1
1 1 1
1 1 1
1 1 1
1 1 1
1 1 1
1 1 1
1 1 1
1 1 1
1 1 1
