public/LUTS/Black&White/Black&White_01.cube
TITLE "Generated by Resolve"
LUT_3D_SIZE 9
0.170306 0.170306 0.170306
0.192157 0.192157 0.192157
0.214237 0.214237 0.214237
0.2365 0.2365 0.2365
0.258778 0.258778 0.258778
0.281056 0.281056 0.281056
0.30312 0.30312 0.30312
0.325383 0.325383 0.325383
0.347662 0.347662 0.347662
0.244617 0.244617 0.244617
0.266896 0.266896 0.266896
0.28896 0.28896 0.28896
0.311238 0.311238 0.311238
0.333516 0.333516 0.333516
0.355566 0.355566 0.355566
0.377844 0.377844 0.377844
0.400122 0.400122 0.400122
0.4224 0.4224 0.4224
0.319371 0.319371 0.319371
0.341634 0.341634 0.341634
0.363699 0.363699 0.363699
0.385977 0.385977 0.385977
0.408255 0.408255 0.408255
0.43032 0.43032 0.43032
0.452598 0.452598 0.452598
0.474861 0.474861 0.474861
0.497078 0.497078 0.497078
0.39411 0.39411 0.39411
0.416312 0.416312 0.416312
0.438453 0.438453 0.438453
0.460716 0.460716 0.460716
0.482994 0.482994 0.482994
0.505058 0.505058 0.505058
0.527337 0.527337 0.527337
0.549615 0.549615 0.549615
0.571679 0.571679 0.571679
0.468849 0.468849 0.468849
0.490913 0.490913 0.490913
0.513191 0.513191 0.513191
0.53547 0.53547 0.53547
0.557641 0.557641 0.557641
0.579812 0.579812 0.579812
0.60209 0.60209 0.60209
0.624323 0.624323 0.624323
0.646418 0.646418 0.646418
0.543557 0.543557 0.543557
0.565667 0.565667 0.565667
0.587945 0.587945 0.587945
0.610208 0.610208 0.610208
0.632273 0.632273 0.632273
0.654551 0.654551 0.654551
0.676829 0.676829 0.676829
0.698955 0.698955 0.698955
0.721172 0.721172 0.721172
0.618189 0.618189 0.618189
0.640406 0.640406 0.640406
0.662684 0.662684 0.662684
0.684962 0.684962 0.684962
0.707027 0.707027 0.707027
0.72929 0.72929 0.72929
0.751568 0.751568 0.751568
0.773648 0.773648 0.773648
0.795911 0.795911 0.795911
0.692882 0.692882 0.692882
0.715145 0.715145 0.715145
0.737423 0.737423 0.737423
0.759503 0.759503 0.759503
0.781765 0.781765 0.781765
0.804044 0.804044 0.804044
0.826322 0.826322 0.826322
0.848386 0.848386 0.848386
0.870665 0.870665 0.870665
0.76762 0.76762 0.76762
0.789899 0.789899 0.789899
0.812177 0.812177 0.812177
0.834241 0.834241 0.834241
0.856519 0.856519 0.856519
0.878782 0.878782 0.878782
0.90103 0.90103 0.90103
0.923125 0.923125 0.923125
0.945403 0.945403 0.945403
0.177447 0.177447 0.177447
0.199725 0.199725 0.199725
0.22179 0.22179 0.22179
0.244068 0.244068 0.244068
0.266346 0.266346 0.266346
0.288441 0.288441 0.288441
0.310674 0.310674 0.310674
0.332952 0.332952 0.332952
0.355138 0.355138 0.355138
0.252186 0.252186 0.252186
0.274357 0.274357 0.274357
0.296529 0.296529 0.296529
0.318807 0.318807 0.318807
0.34107 0.34107 0.34107
0.363149 0.363149 0.363149
0.385412 0.385412 0.385412
0.407691 0.407691 0.407691
0.42977 0.42977 0.42977
0.32694 0.32694 0.32694
0.349004 0.349004 0.349004
0.371267 0.371267 0.371267
0.393545 0.393545 0.393545
0.415824 0.415824 0.415824
0.437888 0.437888 0.437888
0.460166 0.460166 0.460166
0.482444 0.482444 0.482444
0.504509 0.504509 0.504509
0.401679 0.401679 0.401679
0.423743 0.423743 0.423743
0.446021 0.446021 0.446021
0.468299 0.468299 0.468299
0.490349 0.490349 0.490349
0.512627 0.512627 0.512627
0.534905 0.534905 0.534905
0.557183 0.557183 0.557183
0.579248 0.579248 0.579248
0.476417 0.476417 0.476417
0.498482 0.498482 0.498482
0.52076 0.52076 0.52076
0.543038 0.543038 0.543038
0.565103 0.565103 0.565103
0.587381 0.587381 0.587381
0.609659 0.609659 0.609659
0.631846 0.631846 0.631846
0.653986 0.653986 0.653986
0.551064 0.551064 0.551064
0.573236 0.573236 0.573236
0.595499 0.595499 0.595499
0.617761 0.617761 0.617761
0.639841 0.639841 0.639841
0.66212 0.66212 0.66212
0.684398 0.684398 0.684398
0.706462 0.706462 0.706462
0.72874 0.72874 0.72874
0.625696 0.625696 0.625696
0.647974 0.647974 0.647974
0.670253 0.670253 0.670253
0.692393 0.692393 0.692393
0.714595 0.714595 0.714595
0.736873 0.736873 0.736873
0.759075 0.759075 0.759075
0.781201 0.781201 0.781201
0.803479 0.803479 0.803479
0.70045 0.70045 0.70045
0.722728 0.722728 0.722728
0.744991 0.744991 0.744991
0.767056 0.767056 0.767056
0.789334 0.789334 0.789334
0.811612 0.811612 0.811612
0.833707 0.833707 0.833707
0.855955 0.855955 0.855955
0.878233 0.878233 0.878233
0.775189 0.775189 0.775189
0.797467 0.797467 0.797467
0.819745 0.819745 0.819745
0.84181 0.84181 0.84181
0.864073 0.864073 0.864073
0.886351 0.886351 0.886351
0.908415 0.908415 0.908415
0.930694 0.930694 0.930694
0.952972 0.952972 0.952972
0.185016 0.185016 0.185016
0.207248 0.207248 0.207248
0.229358 0.229358 0.229358
0.251637 0.251637 0.251637
0.273915 0.273915 0.273915
0.295979 0.295979 0.295979
0.318257 0.318257 0.318257
0.34052 0.34052 0.34052
0.362661 0.362661 0.362661
0.259754 0.259754 0.259754
0.28188 0.28188 0.28188
0.304097 0.304097 0.304097
0.326375 0.326375 0.326375
0.348562 0.348562 0.348562
0.370718 0.370718 0.370718
0.392981 0.392981 0.392981
0.415259 0.415259 0.415259
0.437324 0.437324 0.437324
0.334508 0.334508 0.334508
0.356558 0.356558 0.356558
0.378836 0.378836 0.378836
0.401114 0.401114 0.401114
0.423194 0.423194 0.423194
0.445457 0.445457 0.445457
0.467735 0.467735 0.467735
0.489891 0.489891 0.489891
0.512078 0.512078 0.512078
0.409125 0.409125 0.409125
0.431312 0.431312 0.431312
0.45359 0.45359 0.45359
0.475868 0.475868 0.475868
0.497917 0.497917 0.497917
0.520195 0.520195 0.520195
0.542473 0.542473 0.542473
0.564538 0.564538 0.564538
0.586816 0.586816 0.586816
0.483787 0.483787 0.483787
0.50605 0.50605 0.50605
0.528328 0.528328 0.528328
0.550607 0.550607 0.550607
0.572671 0.572671 0.572671
0.594949 0.594949 0.594949
0.617212 0.617212 0.617212
0.639292 0.639292 0.639292
0.661555 0.661555 0.661555
0.558526 0.558526 0.558526
0.580804 0.580804 0.580804
0.603067 0.603067 0.603067
0.625147 0.625147 0.625147
0.64741 0.64741 0.64741
0.669688 0.669688 0.669688
0.691966 0.691966 0.691966
0.714031 0.714031 0.714031
0.736309 0.736309 0.736309
0.633265 0.633265 0.633265
0.655543 0.655543 0.655543
0.677821 0.677821 0.677821
0.699886 0.699886 0.699886
0.722164 0.722164 0.722164
0.744442 0.744442 0.744442
0.766598 0.766598 0.766598
0.788769 0.788769 0.788769
0.811048 0.811048 0.811048
0.708019 0.708019 0.708019
0.730297 0.730297 0.730297
0.752514 0.752514 0.752514
0.774624 0.774624 0.774624
0.796902 0.796902 0.796902
0.819181 0.819181 0.819181
0.841245 0.841245 0.841245
0.863523 0.863523 0.863523
0.885801 0.885801 0.885801
0.782757 0.782757 0.782757
0.805035 0.805035 0.805035
0.827146 0.827146 0.827146
0.849378 0.849378 0.849378
0.871641 0.871641 0.871641
0.893843 0.893843 0.893843
0.915984 0.915984 0.915984
0.938262 0.938262 0.938262
0.96054 0.96054 0.96054
0.192584 0.192584 0.192584
0.214649 0.214649 0.214649
0.236927 0.236927 0.236927
0.259205 0.259205 0.259205
0.281468 0.281468 0.281468
0.303548 0.303548 0.303548
0.325826 0.325826 0.325826
0.348089 0.348089 0.348089
0.370153 0.370153 0.370153
0.267323 0.267323 0.267323
0.289387 0.289387 0.289387
0.311666 0.311666 0.311666
0.333944 0.333944 0.333944
0.356008 0.356008 0.356008
0.378286 0.378286 0.378286
0.400549 0.400549 0.400549
0.422782 0.422782 0.422782
0.444892 0.444892 0.444892
0.342 0.342 0.342
0.364126 0.364126 0.364126
0.386404 0.386404 0.386404
0.408682 0.408682 0.408682
0.430747 0.430747 0.430747
0.453025 0.453025 0.453025
0.475303 0.475303 0.475303
0.497414 0.497414 0.497414
0.519646 0.519646 0.519646
0.416632 0.416632 0.416632
0.43888 0.43888 0.43888
0.461158 0.461158 0.461158
0.48333 0.48333 0.48333
0.505501 0.505501 0.505501
0.527764 0.527764 0.527764
0.550042 0.550042 0.550042
0.572106 0.572106 0.572106
0.594385 0.594385 0.594385
0.491356 0.491356 0.491356
0.513619 0.513619 0.513619
0.535897 0.535897 0.535897
0.557961 0.557961 0.557961
0.58024 0.58024 0.58024
0.602518 0.602518 0.602518
0.624643 0.624643 0.624643
0.64686 0.64686 0.64686
0.669123 0.669123 0.669123
0.566094 0.566094 0.566094
0.588373 0.588373 0.588373
0.610636 0.610636 0.610636
0.632715 0.632715 0.632715
0.654978 0.654978 0.654978
0.677256 0.677256 0.677256
0.699321 0.699321 0.699321
0.721599 0.721599 0.721599
0.743877 0.743877 0.743877
0.640833 0.640833 0.640833
0.663111 0.663111 0.663111
0.685389 0.685389 0.685389
0.707454 0.707454 0.707454
0.729732 0.729732 0.729732
0.75201 0.75201 0.75201
0.774075 0.774075 0.774075
0.796338 0.796338 0.796338
0.818616 0.818616 0.818616
0.715587 0.715587 0.715587
0.73785 0.73785 0.73785
0.759915 0.759915 0.759915
0.782193 0.782193 0.782193
0.804471 0.804471 0.804471
0.826734 0.826734 0.826734
0.848814 0.848814 0.848814
0.871092 0.871092 0.871092
0.89337 0.89337 0.89337
0.790326 0.790326 0.790326
0.812604 0.812604 0.812604
0.834669 0.834669 0.834669
0.856947 0.856947 0.856947
0.879225 0.879225 0.879225
0.90135 0.90135 0.90135
0.923552 0.923552 0.923552
0.94583 0.94583 0.94583
0.968048 0.968048 0.968048
0.200153 0.200153 0.200153
0.222217 0.222217 0.222217
0.244495 0.244495 0.244495
0.266773 0.266773 0.266773
0.288838 0.288838 0.288838
0.311116 0.311116 0.311116
0.333394 0.333394 0.333394
0.355459 0.355459 0.355459
0.377722 0.377722 0.377722
0.274678 0.274678 0.274678
0.296956 0.296956 0.296956
0.319234 0.319234 0.319234
0.341512 0.341512 0.341512
0.363577 0.363577 0.363577
0.38584 0.38584 0.38584
0.408118 0.408118 0.408118
0.430182 0.430182 0.430182
0.452461 0.452461 0.452461
0.349432 0.349432 0.349432
0.371695 0.371695 0.371695
0.393973 0.393973 0.393973
0.416205 0.416205 0.416205
0.438315 0.438315 0.438315
0.460594 0.460594 0.460594
0.482872 0.482872 0.482872
0.504936 0.504936 0.504936
0.527214 0.527214 0.527214
0.42417 0.42417 0.42417
0.446448 0.446448 0.446448
0.468727 0.468727 0.468727
0.490791 0.490791 0.490791
0.513069 0.513069 0.513069
0.535332 0.535332 0.535332
0.557534 0.557534 0.557534
0.579675 0.579675 0.579675
0.601953 0.601953 0.601953
0.498924 0.498924 0.498924
0.521187 0.521187 0.521187
0.54345 0.54345 0.54345
0.56553 0.56553 0.56553
0.587808 0.587808 0.587808
0.610086 0.610086 0.610086
0.632166 0.632166 0.632166
0.654429 0.654429 0.654429
0.676692 0.676692 0.676692
0.573663 0.573663 0.573663
0.595941 0.595941 0.595941
0.618082 0.618082 0.618082
0.640269 0.640269 0.640269
0.662547 0.662547 0.662547
0.684825 0.684825 0.684825
0.706889 0.706889 0.706889
0.729168 0.729168 0.729168
0.751446 0.751446 0.751446
0.648417 0.648417 0.648417
0.67068 0.67068 0.67068
0.692744 0.692744 0.692744
0.715023 0.715023 0.715023
0.737301 0.737301 0.737301
0.759411 0.759411 0.759411
0.781643 0.781643 0.781643
0.803906 0.803906 0.803906
0.826185 0.826185 0.826185
0.723156 0.723156 0.723156
0.745418 0.745418 0.745418
0.767498 0.767498 0.767498
0.789761 0.789761 0.789761
0.812039 0.812039 0.812039
0.834104 0.834104 0.834104
0.856382 0.856382 0.856382
0.87866 0.87866 0.87866
0.900938 0.900938 0.900938
0.797894 0.797894 0.797894
0.820157 0.820157 0.820157
0.842237 0.842237 0.842237
0.864515 0.864515 0.864515
0.886793 0.886793 0.886793
0.908858 0.908858 0.908858
0.931121 0.931121 0.931121
0.953399 0.953399 0.953399
0.975464 0.975464 0.975464
0.207584 0.207584 0.207584
0.229786 0.229786 0.229786
0.252064 0.252064 0.252064
0.274266 0.274266 0.274266
0.296407 0.296407 0.296407
0.318685 0.318685 0.318685
0.340963 0.340963 0.340963
0.363027 0.363027 0.363027
0.38529 0.38529 0.38529
0.282246 0.282246 0.282246
0.304524 0.304524 0.304524
0.326802 0.326802 0.326802
0.348898 0.348898 0.348898
0.371145 0.371145 0.371145
0.393408 0.393408 0.393408
0.415686 0.415686 0.415686
0.437766 0.437766 0.437766
0.460029 0.460029 0.460029
0.357 0.357 0.357
0.379263 0.379263 0.379263
0.401541 0.401541 0.401541
0.423606 0.423606 0.423606
0.445884 0.445884 0.445884
0.468162 0.468162 0.468162
0.490227 0.490227 0.490227
0.512505 0.512505 0.512505
0.534783 0.534783 0.534783
0.431739 0.431739 0.431739
0.454017 0.454017 0.454017
0.476295 0.476295 0.476295
0.49836 0.49836 0.49836
0.520638 0.520638 0.520638
0.542901 0.542901 0.542901
0.564965 0.564965 0.564965
0.587243 0.587243 0.587243
0.609522 0.609522 0.609522
0.506493 0.506493 0.506493
0.528756 0.528756 0.528756
0.550973 0.550973 0.550973
0.573098 0.573098 0.573098
0.595376 0.595376 0.595376
0.617655 0.617655 0.617655
0.639719 0.639719 0.639719
0.661997 0.661997 0.661997
0.68426 0.68426 0.68426
0.581231 0.581231 0.581231
0.60351 0.60351 0.60351
0.625574 0.625574 0.625574
0.647837 0.647837 0.647837
0.670115 0.670115 0.670115
0.692287 0.692287 0.692287
0.714458 0.714458 0.714458
0.736736 0.736736 0.736736
0.758984 0.758984 0.758984
0.65597 0.65597 0.65597
0.678203 0.678203 0.678203
0.700313 0.700313 0.700313
0.722591 0.722591 0.722591
0.744869 0.744869 0.744869
0.766934 0.766934 0.766934
0.789212 0.789212 0.789212
0.81149 0.81149 0.81149
0.833616 0.833616 0.833616
0.730724 0.730724 0.730724
0.752834 0.752834 0.752834
0.775067 0.775067 0.775067
0.79733 0.79733 0.79733
0.819608 0.819608 0.819608
0.841672 0.841672 0.841672
0.863951 0.863951 0.863951
0.886229 0.886229 0.886229
0.908293 0.908293 0.908293
0.805463 0.805463 0.805463
0.827527 0.827527 0.827527
0.849805 0.849805 0.849805
0.872084 0.872084 0.872084
0.894163 0.894163 0.894163
0.916426 0.916426 0.916426
0.938689 0.938689 0.938689
0.960967 0.960967 0.960967
0.983032 0.983032 0.983032
0.215091 0.215091 0.215091
0.237354 0.237354 0.237354
0.259632 0.259632 0.259632
0.281788 0.281788 0.281788
0.303975 0.303975 0.303975
0.326253 0.326253 0.326253
0.348486 0.348486 0.348486
0.370596 0.370596 0.370596
0.392874 0.392874 0.392874
0.289815 0.289815 0.289815
0.312093 0.312093 0.312093
0.334371 0.334371 0.334371
0.356435 0.356435 0.356435
0.378714 0.378714 0.378714
0.400992 0.400992 0.400992
0.423102 0.423102 0.423102
0.445319 0.445319 0.445319
0.467597 0.467597 0.467597
0.364569 0.364569 0.364569
0.386847 0.386847 0.386847
0.409018 0.409018 0.409018
0.431174 0.431174 0.431174
0.453452 0.453452 0.453452
0.475731 0.475731 0.475731
0.497795 0.497795 0.497795
0.520073 0.520073 0.520073
0.542351 0.542351 0.542351
0.439307 0.439307 0.439307
0.461585 0.461585 0.461585
0.48365 0.48365 0.48365
0.505928 0.505928 0.505928
0.528206 0.528206 0.528206
0.550469 0.550469 0.550469
0.572534 0.572534 0.572534
0.594812 0.594812 0.594812
0.61709 0.61709 0.61709
0.514061 0.514061 0.514061
0.536324 0.536324 0.536324
0.558389 0.558389 0.558389
0.580667 0.580667 0.580667
0.602945 0.602945 0.602945
0.62501 0.62501 0.62501
0.647288 0.647288 0.647288
0.669566 0.669566 0.669566
0.691829 0.691829 0.691829
0.5888 0.5888 0.5888
0.611078 0.611078 0.611078
0.633143 0.633143 0.633143
0.655421 0.655421 0.655421
0.677684 0.677684 0.677684
0.699748 0.699748 0.699748
0.722026 0.722026 0.722026
0.744305 0.744305 0.744305
0.766506 0.766506 0.766506
0.663539 0.663539 0.663539
0.685725 0.685725 0.685725
0.707881 0.707881 0.707881
0.730159 0.730159 0.730159
0.752422 0.752422 0.752422
0.774502 0.774502 0.774502
0.79678 0.79678 0.79678
0.819059 0.819059 0.819059
0.841108 0.841108 0.841108
0.738293 0.738293 0.738293
0.760357 0.760357 0.760357
0.782635 0.782635 0.782635
0.804898 0.804898 0.804898
0.827054 0.827054 0.827054
0.849241 0.849241 0.849241
0.871519 0.871519 0.871519
0.893736 0.893736 0.893736
0.915862 0.915862 0.915862
0.81297 0.81297 0.81297
0.835096 0.835096 0.835096
0.857374 0.857374 0.857374
0.879652 0.879652 0.879652
0.901717 0.901717 0.901717
0.923995 0.923995 0.923995
0.946258 0.946258 0.946258
0.968368 0.968368 0.968368
0.9906 0.9906 0.9906
0.22266 0.22266 0.22266
0.244923 0.244923 0.244923
0.267201 0.267201 0.267201
0.289265 0.289265 0.289265
0.311543 0.311543 0.311543
0.333822 0.333822 0.333822
0.355886 0.355886 0.355886
0.378164 0.378164 0.378164
0.400443 0.400443 0.400443
0.297383 0.297383 0.297383
0.319661 0.319661 0.319661
0.341909 0.341909 0.341909
0.364004 0.364004 0.364004
0.386282 0.386282 0.386282
0.40856 0.40856 0.40856
0.430625 0.430625 0.430625
0.452888 0.452888 0.452888
0.475166 0.475166 0.475166
0.372137 0.372137 0.372137
0.394415 0.394415 0.394415
0.416541 0.416541 0.416541
0.438743 0.438743 0.438743
0.461021 0.461021 0.461021
0.483223 0.483223 0.483223
0.505364 0.505364 0.505364
0.527642 0.527642 0.527642
0.54992 0.54992 0.54992
0.446876 0.446876 0.446876
0.469154 0.469154 0.469154
0.491218 0.491218 0.491218
0.513497 0.513497 0.513497
0.535775 0.535775 0.535775
0.557855 0.557855 0.557855
0.580118 0.580118 0.580118
0.60238 0.60238 0.60238
0.624552 0.624552 0.624552
0.52163 0.52163 0.52163
0.54377 0.54377 0.54377
0.565957 0.565957 0.565957
0.588235 0.588235 0.588235
0.610513 0.610513 0.610513
0.632578 0.632578 0.632578
0.654856 0.654856 0.654856
0.677134 0.677134 0.677134
0.699199 0.699199 0.699199
0.596368 0.596368 0.596368
0.618433 0.618433 0.618433
0.640711 0.640711 0.640711
0.662989 0.662989 0.662989
0.685252 0.685252 0.685252
0.707317 0.707317 0.707317
0.729595 0.729595 0.729595
0.751873 0.751873 0.751873
0.773938 0.773938 0.773938
0.671107 0.671107 0.671107
0.693172 0.693172 0.693172
0.71545 0.71545 0.71545
0.737728 0.737728 0.737728
0.759793 0.759793 0.759793
0.782071 0.782071 0.782071
0.804349 0.804349 0.804349
0.826612 0.826612 0.826612
0.848692 0.848692 0.848692
0.745861 0.745861 0.745861
0.767926 0.767926 0.767926
0.790204 0.790204 0.790204
0.812467 0.812467 0.812467
0.834531 0.834531 0.834531
0.856809 0.856809 0.856809
0.879088 0.879088 0.879088
0.901259 0.901259 0.901259
0.92343 0.92343 0.92343
0.820493 0.820493 0.820493
0.842664 0.842664 0.842664
0.864942 0.864942 0.864942
0.887175 0.887175 0.887175
0.909285 0.909285 0.909285
0.931563 0.931563 0.931563
0.953841 0.953841 0.953841
0.975906 0.975906 0.975906
0.998169 0.998169 0.998169
0.230228 0.230228 0.230228
0.252491 0.252491 0.252491
0.274586 0.274586 0.274586
0.296834 0.296834 0.296834
0.319112 0.319112 0.319112
0.34139 0.34139 0.34139
0.363455 0.363455 0.363455
0.385733 0.385733 0.385733
0.408011 0.408011 0.408011
0.304967 0.304967 0.304967
0.32723 0.32723 0.32723
0.349294 0.349294 0.349294
0.371572 0.371572 0.371572
0.393851 0.393851 0.393851
0.416114 0.416114 0.416114
0.438193 0.438193 0.438193
0.460456 0.460456 0.460456
0.482734 0.482734 0.482734
0.379705 0.379705 0.379705
0.401984 0.401984 0.401984
0.424048 0.424048 0.424048
0.446311 0.446311 0.446311
0.468589 0.468589 0.468589
0.490654 0.490654 0.490654
0.512932 0.512932 0.512932
0.53521 0.53521 0.53521
0.557443 0.557443 0.557443
0.454444 0.454444 0.454444
0.476661 0.476661 0.476661
0.498787 0.498787 0.498787
0.521065 0.521065 0.521065
0.543343 0.543343 0.543343
0.565408 0.565408 0.565408
0.587686 0.587686 0.587686
0.609949 0.609949 0.609949
0.632074 0.632074 0.632074
0.529198 0.529198 0.529198
0.551293 0.551293 0.551293
0.573526 0.573526 0.573526
0.595804 0.595804 0.595804
0.61799 0.61799 0.61799
0.640146 0.640146 0.640146
0.662425 0.662425 0.662425
0.684703 0.684703 0.684703
0.706767 0.706767 0.706767
0.603937 0.603937 0.603937
0.626001 0.626001 0.626001
0.64828 0.64828 0.64828
0.670558 0.670558 0.670558
0.692622 0.692622 0.692622
0.714885 0.714885 0.714885
0.737163 0.737163 0.737163
0.759304 0.759304 0.759304
0.781506 0.781506 0.781506
0.678538 0.678538 0.678538
0.70074 0.70074 0.70074
0.723018 0.723018 0.723018
0.745296 0.745296 0.745296
0.767361 0.767361 0.767361
0.789639 0.789639 0.789639
0.811917 0.811917 0.811917
0.833982 0.833982 0.833982
0.85626 0.85626 0.85626
0.753216 0.753216 0.753216
0.775494 0.775494 0.775494
0.797772 0.797772 0.797772
0.820035 0.820035 0.820035
0.842115 0.842115 0.842115
0.864378 0.864378 0.864378
0.886656 0.886656 0.886656
0.908721 0.908721 0.908721
0.930999 0.930999 0.930999
0.82797 0.82797 0.82797
0.850233 0.850233 0.850233
0.872511 0.872511 0.872511
0.894575 0.894575 0.894575
0.916854 0.916854 0.916854
0.939132 0.939132 0.939132
0.961395 0.961395 0.961395
0.983459 0.983459 0.983459
1 1 1
