public/LUTS/Black&White/Black&White_03.cube
TITLE "Generated by Resolve"
LUT_3D_SIZE 9
0.423575 0.423575 0.423575
0.451881 0.44741 0.44741
0.481392 0.47248 0.47248
0.511131 0.498878 0.498878
0.540642 0.52607 0.52607
0.570047 0.553597 0.553597
0.59884 0.580743 0.580743
0.627253 0.607614 0.607614
0.654826 0.633539 0.633539
0.508339 0.51281 0.508339
0.539681 0.539681 0.53521
0.570779 0.566354 0.561883
0.601007 0.59324 0.588769
0.629801 0.619684 0.615213
0.656962 0.644968 0.640497
0.682857 0.669245 0.664775
0.707225 0.692042 0.687572
0.730068 0.713252 0.708782
0.598108 0.607004 0.598108
0.628199 0.632639 0.623728
0.656977 0.656977 0.648081
0.683772 0.68043 0.671534
0.708186 0.70251 0.693614
0.730343 0.722789 0.713878
0.750774 0.741588 0.732692
0.769451 0.758694 0.749798
0.786572 0.774182 0.765286
0.68011 0.692363 0.68011
0.705608 0.71339 0.701137
0.72929 0.732631 0.720378
0.750393 0.750393 0.738155
0.768963 0.766629 0.754376
0.785733 0.781521 0.769284
0.801541 0.795697 0.783459
0.816526 0.809125 0.796872
0.830732 0.821698 0.809461
0.745449 0.760021 0.745449
0.764996 0.775097 0.760525
0.78352 0.789197 0.774624
0.800351 0.802686 0.788113
0.81561 0.81561 0.801038
0.829862 0.827985 0.813413
0.843397 0.839887 0.825315
0.856306 0.85124 0.836652
0.868742 0.862028 0.847456
0.794369 0.810834 0.794369
0.811002 0.822995 0.806531
0.827085 0.834638 0.818189
0.841764 0.845975 0.829511
0.855039 0.856916 0.840467
0.867613 0.867613 0.851148
0.879591 0.877958 0.861494
0.891096 0.887907 0.871443
0.902434 0.897597 0.881148
0.835126 0.853223 0.835126
0.849989 0.8636 0.845518
0.864424 0.87361 0.855528
0.877638 0.883482 0.8654
0.889632 0.893141 0.875044
0.901076 0.902708 0.884627
0.912123 0.912123 0.894026
0.922835 0.921263 0.903181
0.933562 0.930358 0.912276
0.870542 0.890196 0.870542
0.884215 0.899397 0.879759
0.897612 0.908354 0.888701
0.909834 0.917235 0.897581
0.921172 0.926253 0.9066
0.932052 0.935241 0.915602
0.942657 0.944213 0.924575
0.953079 0.953079 0.933425
0.963638 0.962005 0.942367
0.90251 0.923796 0.90251
0.915496 0.932311 0.911025
0.928344 0.940734 0.919448
0.940185 0.949218 0.927947
0.951308 0.958007 0.936721
0.962066 0.966903 0.945617
0.972702 0.975891 0.954604
0.983307 0.984939 0.963653
0.994186 0.994186 0.972915
0.431357 0.431357 0.435828
0.460319 0.455848 0.460319
0.490135 0.481239 0.48571
0.520165 0.507912 0.512383
0.549813 0.535241 0.539712
0.578973 0.562509 0.566979
0.607813 0.589731 0.594186
0.636011 0.616358 0.620829
0.663127 0.641855 0.646326
0.517418 0.521889 0.521889
0.548714 0.548714 0.548714
0.579904 0.575463 0.575463
0.609918 0.602136 0.602136
0.638361 0.628244 0.628244
0.665156 0.653162 0.653162
0.690639 0.677012 0.677012
0.714473 0.69929 0.69929
0.736477 0.719661 0.719661
0.606958 0.615869 0.611429
0.636439 0.640879 0.636439
0.664958 0.664958 0.660533
0.691264 0.687907 0.683482
0.715175 0.709499 0.705058
0.736797 0.729259 0.724819
0.756619 0.747433 0.742992
0.774609 0.763867 0.759426
0.791241 0.778851 0.774426
0.687434 0.699672 0.691905
0.712169 0.719951 0.712169
0.735409 0.73875 0.730968
0.756008 0.756008 0.748226
0.773907 0.771572 0.76379
0.790448 0.786236 0.778454
0.805951 0.800107 0.792325
0.820676 0.813275 0.805508
0.834699 0.825666 0.817884
0.750729 0.765301 0.755199
0.769894 0.780011 0.769894
0.788144 0.79382 0.783703
0.804715 0.80705 0.796948
0.819654 0.819654 0.809552
0.833738 0.831861 0.821759
0.847089 0.84358 0.833463
0.859831 0.854765 0.844648
0.87216 0.865446 0.855344
0.798596 0.815045 0.803067
0.815061 0.827039 0.815061
0.83093 0.838483 0.82649
0.845396 0.849607 0.837613
0.858518 0.860395 0.848402
0.870954 0.870954 0.858961
0.882826 0.881193 0.8692
0.894209 0.89102 0.879026
0.905486 0.900649 0.88867
0.838712 0.856809 0.843183
0.853437 0.867048 0.853437
0.867735 0.876921 0.863294
0.880751 0.886595 0.872984
0.892714 0.896239 0.882612
0.904097 0.90573 0.892119
0.915053 0.915053 0.901427
0.925719 0.924163 0.910552
0.936416 0.933211 0.9196
0.873701 0.893355 0.878172
0.887282 0.902449 0.887282
0.900587 0.91133 0.896147
0.912764 0.920165 0.904982
0.924071 0.929137 0.913954
0.934905 0.938094 0.922911
0.945418 0.946975 0.931792
0.955901 0.955901 0.940719
0.966491 0.964858 0.949676
0.905409 0.926696 0.90988
0.918364 0.93518 0.918364
0.931197 0.943572 0.926757
0.943023 0.952056 0.935241
0.954131 0.96083 0.944015
0.96492 0.969741 0.952941
0.975509 0.978698 0.961883
0.986221 0.987854 0.971054
0.997162 0.997162 0.980362
0.439597 0.439597 0.448508
0.46891 0.464439 0.47335
0.499046 0.49015 0.499046
0.529244 0.517006 0.525902
0.558999 0.544411 0.553323
0.588037 0.571588 0.580499
0.616724 0.598627 0.607538
0.644587 0.624933 0.633844
0.67129 0.650004 0.658915
0.526558 0.531029 0.53547
0.557809 0.557809 0.562234
0.588983 0.584543 0.588983
0.618769 0.611002 0.615427
0.646754 0.636652 0.641077
0.673152 0.661158 0.665599
0.698131 0.68452 0.688945
0.721492 0.70631 0.71075
0.742962 0.726146 0.730587
0.615671 0.624582 0.624582
0.644831 0.649271 0.649271
0.672892 0.672892 0.672892
0.698573 0.695232 0.695232
0.721706 0.71603 0.71603
0.742962 0.735409 0.735409
0.762249 0.753063 0.753063
0.779629 0.768887 0.768887
0.795941 0.783566 0.783566
0.69453 0.706783 0.703426
0.718761 0.726543 0.723201
0.741314 0.744656 0.741314
0.761303 0.761303 0.757961
0.77882 0.776486 0.773144
0.795071 0.790875 0.787533
0.810315 0.804471 0.801129
0.824674 0.817273 0.813916
0.83859 0.829541 0.8262
0.755734 0.770306 0.764645
0.774655 0.784756 0.77908
0.79263 0.798306 0.79263
0.808972 0.811307 0.805631
0.823713 0.823713 0.818036
0.837598 0.835721 0.830045
0.850736 0.847227 0.84155
0.863249 0.858183 0.852506
0.875502 0.868803 0.863127
0.80267 0.81912 0.811566
0.818998 0.830991 0.823438
0.834714 0.842268 0.834714
0.84892 0.853117 0.845579
0.861967 0.863844 0.856291
0.87425 0.87425 0.866697
0.886015 0.884382 0.876829
0.897307 0.894118 0.886564
0.908507 0.903685 0.896132
0.842252 0.860334 0.851148
0.85684 0.870466 0.86128
0.871015 0.880201 0.871015
0.883879 0.889723 0.880537
0.895781 0.89929 0.890105
0.907088 0.908721 0.899535
0.917952 0.917952 0.908766
0.928618 0.927062 0.917876
0.939269 0.93608 0.926894
0.876844 0.896498 0.88574
0.890318 0.905501 0.894759
0.903532 0.914275 0.903532
0.915663 0.923064 0.912322
0.92694 0.932006 0.921263
0.937743 0.940948 0.930205
0.948241 0.949798 0.939055
0.95874 0.95874 0.947997
0.969329 0.967697 0.956954
0.908309 0.929595 0.91722
0.921218 0.938033 0.925658
0.933959 0.946334 0.933959
0.945846 0.954894 0.942504
0.95697 0.963668 0.951293
0.967742 0.972564 0.960189
0.978393 0.981582 0.969207
0.989181 0.990814 0.978424
1 1 0.987808
0.447959 0.447959 0.460212
0.477516 0.473045 0.485283
0.508141 0.499245 0.511482
0.53846 0.526223 0.53846
0.5682 0.553628 0.565881
0.597192 0.580743 0.592981
0.625666 0.607569 0.619821
0.653147 0.633509 0.645747
0.679301 0.658015 0.670268
0.535821 0.540291 0.548074
0.566949 0.566949 0.574716
0.598016 0.593591 0.601373
0.627588 0.619806 0.627588
0.655085 0.644968 0.65275
0.681163 0.669169 0.676951
0.705547 0.69192 0.699702
0.728237 0.713054 0.720836
0.749218 0.732403 0.740185
0.624231 0.633127 0.636469
0.653071 0.657511 0.660853
0.68072 0.68072 0.684062
0.705898 0.702556 0.705898
0.728374 0.722698 0.72604
0.748959 0.741405 0.744747
0.767651 0.758465 0.761807
0.784619 0.773877 0.777218
0.800671 0.788281 0.791623
0.701518 0.713756 0.713756
0.725277 0.733059 0.733059
0.747234 0.750576 0.750576
0.766476 0.766476 0.766476
0.783658 0.781323 0.781323
0.799649 0.795438 0.795438
0.814664 0.808835 0.808835
0.828809 0.821408 0.821408
0.842512 0.833478 0.833478
0.760891 0.775479 0.773144
0.779431 0.789548 0.787213
0.797101 0.802777 0.800443
0.813077 0.815412 0.813077
0.827741 0.827741 0.825422
0.841459 0.839582 0.837247
0.854368 0.850843 0.848524
0.866773 0.861708 0.859373
0.878889 0.87219 0.869856
0.806851 0.823301 0.819104
0.82295 0.834928 0.830732
0.838468 0.846021 0.84181
0.852537 0.856748 0.852537
0.865461 0.867338 0.863127
0.877623 0.877623 0.873411
0.889158 0.887526 0.883314
0.90045 0.897261 0.89305
0.911574 0.906752 0.902541
0.845792 0.86389 0.858045
0.860258 0.873884 0.86804
0.874327 0.883513 0.877668
0.887098 0.892943 0.887098
0.898909 0.902419 0.896574
0.910124 0.911772 0.905928
0.920897 0.920897 0.915053
0.931563 0.930007 0.924163
0.942199 0.938994 0.93315
0.880018 0.899657 0.892256
0.893416 0.908598 0.901198
0.906493 0.91725 0.909834
0.918639 0.92604 0.918639
0.92987 0.934936 0.927535
0.940658 0.943847 0.936446
0.951141 0.952697 0.945296
0.961654 0.961654 0.954253
0.972259 0.970626 0.963226
0.911284 0.932555 0.923522
0.924147 0.940963 0.93193
0.936858 0.949233 0.9402
0.94876 0.957794 0.94876
0.959884 0.966598 0.957565
0.970657 0.975494 0.966461
0.981369 0.984573 0.975525
0.992203 0.993835 0.984802
1 1 0.994232
0.45658 0.45658 0.471153
0.486442 0.481971 0.496544
0.517342 0.508431 0.523018
0.547799 0.535546 0.550134
0.577249 0.562676 0.577249
0.606317 0.589868 0.60444
0.634562 0.616464 0.631052
0.661494 0.64184 0.656413
0.687388 0.666102 0.68069
0.544869 0.54934 0.559457
0.576226 0.576226 0.586328
0.60708 0.60264 0.612741
0.636286 0.628519 0.638621
0.663417 0.653315 0.663417
0.689067 0.677089 0.68719
0.712947 0.699321 0.709438
0.734859 0.719676 0.729778
0.755306 0.738491 0.748592
0.632685 0.641596 0.647272
0.661219 0.665644 0.671321
0.688334 0.688334 0.694011
0.712978 0.709636 0.715312
0.734966 0.729305 0.734966
0.754955 0.747402 0.753079
0.772961 0.763775 0.769451
0.789502 0.778759 0.784436
0.80531 0.792935 0.798611
0.708324 0.720562 0.722896
0.731548 0.73933 0.74165
0.752972 0.756313 0.758648
0.771634 0.771634 0.773968
0.788525 0.786191 0.788525
0.804196 0.8 0.802319
0.818936 0.813092 0.815427
0.832929 0.825528 0.827863
0.846464 0.837415 0.83975
0.765942 0.780514 0.780514
0.784207 0.794308 0.794308
0.801617 0.807279 0.807279
0.817334 0.819669 0.819669
0.831769 0.831769 0.831769
0.845304 0.843427 0.843427
0.85803 0.85452 0.85452
0.870344 0.865278 0.865278
0.882322 0.875624 0.875624
0.811048 0.827512 0.825635
0.826947 0.838926 0.837049
0.842206 0.84976 0.847883
0.856153 0.860365 0.858488
0.868955 0.870832 0.868955
0.88101 0.88101 0.879133
0.892454 0.890822 0.888945
0.903655 0.900465 0.898589
0.914687 0.909865 0.907988
0.849409 0.867491 0.863981
0.863706 0.877333 0.873823
0.877562 0.886748 0.883238
0.890349 0.896193 0.892683
0.902083 0.905592 0.902083
0.913161 0.914809 0.911284
0.923949 0.923949 0.920439
0.934569 0.933013 0.929503
0.945174 0.941985 0.938476
0.883223 0.902876 0.897795
0.896559 0.911727 0.906661
0.909575 0.920333 0.915251
0.921675 0.929091 0.92401
0.932876 0.937942 0.932876
0.943557 0.946761 0.94168
0.954131 0.955688 0.950622
0.964645 0.964645 0.959579
0.97528 0.973648 0.968582
0.91429 0.935576 0.928878
0.927138 0.943954 0.937255
0.939834 0.952209 0.94551
0.951751 0.960784 0.95407
0.96289 0.969604 0.96289
0.973663 0.9785 0.971786
0.984451 0.98764 0.980941
0.995346 0.996979 0.990265
1 1 0.999695
0.465232 0.465232 0.481697
0.495537 0.491066 0.50753
0.526604 0.517708 0.534157
0.557061 0.544808 0.561273
0.586557 0.571984 0.588434
0.615412 0.598947 0.615412
0.64332 0.625223 0.641688
0.669856 0.650217 0.666667
0.695354 0.674083 0.690532
0.554208 0.558679 0.570672
0.585473 0.585473 0.597452
0.616114 0.611688 0.623667
0.644755 0.636973 0.648951
0.671595 0.661494 0.673472
0.696742 0.684764 0.696742
0.720119 0.706508 0.718486
0.741512 0.726329 0.738323
0.761334 0.744518 0.756512
0.64126 0.650156 0.65771
0.669322 0.673747 0.6813
0.695842 0.695842 0.703395
0.719707 0.71635 0.723903
0.741299 0.735622 0.743175
0.760739 0.753201 0.760739
0.778103 0.768917 0.776471
0.7944 0.783658 0.791211
0.809903 0.797528 0.805081
0.715099 0.727337 0.731548
0.737636 0.745418 0.749615
0.75845 0.761791 0.765988
0.77673 0.77673 0.780941
0.793332 0.790997 0.795209
0.808759 0.804547 0.808759
0.823148 0.817304 0.821515
0.836988 0.829587 0.833799
0.85034 0.841306 0.845518
0.770871 0.785458 0.787335
0.788861 0.798962 0.800839
0.806027 0.811688 0.813565
0.821576 0.823911 0.825788
0.835813 0.835813 0.83769
0.849134 0.847257 0.849134
0.861692 0.858183 0.860059
0.873884 0.868818 0.870695
0.885756 0.879057 0.880934
0.815183 0.831632 0.831632
0.8309 0.842893 0.842893
0.84596 0.853513 0.853513
0.8598 0.864012 0.864012
0.872435 0.874311 0.874311
0.884337 0.884337 0.884337
0.895735 0.894102 0.894102
0.906859 0.90367 0.90367
0.917815 0.912993 0.912993
0.852995 0.871077 0.869444
0.867155 0.880781 0.879149
0.880903 0.890089 0.888457
0.893584 0.899428 0.897795
0.905257 0.908766 0.907134
0.916274 0.917906 0.916274
0.927031 0.927031 0.925383
0.937621 0.936049 0.934417
0.948135 0.944945 0.943313
0.886458 0.906096 0.902907
0.899641 0.914824 0.91162
0.912673 0.923415 0.920226
0.924727 0.932143 0.928939
0.935912 0.940978 0.937789
0.946578 0.949783 0.946578
0.957137 0.958709 0.955505
0.967681 0.967681 0.964492
0.978271 0.976638 0.973434
0.917342 0.938613 0.933791
0.930083 0.946899 0.942061
0.942855 0.95523 0.950408
0.954772 0.963806 0.958968
0.96585 0.972549 0.967727
0.976745 0.981567 0.976745
0.987594 0.990784 0.985946
0.998535 1 0.995346
1 1 1
0.474083 0.474083 0.49218
0.504768 0.500298 0.51838
0.535958 0.527047 0.545144
0.566354 0.554101 0.572198
0.595834 0.581247 0.599344
0.624475 0.608026 0.626108
0.651942 0.63386 0.651942
0.678065 0.658412 0.676509
0.703059 0.681788 0.69987
0.563546 0.568017 0.581643
0.594629 0.594629 0.608255
0.62504 0.6206 0.634226
0.653315 0.645533 0.659159
0.679728 0.669612 0.683238
0.704265 0.692287 0.705898
0.726894 0.713268 0.726894
0.747875 0.732692 0.746319
0.767178 0.750362 0.763973
0.649622 0.658518 0.667704
0.677256 0.681682 0.690867
0.703166 0.703166 0.712352
0.726497 0.723156 0.732341
0.747402 0.741741 0.750927
0.766247 0.758694 0.76788
0.78323 0.774044 0.78323
0.799237 0.788495 0.797681
0.814481 0.802106 0.811292
0.721721 0.733959 0.739803
0.743664 0.751431 0.757275
0.763653 0.766995 0.772839
0.781689 0.781689 0.787533
0.798016 0.795682 0.801526
0.813214 0.809018 0.814847
0.827405 0.821561 0.827405
0.841047 0.833631 0.839475
0.854185 0.845151 0.850996
0.775784 0.790356 0.793866
0.793454 0.803571 0.80708
0.810285 0.815961 0.819471
0.825727 0.828061 0.831571
0.839796 0.839796 0.843305
0.852842 0.850965 0.854475
0.865339 0.86183 0.865339
0.877394 0.872312 0.875822
0.889143 0.882445 0.885954
0.819242 0.835706 0.837339
0.834791 0.846769 0.848402
0.849699 0.857252 0.858885
0.863401 0.867613 0.869245
0.875929 0.877806 0.879438
0.887648 0.887648 0.889281
0.899001 0.897353 0.899001
0.910048 0.906859 0.908492
0.920928 0.916106 0.917739
0.856519 0.874617 0.874617
0.870573 0.884184 0.884184
0.884245 0.893431 0.893431
0.896834 0.902678 0.902678
0.908415 0.911925 0.911925
0.919371 0.921004 0.921004
0.930098 0.930098 0.930098
0.940658 0.939101 0.939101
0.951141 0.947951 0.947951
0.889662 0.909316 0.907759
0.90277 0.917952 0.916396
0.91577 0.926513 0.924956
0.927794 0.935195 0.933639
0.938888 0.943969 0.942397
0.949615 0.952804 0.951247
0.960189 0.961746 0.960189
0.970718 0.970718 0.969162
0.981353 0.979721 0.978164
0.920363 0.941649 0.93846
0.93312 0.949935 0.946731
0.945891 0.958267 0.955077
0.957809 0.966842 0.963653
0.968917 0.975616 0.972427
0.979843 0.98468 0.981491
0.990738 0.993942 0.990738
1 1 1
1 1 1
0.483085 0.483085 0.502724
0.514015 0.509544 0.529198
0.545342 0.536431 0.556085
0.575586 0.563333 0.582986
0.605005 0.590433 0.610071
0.633417 0.616968 0.636606
0.66038 0.642283 0.661936
0.686198 0.66656 0.686198
0.710597 0.689326 0.708965
0.572869 0.57734 0.592523
0.603738 0.603738 0.618921
0.633753 0.629328 0.644511
0.661692 0.653925 0.669093
0.687678 0.677577 0.69276
0.711711 0.699733 0.714916
0.733654 0.720027 0.73521
0.753994 0.738827 0.753994
0.772702 0.755886 0.771069
0.657801 0.666712 0.677455
0.684916 0.689342 0.700099
0.710277 0.710277 0.721035
0.73315 0.729809 0.740551
0.753445 0.747784 0.758526
0.771572 0.764019 0.774762
0.788205 0.779019 0.789761
0.803937 0.793194 0.803937
0.818967 0.806592 0.817334
0.728023 0.740261 0.747677
0.749447 0.757214 0.764614
0.768948 0.77229 0.77969
0.786603 0.786603 0.794003
0.802625 0.80029 0.807691
0.817472 0.81326 0.820661
0.831571 0.825727 0.833127
0.845029 0.837629 0.845029
0.857954 0.84892 0.856321
0.780591 0.795178 0.800244
0.797955 0.808057 0.813138
0.814588 0.820264 0.825345
0.829801 0.832135 0.837217
0.843687 0.843687 0.848753
0.856596 0.854719 0.859785
0.868971 0.865461 0.870527
0.880888 0.875807 0.880888
0.892424 0.88571 0.890791
0.823301 0.83975 0.842954
0.838529 0.850507 0.853712
0.853376 0.860929 0.864118
0.866957 0.871168 0.874357
0.879362 0.881239 0.884443
0.89099 0.89099 0.894194
0.902251 0.900618 0.903807
0.913222 0.910033 0.913222
0.923995 0.919173 0.922362
0.860029 0.878126 0.879683
0.873899 0.887526 0.889082
0.887541 0.896727 0.898283
0.900069 0.905913 0.907469
0.911498 0.915007 0.916564
0.922484 0.924117 0.925673
0.933165 0.933165 0.934722
0.943709 0.942153 0.943709
0.954192 0.950988 0.95256
0.892851 0.912505 0.912505
0.905913 0.92108 0.92108
0.918868 0.92961 0.92961
0.930861 0.938262 0.938262
0.941894 0.946975 0.946975
0.952651 0.95584 0.95584
0.963241 0.964797 0.964797
0.97377 0.97377 0.97377
0.984466 0.982834 0.982834
0.9234 0.944671 0.943038
0.936156 0.952972 0.951339
0.948928 0.961303 0.95967
0.960861 0.969894 0.968261
0.972015 0.978714 0.977081
0.982986 0.987808 0.986175
0.993942 0.997131 0.995499
1 1 1
1 1 1
0.49221 0.49221 0.513497
0.523308 0.518837 0.540124
0.554482 0.545586 0.566857
0.584909 0.572656 0.593942
0.614099 0.599527 0.620813
0.642176 0.625727 0.647013
0.668757 0.650675 0.671962
0.694179 0.674525 0.695811
0.718059 0.696773 0.718059
0.582132 0.586603 0.603418
0.612802 0.612802 0.629618
0.642237 0.637797 0.654612
0.669886 0.662104 0.67892
0.695354 0.685252 0.702052
0.718883 0.706905 0.72372
0.740307 0.726696 0.743511
0.760052 0.744869 0.761685
0.778073 0.761257 0.778073
0.665919 0.674815 0.687205
0.692424 0.696864 0.709239
0.717113 0.717113 0.729488
0.739467 0.736126 0.748501
0.759243 0.753567 0.765957
0.776776 0.769223 0.781598
0.793103 0.783917 0.796307
0.808545 0.797803 0.810178
0.823301 0.81091 0.823301
0.734127 0.746365 0.755398
0.754879 0.762646 0.771695
0.774044 0.777386 0.786419
0.791424 0.791424 0.800458
0.807187 0.804868 0.813901
0.821759 0.817548 0.826596
0.835645 0.829801 0.838849
0.848936 0.84152 0.850568
0.861692 0.852644 0.861692
0.78526 0.799847 0.806546
0.802365 0.812482 0.819181
0.818845 0.824521 0.83122
0.83386 0.836194 0.842893
0.847486 0.847486 0.854185
0.860273 0.858396 0.865095
0.872511 0.869001 0.8757
0.884321 0.879255 0.885954
0.895766 0.889067 0.895766
0.827268 0.843717 0.848554
0.842344 0.854322 0.859159
0.857023 0.864576 0.869413
0.870466 0.874662 0.879499
0.882658 0.884535 0.889357
0.894286 0.894286 0.899123
0.90547 0.903838 0.908675
0.91632 0.91313 0.917952
0.927092 0.922271 0.927092
0.863447 0.881529 0.884733
0.877256 0.890883 0.894072
0.890806 0.899992 0.903181
0.903258 0.909102 0.912291
0.914626 0.918135 0.921324
0.925566 0.927199 0.930404
0.936217 0.936217 0.939406
0.946654 0.945098 0.948287
0.957214 0.954025 0.957214
0.895933 0.915587 0.91722
0.90901 0.924193 0.925826
0.921935 0.932677 0.93431
0.933898 0.941299 0.942931
0.94493 0.950011 0.951644
0.955688 0.958877 0.96051
0.966293 0.967849 0.969482
0.976806 0.976806 0.978439
0.987594 0.985962 0.987594
0.92639 0.947677 0.947677
0.939193 0.956008 0.956008
0.951965 0.96434 0.96434
0.963836 0.972869 0.972869
0.975097 0.981811 0.981811
0.986145 0.990967 0.990967
0.997147 1 1
1 1 1
1 1 1
