public/LUTS/Black&White/Black&White_09.cube
TITLE "Generated by Resolve"
LUT_3D_SIZE 33
0 0 0
0 0 0
0 0 0
0 0 0
0 0 0
0 0 0
0 0 0
0 0 0
0 0 0
0 0 0
0 0 0
0 0 0
0 0 0
0 0 0
0 0 0
0 0 0
0 0 0
0 0 0
0 0 0
0 0 0
0 0 0
0 0 0
0 0 0
0 0 0
0 0 0
0.00569162 0 0
0.0207828 0 0
0.0355993 0 0
0.0504005 0 0
0.0652018 0.00117494 0.00117494
0.0800183 0.0137636 0.0137636
0.0951095 0.0266575 0.0266575
0.110079 0.0394598 0.0394598
0 0 0
0 0 0
0 0 0
0 0 0
0 0 0
0 0 0
0 0 0
0 0 0
0 0 0
0 0 0
0 0 0
0 0 0
0 0 0
0 0 0
0 0 0
0 0 0
0 0 0
0 0 0
0 0 0
0 0 0
0 0 0
0 0 0
0.00364691 0 0
0.0184329 0 0
0.0334173 0 0
0.0485389 0 0
0.0633402 0.0081178 0.00593576
0.0781415 0.0207065 0.0185397
0.0929427 0.0332952 0.0311284
0.107759 0.0458839 0.0437171
0.122835 0.0587472 0.0565805
0.137865 0.0715801 0.0694133
0.152636 0.084184 0.0820172
0 0 0
0 0 0
0 0 0
0 0 0
0 0 0
0 0 0
0 0 0
0 0 0
0 0 0
0 0 0
0 0 0
0 0 0
0 0 0
0 0 0
0 0 0
0 0 0
0 0 0
0 0 0
0 0 0
0.00177005 0 0
0.0165713 0 0
0.0313878 0 0
0.0461891 0.00199893 0
0.0614939 0.0150912 0.0107118
0.0762951 0.0276799 0.0233005
0.0910811 0.0402686 0.0358892
0.105898 0.0528725 0.0484932
0.120699 0.0654612 0.0610819
0.135622 0.078172 0.0738079
0.150805 0.0911421 0.0867628
0.165621 0.103746 0.0993668
0.180407 0.116335 0.111955
0.195193 0.128939 0.124559
0 0 0
0 0 0
0 0 0
0 0 0
0 0 0
0 0 0
0 0 0
0 0 0
0 0 0
0 0 0
0 0 0
0 0 0
0 0 0
0 0 0
0 0 0
0 0 0
0 0 0
0.0147097 0 0
0.0295109 0 0
0.0443275 0.0089723 0.00239567
0.0591287 0.021561 0.0149691
0.0739452 0.0341497 0.0275731
0.0892348 0.0472572 0.0406653
0.104036 0.0598459 0.053254
0.118837 0.0724346 0.0658579
0.133639 0.0850233 0.0784466
0.14844 0.0976272 0.0910353
0.163333 0.110307 0.103716
0.178546 0.123308 0.116732
0.193362 0.135912 0.12932
0.208164 0.148501 0.141924
0.222965 0.161089 0.154513
0.237736 0.173693 0.167117
0 0 0
0 0 0
0 0 0
0 0 0
0 0 0
0 0 0
0 0 0
0 0 0
0 0 0
0 0 0
0 0 0
0 0 0
0 0 0
0 0 0
0.0123598 0 0
0.0276188 0.00331121 0
0.0424659 0.0159457 0.00714122
0.0572519 0.0285344 0.0197452
0.0720684 0.0411383 0.0323339
0.0868696 0.053727 0.0449378
0.101671 0.0663157 0.0575265
0.116976 0.079408 0.0706188
0.131777 0.0920119 0.0832074
0.146578 0.104601 0.0957961
0.161379 0.117205 0.1084
0.176181 0.129793 0.120989
0.191485 0.142885 0.134081
0.206287 0.155489 0.146685
0.221088 0.168063 0.159274
0.235904 0.180667 0.171862
0.250706 0.193256 0.184466
0.265538 0.20589 0.197086
0.280781 0.218952 0.210163
0 0 0
0 0 0
0 0 0
0 0 0
0 0 0
0 0 0
0 0 0
0 0 0
0 0 0
0 0 0
0 0 0
0.0104829 0 0
0.0252842 0.00982681 0
0.0404212 0.0227512 0.0117342
0.0553902 0.0355077 0.0244907
0.0702068 0.0481117 0.0370947
0.085008 0.0607156 0.0496986
0.0998093 0.0733043 0.0622873
0.114611 0.085893 0.074876
0.129824 0.0988937 0.0878767
0.144717 0.111574 0.100557
0.159518 0.124178 0.113161
0.174334 0.136767 0.12575
0.18912 0.149355 0.138338
0.203937 0.161959 0.150942
0.219226 0.175051 0.164034
0.234028 0.18764 0.176623
0.248829 0.200244 0.189227
0.263645 0.212833 0.201816
0.278447 0.225422 0.214405
0.293248 0.238025 0.227008
0.308553 0.251118 0.240101
0.323323 0.263722 0.252705
0 0 0
0 0 0
0 0 0
0 0 0
0 0 0
0 0 0
0 0 0
0 0 0
0.00863661 0.00421149 0
0.0234226 0.0168002 0.00358587
0.0382391 0.0294041 0.0161746
0.0530251 0.0419928 0.0287633
0.0681163 0.0548714 0.0416419
0.0831464 0.067689 0.0544594
0.0979477 0.0802777 0.0670481
0.112749 0.0928664 0.0796521
0.12755 0.10547 0.0922408
0.142351 0.118059 0.104829
0.157519 0.131014 0.1178
0.172457 0.143755 0.130526
0.187259 0.156344 0.143114
0.202075 0.168933 0.155703
0.216876 0.181537 0.168307
0.231678 0.194125 0.180896
0.246983 0.207218 0.193988
0.261769 0.219806 0.206577
0.276585 0.23241 0.219181
0.291386 0.244999 0.231769
0.306188 0.257588 0.244358
0.321447 0.270634 0.257404
0.336309 0.283284 0.270054
0.351095 0.295872 0.282643
0.365881 0.308476 0.295247
0 0 0
0 0 0
0 0 0
0 0 0
0 0 0
0.00642405 0.0108339 0
0.0215763 0.0237736 0.00834669
0.0363775 0.0363775 0.0209506
0.0511788 0.0489815 0.0335393
0.06598 0.0615702 0.046128
0.0807813 0.0741588 0.058732
0.0960708 0.0872511 0.0718242
0.110887 0.0998398 0.0844129
0.125704 0.112444 0.0970016
0.14049 0.125032 0.109606
0.155306 0.137621 0.122194
0.170336 0.150454 0.135027
0.185397 0.163317 0.147875
0.200198 0.175906 0.160479
0.215015 0.18851 0.173083
0.229816 0.201099 0.185657
0.244633 0.213687 0.19826
0.259739 0.226596 0.21117
0.274723 0.239368 0.223941
0.289525 0.251972 0.236545
0.304326 0.264561 0.249134
0.319127 0.277165 0.261723
0.333928 0.289754 0.274327
0.349142 0.302754 0.287327
0.36405 0.315435 0.300008
0.378851 0.328038 0.312612
0.393652 0.340627 0.3252
0.408423 0.353231 0.337804
0 0 0
0 0.005066 0
0.00440986 0.0176699 3.0518e-05
0.0192111 0.0302586 0.0126192
0.0345159 0.0433509 0.0257115
0.0493324 0.0559548 0.0383154
0.0641184 0.0685435 0.0509041
0.0789197 0.0811322 0.0634928
0.0937362 0.0937362 0.0760967
0.108629 0.106416 0.088777
0.123827 0.119417 0.101778
0.138628 0.132006 0.114366
0.153445 0.144594 0.12697
0.168246 0.157198 0.139559
0.183047 0.169787 0.152148
0.198032 0.182574 0.164935
0.213153 0.195483 0.177844
0.227955 0.208072 0.190433
0.242756 0.220661 0.203037
0.257557 0.233265 0.215625
0.272358 0.245853 0.228214
0.287449 0.258717 0.241077
0.30248 0.27155 0.25391
0.317281 0.284138 0.266499
0.332082 0.296727 0.279088
0.346883 0.309316 0.291676
0.361685 0.32192 0.30428
0.376989 0.335012 0.317372
0.391791 0.347601 0.329961
0.406592 0.360204 0.342565
0.421408 0.372793 0.355154
0.436194 0.385382 0.367742
0.451331 0.398352 0.380713
0.01738 0.037232 0.01738
0.0321508 0.049836 0.029984
0.046952 0.0624247 0.0425879
0.0622568 0.0755169 0.0556649
0.0770581 0.0881056 0.0682689
0.0918746 0.10071 0.0808576
0.106676 0.113298 0.0934462
0.121477 0.125887 0.10605
0.136339 0.138537 0.1187
0.151583 0.151583 0.131731
0.166384 0.164172 0.144335
0.181186 0.176761 0.156924
0.195987 0.189364 0.169512
0.210803 0.201953 0.182116
0.226093 0.215045 0.195193
0.240894 0.227634 0.207797
0.255711 0.240238 0.220386
0.270497 0.252827 0.23299
0.285313 0.265431 0.245579
0.300252 0.278157 0.258305
0.315419 0.291112 0.27126
0.33022 0.3037 0.283864
0.345037 0.316304 0.296452
0.359823 0.328893 0.309041
0.374624 0.341482 0.321645
0.389654 0.354314 0.334462
0.40473 0.367178 0.347326
0.419532 0.379767 0.35993
0.434333 0.392355 0.372519
0.449149 0.404959 0.385107
0.463951 0.417548 0.397711
0.479072 0.430457 0.410605
0.494026 0.443244 0.423407
0.0599374 0.0819867 0.0599374
0.0751202 0.0950027 0.0729534
0.090013 0.107683 0.0856336
0.104799 0.120272 0.0982223
0.119615 0.13286 0.110811
0.134432 0.145464 0.123415
0.149218 0.158053 0.136004
0.164523 0.171145 0.149096
0.179324 0.183749 0.1617
0.194125 0.196338 0.174289
0.208927 0.208927 0.186877
0.223728 0.221515 0.199466
0.238544 0.234119 0.21207
0.253849 0.247211 0.225162
0.26865 0.2598 0.237751
0.283452 0.272404 0.25034
0.298253 0.284993 0.262943
0.313054 0.297581 0.275532
0.327947 0.310277 0.288228
0.34316 0.323278 0.301228
0.357961 0.335866 0.313817
0.372778 0.348455 0.326406
0.387579 0.361059 0.33901
0.40238 0.373648 0.351598
0.417365 0.386435 0.36437
0.432486 0.399344 0.377295
0.447288 0.411933 0.389883
0.462089 0.424536 0.402472
0.47689 0.43711 0.415061
0.491707 0.449714 0.427665
0.506996 0.462806 0.440757
0.521798 0.475395 0.453346
0.536583 0.487999 0.46595
0.102861 0.127123 0.102861
0.117754 0.139849 0.115587
0.132555 0.152438 0.128176
0.147356 0.165026 0.140764
0.162173 0.17763 0.153368
0.176974 0.190219 0.165957
0.192248 0.203281 0.179019
0.20708 0.2159 0.191653
0.221881 0.228504 0.204242
0.236683 0.241093 0.216831
0.251484 0.253697 0.229435
0.266285 0.266285 0.242023
0.28159 0.279377 0.255116
0.296407 0.291966 0.267704
0.311192 0.304555 0.280293
0.326009 0.317159 0.292897
0.34081 0.329747 0.305501
0.3561 0.34284 0.318578
0.370901 0.355444 0.331182
0.385718 0.368032 0.343771
0.400519 0.380621 0.356359
0.41532 0.393225 0.368963
0.430167 0.405859 0.381598
0.445426 0.418906 0.394644
0.460227 0.431495 0.407248
0.475029 0.444099 0.419837
0.48983 0.456687 0.432425
0.504631 0.469291 0.445029
0.51957 0.482002 0.457755
0.534752 0.494972 0.47071
0.549554 0.507561 0.483299
0.564355 0.52015 0.495903
0.579126 0.532753 0.508507
0.145525 0.172 0.145525
0.160296 0.184604 0.158129
0.175097 0.197192 0.170718
0.189899 0.209796 0.183307
0.205035 0.222721 0.196231
0.22002 0.235477 0.209003
0.234821 0.248066 0.221592
0.249622 0.26067 0.234195
0.264424 0.273259 0.246784
0.279225 0.285847 0.259373
0.294438 0.298863 0.272389
0.309316 0.311543 0.285069
0.324132 0.324132 0.297658
0.338949 0.336736 0.310246
0.353735 0.349325 0.32285
0.368551 0.361913 0.335439
0.383856 0.375006 0.348531
0.398642 0.387594 0.36112
0.413443 0.400198 0.373724
0.42826 0.412802 0.386328
0.443061 0.425391 0.398901
0.457877 0.43798 0.411505
0.473167 0.451072 0.424598
0.487968 0.463661 0.437186
0.50277 0.476265 0.44979
0.517586 0.488853 0.462379
0.532372 0.501442 0.474968
0.547265 0.514138 0.487663
0.562478 0.527138 0.500664
0.577295 0.539727 0.513252
0.592096 0.552331 0.525856
0.606897 0.56492 0.538445
0.621668 0.577523 0.551049
0.188067 0.21677 0.188067
0.202838 0.229358 0.200671
0.217639 0.241962 0.213275
0.232731 0.254841 0.226154
0.247745 0.267643 0.238956
0.262562 0.280232 0.251545
0.277363 0.292836 0.264134
0.292165 0.305425 0.276738
0.306966 0.318029 0.289326
0.322148 0.330983 0.302296
0.337072 0.343709 0.315022
0.351873 0.356298 0.327611
0.366674 0.368887 0.3402
0.381491 0.381491 0.352804
0.396292 0.39408 0.365393
0.411582 0.407172 0.378485
0.426398 0.419776 0.391073
0.441184 0.432364 0.403677
0.456001 0.444953 0.416266
0.470802 0.457557 0.42887
0.486061 0.470603 0.441917
0.500908 0.483238 0.454551
0.515724 0.495842 0.46714
0.53051 0.508431 0.479728
0.545312 0.521019 0.492332
0.560128 0.533623 0.504921
0.575418 0.546715 0.518013
0.590219 0.559304 0.530617
0.60502 0.571893 0.543206
0.619837 0.584482 0.555795
0.634638 0.597086 0.568399
0.649485 0.60972 0.581033
0.664714 0.622782 0.594095
0.230625 0.261524 0.230625
0.245396 0.274113 0.243229
0.2607 0.287221 0.256321
0.275486 0.299809 0.26891
0.290303 0.312398 0.281498
0.305119 0.325002 0.294102
0.319905 0.337591 0.306691
0.334951 0.350423 0.319524
0.350011 0.363287 0.332387
0.364813 0.375875 0.344976
0.379614 0.388464 0.357565
0.39443 0.401068 0.370169
0.409232 0.413657 0.382757
0.424369 0.426581 0.395682
0.439338 0.439338 0.408438
0.454139 0.451926 0.421027
0.46894 0.46453 0.433631
0.483742 0.477119 0.44622
0.498543 0.489723 0.458824
0.513771 0.502724 0.471839
0.528649 0.515404 0.484504
0.543465 0.527993 0.497093
0.558267 0.540597 0.509697
0.573068 0.553185 0.522286
0.587869 0.565774 0.534874
0.603174 0.578882 0.547982
0.617975 0.59147 0.560571
0.632776 0.604059 0.573159
0.647578 0.616648 0.585748
0.662394 0.629252 0.598352
0.677195 0.64184 0.610941
0.692485 0.654932 0.624033
0.707271 0.667536 0.636637
0.273274 0.306386 0.273274
0.288441 0.319371 0.286275
0.303243 0.331975 0.298863
0.318044 0.344564 0.311452
0.33286 0.357153 0.324056
0.347662 0.369757 0.336645
0.362661 0.382544 0.349432
0.377768 0.395438 0.362341
0.392569 0.408042 0.374929
0.40737 0.42063 0.387518
0.422171 0.433219 0.400122
0.436973 0.445823 0.412711
0.452064 0.458701 0.425589
0.467094 0.471504 0.438392
0.48188 0.484092 0.45098
0.496696 0.496696 0.463584
0.511498 0.509285 0.476188
0.526284 0.521874 0.488777
0.541588 0.534966 0.501869
0.556405 0.54757 0.514458
0.571206 0.560159 0.527047
0.586007 0.572747 0.539651
0.600824 0.585351 0.552239
0.615976 0.598306 0.565209
0.630915 0.611032 0.577935
0.645716 0.623636 0.590524
0.660517 0.636225 0.603113
0.675319 0.648814 0.615717
0.690135 0.661418 0.628305
0.705394 0.674464 0.641352
0.720241 0.687099 0.654002
0.735042 0.699687 0.66659
0.749813 0.712291 0.679194
0.316228 0.351537 0.316228
0.330999 0.364141 0.328817
0.3458 0.37673 0.341421
0.360586 0.389319 0.354009
0.375402 0.401923 0.366598
0.390707 0.415015 0.37969
0.405509 0.427604 0.392294
0.42031 0.440192 0.404883
0.435126 0.452796 0.417487
0.449912 0.465385 0.430076
0.464866 0.478126 0.442817
0.480018 0.491081 0.455772
0.494835 0.50367 0.468345
0.509636 0.516258 0.480949
0.524437 0.528847 0.493538
0.539239 0.541451 0.506142
0.554284 0.554284 0.518975
0.569345 0.567132 0.531823
0.584146 0.579736 0.544411
0.598947 0.592325 0.557015
0.613748 0.604913 0.569604
0.628565 0.617517 0.582193
0.643687 0.630426 0.595117
0.658671 0.643198 0.607889
0.673472 0.655787 0.620478
0.688273 0.668391 0.633082
0.703075 0.68098 0.64567
0.717876 0.693584 0.658259
0.733104 0.706584 0.671275
0.747982 0.719265 0.68394
0.762798 0.731853 0.696544
0.777584 0.744442 0.709133
0.79237 0.757046 0.721736
0.35877 0.396292 0.35877
0.373541 0.408896 0.371374
0.388342 0.421485 0.383963
0.403159 0.434089 0.396582
0.418448 0.447166 0.409659
0.433265 0.45977 0.422248
0.448066 0.472358 0.434836
0.462867 0.484962 0.44744
0.477668 0.497551 0.460029
0.492576 0.510246 0.472724
0.507774 0.523232 0.485725
0.522576 0.535836 0.498314
0.537377 0.548424 0.510903
0.552193 0.561013 0.523491
0.566979 0.573602 0.536095
0.581979 0.586404 0.548882
0.597101 0.599298 0.561776
0.611887 0.611887 0.574365
0.626688 0.624491 0.586969
0.641505 0.637079 0.599573
0.656306 0.649668 0.612146
0.671611 0.66276 0.625254
0.686412 0.675364 0.637842
0.701213 0.687953 0.650431
0.716014 0.700557 0.663035
0.730831 0.713146 0.675624
0.745892 0.726009 0.688502
0.760922 0.738827 0.70132
0.775738 0.751431 0.713909
0.790539 0.764019 0.726497
0.805341 0.776608 0.739101
0.820142 0.789212 0.75169
0.835279 0.802182 0.76466
0.401328 0.441047 0.401328
0.416098 0.453651 0.413916
0.4309 0.466239 0.42652
0.446189 0.479332 0.439612
0.461006 0.491936 0.452201
0.475822 0.504524 0.464805
0.490608 0.517113 0.477394
0.505409 0.529717 0.489982
0.520714 0.542809 0.503075
0.535515 0.555398 0.515679
0.550317 0.568002 0.528267
0.565118 0.580591 0.540871
0.579934 0.593179 0.55346
0.594797 0.605829 0.56611
0.61004 0.61886 0.579141
0.624842 0.631464 0.59173
0.639643 0.644053 0.604334
0.654444 0.656641 0.616922
0.669245 0.669245 0.629526
0.684199 0.681987 0.642267
0.699351 0.694926 0.655207
0.714168 0.70753 0.667796
0.728969 0.720119 0.6804
0.74377 0.732708 0.692988
0.758572 0.745312 0.705577
0.773602 0.758144 0.71841
0.788663 0.770993 0.731273
0.803479 0.783597 0.743862
0.81828 0.796185 0.756466
0.833082 0.808774 0.769055
0.847898 0.821378 0.781643
0.86302 0.834287 0.794568
0.877958 0.847059 0.80734
0.44387 0.485817 0.44387
0.459068 0.498833 0.456901
0.473945 0.511498 0.469566
0.488746 0.524086 0.482155
0.503548 0.53669 0.494759
0.518364 0.549279 0.507347
0.533165 0.561868 0.519936
0.54847 0.574975 0.533028
0.563272 0.587564 0.545632
0.578073 0.600153 0.558221
0.592874 0.612757 0.570825
0.607675 0.625345 0.583413
0.622492 0.637949 0.596017
0.637797 0.651026 0.609094
0.652583 0.663615 0.621683
0.667384 0.676219 0.634287
0.6822 0.688823 0.646876
0.696986 0.701411 0.65948
0.711894 0.714107 0.672175
0.727092 0.727092 0.685161
0.741909 0.739681 0.697749
0.75671 0.752285 0.710353
0.771511 0.764874 0.722942
0.786313 0.777462 0.735531
0.801617 0.79057 0.748638
0.816419 0.803159 0.761227
0.83122 0.815747 0.773816
0.846021 0.828351 0.786419
0.860838 0.84094 0.799008
0.875822 0.853712 0.81178
0.890944 0.866636 0.824689
0.905745 0.879225 0.837278
0.920516 0.891829 0.849882
0.486809 0.530953 0.486809
0.501686 0.543664 0.499519
0.516487 0.556268 0.512108
0.531289 0.568856 0.524697
0.546105 0.581445 0.537301
0.560906 0.594049 0.549889
0.576211 0.607126 0.562982
0.591012 0.61973 0.575586
0.605814 0.632319 0.588174
0.620615 0.644923 0.600763
0.635416 0.657511 0.613367
0.65069 0.670573 0.626429
0.665522 0.683192 0.639048
0.680339 0.695796 0.651637
0.69514 0.708385 0.66424
0.709941 0.720974 0.676829
0.724743 0.733577 0.689433
0.740032 0.74667 0.70251
0.754833 0.759258 0.715114
0.76965 0.771862 0.727703
0.784451 0.784451 0.740291
0.799252 0.79704 0.752895
0.814115 0.809689 0.765545
0.829358 0.822721 0.778576
0.84416 0.835325 0.79118
0.858961 0.847929 0.803769
0.873762 0.860517 0.816358
0.888563 0.873106 0.828962
0.903517 0.885847 0.841703
0.918685 0.898787 0.854643
0.933486 0.911391 0.867231
0.948287 0.92398 0.879835
0.963058 0.936584 0.892439
0.529458 0.57583 0.529458
0.544228 0.588418 0.542062
0.55903 0.601022 0.55465
0.573831 0.613611 0.567254
0.588983 0.626551 0.580179
0.603952 0.639307 0.592935
0.618753 0.651896 0.605524
0.633555 0.664485 0.618128
0.648356 0.677089 0.630716
0.663157 0.689677 0.643305
0.678386 0.702708 0.656336
0.693263 0.715373 0.669001
0.708064 0.727962 0.68159
0.722881 0.740551 0.694194
0.737682 0.753155 0.706783
0.752483 0.765743 0.719371
0.767788 0.778836 0.732464
0.782574 0.791424 0.745052
0.797375 0.804028 0.757656
0.812192 0.816617 0.77026
0.826993 0.829206 0.782849
0.84181 0.84181 0.795453
0.857099 0.854902 0.80853
0.8719 0.867491 0.821118
0.886702 0.880079 0.833722
0.901518 0.892683 0.846311
0.916304 0.905272 0.8589
0.931609 0.918364 0.872007
0.946426 0.930968 0.884596
0.961227 0.943557 0.897185
0.976028 0.956146 0.909789
0.990829 0.968734 0.922377
1 0.98143 0.935073
0.572015 0.620584 0.572015
0.586786 0.633188 0.584604
0.601587 0.645777 0.597208
0.616678 0.658671 0.610101
0.631693 0.671458 0.622889
0.64651 0.684062 0.635493
0.661295 0.696651 0.648081
0.676112 0.709239 0.66067
0.690913 0.721843 0.673274
0.706203 0.734936 0.686366
0.721004 0.747524 0.698955
0.735821 0.760128 0.711559
0.750622 0.772717 0.724147
0.765423 0.785306 0.736736
0.780606 0.798291 0.749706
0.795529 0.811002 0.762417
0.81033 0.82359 0.775021
0.825132 0.836179 0.78761
0.839933 0.848783 0.800214
0.854734 0.861372 0.812802
0.870008 0.874434 0.825864
0.884855 0.887053 0.838483
0.899657 0.899657 0.851087
0.914458 0.912245 0.863676
0.929259 0.924849 0.876265
0.94406 0.937438 0.888869
0.95935 0.95053 0.901961
0.974166 0.963119 0.914549
0.988968 0.975723 0.927153
1 0.988312 0.939742
1 1 0.952331
1 1 0.964981
1 1 0.978027
0.614557 0.665339 0.614557
0.629496 0.678096 0.627314
0.644633 0.691035 0.640253
0.659434 0.703624 0.652842
0.674235 0.716228 0.665446
0.689052 0.728817 0.678035
0.703853 0.741405 0.690623
0.718898 0.754253 0.703471
0.733959 0.767102 0.71632
0.74876 0.77969 0.728908
0.763561 0.792294 0.741512
0.778363 0.804883 0.754101
0.793164 0.817472 0.76669
0.808316 0.830411 0.779629
0.823285 0.843168 0.792386
0.838071 0.855756 0.804974
0.852888 0.868345 0.817563
0.867674 0.880934 0.830167
0.88249 0.893538 0.842756
0.897719 0.906554 0.855787
0.912596 0.919219 0.868437
0.927398 0.931823 0.881041
0.942214 0.944411 0.893629
0.957 0.957 0.906218
0.971801 0.969604 0.918822
0.987106 0.982696 0.931914
1 0.995285 0.944503
1 1 0.957107
1 1 0.969696
1 1 0.982284
1 1 0.995377
1 1 1
1 1 1
0.657221 0.710216 0.657221
0.672374 0.723201 0.670207
0.68719 0.73579 0.682811
0.701976 0.748379 0.695399
0.716793 0.760983 0.707988
0.731609 0.773571 0.720592
0.746609 0.786374 0.733379
0.7617 0.799268 0.746273
0.776501 0.811856 0.758877
0.791302 0.824445 0.771466
0.806104 0.837049 0.784054
0.82092 0.849638 0.796658
0.83621 0.86273 0.809735
0.851026 0.875319 0.822339
0.865827 0.887922 0.834928
0.880629 0.900511 0.847517
0.89543 0.913115 0.860121
0.910521 0.925978 0.872999
0.925536 0.938796 0.885801
0.940337 0.951385 0.898405
0.955139 0.963973 0.910994
0.969955 0.976577 0.923583
0.984756 0.989166 0.936187
0.999939 1 0.949157
1 1 0.961868
1 1 0.974472
1 1 0.98706
1 1 0.999649
1 1 1
1 1 1
1 1 1
1 1 1
1 1 1
0.70016 0.755352 0.70016
0.714931 0.767956 0.712764
0.729732 0.780545 0.725353
0.744533 0.793149 0.737942
0.759411 0.805798 0.750607
0.774655 0.81883 0.763638
0.789456 0.831418 0.776226
0.804257 0.844022 0.78883
0.819059 0.856611 0.801419
0.83386 0.8692 0.814008
0.848814 0.881956 0.826764
0.863966 0.894896 0.839704
0.878767 0.907485 0.852293
0.893584 0.920089 0.864881
0.908385 0.932677 0.877485
0.923186 0.945266 0.890074
0.938231 0.958114 0.902922
0.953277 0.970947 0.915755
0.968078 0.983551 0.928359
0.982895 0.996155 0.940948
0.997696 1 0.953536
1 1 0.96614
1 1 0.979065
1 1 0.991821
1 1 1
1 1 1
1 1 1
1 1 1
1 1 1
1 1 1
1 1 1
1 1 1
1 1 1
0.742718 0.800122 0.742718
0.757488 0.812711 0.755306
0.77229 0.825315 0.76791
0.787106 0.837919 0.780529
0.802396 0.850996 0.793591
0.817197 0.863584 0.80618
0.831998 0.876173 0.818784
0.846799 0.888777 0.831373
0.861616 0.901366 0.843976
0.876524 0.914076 0.856672
0.891707 0.927062 0.869657
0.906508 0.939651 0.882261
0.921324 0.952239 0.894835
0.936126 0.964843 0.907439
0.950927 0.977432 0.920027
0.966232 0.990524 0.93312
0.981033 1 0.945724
0.995834 1 0.958312
1 1 0.970901
1 1 0.983505
1 1 0.996292
1 1 1
1 1 1
1 1 1
1 1 1
1 1 1
1 1 1
1 1 1
1 1 1
1 1 1
1 1 1
1 1 1
1 1 1
0.78526 0.844877 0.78526
0.800031 0.857466 0.797864
0.81532 0.870542 0.810941
0.830137 0.883162 0.823545
0.844938 0.89575 0.836149
0.859754 0.908339 0.848737
0.874556 0.920943 0.861326
0.889357 0.933532 0.87393
0.904662 0.946624 0.887022
