public/LUTS/Black&White/Black&White_01.cube
TITLE "Generated by Resolve"
LUT_3D_SIZE 5
0.170306 0.170306 0.170306
0.214237 0.214237 0.214237
0.258778 0.258778 0.258778
0.30312 0.30312 0.30312
0.347662 0.347662 0.347662
0.319371 0.319371 0.319371
0.363699 0.363699 0.363699
0.408255 0.408255 0.408255
0.452598 0.452598 0.452598
0.497078 0.497078 0.497078
0.468849 0.468849 0.468849
0.513191 0.513191 0.513191
0.557641 0.557641 0.557641
0.60209 0.60209 0.60209
0.646418 0.646418 0.646418
0.618189 0.618189 0.618189
0.662684 0.662684 0.662684
0.707027 0.707027 0.707027
0.751568 0.751568 0.751568
0.795911 0.795911 0.795911
0.76762 0.76762 0.76762
0.812177 0.812177 0.812177
0.856519 0.856519 0.856519
0.90103 0.90103 0.90103
0.945403 0.945403 0.945403
0.185016 0.185016 0.185016
0.229358 0.229358 0.229358
0.273915 0.273915 0.273915
0.318257 0.318257 0.318257
0.362661 0.362661 0.362661
0.334508 0.334508 0.334508
0.378836 0.378836 0.378836
0.423194 0.423194 0.423194
0.467735 0.467735 0.467735
0.512078 0.512078 0.512078
0.483787 0.483787 0.483787
0.528328 0.528328 0.528328
0.572671 0.572671 0.572671
0.617212 0.617212 0.617212
0.661555 0.661555 0.661555
0.633265 0.633265 0.633265
0.677821 0.677821 0.677821
0.722164 0.722164 0.722164
0.766598 0.766598 0.766598
0.811048 0.811048 0.811048
0.782757 0.782757 0.782757
0.827146 0.827146 0.827146
0.871641 0.871641 0.871641
0.915984 0.915984 0.915984
0.96054 0.96054 0.96054
0.200153 0.200153 0.200153
0.244495 0.244495 0.244495
0.288838 0.288838 0.288838
0.333394 0.333394 0.333394
0.377722 0.377722 0.377722
0.349432 0.349432 0.349432
0.393973 0.393973 0.393973
0.438315 0.438315 0.438315
0.482872 0.482872 0.482872
0.527214 0.527214 0.527214
0.498924 0.498924 0.498924
0.54345 0.54345 0.54345
0.587808 0.587808 0.587808
0.632166 0.632166 0.632166
0.676692 0.676692 0.676692
0.648417 0.648417 0.648417
0.692744 0.692744 0.692744
0.737301 0.737301 0.737301
0.781643 0.781643 0.781643
0.826185 0.826185 0.826185
0.797894 0.797894 0.797894
0.842237 0.842237 0.842237
0.886793 0.886793 0.886793
0.931121 0.931121 0.931121
0.975464 0.975464 0.975464
0.215091 0.215091 0.215091
0.259632 0.259632 0.259632
0.303975 0.303975 0.303975
0.348486 0.348486 0.348486
0.392874 0.392874 0.392874
0.364569 0.364569 0.364569
0.409018 0.409018 0.409018
0.453452 0.453452 0.453452
0.497795 0.497795 0.497795
0.542351 0.542351 0.542351
0.514061 0.514061 0.514061
0.558389 0.558389 0.558389
0.602945 0.602945 0.602945
0.647288 0.647288 0.647288
0.691829 0.691829 0.691829
0.663539 0.663539 0.663539
0.707881 0.707881 0.707881
0.752422 0.752422 0.752422
0.79678 0.79678 0.79678
0.841108 0.841108 0.841108
0.81297 0.81297 0.81297
0.857374 0.857374 0.857374
0.901717 0.901717 0.901717
0.946258 0.946258 0.946258
0.9906 0.9906 0.9906
0.230228 0.230228 0.230228
0.274586 0.274586 0.274586
0.319112 0.319112 0.319112
0.363455 0.363455 0.363455
0.408011 0.408011 0.408011
0.379705 0.379705 0.379705
0.424048 0.424048 0.424048
0.468589 0.468589 0.468589
0.512932 0.512932 0.512932
0.557443 0.557443 0.557443
0.529198 0.529198 0.529198
0.573526 0.573526 0.573526
0.61799 0.61799 0.61799
0.662425 0.662425 0.662425
0.706767 0.706767 0.706767
0.678538 0.678538 0.678538
0.723018 0.723018 0.723018
0.767361 0.767361 0.767361
0.811917 0.811917 0.811917
0.85626 0.85626 0.85626
0.82797 0.82797 0.82797
0.872511 0.872511 0.872511
0.916854 0.916854 0.916854
0.961395 0.961395 0.961395
1 1 1
