public/LUTS/Black&White/Black&White_09.cube
TITLE "Generated by Resolve"
LUT_3D_SIZE 5
0 0 0
0 0 0
0 0 0
0 0 0
0.110079 0.0394598 0.0394598
0 0 0
0.0937362 0.0937362 0.0760967
0.213153 0.195483 0.177844
0.332082 0.296727 0.279088
0.451331 0.398352 0.380713
0.316228 0.351537 0.316228
0.435126 0.452796 0.417487
0.554284 0.554284 0.518975
0.673472 0.655787 0.620478
0.79237 0.757046 0.721736
0.657221 0.710216 0.657221
0.776501 0.811856 0.758877
0.89543 0.913115 0.860121
1 1 0.961868
1 1 1
0.998535 1 0.998535
1 1 1
1 1 1
1 1 1
1 1 1
0 0 0
0 0 0
0 0 0
0.0252537 0 0
0.14432 0.0736858 0.0913252
0.00941482 0.0270542 0.0270542
0.128298 0.128298 0.128298
0.247272 0.229603 0.229603
0.366644 0.331304 0.331304
0.485557 0.432563 0.432563
0.350301 0.385611 0.367941
0.469688 0.487358 0.469688
0.588617 0.588617 0.570947
0.708034 0.690364 0.672694
0.826947 0.791623 0.773953
0.691691 0.744686 0.709331
0.811078 0.846433 0.811078
0.930007 0.947677 0.912322
1 1 1
1 1 1
1 1 1
1 1 1
1 1 1
1 1 1
1 1 1
0 0 0
0 0 0
0 0 0
0.0598306 0.0068513 0.0421607
0.178729 0.10811 0.14342
0.0434882 0.0611276 0.0787976
0.162875 0.162875 0.180545
0.281804 0.264134 0.281804
0.401221 0.365881 0.383551
0.520119 0.46714 0.48481
0.384878 0.420188 0.420188
0.504234 0.521904 0.521904
0.623194 0.623194 0.623194
0.742153 0.724483 0.724483
0.861509 0.8262 0.8262
0.726268 0.779248 0.761578
0.845151 0.880507 0.862837
0.964584 0.982254 0.964584
1 1 1
1 1 1
1 1 1
1 1 1
1 1 1
1 1 1
1 1 1
0 0 0
0 0 0
0 0 0
0.0943008 0.0413062 0.0943008
0.213306 0.142687 0.195666
0.0780652 0.0956893 0.131044
0.197223 0.197223 0.232578
0.316381 0.298711 0.334051
0.435309 0.399954 0.435309
0.554696 0.501717 0.537057
0.41944 0.454765 0.472435
0.538338 0.556023 0.573693
0.657771 0.657771 0.675441
0.776684 0.759014 0.776684
0.896086 0.860777 0.878447
0.76083 0.813825 0.813825
0.879728 0.915084 0.915084
0.999115 1 1
1 1 1
1 1 1
1 1 1
1 1 1
1 1 1
1 1 1
1 1 1
0 0 0
0 0 0
0.00955215 0 0.0448768
0.128481 0.0755016 0.14612
0.247883 0.177264 0.247883
0.112642 0.130282 0.183261
0.231525 0.231525 0.28452
0.350942 0.333272 0.386267
0.469886 0.434531 0.487526
0.589166 0.536171 0.589166
0.454017 0.489342 0.524651
0.572915 0.590585 0.625895
0.692119 0.692119 0.727428
0.811276 0.793591 0.828901
0.930159 0.89485 0.930159
0.795056 0.848051 0.86569
0.914305 0.949645 0.967285
1 1 1
1 1 1
1 1 1
1 1 1
1 1 1
1 1 1
1 1 1
1 1 1
