public/LUTS/Black&White/Black&White_07.cube
TITLE "Generated by Resolve"
LUT_3D_SIZE 33
0 0 0
0 0 0
0 0 0
0 0 0
0 0 0
0 0 0
0 0 0
0 0 0
0 0 0
0 0 0
0 0 0
0 0 0
0 0 0
0 0 0
0 0 0
0 0 0
0 0 0
0 0 0
0 0 0
0 0 0
0 0 0
0 0 0
0 0 0
0 0 0
0 0 0
0 0 0
0 0 0
0.00761425 0 0
0.0168612 0 0
0.0261234 0 0
0.0353704 0 0
0.0448005 0.00202945 0.00202945
0.0541543 0.0100252 0.0100252
0 0 0
0 0 0
0 0 0
0 0 0
0 0 0
0 0 0
0 0 0
0 0 0
0 0 0
0 0 0
0 0 0
0 0 0
0 0 0
0 0 0
0 0 0
0 0 0
0 0 0
0 0 0
0 0 0
0 0 0
0 0 0
0 0 0
0 0 0
0 0 0
0.0062562 0 0
0.0157015 0 0
0.0249485 0 0
0.0341955 0 0
0.0434424 0.0061799 0.00482185
0.0527047 0.0140536 0.0126955
0.0621195 0.0220798 0.0207218
0.0715038 0.0300908 0.0287327
0.0807355 0.0379644 0.0366217
0 0 0
0 0 0
0 0 0
0 0 0
0 0 0
0 0 0
0 0 0
0 0 0
0 0 0
0 0 0
0 0 0
0 0 0
0 0 0
0 0 0
0 0 0
0 0 0
0 0 0
0 0 0
0 0 0
0 0 0
0 0 0
0.0049897 0 0
0.0142367 0 0
0.0237888 0 0
0.0330358 0.00267033 0
0.0422827 0.010544 0.00779736
0.0515297 0.0184024 0.015671
0.0607767 0.026276 0.0235447
0.0701152 0.034226 0.0314794
0.0795911 0.0423285 0.0395819
0.088838 0.0501869 0.0474556
0.098085 0.0580606 0.0553292
0.107317 0.0659342 0.0632029
0 0 0
0 0 0
0 0 0
0 0 0
0 0 0
0 0 0
0 0 0
0 0 0
0 0 0
0 0 0
0 0 0
0 0 0
0 0 0
0 0 0
0 0 0
0 0 0
0 0 0
0 0 0
0.00381476 0 0
0.0130617 0 0
0.0223239 0 0
0.0315709 0.00671397 0.00260929
0.0411231 0.0148928 0.0107881
0.05037 0.0227665 0.0186465
0.059617 0.0306401 0.0265202
0.068864 0.0384985 0.0343786
0.0781109 0.0463722 0.0422522
0.0874189 0.0542916 0.0501717
0.0969253 0.0624094 0.0583047
0.106172 0.0702831 0.0661631
0.115419 0.0781567 0.0740368
0.124666 0.0860151 0.0819104
0.133898 0.0938888 0.0897841
0 0 0
0 0 0
0 0 0
0 0 0
0 0 0
0 0 0
0 0 0
0 0 0
0 0 0
0 0 0
0 0 0
0 0 0
0 0 0
0 0 0
0 0 0
0.00262455 0 0
0.011902 0 0
0.021149 0.00320439 0
0.030396 0.0110781 0.0055848
0.0396429 0.0189517 0.0134432
0.0488899 0.0268101 0.0213169
0.0584573 0.0349889 0.0294957
0.0677043 0.0428626 0.0373693
0.0769513 0.050721 0.0452277
0.0861982 0.0585946 0.0531014
0.0954452 0.0664683 0.0609598
0.104997 0.0746471 0.0691386
0.11426 0.0825055 0.0770123
0.123507 0.0903792 0.0848859
0.132753 0.0982376 0.0927443
0.142 0.106111 0.100618
0.151263 0.114 0.108507
0.160784 0.122164 0.11667
0 0 0
0 0 0
0 0 0
0 0 0
0 0 0
0 0 0
0 0 0
0 0 0
0 0 0
0 0 0
0 0 0
0 0 0
0.00117494 0 0
0.0106355 0 0
0.0199893 0.00756847 0.000686656
0.0292363 0.0154421 0.00856031
0.0384833 0.0233005 0.0164187
0.0477302 0.0311742 0.0242924
0.0569772 0.0390478 0.032166
0.0664836 0.0471656 0.0402838
0.0757916 0.0550851 0.0482032
0.0850385 0.0629587 0.0560769
0.0942855 0.0708171 0.0639353
0.103532 0.0786908 0.071809
0.112779 0.0865644 0.0796826
0.122332 0.094728 0.0878462
0.131579 0.102602 0.0957198
0.140826 0.110475 0.103593
0.150072 0.118334 0.111452
0.159335 0.126207 0.119326
0.168582 0.134081 0.127199
0.178134 0.14226 0.135378
0.187366 0.150134 0.143252
0 0 0
0 0 0
0 0 0
0 0 0
0 0 0
0 0 0
0 0 0
0 0 0
0 0 0
1.5259e-05 0 0
0.00926223 0.00375372 0
0.0185092 0.0116121 0.00335698
0.0279393 0.0196536 0.0113985
0.0373236 0.0276646 0.0193942
0.0465705 0.035523 0.0272679
0.0558175 0.0433967 0.0351415
0.0650645 0.0512703 0.0429999
0.0743114 0.0591287 0.0508736
0.0837873 0.0672313 0.0589761
0.0931258 0.0751812 0.0669261
0.102373 0.0830396 0.0747845
0.11162 0.0909133 0.0826581
0.120867 0.0987869 0.0905318
0.130114 0.106645 0.0983902
0.139666 0.114824 0.106569
0.148913 0.122698 0.114443
0.15816 0.130571 0.122301
0.167407 0.13843 0.130175
0.176669 0.146304 0.138033
0.186191 0.154452 0.146181
0.195468 0.162356 0.154086
0.204715 0.170214 0.161959
0.213947 0.178088 0.169833
0 0 0
0 0 0
0 0 0
0 0 0
0 0 0
0 0 0
0 0.000228885 0
0.00810254 0.00810254 0
0.0173495 0.0159762 0.00633249
0.0265965 0.0238346 0.0142061
0.0358434 0.0317082 0.0220645
0.0453956 0.0398871 0.0302434
0.0546578 0.0477607 0.038117
0.0639048 0.0556191 0.0459907
0.0731518 0.0634928 0.0538491
0.0823987 0.0713512 0.0617227
0.091783 0.0793622 0.0697337
0.101198 0.0874037 0.07776
0.110445 0.0952773 0.0856336
0.119707 0.103151 0.0935073
0.128954 0.111009 0.101366
0.138201 0.118883 0.109239
0.147646 0.12694 0.117296
0.157 0.13492 0.125277
0.166247 0.142794 0.13315
0.175494 0.150652 0.141024
0.184741 0.158526 0.148882
0.193988 0.1664 0.156756
0.203494 0.174517 0.164874
0.212802 0.182437 0.172793
0.222049 0.190311 0.180667
0.231296 0.198169 0.18854
0.240528 0.206043 0.196414
0 0 0
0 0 0
0 0 0
0 0.00428779 0
0.00694286 0.0124666 0.00144961
0.0161898 0.020325 0.009308
0.0254368 0.0281987 0.0171817
0.0346838 0.0360723 0.0250401
0.0439307 0.0439307 0.0329137
0.0532387 0.0518654 0.0408484
0.0627451 0.0599832 0.0489662
0.0719768 0.0678416 0.0568246
0.081239 0.0757153 0.0646983
0.090486 0.0835889 0.0725719
0.099733 0.0914473 0.0804303
0.109102 0.0994278 0.0884108
0.118547 0.1075 0.0964828
0.127779 0.115358 0.104341
0.137041 0.123232 0.112215
0.146288 0.131106 0.120089
0.155535 0.138964 0.127947
0.16495 0.147005 0.135988
0.17435 0.155016 0.143999
0.183581 0.16289 0.151858
0.192844 0.170748 0.159731
0.202075 0.178622 0.167605
0.211322 0.186481 0.175463
0.22089 0.194675 0.183658
0.230137 0.202533 0.191516
0.239384 0.210407 0.19939
0.248646 0.218265 0.207248
0.257877 0.226139 0.215122
0.267338 0.234226 0.223209
0 0.00863661 0
0.00546273 0.0165103 0.00410468
0.0147097 0.0243839 0.0119783
0.0242771 0.0325628 0.0201572
0.0335241 0.0404212 0.0280308
0.042771 0.0482948 0.0358892
0.052018 0.0561532 0.0437629
0.061265 0.0640269 0.0516365
0.0705577 0.071931 0.0595254
0.0800793 0.0800793 0.0676738
0.0893263 0.0879377 0.0755474
0.098558 0.0958114 0.0834058
0.10782 0.10367 0.0912795
0.117067 0.111543 0.0991531
0.126619 0.119722 0.107317
0.135882 0.127596 0.11519
0.145129 0.135454 0.123064
0.15436 0.143328 0.130922
0.163622 0.151202 0.138796
0.172946 0.159152 0.146746
0.182422 0.167239 0.154849
0.191684 0.175113 0.162707
0.200931 0.182986 0.170581
0.210163 0.190845 0.178454
0.219425 0.198718 0.186313
0.228809 0.206729 0.194324
0.238224 0.214755 0.202365
0.247471 0.222629 0.210239
0.256718 0.230488 0.218097
0.265965 0.238361 0.225971
0.275227 0.246235 0.233829
0.284657 0.254292 0.241901
0.294011 0.262287 0.249882
0.0228275 0.0366064 0.0228275
0.0323186 0.0447395 0.0309606
0.0416114 0.0526436 0.03888
0.0508583 0.0605173 0.0467384
0.0601053 0.0683909 0.054612
0.0693523 0.0762493 0.0624704
0.0785992 0.084123 0.0703441
0.0881666 0.0923018 0.0785229
0.0974136 0.100175 0.0863966
0.106661 0.108034 0.094255
0.115908 0.115908 0.102129
0.125154 0.123766 0.109987
0.134401 0.13164 0.117861
0.143969 0.139818 0.12604
0.153216 0.147677 0.133913
0.162463 0.15555 0.141772
0.17171 0.163424 0.149645
0.180957 0.171283 0.157504
0.190249 0.179217 0.165438
0.199756 0.187335 0.173556
0.209003 0.195209 0.18143
0.218265 0.203067 0.189288
0.227512 0.210941 0.197162
0.236759 0.218799 0.205035
0.246113 0.226795 0.213016
0.255558 0.234852 0.221073
0.264805 0.242725 0.228946
0.274052 0.250584 0.23682
0.283299 0.258457 0.244678
0.292561 0.266316 0.252552
0.302113 0.27451 0.260731
0.31136 0.282368 0.268589
0.320592 0.290242 0.276463
0.0496376 0.0647898 0.0496376
0.0589456 0.0727398 0.0575875
0.0681926 0.0806134 0.0654612
0.0774395 0.0884718 0.0733196
0.0866865 0.0963455 0.0811933
0.0959487 0.104219 0.0890516
0.105486 0.112367 0.0972152
0.114748 0.120256 0.105104
0.123995 0.12813 0.112978
0.133242 0.135988 0.120836
0.142489 0.143862 0.12871
0.151736 0.151736 0.136568
0.161288 0.159915 0.144747
0.17055 0.167773 0.152621
0.179797 0.175647 0.160494
0.189044 0.18352 0.168353
0.198291 0.191379 0.176226
0.207843 0.199557 0.184405
0.21709 0.207431 0.192279
0.226337 0.215305 0.200137
0.235584 0.223163 0.208011
0.244846 0.231037 0.215869
0.254124 0.238926 0.223774
0.263645 0.247074 0.231922
0.272892 0.254948 0.239796
0.282139 0.262821 0.247669
0.291386 0.27068 0.255528
0.300633 0.278553 0.263401
0.309972 0.286503 0.271351
0.319448 0.294591 0.279438
0.328695 0.302464 0.287312
0.337942 0.310323 0.295171
0.347173 0.318212 0.303044
0.0762951 0.0928359 0.0762951
0.0855268 0.10071 0.0841688
0.0947738 0.108568 0.0920272
0.104021 0.116442 0.0999008
0.113466 0.124514 0.107973
0.122835 0.132494 0.115953
0.132067 0.140352 0.123812
0.141329 0.148226 0.131685
0.150576 0.1561 0.139559
0.159808 0.163958 0.147417
0.169329 0.172091 0.15555
0.178622 0.180011 0.16347
0.187869 0.187869 0.171328
0.197131 0.195743 0.179202
0.206363 0.203601 0.18706
0.21561 0.211475 0.194934
0.225177 0.219654 0.203113
0.234424 0.227527 0.210986
0.243671 0.235386 0.218845
0.252918 0.243259 0.226719
0.262165 0.251118 0.234592
0.271427 0.258991 0.242451
0.28098 0.26717 0.250629
0.290227 0.275044 0.258503
0.299474 0.282902 0.266377
0.308721 0.290776 0.274235
0.317968 0.29865 0.282109
0.327276 0.306569 0.290028
0.336767 0.314687 0.298146
0.346029 0.32256 0.30602
0.355276 0.330434 0.313893
0.364523 0.338293 0.321752
0.373754 0.346166 0.329625
0.102876 0.12079 0.102876
0.112093 0.128664 0.11075
0.121355 0.136538 0.118608
0.13077 0.144579 0.126665
0.140154 0.152575 0.134661
0.149416 0.160449 0.142519
0.158648 0.168322 0.150393
0.167895 0.176181 0.158267
0.177157 0.184054 0.166125
0.186633 0.192157 0.174228
0.195956 0.200107 0.182177
0.205203 0.207965 0.190036
0.21445 0.215839 0.19791
0.223697 0.223697 0.205783
0.232944 0.231571 0.213642
0.242512 0.23975 0.22182
0.251759 0.247623 0.229694
0.261006 0.255482 0.237568
0.270253 0.263355 0.245426
0.2795 0.271229 0.2533
0.289036 0.279377 0.261448
0.298314 0.287266 0.269337
0.307561 0.29514 0.277211
0.316808 0.302998 0.285084
0.326055 0.310872 0.292943
0.335302 0.318746 0.300816
0.344854 0.326925 0.308995
0.354101 0.334783 0.316869
0.363348 0.342657 0.324727
0.37261 0.350515 0.332601
0.381857 0.358389 0.340459
0.391119 0.366278 0.348363
0.400641 0.374441 0.356512
0.129458 0.14876 0.129458
0.138674 0.156634 0.137331
0.148241 0.164813 0.14551
0.157488 0.172671 0.153368
0.166735 0.180545 0.161242
0.175998 0.188418 0.169116
0.185229 0.196277 0.176974
0.194629 0.204288 0.184985
0.204044 0.212329 0.193027
0.213291 0.220188 0.200885
0.222538 0.228061 0.208759
0.231785 0.235935 0.216632
0.241032 0.243793 0.224491
0.250492 0.251865 0.232563
0.259846 0.259846 0.240543
0.269093 0.267704 0.248402
0.27834 0.275578 0.256275
0.287587 0.283452 0.264149
0.296834 0.29131 0.272007
0.30634 0.299443 0.28014
0.315633 0.307362 0.28806
0.324895 0.315221 0.295918
0.334142 0.323095 0.303792
0.343389 0.330968 0.311666
0.352636 0.338827 0.319524
0.362188 0.347021 0.327718
0.371435 0.354879 0.335576
0.380682 0.362753 0.34345
0.389929 0.370611 0.351308
0.399191 0.378485 0.359182
0.408438 0.386358 0.367056
0.41799 0.394522 0.375219
0.427222 0.402396 0.383093
0.1561 0.176791 0.1561
0.165576 0.184894 0.164218
0.174823 0.192767 0.172091
0.18407 0.200641 0.17995
0.193317 0.208499 0.187823
0.202579 0.216373 0.195697
0.211933 0.224353 0.203677
0.221378 0.232425 0.211734
0.230625 0.240284 0.219608
0.239872 0.248157 0.227466
0.249119 0.256016 0.23534
0.258366 0.26389 0.243214
0.267796 0.271931 0.251255
0.27718 0.279942 0.259251
0.286427 0.2878 0.267124
0.295674 0.295674 0.274983
0.304921 0.303548 0.282856
0.314168 0.311406 0.29073
0.32372 0.319585 0.298909
0.332967 0.327459 0.306783
0.342214 0.335317 0.314641
0.351476 0.343191 0.322515
0.360723 0.351064 0.330373
0.370199 0.359152 0.338476
0.379522 0.367102 0.346426
0.388769 0.374975 0.354299
0.398016 0.382834 0.362158
0.407263 0.390707 0.370031
0.416526 0.398581 0.37789
0.426047 0.406729 0.386053
0.435325 0.414618 0.393942
0.444572 0.422492 0.401801
0.453803 0.430365 0.409674
0.182925 0.20499 0.182925
0.192157 0.212863 0.190799
0.201404 0.220737 0.198672
0.210651 0.228595 0.206531
0.219898 0.236469 0.214405
0.229465 0.244648 0.222583
0.238712 0.252506 0.230442
0.247959 0.26038 0.238315
0.257206 0.268254 0.246189
0.266453 0.276112 0.254047
0.275792 0.284077 0.262013
0.285252 0.292165 0.2701
0.294514 0.300023 0.277974
0.303761 0.307897 0.285832
0.313008 0.315755 0.293706
0.322255 0.323629 0.301579
0.331655 0.331655 0.30959
0.341054 0.339681 0.317617
0.350301 0.347555 0.32549
0.359548 0.355413 0.333364
0.368795 0.363287 0.341222
0.378058 0.371145 0.349096
0.387503 0.379217 0.357168
0.396857 0.387198 0.365133
0.406104 0.395071 0.373007
0.415351 0.40293 0.38088
0.424598 0.410803 0.388739
0.433845 0.418677 0.396612
0.443366 0.426795 0.404746
0.452659 0.434714 0.41265
0.461906 0.442588 0.420523
0.471153 0.450446 0.428382
0.480385 0.45832 0.436271
0.209506 0.232959 0.209506
0.218738 0.240818 0.21738
0.227985 0.248692 0.225254
0.237247 0.256565 0.233127
0.246799 0.264744 0.241291
0.256046 0.272602 0.249165
0.265293 0.280476 0.257038
0.27454 0.288334 0.264897
0.283787 0.296208 0.27277
0.293095 0.304143 0.280705
0.302586 0.312261 0.288823
0.311849 0.320119 0.296681
0.321096 0.327993 0.304555
0.330343 0.335851 0.312413
0.33959 0.343725 0.320287
0.348959 0.35172 0.328283
0.358389 0.359777 0.336339
0.367636 0.367636 0.344198
0.376883 0.375509 0.352071
0.38613 0.383383 0.359945
0.395392 0.391241 0.367803
0.404944 0.39942 0.375982
0.414191 0.407294 0.383856
0.423438 0.415152 0.391714
0.432685 0.423026 0.399588
0.441932 0.4309 0.407462
0.451362 0.438941 0.415488
0.460746 0.446937 0.423499
0.469993 0.45481 0.431373
0.47924 0.462669 0.439231
0.488487 0.470542 0.447105
0.497734 0.478416 0.454978
0.507195 0.486519 0.463081
0.236088 0.260914 0.236088
0.245319 0.268788 0.243961
0.254566 0.276646 0.251835
0.264118 0.284825 0.260014
0.273381 0.292699 0.267872
0.282628 0.300572 0.275746
0.291875 0.308431 0.283619
0.301122 0.316304 0.291478
0.310689 0.324483 0.299657
0.319921 0.332341 0.30753
0.329168 0.340215 0.315404
0.33843 0.348089 0.323262
0.347677 0.355947 0.331136
0.356954 0.363851 0.33904
0.366476 0.372 0.347173
0.375723 0.379858 0.355047
0.38497 0.387732 0.362921
0.394217 0.395605 0.370779
0.403464 0.403464 0.378653
0.412802 0.411429 0.386618
0.422278 0.419516 0.39469
0.431525 0.42739 0.402564
0.440772 0.435248 0.410437
0.450019 0.443122 0.418296
0.459266 0.45098 0.426169
0.468666 0.459007 0.43418
0.47808 0.467033 0.442222
0.487327 0.474907 0.45008
0.496574 0.482765 0.457954
0.505821 0.490639 0.465812
0.515068 0.498512 0.473686
0.524514 0.506569 0.481758
0.533867 0.514549 0.489738
0.262684 0.288869 0.262684
0.272175 0.297017 0.270817
0.281468 0.304921 0.278721
0.2907 0.312795 0.286595
0.299962 0.320653 0.294469
0.309209 0.328527 0.302327
0.318456 0.336385 0.310201
0.328023 0.344579 0.318379
0.33727 0.352438 0.326253
0.346502 0.360311 0.334112
0.355764 0.368185 0.341985
0.365011 0.376043 0.349844
0.374258 0.383917 0.357717
0.383825 0.392096 0.365896
0.393057 0.399954 0.373754
0.402304 0.407828 0.381628
0.411566 0.415702 0.389502
0.420798 0.42356 0.39736
0.430121 0.431495 0.405295
0.439612 0.439612 0.413413
0.448859 0.447471 0.421286
0.458106 0.455344 0.429145
0.467369 0.463218 0.437018
0.4766 0.471077 0.444877
0.486168 0.479255 0.453071
0.495415 0.487129 0.460929
0.504662 0.494987 0.468803
0.513909 0.502861 0.476661
0.523156 0.510735 0.484535
0.532525 0.518715 0.492515
0.54197 0.526772 0.500587
0.551217 0.534646 0.508446
0.560449 0.542519 0.51632
0.289494 0.317082 0.289494
0.298787 0.325017 0.297429
0.308034 0.332891 0.305303
0.317281 0.340749 0.313176
0.326543 0.348623 0.321035
0.33579 0.356497 0.328908
0.345342 0.36466 0.337087
0.354589 0.372534 0.344961
0.363836 0.380407 0.352819
0.373083 0.388266 0.360693
0.38233 0.396139 0.368566
0.391882 0.404303 0.376715
0.401144 0.412192 0.384604
0.410391 0.42005 0.392477
0.419638 0.427924 0.400336
0.428885 0.435782 0.408209
0.438132 0.443656 0.416083
0.4477 0.451835 0.424247
0.456947 0.459709 0.43212
0.466194 0.467567 0.439994
0.475441 0.475441 0.447852
0.484688 0.483299 0.455726
0.493965 0.491203 0.46363
0.503502 0.499352 0.471778
0.512749 0.507225 0.479637
0.521996 0.515099 0.487511
0.531243 0.522957 0.495369
0.54049 0.530831 0.503243
0.549828 0.538781 0.511208
0.559304 0.546868 0.519295
0.568551 0.554742 0.527153
0.577783 0.5626 0.535027
0.587015 0.570474 0.542901
0.316152 0.345113 0.316152
0.325368 0.352987 0.32401
0.334615 0.360845 0.331884
0.343862 0.368719 0.339742
0.353323 0.376791 0.347829
0.362676 0.384756 0.355795
0.371923 0.39263 0.363668
0.38117 0.400504 0.371527
0.390417 0.408362 0.3794
0.399664 0.416236 0.387274
0.409186 0.424369 0.395407
0.418479 0.432288 0.403311
0.427726 0.440146 0.411185
0.436973 0.44802 0.419043
0.44622 0.455879 0.426917
0.455467 0.463752 0.434791
0.465034 0.471931 0.442969
0.474266 0.479789 0.450828
0.483513 0.487663 0.458701
0.492775 0.495537 0.466575
0.502022 0.503395 0.474434
0.511269 0.511269 0.482307
0.520836 0.519448 0.490486
0.530068 0.527321 0.498344
0.539315 0.53518 0.506218
0.548577 0.543053 0.514092
0.557809 0.550927 0.52195
0.567376 0.559106 0.530129
0.576623 0.566964 0.538003
0.58587 0.574838 0.545861
0.595117 0.582696 0.553735
0.604364 0.59057 0.561608
0.613657 0.598505 0.569528
0.342733 0.373068 0.342733
0.351949 0.380941 0.350591
0.361196 0.388815 0.358465
0.370626 0.396857 0.366522
0.380011 0.404852 0.374517
0.389258 0.412726 0.382376
0.398505 0.420584 0.390249
0.407752 0.428458 0.398108
0.416999 0.436332 0.405982
0.426551 0.444511 0.41416
0.435813 0.452369 0.422034
0.44506 0.460243 0.429908
0.454307 0.468101 0.437766
0.463554 0.475975 0.44564
0.473045 0.484077 0.453742
0.482353 0.492027 0.461677
0.491615 0.499886 0.469551
0.500847 0.507759 0.477409
0.510094 0.515633 0.485283
0.519356 0.523491 0.493156
0.528893 0.531655 0.501305
0.538155 0.539544 0.509194
0.547417 0.547417 0.517067
0.556649 0.555276 0.524926
0.565896 0.563149 0.532799
0.575158 0.571023 0.540673
0.58471 0.579187 0.548852
0.593957 0.58706 0.55671
0.603204 0.594934 0.564584
0.612451 0.602792 0.572442
0.621698 0.610666 0.580316
0.630976 0.618555 0.58822
0.640497 0.626719 0.596368
0.369314 0.401038 0.369314
0.378637 0.409003 0.377279
0.388098 0.41709 0.385367
0.397345 0.424949 0.393225
0.406592 0.432822 0.401099
0.415839 0.440681 0.408957
0.425086 0.448554 0.416831
0.434485 0.45658 0.424857
0.4439 0.464607 0.432883
0.453147 0.472465 0.440742
0.462394 0.480339 0.448615
0.471641 0.488212 0.456489
0.480888 0.496071 0.464347
0.490349 0.504143 0.472419
0.499702 0.512123 0.4804
0.508949 0.519982 0.488258
0.518196 0.527855 0.496132
0.527428 0.535714 0.50399
0.53669 0.543587 0.511864
0.546197 0.55172 0.519997
0.555489 0.55964 0.527916
0.564752 0.567498 0.535775
0.573999 0.575372 0.543648
0.58323 0.58323 0.551507
0.592493 0.591104 0.55938
0.602045 0.599283 0.567559
0.611292 0.607156 0.575433
0.620539 0.61503 0.583307
0.629786 0.622889 0.591165
0.639033 0.630762 0.599039
0.6486 0.638941 0.607217
0.657847 0.646799 0.615076
0.667079 0.654673 0.62295
0.395956 0.429068 0.395956
0.405432 0.437171 0.404074
0.414679 0.445045 0.411948
0.423926 0.452903 0.419806
0.433173 0.460777 0.42768
0.44242 0.46865 0.435538
0.451804 0.476646 0.443534
0.461234 0.484688 0.451591
0.470481 0.492561 0.459464
0.479728 0.50042 0.467323
0.488975 0.508293 0.475196
0.498222 0.516167 0.48307
0.507774 0.524346 0.491234
0.517037 0.532204 0.499107
0.526284 0.540078 0.506981
0.535531 0.547951 0.514839
0.544778 0.55581 0.522713
0.554192 0.563867 0.530755
0.563577 0.571862 0.538766
0.572824 0.579736 0.546624
0.582071 0.587594 0.554498
0.591333 0.595468 0.562356
0.60058 0.603326 0.57023
0.610056 0.611429 0.578332
0.619379 0.619379 0.586282
0.628626 0.627253 0.594141
0.637873 0.635111 0.602014
0.64712 0.642985 0.609888
0.656367 0.650858 0.617746
0.665919 0.659007 0.62591
0.675181 0.666896 0.633799
0.684428 0.674769 0.641672
0.69366 0.682643 0.649531
0.422782 0.457267 0.422782
0.432013 0.465141 0.430655
0.44126 0.472999 0.438529
0.450507 0.480873 0.446387
0.4598 0.488777 0.454292
0.469322 0.496925 0.46244
0.478569 0.504784 0.470298
0.487816 0.512657 0.478172
0.497063 0.520516 0.486046
0.50631 0.528389 0.493904
0.515648 0.536355 0.501869
0.525109 0.544442 0.509957
0.534356 0.5523 0.517815
0.543618 0.560174 0.525689
0.552865 0.568048 0.533562
0.562112 0.575906 0.541421
0.571511 0.583932 0.549447
0.580911 0.591959 0.557473
0.590158 0.599817 0.565347
0.599405 0.607691 0.573205
0.608652 0.615549 0.581079
0.617914 0.623423 0.588937
0.627359 0.63151 0.597025
0.636713 0.639475 0.60499
0.64596 0.647334 0.612863
0.655207 0.655207 0.620722
0.664454 0.663081 0.628595
0.673701 0.670939 0.636469
0.683268 0.679118 0.644648
0.692515 0.686992 0.652506
0.701762 0.694865 0.66038
0.711009 0.702724 0.668254
0.720241 0.710597 0.676112
0.449363 0.485222 0.449363
0.458595 0.493095 0.457237
0.467842 0.500969 0.46511
0.477104 0.508843 0.472984
0.486656 0.517006 0.481147
0.495903 0.52488 0.489021
0.50515 0.532738 0.49688
0.514397 0.540612 0.504753
0.523644 0.548486 0.512627
0.532952 0.55642 0.520562
0.542443 0.564523 0.528664
0.55169 0.572396 0.536538
0.560937 0.58027 0.544396
0.570199 0.588129 0.55227
0.579446 0.596002 0.560143
0.588998 0.604181 0.568322
0.598245 0.612055 0.576181
0.607492 0.619913 0.584054
0.616739 0.627787 0.591928
0.625986 0.635645 0.599786
0.635355 0.643641 0.607782
0.6448 0.651698 0.615839
0.654047 0.659571 0.623713
0.663294 0.66743 0.631571
0.672541 0.675303 0.639445
0.681788 0.683177 0.647318
0.691218 0.691218 0.65536
0.700603 0.699214 0.663355
0.70985 0.707088 0.671229
0.719097 0.714946 0.679088
0.728344 0.72282 0.686961
0.737591 0.730694 0.694835
0.747051 0.738796 0.702937
0.475944 0.513191 0.475944
0.485176 0.52105 0.483818
0.494728 0.529229 0.491981
0.503975 0.537102 0.49987
0.513237 0.544976 0.507729
0.522484 0.552834 0.515602
0.531731 0.560708 0.523461
0.540978 0.568582 0.531334
0.55053 0.576761 0.539513
