public/LUTS/Black&White/Black&White_02.cube
TITLE "Generated by Resolve"
LUT_3D_SIZE 9
0.288212 0.288212 0.288212
0.309606 0.306386 0.306386
0.331197 0.324773 0.324773
0.352941 0.343297 0.343297
0.374716 0.361837 0.361837
0.396475 0.380377 0.380377
0.418067 0.398749 0.398749
0.439826 0.417288 0.417288
0.461585 0.435828 0.435828
0.350057 0.353277 0.350057
0.371817 0.371817 0.368612
0.393393 0.390173 0.386969
0.415167 0.408728 0.405509
0.436927 0.427268 0.424063
0.458518 0.445624 0.44242
0.480278 0.464179 0.46096
0.502037 0.482719 0.4795
0.523796 0.501259 0.498054
0.412284 0.418708 0.412284
0.434028 0.437247 0.430823
0.455619 0.455619 0.449195
0.477378 0.474159 0.467735
0.499153 0.492699 0.486275
0.520729 0.51107 0.504631
0.542489 0.52961 0.523186
0.564263 0.54815 0.541726
0.585962 0.566644 0.56022
0.474495 0.484154 0.474495
0.496193 0.502632 0.492988
0.51783 0.52105 0.511406
0.539605 0.539605 0.529946
0.561364 0.558145 0.548486
0.58294 0.576501 0.566857
0.604715 0.595041 0.585397
0.626474 0.613596 0.603937
0.648051 0.631952 0.622309
0.536721 0.549584 0.536721
0.558282 0.567956 0.555077
0.580056 0.586496 0.573617
0.601816 0.605035 0.592172
0.623484 0.623484 0.61062
0.645167 0.641947 0.629068
0.666926 0.660487 0.647608
0.68867 0.678996 0.666133
0.710262 0.697398 0.68452
0.598886 0.614984 0.598886
0.620508 0.633387 0.617288
0.642267 0.651926 0.635843
0.664027 0.670481 0.654383
0.685618 0.688838 0.67274
0.707378 0.707378 0.691279
0.729152 0.725917 0.709834
0.750774 0.744335 0.728252
0.772488 0.762829 0.746746
0.661006 0.680323 0.661006
0.682719 0.698833 0.679515
0.704479 0.717372 0.698054
0.726253 0.735912 0.716594
0.747829 0.754269 0.734966
0.769589 0.772824 0.753506
0.791363 0.791363 0.772045
0.81294 0.80972 0.790417
0.834699 0.828275 0.808957
0.723186 0.745724 0.723186
0.74493 0.764263 0.741726
0.766705 0.782803 0.760281
0.788296 0.801175 0.778637
0.810056 0.819715 0.797177
0.831815 0.838254 0.815717
0.853574 0.856794 0.834272
0.875166 0.875166 0.852628
0.89691 0.893706 0.871168
0.785412 0.811154 0.785412
0.807157 0.829694 0.803952
0.828931 0.848249 0.822507
0.850507 0.866606 0.840864
0.872282 0.885145 0.859403
0.894041 0.903685 0.877943
0.915785 0.92221 0.896468
0.937392 0.940597 0.914855
0.959136 0.959136 0.933394
0.294148 0.294148 0.297353
0.315892 0.312688 0.315892
0.337484 0.33106 0.334264
0.359243 0.349599 0.352804
0.381018 0.368139 0.371344
0.402625 0.386542 0.389746
0.424353 0.405051 0.408255
0.446128 0.42359 0.426795
0.467796 0.442054 0.445258
0.356359 0.359579 0.359579
0.378027 0.378027 0.378027
0.399695 0.396475 0.396475
0.421469 0.41503 0.41503
0.443229 0.43357 0.43357
0.46482 0.451926 0.451926
0.48658 0.470466 0.470466
0.508339 0.489021 0.489021
0.529915 0.507393 0.507393
0.418585 0.42501 0.42179
0.440162 0.443381 0.440162
0.461921 0.461921 0.458701
0.48368 0.480461 0.477241
0.50544 0.499001 0.495781
0.527031 0.517372 0.514153
0.548791 0.535912 0.532692
0.570565 0.554452 0.551232
0.592126 0.572824 0.569604
0.480797 0.490455 0.484001
0.502373 0.508812 0.502373
0.524132 0.527352 0.520912
0.545907 0.545907 0.539452
0.567483 0.564263 0.557824
0.589242 0.582803 0.576364
0.611017 0.601343 0.594903
0.632776 0.619898 0.613443
0.654353 0.638254 0.631815
0.543023 0.555886 0.546227
0.564584 0.574258 0.564584
0.586358 0.592798 0.583124
0.608118 0.611337 0.601678
0.629694 0.629694 0.620035
0.651469 0.648249 0.638575
0.673228 0.666789 0.65713
0.694926 0.685252 0.675593
0.716564 0.7037 0.694026
0.605142 0.621241 0.608362
0.62681 0.639689 0.62681
0.648569 0.658228 0.64535
0.670314 0.676753 0.663874
0.69192 0.69514 0.682246
0.71368 0.71368 0.700801
0.735454 0.732219 0.719341
0.757031 0.750591 0.737697
0.77879 0.769131 0.756252
0.667277 0.68658 0.670481
0.689021 0.705135 0.689021
0.710781 0.723674 0.707561
0.732433 0.742092 0.725994
0.754131 0.760571 0.744472
0.775906 0.779126 0.763012
0.797604 0.797604 0.781506
0.819242 0.816022 0.799924
0.841001 0.834577 0.818463
0.729488 0.752026 0.732692
0.751232 0.770565 0.751232
0.773007 0.789105 0.769787
0.794583 0.807477 0.788144
0.816342 0.826017 0.806683
0.838117 0.844556 0.825238
0.859724 0.862943 0.843626
0.881468 0.881468 0.862135
0.903212 0.900008 0.88069
0.791714 0.817456 0.794919
0.813458 0.835996 0.813458
0.835233 0.854536 0.832013
0.856809 0.872908 0.85037
0.878569 0.891447 0.86891
0.900343 0.909987 0.887449
0.92192 0.928359 0.905821
0.943694 0.946899 0.924361
0.965438 0.965438 0.942916
0.30045 0.30045 0.306874
0.322164 0.318959 0.325383
0.343786 0.337362 0.343786
0.365545 0.355901 0.362325
0.38732 0.374441 0.380865
0.408896 0.392798 0.399237
0.430655 0.411353 0.417777
0.45243 0.429892 0.436316
0.474052 0.44831 0.454734
0.362661 0.365881 0.3691
0.384283 0.384283 0.387503
0.405997 0.402777 0.405997
0.427771 0.421332 0.424552
0.44947 0.439796 0.443015
0.471122 0.458228 0.461448
0.492882 0.476768 0.479988
0.514641 0.495323 0.498543
0.536217 0.51368 0.516899
0.424887 0.431312 0.431312
0.446448 0.449668 0.449668
0.468223 0.468223 0.468223
0.489982 0.486763 0.486763
0.511589 0.505135 0.505135
0.533333 0.523674 0.523674
0.555093 0.542214 0.542214
0.576761 0.560662 0.560662
0.598428 0.579126 0.579126
0.486992 0.496635 0.493416
0.508675 0.515114 0.511894
0.530434 0.533654 0.530434
0.552209 0.552209 0.548974
0.573785 0.570565 0.567346
0.595544 0.589105 0.585885
0.617319 0.607645 0.604425
0.638895 0.626017 0.622797
0.660655 0.644556 0.641337
0.549142 0.562005 0.555566
0.570886 0.580545 0.574105
0.592645 0.5991 0.592645
0.61442 0.617639 0.6112
0.635996 0.635996 0.629557
0.657771 0.654551 0.648096
0.67953 0.673091 0.666651
0.701106 0.691447 0.685008
0.722866 0.710002 0.703548
0.611353 0.627451 0.617777
0.633112 0.645991 0.636332
0.654871 0.66453 0.654871
0.676448 0.682902 0.673228
0.698222 0.701442 0.691768
0.719982 0.719982 0.710323
0.741741 0.738521 0.728862
0.763333 0.756893 0.747219
0.785092 0.775433 0.765774
0.673564 0.692882 0.680003
0.695323 0.711421 0.698543
0.717083 0.729976 0.717083
0.738674 0.748333 0.735454
0.760433 0.766873 0.753994
0.782193 0.785428 0.772534
0.803861 0.803861 0.790982
0.825544 0.822324 0.809445
0.847303 0.840879 0.827985
0.73579 0.758328 0.742214
0.757534 0.776867 0.760754
0.779263 0.795361 0.779263
0.800885 0.813779 0.797665
0.822644 0.832319 0.816205
0.844419 0.850858 0.83476
0.865995 0.869215 0.853117
0.88777 0.88777 0.871656
0.909514 0.90631 0.890211
0.798016 0.823758 0.80444
0.81976 0.842298 0.82298
0.841382 0.8607 0.841382
0.863111 0.87921 0.859892
0.884871 0.897749 0.878431
0.906569 0.916213 0.89691
0.928222 0.934661 0.915343
0.949996 0.953201 0.933883
0.97174 0.97174 0.952438
0.306752 0.306752 0.316396
0.328313 0.325109 0.334768
0.350088 0.343664 0.353307
0.371847 0.362203 0.371847
0.393606 0.380728 0.390387
0.415198 0.3991 0.408759
0.436957 0.417655 0.427298
0.458732 0.436194 0.445838
0.480293 0.454551 0.46421
0.368963 0.372183 0.378622
0.390539 0.390539 0.396979
0.412299 0.409079 0.415518
0.434073 0.427619 0.434073
0.45565 0.445991 0.45243
0.477409 0.46453 0.47097
0.499184 0.48307 0.489509
0.520897 0.501579 0.508019
0.542519 0.519982 0.526421
0.431128 0.437552 0.440787
0.45275 0.45597 0.45919
0.474525 0.474525 0.477745
0.496284 0.493065 0.496284
0.517861 0.511421 0.514641
0.539635 0.529976 0.533196
0.561395 0.548516 0.551736
0.583017 0.566918 0.570138
0.60473 0.585412 0.588647
0.493248 0.502892 0.502892
0.514977 0.521416 0.521416
0.536736 0.539956 0.539956
0.558419 0.558419 0.558419
0.580087 0.576867 0.576867
0.601846 0.595407 0.595407
0.623606 0.613947 0.613947
0.645197 0.632319 0.632319
0.666957 0.650858 0.650858
0.555444 0.568307 0.565087
0.577188 0.586847 0.583627
0.598947 0.605402 0.602182
0.620539 0.623758 0.620539
0.642298 0.642298 0.639078
0.664073 0.660853 0.657618
0.68571 0.679271 0.676051
0.707408 0.697749 0.69453
0.729168 0.716289 0.713069
0.617655 0.633753 0.627298
0.639399 0.652293 0.645853
0.661173 0.670832 0.664393
0.68275 0.689204 0.68275
0.704524 0.707744 0.701289
0.726284 0.726284 0.719844
0.74786 0.74464 0.738201
0.769635 0.763195 0.756741
0.791394 0.781735 0.775296
0.679866 0.699184 0.689525
0.701625 0.717723 0.708064
0.723384 0.736278 0.726604
0.744976 0.754635 0.744976
0.766735 0.773175 0.763516
0.788495 0.79173 0.782055
0.810086 0.810086 0.800412
0.831846 0.828626 0.818967
0.853605 0.847181 0.837507
0.742092 0.76463 0.751736
0.763836 0.783169 0.770275
0.785428 0.801526 0.788647
0.807187 0.820081 0.807187
0.828946 0.838621 0.825727
0.850706 0.857145 0.844251
0.872297 0.875517 0.862638
0.894072 0.894072 0.881178
0.915816 0.912612 0.899733
0.804318 0.83006 0.813962
0.826062 0.8486 0.832517
0.847654 0.866957 0.850874
0.869413 0.885512 0.869413
0.891173 0.904051 0.887953
0.912825 0.922469 0.906386
0.934524 0.940948 0.924865
0.956298 0.959503 0.943404
0.977996 0.977996 0.961898
0.313054 0.313054 0.325917
0.334615 0.331411 0.344289
0.35639 0.34995 0.362829
0.378149 0.368505 0.381369
0.399741 0.386862 0.399741
0.4215 0.405402 0.41828
0.443259 0.423957 0.43682
0.464851 0.442313 0.455192
0.486595 0.460853 0.473732
0.375082 0.378286 0.387961
0.396841 0.396841 0.4065
0.418601 0.415381 0.42504
0.44036 0.433921 0.443595
0.461952 0.452293 0.461952
0.483711 0.470832 0.480491
0.505486 0.489372 0.499031
0.527062 0.507744 0.517403
0.548821 0.526284 0.535943
0.437308 0.443732 0.450172
0.459052 0.462272 0.468711
0.480827 0.480827 0.487266
0.502556 0.499336 0.505776
0.524163 0.517723 0.524163
0.545937 0.536278 0.542718
0.567697 0.554818 0.561257
0.589288 0.573175 0.579614
0.611032 0.591714 0.598169
0.499519 0.509178 0.512398
0.521279 0.527718 0.530938
0.543038 0.546258 0.549477
0.564614 0.564614 0.567834
0.586389 0.583169 0.586389
0.608148 0.601709 0.604929
0.629847 0.620188 0.623407
0.651499 0.638621 0.64184
0.673259 0.65716 0.66038
0.561746 0.574609 0.574609
0.58349 0.593149 0.593149
0.605249 0.611688 0.611688
0.626841 0.63006 0.63006
0.6486 0.6486 0.6486
0.670375 0.66714 0.66714
0.691966 0.685527 0.685527
0.71371 0.704051 0.704051
0.73547 0.722591 0.722591
0.623957 0.640055 0.63682
0.645701 0.658595 0.655375
0.667353 0.677028 0.673808
0.689052 0.695491 0.692271
0.710826 0.714046 0.710826
0.732586 0.732586 0.729366
0.754162 0.750942 0.747723
0.775937 0.769497 0.766262
0.797681 0.788037 0.784817
0.686168 0.705486 0.699046
0.707927 0.724025 0.717586
0.729503 0.742397 0.735943
0.751278 0.760937 0.754498
0.773037 0.779477 0.773037
0.794659 0.797879 0.79144
0.816388 0.816388 0.809949
0.838148 0.834928 0.828489
0.859907 0.853468 0.847028
0.748394 0.770932 0.761257
0.770138 0.789471 0.779797
0.79173 0.807828 0.798169
0.813489 0.826368 0.816709
0.835248 0.844923 0.835248
0.85684 0.863279 0.85362
0.878599 0.881819 0.87216
0.900374 0.900374 0.8907
0.922118 0.918914 0.909255
0.81062 0.836362 0.823484
0.832364 0.854887 0.842023
0.853956 0.873259 0.860395
0.875715 0.891814 0.878935
0.897475 0.910353 0.897475
0.919066 0.92871 0.915846
0.940826 0.94725 0.934386
0.9626 0.965805 0.952926
0.984161 0.984161 0.971298
0.319219 0.319219 0.335317
0.340917 0.337713 0.353811
0.362692 0.356252 0.372351
0.38439 0.374731 0.390829
0.406027 0.393164 0.409262
0.427802 0.411704 0.427802
0.449561 0.430243 0.446342
0.471153 0.448615 0.464698
0.492897 0.467155 0.483253
0.381384 0.384588 0.397482
0.403143 0.403143 0.416022
0.424903 0.421683 0.434562
0.44651 0.44007 0.452949
0.468254 0.458595 0.471473
0.490013 0.477134 0.490013
0.511788 0.495674 0.508568
0.533364 0.514046 0.526925
0.555123 0.532586 0.545464
0.44361 0.450034 0.459693
0.465354 0.468574 0.478248
0.487129 0.487129 0.496788
0.508705 0.505486 0.515145
0.530465 0.524025 0.533684
0.552239 0.542565 0.552239
0.573816 0.560937 0.570596
0.59559 0.579477 0.589136
0.617334 0.598016 0.607691
0.505821 0.515465 0.52192
0.527581 0.53402 0.540459
0.54934 0.55256 0.558999
0.570916 0.570916 0.577356
0.592691 0.589471 0.595911
0.61445 0.608011 0.61445
0.636027 0.626368 0.632807
0.657801 0.644923 0.651362
0.679545 0.663462 0.669902
0.568032 0.580911 0.584131
0.589792 0.599451 0.60267
0.611505 0.617945 0.621164
0.633143 0.636362 0.639582
0.654902 0.654902 0.658122
0.676661 0.673442 0.676661
0.698253 0.691814 0.695033
0.720012 0.710353 0.713573
0.741772 0.728893 0.732113
0.630259 0.646342 0.646342
0.652003 0.664897 0.664897
0.673594 0.683253 0.683253
0.695354 0.701793 0.701793
0.717113 0.720348 0.720348
0.738796 0.738796 0.738796
0.760464 0.757244 0.757244
0.782238 0.775799 0.775799
0.803967 0.794308 0.794308
0.69247 0.711788 0.708568
0.714183 0.730297 0.727077
0.735805 0.748699 0.74548
0.757565 0.767239 0.764019
0.779339 0.785779 0.782559
0.800916 0.80415 0.800916
0.82269 0.82269 0.819471
0.84445 0.84123 0.83801
0.866087 0.859648 0.856428
0.754696 0.777234 0.770779
0.776303 0.795636 0.789197
0.798032 0.81413 0.807691
0.819791 0.83267 0.82623
0.84155 0.851225 0.84477
0.863142 0.869581 0.863142
0.884901 0.888121 0.881682
0.906661 0.906661 0.900221
0.928237 0.925032 0.918593
0.816922 0.842664 0.833005
0.838483 0.861021 0.851377
0.860258 0.879561 0.869917
0.882017 0.8981 0.888457
0.903609 0.916487 0.906828
0.925368 0.935012 0.925368
0.947127 0.953552 0.943908
0.968887 0.972107 0.962448
0.990463 0.990463 0.980819
0.325475 0.325475 0.344778
0.347219 0.344015 0.363333
0.368978 0.362554 0.381872
0.390646 0.381003 0.400305
0.412329 0.399466 0.418784
0.434104 0.418006 0.437324
0.455817 0.436515 0.455817
0.47744 0.454917 0.47422
0.499199 0.473457 0.492775
0.387686 0.39089 0.407004
0.409445 0.409445 0.425544
0.431205 0.427985 0.444099
0.452781 0.446342 0.462455
0.474556 0.464897 0.480995
0.496315 0.483436 0.499535
0.517952 0.501839 0.517952
0.539666 0.520333 0.536446
0.561425 0.538888 0.554986
0.449912 0.456336 0.469215
0.471656 0.474876 0.48777
0.493339 0.493339 0.506218
0.515007 0.511788 0.524666
0.536767 0.530327 0.543206
0.558541 0.548867 0.561761
0.580118 0.567239 0.580118
0.601877 0.585779 0.598657
0.623636 0.604318 0.617212
0.512123 0.521767 0.531441
0.533867 0.540322 0.549981
0.555459 0.558679 0.568338
0.577218 0.577218 0.586892
0.598993 0.595773 0.605432
0.620752 0.614313 0.623972
0.642329 0.63267 0.642329
0.664103 0.651209 0.660883
0.685847 0.669764 0.679423
0.574334 0.587213 0.593652
0.596094 0.605753 0.612192
0.61767 0.624125 0.630564
0.639445 0.642664 0.649104
0.661204 0.661204 0.667643
0.68278 0.679561 0.686015
0.704555 0.698116 0.704555
0.726314 0.716655 0.723095
0.748074 0.735195 0.74165
0.636561 0.652644 0.655863
0.658305 0.671199 0.674418
0.679896 0.689555 0.692775
0.701656 0.708095 0.711315
0.723415 0.72665 0.72987
0.745007 0.745007 0.748226
0.766766 0.763546 0.766766
0.78854 0.782086 0.785321
0.810224 0.800565 0.803784
0.698772 0.71809 0.71809
0.720455 0.736553 0.736553
0.742107 0.755001 0.755001
0.763867 0.773541 0.773541
0.785626 0.792065 0.792065
0.807218 0.810437 0.810437
0.828992 0.828992 0.828992
0.850752 0.847532 0.847532
0.872328 0.865888 0.865888
0.760983 0.78352 0.780301
0.782559 0.801892 0.798672
0.804334 0.820432 0.817212
0.826093 0.838972 0.835752
0.847745 0.857404 0.854185
0.869444 0.875883 0.872663
0.891203 0.894423 0.891203
0.912917 0.912917 0.909697
0.934539 0.931334 0.928115
0.823163 0.848905 0.842466
0.844785 0.867323 0.860899
0.86656 0.885863 0.879438
0.888319 0.904402 0.897978
0.909895 0.922774 0.91635
0.93167 0.941314 0.93489
0.953429 0.959854 0.953429
0.975052 0.978256 0.971832
0.996765 0.996765 0.990341
0.331777 0.331777 0.354299
0.353521 0.350317 0.372854
0.37528 0.368856 0.391394
0.396872 0.387228 0.409751
0.418631 0.405768 0.428305
0.440406 0.424308 0.446845
0.461982 0.442664 0.465202
0.483742 0.461219 0.483742
0.505501 0.479759 0.502297
0.393988 0.397192 0.416526
0.415747 0.415747 0.435065
0.437476 0.434256 0.45359
0.459083 0.452644 0.471977
0.480858 0.471199 0.490517
0.502617 0.489738 0.509056
0.524208 0.508095 0.527428
0.545968 0.526635 0.545968
0.567727 0.54519 0.564508
0.456199 0.462638 0.478737
0.477958 0.481178 0.497292
0.499596 0.499596 0.515709
0.521309 0.51809 0.534188
0.543069 0.536629 0.552743
0.564767 0.555108 0.571221
0.586419 0.573541 0.589639
0.608179 0.592081 0.608179
0.629938 0.61062 0.626734
0.518425 0.528069 0.540963
0.540169 0.546624 0.559503
0.561761 0.564981 0.577859
0.58352 0.58352 0.596414
0.605295 0.602075 0.614954
0.626886 0.620447 0.633341
0.64863 0.638972 0.65185
0.670405 0.657511 0.670405
0.692058 0.675975 0.688853
0.580636 0.593515 0.603174
0.602289 0.611948 0.621622
0.623972 0.630411 0.640085
0.645747 0.648966 0.658625
0.667506 0.667506 0.677165
0.689082 0.685863 0.695537
0.710857 0.704417 0.714076
0.732616 0.722957 0.732616
0.754192 0.741314 0.750988
0.642863 0.658946 0.665385
0.664424 0.677317 0.683757
0.686198 0.695857 0.702296
0.707958 0.714397 0.720836
0.729717 0.732952 0.739391
0.751308 0.751308 0.757748
0.773068 0.769848 0.776287
0.794827 0.788388 0.794827
0.816403 0.80676 0.813199
0.705074 0.724392 0.727611
0.72665 0.742748 0.745968
0.748409 0.761303 0.764523
0.770169 0.779843 0.783062
0.79176 0.798199 0.801419
0.813519 0.816739 0.819959
0.835294 0.835294 0.838514
0.857053 0.853834 0.857053
0.87863 0.87219 0.87541
0.767285 0.789822 0.789822
0.788861 0.808194 0.808194
0.81062 0.826734 0.826734
0.832395 0.845273 0.845273
0.853971 0.863645 0.863645
0.875746 0.882185 0.882185
0.897505 0.900725 0.900725
0.919173 0.919173 0.919173
0.940841 0.937636 0.937636
0.829419 0.855161 0.851957
0.851087 0.873625 0.87042
0.872847 0.892164 0.88896
0.894575 0.910674 0.907469
0.916197 0.929076 0.925872
0.937972 0.947616 0.944411
0.959731 0.966155 0.962951
0.981308 0.984527 0.981308
1 1 0.999863
0.338079 0.338079 0.363821
0.359823 0.356619 0.382361
0.38143 0.375006 0.400748
0.403174 0.39353 0.419272
0.424933 0.41207 0.437812
0.446708 0.43061 0.456352
0.468284 0.448966 0.474708
0.490043 0.467521 0.493263
0.511803 0.486061 0.511803
0.40029 0.403494 0.426032
0.422049 0.422049 0.444572
0.443626 0.440406 0.462943
0.465385 0.458946 0.481483
0.48716 0.477485 0.500023
0.508919 0.496025 0.518563
0.53051 0.514397 0.536934
0.55227 0.532937 0.555474
0.574029 0.551492 0.574029
0.462501 0.46894 0.488258
0.48426 0.48748 0.506798
0.505837 0.505837 0.525154
0.527611 0.524392 0.543694
0.549371 0.542931 0.562249
0.570962 0.561288 0.580606
0.592721 0.579843 0.599145
0.614481 0.598383 0.6177
0.636194 0.616892 0.636194
0.524727 0.534371 0.550469
0.546426 0.552865 0.568963
0.568063 0.571283 0.587381
0.589822 0.589822 0.60592
0.611597 0.608377 0.62446
0.633173 0.626734 0.642817
0.654932 0.645274 0.661372
0.676707 0.663813 0.679911
0.698314 0.682231 0.698314
0.586938 0.599817 0.61268
0.608545 0.618204 0.631083
0.630274 0.636713 0.649592
0.652049 0.655268 0.668132
0.673732 0.673732 0.686595
0.695384 0.692164 0.705043
0.717159 0.710719 0.723583
0.738918 0.729259 0.742123
0.760494 0.747616 0.760494
0.649165 0.665248 0.674907
0.670726 0.683619 0.693263
0.6925 0.702159 0.711803
0.71426 0.720699 0.730358
0.735851 0.739071 0.748714
0.75761 0.75761 0.767254
0.77937 0.77615 0.785809
0.801022 0.794583 0.804227
0.822705 0.813062 0.822705
0.711254 0.730556 0.736996
0.732952 0.74905 0.755489
0.754711 0.76759 0.774029
0.776471 0.786145 0.792569
0.798062 0.804501 0.810925
0.819821 0.823041 0.82948
0.841596 0.841596 0.84802
0.863172 0.859953 0.866377
0.884932 0.878492 0.884932
0.773419 0.795941 0.799161
0.795163 0.814496 0.8177
0.816922 0.833036 0.83624
0.838697 0.851575 0.85478
0.860273 0.869947 0.873152
0.882048 0.888487 0.891691
0.903807 0.907027 0.910231
0.925383 0.925383 0.928603
0.947143 0.943938 0.947143
0.835645 0.861387 0.861387
0.857389 0.879927 0.879927
0.879149 0.898466 0.898466
0.90074 0.916823 0.916823
0.922499 0.935378 0.935378
0.944274 0.953918 0.953918
0.966018 0.972442 0.972442
0.98761 0.990829 0.990829
1 1 1
