public/LUTS/Black&White/Black&White_06.cube
TITLE "Generated by Resolve"
LUT_3D_SIZE 33
0 0 0
0 0 0
0 0 0
0 0 0
0 0 0
0 0 0
0 0 0
0 0 0
0 0 0
0 0 0
0 0 0
0 0 0
0 0 0
0 0 0
0 0 0
0 0 0
0 0 0
0.0059205 0 0
0.0144198 0 0
0.0229038 0 0
0.031693 0.00636301 0.00636301
0.040177 0.0135805 0.0135805
0.0486763 0.0208133 0.0208133
0.0571603 0.0280308 0.0280308
0.0656596 0.0352636 0.0352636
0.0742657 0.0426032 0.0426032
0.0829175 0.0499886 0.0499886
0.0914168 0.0572213 0.0572213
0.0999008 0.0644388 0.0644388
0.1084 0.0716716 0.0716716
0.116899 0.0788891 0.0788891
0.125551 0.0862898 0.0862898
0.134142 0.0936294 0.0936294
0 0 0
0 0 0
0 0 0
0 0 0
0 0 0
0 0 0
0 0 0
0 0 0
0 0 0
0 0 0
0 0 0
0 0 0
0 0 0
0 0 0
0.00486763 0 0
0.0133516 0 0
0.0218509 0.00283818 0.00158694
0.0303349 0.0100557 0.00880446
0.03888 0.0173342 0.016083
0.0476081 0.0247959 0.0235447
0.0560922 0.0320134 0.0307774
0.0645914 0.0392462 0.037995
0.0730907 0.0464637 0.0452277
0.0815747 0.0536812 0.0524453
0.0901656 0.0610208 0.0597696
0.0988327 0.0684215 0.0671702
0.107332 0.0756542 0.074403
0.115816 0.0828717 0.0816358
0.124315 0.0900893 0.0888533
0.132815 0.097322 0.0960708
0.141451 0.104692 0.103456
0.150072 0.112047 0.110811
0.158556 0.11928 0.118044
0 0 0
0 0 0
0 0 0
0 0 0
0 0 0
0 0 0
0 0 0
0 0 0
0 0 0
0 0 0
0 0 0
0.00350958 0 0
0.0122835 0 0
0.0207828 0.00683604 0.0043183
0.0292668 0.0140536 0.0115511
0.0377661 0.0212863 0.0187686
0.0462501 0.0285039 0.0260014
0.0547646 0.0357519 0.0332494
0.0635233 0.0432441 0.0407263
0.0720073 0.0504616 0.0479591
0.0805066 0.0576944 0.0551766
0.0890059 0.0649119 0.0624094
0.0974899 0.0721447 0.0696269
0.106264 0.0796521 0.0771344
0.114763 0.0868696 0.0843671
0.123247 0.0941024 0.0915847
0.131731 0.10132 0.0988174
0.14023 0.108553 0.106035
0.148791 0.115846 0.113329
0.157504 0.123278 0.120775
0.166003 0.13051 0.127993
0.174487 0.137728 0.13521
0.182956 0.144961 0.142443
0 0 0
0 0 0
0 0 0
0 0 0
0 0 0
0 0 0
0 0 0
0 0 0
0.00244144 0 0
0.0109255 0.00332647 0
0.0196536 0.0107881 0.00700389
0.0281987 0.0180514 0.0142824
0.0366979 0.0252842 0.0215
0.0451972 0.0325017 0.0287327
0.0536812 0.0397345 0.0359503
0.0621653 0.046952 0.043183
0.0709544 0.0544747 0.0506905
0.0794385 0.0616922 0.057908
0.0879225 0.0689097 0.0651408
0.0964218 0.0761425 0.0723735
0.104906 0.08336 0.0795911
0.113405 0.0905928 0.0868086
0.122179 0.0981003 0.0943313
0.130678 0.105318 0.101549
0.139162 0.112551 0.108766
0.147662 0.119768 0.115999
0.156146 0.127001 0.123217
0.164691 0.134264 0.130495
0.173419 0.141726 0.137957
0.181918 0.148959 0.145174
0.190402 0.156176 0.152407
0.198886 0.163409 0.159625
0.20737 0.170626 0.166857
0 0 0
0 0 0
0 0 0
0 0 0
0 0 0
0.00137331 0.000106813 0
0.00985733 0.00732433 0.00227359
0.0183566 0.0145571 0.00950637
0.0268406 0.0217746 0.0167239
0.0355535 0.0292058 0.0241703
0.0441138 0.0365148 0.0314641
0.0525978 0.0437324 0.0386816
0.0610971 0.0509651 0.0459144
0.0695964 0.0581826 0.0531319
0.0780804 0.0654002 0.0603647
0.0868391 0.0728923 0.0678416
0.0953536 0.0801404 0.0750896
0.103838 0.0873732 0.0823224
0.112337 0.0945907 0.0895399
0.120821 0.101823 0.0967727
0.12932 0.109041 0.10399
0.138094 0.116548 0.111498
0.146593 0.123781 0.11873
0.155077 0.130999 0.125948
0.163577 0.138231 0.133181
0.172061 0.145449 0.140398
0.180835 0.152956 0.147906
0.189334 0.160189 0.155138
0.197818 0.167407 0.162356
0.206317 0.174624 0.169589
0.214817 0.181857 0.176806
0.223316 0.18909 0.184054
0.232059 0.196597 0.191546
0 0 0
0 0 0
0.00015259 0.00395209 0
0.0087892 0.0113375 0.00500496
0.0172885 0.018555 0.0122377
0.0257877 0.0257877 0.0194553
0.0342718 0.0330053 0.026688
0.0427558 0.0402228 0.0339055
0.051545 0.0477455 0.0414282
0.060029 0.054963 0.0486458
0.068513 0.0621958 0.0558633
0.0770123 0.0694133 0.0630961
0.0854963 0.0766308 0.0703136
0.0941787 0.0840467 0.0777295
0.10277 0.091371 0.0850538
0.111269 0.0985885 0.0922713
0.119753 0.105821 0.0995041
0.128252 0.113039 0.106722
0.136736 0.120272 0.113954
0.145464 0.127733 0.121401
0.154009 0.134997 0.128679
0.162509 0.142229 0.135912
0.170993 0.149447 0.14313
0.179477 0.15668 0.150347
0.187976 0.163897 0.15758
0.19675 0.171405 0.165087
0.205234 0.178637 0.17232
0.213733 0.185855 0.179538
0.222232 0.193088 0.186755
0.230716 0.200305 0.193988
0.239216 0.207538 0.201205
0.24799 0.215045 0.208713
0.256458 0.222263 0.215946
0.00750744 0.0151064 0.00750744
0.0162203 0.0225528 0.0149691
0.0247044 0.0297856 0.0222019
0.0331884 0.0370031 0.0294194
0.0416876 0.0442359 0.0366369
0.0501869 0.0514534 0.0438697
0.0587778 0.0587778 0.051194
0.0674601 0.0661936 0.0586099
0.0759442 0.0734112 0.0658274
0.0844282 0.0806287 0.0730449
0.0929274 0.0878614 0.0802777
0.101411 0.095079 0.0874952
0.110063 0.102464 0.0948806
0.1187 0.109819 0.102235
0.127184 0.117037 0.109453
0.135668 0.124269 0.116686
0.144167 0.131487 0.123903
0.152651 0.13872 0.131136
0.161349 0.146151 0.138567
0.169924 0.15346 0.145876
0.178408 0.160678 0.153094
0.186908 0.167895 0.160311
0.195407 0.175128 0.167544
0.203891 0.182345 0.174762
0.212665 0.189853 0.182269
0.221164 0.197086 0.189502
0.229648 0.204303 0.196719
0.238148 0.211536 0.203952
0.246632 0.218753 0.21117
0.25539 0.22623 0.218647
0.263905 0.233494 0.22591
0.272389 0.240711 0.233127
0.280873 0.247944 0.24036
0.0321508 0.041001 0.0321508
0.0406195 0.0482338 0.0393835
0.0491188 0.0554513 0.0466011
0.0576028 0.0626841 0.0538338
0.0661021 0.0699016 0.0610513
0.0746777 0.0772106 0.0683604
0.0833753 0.0846418 0.0757916
0.0918593 0.0918593 0.0830091
0.100359 0.0990921 0.0902419
0.108843 0.10631 0.0974594
0.117342 0.113542 0.104692
0.126116 0.12105 0.1122
0.1346 0.128267 0.119417
0.143099 0.1355 0.12665
0.151583 0.142718 0.133867
0.160082 0.149935 0.141085
0.168704 0.157305 0.14844
0.17734 0.164675 0.155825
0.18584 0.171908 0.163058
0.194339 0.179126 0.170275
0.202823 0.186343 0.177493
0.211322 0.193576 0.184726
0.219989 0.200977 0.192126
0.22858 0.208301 0.199451
0.237079 0.215534 0.206683
0.245563 0.222751 0.213901
0.254063 0.229984 0.221134
0.262547 0.237201 0.228351
0.271275 0.244663 0.235813
0.27982 0.251942 0.243091
0.288319 0.259159 0.250309
0.296803 0.266392 0.257542
0.305287 0.273625 0.264775
0.0565652 0.0666819 0.0565652
0.0650339 0.0738994 0.0637827
0.073518 0.0811322 0.0710155
0.0820172 0.0883497 0.078233
0.0907912 0.0958572 0.0857404
0.0992905 0.10309 0.0929732
0.107774 0.110307 0.100191
0.116274 0.11754 0.107424
0.124758 0.124758 0.114641
0.133303 0.132036 0.12192
0.142031 0.139498 0.129381
0.150515 0.146715 0.136599
0.159014 0.153948 0.143832
0.167514 0.161166 0.151049
0.175998 0.168383 0.158267
0.184588 0.175723 0.165606
0.193271 0.183124 0.173007
0.201755 0.190356 0.18024
0.210254 0.197574 0.187457
0.218738 0.204807 0.19469
0.227237 0.212024 0.201907
0.235889 0.219409 0.209293
0.244511 0.226764 0.216648
0.252995 0.233982 0.223865
0.261479 0.241215 0.231098
0.269978 0.248432 0.238315
0.278462 0.25565 0.245533
0.287251 0.263172 0.253056
0.295735 0.27039 0.260273
0.304234 0.277607 0.267491
0.312718 0.28484 0.274723
0.321218 0.292058 0.281941
0.3299 0.299504 0.289372
0.0809644 0.0923476 0.0809644
0.0894331 0.0995804 0.0881971
0.0979324 0.106798 0.0954147
0.106706 0.114305 0.102922
0.115206 0.121538 0.110155
0.123705 0.128756 0.117372
0.132189 0.135988 0.124605
0.140673 0.143206 0.131823
0.149203 0.150469 0.139086
0.157946 0.157946 0.146563
0.16643 0.165164 0.15378
0.174929 0.172396 0.161013
0.183413 0.179614 0.168231
0.191913 0.186847 0.175463
0.200687 0.194354 0.182971
0.209186 0.201572 0.190188
0.21767 0.208804 0.197421
0.226169 0.216022 0.204639
0.234653 0.223255 0.211872
0.243229 0.230549 0.219165
0.251926 0.23798 0.226596
0.260426 0.245212 0.233829
0.26891 0.25243 0.241047
0.277409 0.259663 0.24828
0.285893 0.26688 0.255497
0.294514 0.274235 0.262852
0.303166 0.281621 0.270237
0.31165 0.288838 0.277455
0.32015 0.296071 0.284672
0.328634 0.303288 0.291905
0.337133 0.310521 0.299138
0.3458 0.317922 0.306538
0.354376 0.325246 0.313863
0.105379 0.118029 0.105379
0.114092 0.12549 0.11284
0.122621 0.132769 0.120119
0.131121 0.139986 0.127337
0.139605 0.147219 0.134569
0.148104 0.154437 0.141787
0.156588 0.161654 0.149004
0.165377 0.169177 0.156527
0.173861 0.176394 0.163745
0.182345 0.183612 0.170962
0.190845 0.190845 0.178195
0.199329 0.198062 0.185412
0.207828 0.205295 0.192645
0.216617 0.212802 0.200153
0.225101 0.22002 0.20737
0.233585 0.227253 0.214603
0.242084 0.23447 0.22182
0.250568 0.241703 0.229053
0.259113 0.248981 0.236332
0.267842 0.256443 0.243793
0.276341 0.263661 0.251011
0.284825 0.270878 0.258228
0.293324 0.278111 0.265461
0.301808 0.285328 0.272679
0.310414 0.292668 0.280018
0.319081 0.300069 0.287419
0.327565 0.307286 0.294636
0.336065 0.314519 0.301869
0.344549 0.321736 0.309087
0.353048 0.328969 0.31632
0.361822 0.336477 0.323827
0.370321 0.343694 0.331044
0.37879 0.350927 0.338277
0.130007 0.143923 0.130007
0.138537 0.151217 0.137301
0.147036 0.158434 0.144518
0.15552 0.165667 0.151751
0.164019 0.172885 0.158968
0.172519 0.180117 0.166201
0.181277 0.187594 0.173693
0.189776 0.194842 0.180926
0.198276 0.202075 0.188159
0.20676 0.209293 0.195377
0.215259 0.216526 0.202609
0.223743 0.223743 0.209827
0.232517 0.23125 0.217334
0.241016 0.238483 0.224567
0.2495 0.245701 0.231785
0.258 0.252918 0.239002
0.266499 0.260151 0.246235
0.275273 0.267659 0.253742
0.283757 0.274891 0.260975
0.292256 0.282109 0.268193
0.30074 0.289326 0.27541
0.309239 0.296559 0.282643
0.317754 0.303807 0.289891
0.326497 0.311284 0.297368
0.334997 0.318517 0.304601
0.343496 0.32575 0.311833
0.35198 0.332967 0.319051
0.360464 0.340185 0.326268
0.369039 0.347494 0.333577
0.377737 0.354925 0.341009
0.386236 0.362142 0.348226
0.39472 0.369375 0.355459
0.403204 0.376608 0.362692
0.154482 0.169665 0.154482
0.162951 0.176883 0.1617
0.171435 0.184115 0.168933
0.179919 0.191333 0.17615
0.188617 0.198749 0.183566
0.197208 0.206073 0.19089
0.205692 0.213291 0.198108
0.214191 0.220523 0.205341
0.222675 0.227741 0.212558
0.231159 0.234974 0.219776
0.239902 0.242435 0.227253
0.248432 0.249699 0.234516
0.256931 0.256931 0.241733
0.265431 0.264149 0.248966
0.273915 0.271382 0.256184
0.282399 0.278599 0.263416
0.291188 0.286107 0.270924
0.299672 0.293339 0.278141
0.308156 0.300557 0.285374
0.316655 0.30779 0.292607
0.325139 0.315007 0.299825
0.333639 0.32224 0.307042
0.342428 0.329747 0.314565
0.350912 0.336965 0.321782
0.359396 0.344198 0.329
0.367895 0.351415 0.336233
0.376379 0.358648 0.34345
0.384924 0.365927 0.350729
0.393652 0.373373 0.35819
0.402152 0.380606 0.365408
0.410636 0.387823 0.372641
0.41912 0.395041 0.379858
0.427604 0.402274 0.387091
0.178882 0.195331 0.178882
0.18735 0.202564 0.186099
0.19585 0.209796 0.193332
0.204501 0.217182 0.200717
0.213107 0.224521 0.208072
0.221607 0.231754 0.21529
0.230091 0.238972 0.222507
0.23859 0.246189 0.22974
0.247089 0.253422 0.236957
0.255787 0.260868 0.244404
0.264347 0.268162 0.251698
0.272831 0.27538 0.258915
0.281331 0.282597 0.266148
0.28983 0.28983 0.273365
0.298314 0.297047 0.280598
0.307088 0.304555 0.288106
0.315587 0.311788 0.295323
0.324071 0.319005 0.302556
0.33257 0.326238 0.309773
0.341054 0.333455 0.317006
0.349813 0.340948 0.324483
0.358328 0.348196 0.331731
0.366827 0.355413 0.338964
0.375311 0.362646 0.346181
0.38381 0.369863 0.353414
0.392294 0.377096 0.360632
0.401068 0.384604 0.368139
0.409567 0.391821 0.375372
0.418051 0.399054 0.382589
0.426551 0.406271 0.389822
0.43505 0.413504 0.39704
0.443549 0.420752 0.404288
0.452293 0.428244 0.41178
0.203281 0.221012 0.203281
0.211765 0.228244 0.210513
0.220539 0.235752 0.218021
0.229023 0.242969 0.225254
0.237522 0.250202 0.232471
0.246021 0.25742 0.239704
0.254505 0.264637 0.246921
0.263127 0.272007 0.254276
0.271778 0.279377 0.261662
0.280262 0.28661 0.268879
0.288762 0.293828 0.276112
0.297246 0.30106 0.28333
0.305745 0.308278 0.290547
0.314427 0.315694 0.297963
0.323003 0.323003 0.305287
0.331502 0.330236 0.312505
0.340002 0.337469 0.319738
0.348486 0.344686 0.326955
0.35697 0.351904 0.334188
0.365713 0.35938 0.34165
0.374243 0.366644 0.348913
0.382742 0.373861 0.356146
0.391226 0.381094 0.363363
0.399725 0.388312 0.370596
0.408209 0.395544 0.377813
0.416999 0.403052 0.385336
0.425483 0.410269 0.392554
0.433967 0.417502 0.399771
0.442466 0.42472 0.407004
0.450965 0.431952 0.414221
0.459449 0.43917 0.421454
0.468223 0.446677 0.428962
0.476707 0.45391 0.436194
0.227756 0.246754 0.227756
0.236454 0.2542 0.235203
0.244953 0.261418 0.242435
0.253437 0.26865 0.249653
0.261936 0.275868 0.256886
0.27042 0.283101 0.264103
0.279026 0.290425 0.271443
0.287694 0.297826 0.278843
0.296178 0.305058 0.286061
0.304677 0.312276 0.293294
0.313161 0.319509 0.300511
0.32166 0.326726 0.307744
0.330312 0.334112 0.315129
0.338933 0.341466 0.322469
0.347417 0.348684 0.329702
0.355917 0.355917 0.336919
0.364401 0.363134 0.344152
0.372885 0.370352 0.35137
0.381674 0.377874 0.358877
0.390158 0.385092 0.36611
0.398657 0.392325 0.373327
0.407156 0.399542 0.380545
0.415641 0.406775 0.387778
0.424338 0.414206 0.395209
0.432914 0.4215 0.402518
0.441398 0.428733 0.409735
0.449882 0.43595 0.416953
0.458381 0.443183 0.424186
0.46688 0.450401 0.431418
0.475624 0.457877 0.438895
0.484138 0.465141 0.446143
0.492638 0.472358 0.453361
0.501106 0.479591 0.460594
0.252384 0.272648 0.252384
0.260868 0.279866 0.259617
0.269352 0.287098 0.26685
0.277836 0.294316 0.274067
0.286336 0.301549 0.281285
0.295125 0.309056 0.288808
0.303609 0.316274 0.296025
0.312093 0.323507 0.303243
0.320592 0.330724 0.310475
0.329076 0.337957 0.317693
0.337652 0.345266 0.325002
0.346349 0.352697 0.332433
0.354849 0.359915 0.339651
0.363333 0.367132 0.346883
0.371832 0.374365 0.354101
0.380316 0.381582 0.361334
0.388952 0.388952 0.368688
0.397589 0.396323 0.376059
0.406073 0.40354 0.383291
0.414572 0.410773 0.390509
0.423056 0.41799 0.397742
0.431556 0.425223 0.404959
0.440238 0.432624 0.412375
0.448829 0.439948 0.419699
0.457313 0.447181 0.426917
0.465812 0.454398 0.43415
0.474296 0.461631 0.441367
0.48278 0.468849 0.4486
0.491524 0.47631 0.456062
0.500069 0.483589 0.463325
0.508553 0.490806 0.470558
0.517037 0.498024 0.477775
0.525521 0.505257 0.485008
0.276799 0.298314 0.276799
0.285267 0.305547 0.284031
0.293767 0.312779 0.291249
0.302266 0.319997 0.298482
0.311025 0.327504 0.305989
0.319524 0.334737 0.313207
0.328023 0.341955 0.320424
0.336507 0.349172 0.327657
0.345006 0.356405 0.33489
0.353552 0.363684 0.342168
0.362264 0.371145 0.349615
0.370764 0.378363 0.356847
0.379248 0.38558 0.364065
0.387747 0.392813 0.371283
0.396231 0.400031 0.378515
0.404837 0.40737 0.385855
0.413504 0.414771 0.393256
0.421988 0.421988 0.400473
0.430488 0.429221 0.407691
0.438972 0.436439 0.414923
0.447471 0.443671 0.422141
0.456245 0.451179 0.429648
0.464744 0.458396 0.436881
0.473228 0.465629 0.444099
0.481727 0.472847 0.451331
0.490211 0.480079 0.458549
0.498863 0.487465 0.465934
0.507485 0.494804 0.473289
0.515984 0.502037 0.480507
0.524468 0.509255 0.487739
0.532967 0.516487 0.494957
0.541451 0.523705 0.50219
0.550134 0.531151 0.509621
0.301213 0.323995 0.301213
0.309682 0.331228 0.308431
0.318166 0.338445 0.315663
0.32694 0.345953 0.323171
0.335439 0.353185 0.330388
0.343938 0.360403 0.337621
0.352422 0.36762 0.344839
0.360922 0.374853 0.352071
0.369696 0.382361 0.359579
0.37818 0.389593 0.366796
0.386679 0.396811 0.374029
0.395163 0.404044 0.381247
0.403662 0.411261 0.388464
0.412192 0.418509 0.395727
0.420935 0.425986 0.403204
0.429419 0.433219 0.410437
0.437919 0.440452 0.417655
0.446403 0.447669 0.424872
0.454887 0.454887 0.432105
0.463462 0.462196 0.439414
0.47216 0.469627 0.44683
0.480659 0.476844 0.454063
0.489158 0.484077 0.461295
0.497642 0.491295 0.468513
0.506127 0.498527 0.475731
0.514763 0.505882 0.483101
0.5234 0.513252 0.490471
0.531884 0.520485 0.497704
0.540383 0.527703 0.504921
0.548882 0.534936 0.512139
0.557366 0.542153 0.519371
0.566049 0.549569 0.526772
0.574624 0.556893 0.534112
0.325612 0.349676 0.325612
0.334325 0.357137 0.333089
0.34287 0.364401 0.340352
0.351354 0.371633 0.34757
0.359854 0.378851 0.354803
0.368338 0.386084 0.36202
0.376837 0.393301 0.369253
0.385611 0.400809 0.376761
0.39411 0.408042 0.383978
0.402594 0.415259 0.391211
0.411078 0.422492 0.398428
0.419577 0.429709 0.405661
0.428077 0.436942 0.412894
0.436851 0.44445 0.420386
0.445335 0.451667 0.427619
0.453834 0.4589 0.434836
0.462318 0.466117 0.442069
0.470802 0.473335 0.449287
0.479362 0.480629 0.456565
0.488075 0.488075 0.464027
0.496574 0.495293 0.471244
0.505074 0.502525 0.478477
0.513558 0.509758 0.485695
0.522042 0.516976 0.492912
0.530831 0.524483 0.500435
0.539315 0.531716 0.507652
0.547799 0.538933 0.514885
0.556298 0.546166 0.522103
0.564797 0.553384 0.529335
0.573388 0.560708 0.53666
0.582071 0.568124 0.54406
0.590555 0.575341 0.551278
0.599023 0.582574 0.558511
0.35024 0.37557 0.35024
0.35877 0.382864 0.357534
0.367269 0.390082 0.364752
0.375753 0.397299 0.371984
0.384253 0.404532 0.379202
0.392752 0.411749 0.386435
0.401526 0.419257 0.393942
0.41001 0.42649 0.40116
0.418509 0.433722 0.408392
0.426993 0.44094 0.41561
0.435492 0.448157 0.422843
0.444251 0.455665 0.430335
0.45275 0.462898 0.437568
0.46125 0.470115 0.4448
0.469749 0.477348 0.452018
0.478233 0.484565 0.459251
0.486732 0.491798 0.466468
0.495506 0.499306 0.473976
0.50399 0.506523 0.481209
0.512489 0.513756 0.488426
0.520974 0.520974 0.495644
0.529473 0.528206 0.502876
0.537987 0.535454 0.510124
0.546731 0.542931 0.517617
0.55523 0.550164 0.524834
0.563729 0.557382 0.532067
0.572213 0.564614 0.539284
0.580697 0.571832 0.546502
0.589273 0.579141 0.553811
0.597971 0.586572 0.561242
0.60647 0.59379 0.56846
0.614954 0.601007 0.575692
0.623438 0.60824 0.582925
0.374716 0.401312 0.374716
0.383185 0.40853 0.381933
0.391669 0.415763 0.389166
0.400168 0.42298 0.396384
0.40885 0.430396 0.4038
0.417441 0.43772 0.411124
0.425925 0.444938 0.418341
0.434424 0.452171 0.425574
0.442908 0.459388 0.432792
0.451392 0.466606 0.440009
0.460136 0.474083 0.447486
0.468666 0.481346 0.454749
0.477165 0.488579 0.461982
0.485664 0.495796 0.4692
0.494148 0.503029 0.476432
0.502632 0.510246 0.48365
0.511421 0.517754 0.491157
0.519905 0.524971 0.498375
0.528389 0.532204 0.505608
0.536889 0.539437 0.51284
0.545373 0.546654 0.520058
0.553887 0.553887 0.527291
0.562661 0.561395 0.534798
0.571145 0.568612 0.542016
0.579629 0.57583 0.549233
0.588129 0.583062 0.556466
0.596613 0.59028 0.563684
0.605386 0.597803 0.571206
0.613886 0.60502 0.578424
0.622385 0.612238 0.585641
0.630869 0.619471 0.592874
0.639368 0.626688 0.600092
0.647898 0.633982 0.60737
0.399115 0.426978 0.399115
0.407584 0.434211 0.406348
0.416083 0.441428 0.413565
0.424735 0.448829 0.420966
0.433356 0.456168 0.428305
0.44184 0.463386 0.435523
0.45034 0.470619 0.442756
0.458824 0.477836 0.449973
0.467323 0.485069 0.457206
0.476097 0.492576 0.464714
0.484581 0.499794 0.471931
0.49308 0.507027 0.479164
0.501564 0.514244 0.486381
0.510063 0.521477 0.493614
0.518776 0.528908 0.501045
0.527337 0.536202 0.508339
0.535821 0.543435 0.515572
0.544305 0.550652 0.522789
0.552804 0.557885 0.530022
0.561303 0.565103 0.53724
0.570062 0.572595 0.544732
0.578576 0.579843 0.55198
0.58706 0.58706 0.559197
0.595544 0.594278 0.566415
0.604044 0.601511 0.573648
0.612528 0.608743 0.58088
0.621302 0.616251 0.588388
0.629801 0.623468 0.595605
0.6383 0.630701 0.602838
0.646784 0.637919 0.610056
0.655283 0.645136 0.617273
0.663798 0.652399 0.624537
0.672526 0.659876 0.632013
0.423529 0.452659 0.423529
0.43209 0.459968 0.430838
0.440772 0.467399 0.43827
0.449256 0.474617 0.445487
0.457755 0.481834 0.452705
0.466255 0.489067 0.459937
0.474739 0.496284 0.467155
0.483375 0.503655 0.474525
0.492012 0.511025 0.481895
0.500496 0.518242 0.489113
0.508995 0.525475 0.496345
0.517479 0.532692 0.503563
0.525979 0.539925 0.510796
0.534661 0.547341 0.518212
0.543252 0.55465 0.525521
0.551736 0.561883 0.532753
0.560235 0.5691 0.539971
0.568719 0.576333 0.547204
0.577218 0.583551 0.554421
0.585946 0.591028 0.561898
0.594476 0.598291 0.569162
0.602975 0.605509 0.576379
0.611475 0.612741 0.583612
0.619959 0.619959 0.590829
0.628458 0.627192 0.598062
0.637232 0.634699 0.60557
0.645716 0.641917 0.612787
0.654215 0.649149 0.62002
0.662699 0.656367 0.627237
0.671199 0.663584 0.634455
0.679973 0.671107 0.641978
0.688457 0.678325 0.649195
0.696941 0.685557 0.656428
0.448005 0.478401 0.448005
0.456687 0.485847 0.455451
0.465187 0.493065 0.462669
0.473671 0.500282 0.469902
0.48217 0.507515 0.477119
0.490669 0.514733 0.484337
0.499275 0.522072 0.491691
0.507927 0.529473 0.499077
0.516426 0.536706 0.50631
0.52491 0.543923 0.513527
0.533394 0.551141 0.520745
0.541894 0.558373 0.527977
0.550668 0.565881 0.535485
0.559167 0.573098 0.542718
0.567666 0.580331 0.549935
0.57615 0.587549 0.557153
0.584634 0.594781 0.564385
0.593286 0.602167 0.571771
0.601907 0.609506 0.579126
0.610391 0.616739 0.586343
0.618891 0.623957 0.593561
0.62739 0.631189 0.600793
0.635874 0.638407 0.608011
0.644587 0.645853 0.615457
0.653147 0.653147 0.622751
0.661631 0.660365 0.629969
0.67013 0.667597 0.637201
0.678614 0.674815 0.644419
0.687114 0.682048 0.651652
0.695872 0.68954 0.659144
0.704387 0.696773 0.666377
0.712871 0.704005 0.673609
0.72134 0.711223 0.680827
0.472633 0.504295 0.472633
0.481102 0.511513 0.47985
0.489586 0.518746 0.487083
0.498085 0.525963 0.494301
0.506615 0.533227 0.501564
0.515358 0.540703 0.509041
0.523842 0.547921 0.516258
0.532341 0.555154 0.523491
0.540825 0.562371 0.530709
0.549325 0.569589 0.537942
0.5579 0.576913 0.545251
0.566583 0.584329 0.552666
0.575082 0.591546 0.559899
0.583581 0.598779 0.567117
0.592065 0.606012 0.57435
0.600549 0.61323 0.581567
0.609186 0.6206 0.588937
0.617823 0.627955 0.596307
0.626322 0.635187 0.603525
0.634806 0.64242 0.610758
0.643305 0.649638 0.617975
0.651789 0.656855 0.625193
0.660487 0.664271 0.632624
0.669062 0.671595 0.639933
0.677546 0.678813 0.647166
0.686046 0.686046 0.654383
0.69453 0.693263 0.661601
0.703029 0.700496 0.668833
0.711803 0.708003 0.676341
0.720302 0.715221 0.683558
0.728786 0.722454 0.690791
0.737285 0.729671 0.698024
0.745754 0.736904 0.705242
0.497032 0.529961 0.497032
0.505501 0.537194 0.504265
0.514 0.544411 0.511482
0.522499 0.551644 0.51873
0.531273 0.559152 0.526223
0.539773 0.566369 0.53344
0.548257 0.573602 0.540673
0.556741 0.580819 0.54789
0.56524 0.588052 0.555123
0.573785 0.595331 0.562402
0.582498 0.602777 0.569848
0.590997 0.61001 0.577081
0.599481 0.617227 0.584298
0.60798 0.62446 0.591531
0.61648 0.631678 0.598749
0.625254 0.639185 0.606256
0.633738 0.646418 0.613489
0.642237 0.653635 0.620706
0.650721 0.660868 0.627939
0.65922 0.668086 0.635157
0.667826 0.675425 0.642496
0.676493 0.682826 0.649897
0.684977 0.690044 0.657115
0.693462 0.697261 0.664347
0.701961 0.704494 0.671565
0.71046 0.711727 0.678798
0.719112 0.719112 0.686183
0.727718 0.726452 0.693523
0.736217 0.733684 0.700755
0.744701 0.740902 0.707973
0.753201 0.748119 0.715206
0.761685 0.755352 0.722423
0.770382 0.762798 0.72987
0.521447 0.555642 0.521447
0.529915 0.56286 0.528664
0.538689 0.570367 0.536171
0.547189 0.5776 0.543404
0.555673 0.584817 0.550622
0.564172 0.59205 0.557855
0.572656 0.599268 0.565072
0.581155 0.6065 0.572305
0.589929 0.614008 0.579812
