public/LUTS/Black&White/Black&White_02.cube
TITLE "Generated by Resolve"
LUT_3D_SIZE 33
0.288212 0.288212 0.288212
0.293233 0.292439 0.292439
0.298619 0.297032 0.297032
0.304204 0.301793 0.301793
0.309606 0.306386 0.306386
0.314992 0.310979 0.310979
0.320394 0.315572 0.315572
0.32578 0.320165 0.320165
0.331197 0.324773 0.324773
0.336751 0.329519 0.329519
0.342153 0.334112 0.334112
0.347555 0.338704 0.338704
0.352941 0.343297 0.343297
0.358343 0.34789 0.34789
0.36379 0.352529 0.352529
0.369314 0.357244 0.357244
0.374716 0.361837 0.361837
0.380102 0.36643 0.36643
0.385504 0.371023 0.371023
0.39089 0.375616 0.375616
0.396475 0.380377 0.380377
0.401877 0.38497 0.38497
0.407263 0.389563 0.389563
0.412665 0.394156 0.394156
0.418067 0.398749 0.398749
0.423529 0.403418 0.403418
0.429038 0.408103 0.408103
0.434424 0.412695 0.412695
0.439826 0.417288 0.417288
0.445228 0.421881 0.421881
0.450614 0.426474 0.426474
0.456123 0.431174 0.431174
0.461585 0.435828 0.435828
0.303349 0.304143 0.303349
0.308736 0.308736 0.307942
0.314321 0.313512 0.312718
0.319707 0.318105 0.317311
0.325109 0.322698 0.321904
0.33051 0.327291 0.326497
0.335897 0.331868 0.331075
0.341482 0.336645 0.335851
0.346868 0.341238 0.340444
0.35227 0.34583 0.345037
0.357671 0.350423 0.34963
0.363058 0.355001 0.354223
0.36846 0.359594 0.358801
0.374044 0.36437 0.363577
0.379431 0.368963 0.36817
0.384833 0.373556 0.372763
0.390219 0.378149 0.377356
0.395621 0.382727 0.381933
0.401038 0.38735 0.386557
0.406592 0.392096 0.391302
0.411978 0.396689 0.395895
0.41738 0.401282 0.400488
0.422782 0.405875 0.405081
0.428168 0.410452 0.409659
0.433631 0.415106 0.414313
0.439139 0.419821 0.419028
0.444541 0.424414 0.423621
0.449943 0.429007 0.428214
0.455329 0.433585 0.432792
0.460731 0.438178 0.437385
0.466224 0.442863 0.442084
0.471702 0.447547 0.446754
0.477089 0.45214 0.451347
0.319005 0.320592 0.319005
0.324437 0.325231 0.323644
0.329824 0.329824 0.328237
0.335225 0.334417 0.332815
0.340612 0.33901 0.337407
0.346014 0.343603 0.342
0.351583 0.348348 0.346761
0.356985 0.352956 0.35137
0.362387 0.357549 0.355947
0.367773 0.362142 0.36054
0.373175 0.366735 0.365133
0.378561 0.371328 0.369726
0.384146 0.376089 0.374502
0.389548 0.380682 0.379095
0.394934 0.385275 0.383673
0.400336 0.389868 0.388266
0.405737 0.394461 0.392859
0.411139 0.399054 0.397467
0.416709 0.403815 0.402228
0.422095 0.408408 0.406821
0.427497 0.413001 0.411399
0.432898 0.417594 0.415991
0.438285 0.422187 0.420584
0.44387 0.426947 0.425361
0.449256 0.43154 0.429953
0.454658 0.436133 0.434531
0.460044 0.440726 0.439124
0.465446 0.445319 0.443717
0.470893 0.449943 0.448356
0.476417 0.454673 0.453086
0.481819 0.459266 0.457679
0.487205 0.463859 0.462257
0.492592 0.468452 0.46685
0.334554 0.33695 0.334554
0.33994 0.341543 0.339147
0.345342 0.346136 0.34374
0.350729 0.350729 0.348333
0.35613 0.355322 0.352926
0.361715 0.360098 0.357687
0.367102 0.364675 0.36228
0.372503 0.369268 0.366873
0.37789 0.373861 0.371466
0.383291 0.378454 0.376059
0.38883 0.3832 0.380789
0.394263 0.387823 0.385412
0.399664 0.392401 0.390005
0.405051 0.396994 0.394598
0.410452 0.401587 0.399191
0.415839 0.40618 0.403784
0.421424 0.410956 0.408545
0.42681 0.415534 0.413138
0.432212 0.420127 0.417731
0.437613 0.42472 0.422324
0.443 0.429313 0.426917
0.448402 0.433906 0.43151
0.453986 0.438682 0.436271
0.459373 0.443259 0.440864
0.464775 0.447852 0.445457
0.470161 0.452445 0.45005
0.475563 0.457038 0.454643
0.48098 0.461662 0.459266
0.486534 0.466392 0.463996
0.491936 0.470985 0.468589
0.497322 0.475578 0.473182
0.502724 0.480171 0.477775
0.50811 0.484764 0.482368
0.350057 0.353277 0.350057
0.355444 0.35787 0.35465
0.360845 0.362463 0.359243
0.366339 0.367147 0.363943
0.371817 0.371817 0.368612
0.377218 0.37641 0.373205
0.382605 0.381003 0.377783
0.388006 0.385595 0.382376
0.393393 0.390173 0.386969
0.398932 0.394903 0.391699
0.404379 0.399542 0.396338
0.409766 0.404135 0.400916
0.415167 0.408728 0.405509
0.420569 0.413306 0.410101
0.425956 0.417899 0.414694
0.431525 0.42266 0.419455
0.436927 0.427268 0.424063
0.442329 0.431861 0.428641
0.447715 0.436454 0.433234
0.453117 0.441032 0.437827
0.458518 0.445624 0.44242
0.464088 0.450401 0.447196
0.46949 0.454994 0.451789
0.474876 0.459586 0.456367
0.480278 0.464179 0.46096
0.485664 0.468757 0.465553
0.491249 0.473533 0.470329
0.496651 0.478126 0.474922
0.502037 0.482719 0.4795
0.507439 0.487312 0.484092
0.51284 0.49189 0.488685
0.518242 0.496498 0.493294
0.523796 0.501259 0.498054
0.365576 0.369589 0.365576
0.370947 0.374182 0.370169
0.37644 0.378851 0.374838
0.381918 0.383536 0.379522
0.38732 0.388128 0.384115
0.392721 0.392721 0.388708
0.398123 0.397314 0.393301
0.40351 0.401907 0.397894
0.409094 0.406683 0.402655
0.414481 0.411261 0.407248
0.419883 0.415854 0.411841
0.425269 0.420447 0.416434
0.430671 0.42504 0.421027
0.436179 0.42974 0.425727
0.441642 0.434394 0.430381
0.447044 0.438987 0.434974
0.45243 0.44358 0.439567
0.457832 0.448173 0.44416
0.463233 0.452766 0.448753
0.468772 0.457496 0.453483
0.474205 0.462119 0.458106
0.479606 0.466712 0.462699
0.484993 0.471305 0.467292
0.490394 0.475898 0.471885
0.495781 0.480491 0.476478
0.501366 0.485252 0.481239
0.506752 0.489845 0.485832
0.512154 0.494438 0.490425
0.51754 0.499031 0.495018
0.522942 0.503624 0.499611
0.528344 0.508217 0.504189
0.533913 0.512978 0.508965
0.5393 0.517571 0.513558
0.381109 0.385931 0.381109
0.386648 0.390677 0.385855
0.392035 0.39527 0.390448
0.397436 0.399847 0.395041
0.402838 0.40444 0.399619
0.408225 0.409033 0.404211
0.413687 0.413687 0.408881
0.419196 0.418402 0.413581
0.424598 0.422995 0.418173
0.429999 0.427573 0.422766
0.435386 0.432166 0.427344
0.440787 0.436759 0.431937
0.446281 0.441459 0.436637
0.451759 0.446128 0.441306
0.45716 0.450706 0.445899
0.462547 0.455299 0.450477
0.467948 0.459892 0.45507
0.473335 0.464485 0.459663
0.478874 0.469215 0.464393
0.484321 0.473854 0.469032
0.489708 0.478431 0.473625
0.495109 0.483024 0.478202
0.500511 0.487617 0.482795
0.505898 0.49221 0.487388
0.511482 0.496986 0.492164
0.516869 0.501564 0.496757
0.522271 0.506157 0.50135
0.527657 0.51075 0.505928
0.533059 0.515343 0.510521
0.538613 0.520104 0.515282
0.54403 0.524712 0.51989
0.549432 0.52929 0.524483
0.554818 0.533883 0.529076
0.396765 0.402396 0.396765
0.402152 0.406989 0.401358
0.407553 0.411582 0.405951
0.41294 0.416175 0.410544
0.418341 0.420752 0.415137
0.423789 0.425406 0.419776
0.429313 0.430121 0.424491
0.434714 0.434714 0.429084
0.440116 0.439307 0.433677
0.445502 0.4439 0.43827
0.450904 0.448478 0.442863
0.456474 0.453254 0.447623
0.461875 0.457847 0.452216
0.467277 0.46244 0.456809
0.472663 0.467033 0.461402
0.478065 0.471611 0.465995
0.483543 0.476295 0.470665
0.489036 0.48098 0.475349
0.494423 0.485573 0.479942
0.499825 0.490166 0.484535
0.505226 0.494759 0.489128
0.510613 0.499336 0.493721
0.516136 0.504051 0.498421
0.521584 0.508705 0.503075
0.526986 0.513298 0.507668
0.532372 0.517891 0.512261
0.537774 0.522484 0.516854
0.543175 0.527062 0.521447
0.548714 0.531807 0.526177
0.554147 0.536431 0.5308
0.559548 0.541024 0.535393
0.564935 0.545617 0.539986
0.570321 0.55021 0.544579
0.412284 0.418708 0.412284
0.41767 0.423301 0.416876
0.423056 0.427893 0.421469
0.428458 0.432486 0.426062
0.434028 0.437247 0.430823
0.439429 0.44184 0.435416
0.444831 0.446433 0.440009
0.450217 0.451026 0.444602
0.455619 0.455619 0.449195
0.461051 0.460243 0.453819
0.46659 0.464973 0.458549
0.471977 0.469566 0.463142
0.477378 0.474159 0.467735
0.48278 0.478752 0.472328
0.488167 0.483345 0.476905
0.493629 0.487999 0.481575
0.499153 0.492699 0.486275
0.50454 0.497292 0.490867
0.509941 0.501884 0.49546
0.515328 0.506477 0.500053
0.520729 0.51107 0.504631
0.526223 0.515755 0.509331
0.531701 0.520424 0.514
0.537102 0.525017 0.518593
0.542489 0.52961 0.523186
0.54789 0.534203 0.527764
0.553277 0.538796 0.532357
0.558862 0.543557 0.537133
0.564263 0.54815 0.541726
0.56965 0.552743 0.546319
0.575051 0.557336 0.550912
0.580453 0.561929 0.555489
0.585962 0.566644 0.56022
0.427787 0.435019 0.427787
0.433173 0.439612 0.43238
0.438575 0.444205 0.436973
0.444144 0.448981 0.441749
0.449546 0.453574 0.446342
0.454948 0.458152 0.450919
0.460334 0.462745 0.455512
0.465736 0.467338 0.460105
0.471153 0.471946 0.464714
0.476707 0.476707 0.469474
0.482094 0.4813 0.474067
0.487495 0.485878 0.478645
0.492897 0.490471 0.483238
0.498283 0.495064 0.487831
0.503868 0.49984 0.492607
0.509255 0.504433 0.4972
0.514656 0.509026 0.501793
0.520043 0.513603 0.506371
0.525444 0.518196 0.510964
0.530892 0.522835 0.515602
0.536416 0.527565 0.520333
0.541817 0.532158 0.524926
0.547219 0.536736 0.529503
0.552605 0.541329 0.534096
0.558007 0.545922 0.538689
0.563485 0.550591 0.543359
0.568978 0.555291 0.548058
0.574365 0.559884 0.552651
0.579767 0.564462 0.557229
0.585168 0.569055 0.561822
0.590555 0.573648 0.566415
0.596063 0.578347 0.571115
0.601526 0.583017 0.575784
0.443305 0.451331 0.443305
0.448829 0.456077 0.448051
0.454261 0.4607 0.452659
0.459648 0.465293 0.457252
0.465049 0.469886 0.461845
0.470451 0.474479 0.466438
0.475837 0.479057 0.471031
0.481422 0.483833 0.475792
0.486824 0.488426 0.480385
0.49221 0.493019 0.484977
0.497612 0.497612 0.48957
0.502998 0.50219 0.494163
0.5084 0.506783 0.498756
0.513985 0.511559 0.503517
0.519371 0.516152 0.50811
0.524773 0.520745 0.512703
0.530159 0.525338 0.517296
0.535561 0.529915 0.521889
0.540993 0.534554 0.526513
0.546532 0.539284 0.531243
0.551934 0.543877 0.535836
0.557321 0.54847 0.540429
0.562722 0.553063 0.545022
0.568124 0.557641 0.549615
0.573587 0.56231 0.554269
0.579095 0.56701 0.558968
0.584482 0.571603 0.563561
0.589883 0.576196 0.568154
0.59527 0.580774 0.572747
0.600671 0.585367 0.57734
0.606256 0.590143 0.582101
0.611643 0.594736 0.586694
0.617029 0.599329 0.591287
0.458946 0.467796 0.458946
0.464378 0.472419 0.463584
0.469764 0.477012 0.468177
0.475166 0.481605 0.47277
0.480568 0.486198 0.477348
0.485954 0.490791 0.481941
0.491524 0.495552 0.486702
0.496925 0.500145 0.49131
0.502327 0.504738 0.495903
0.507729 0.509331 0.500481
0.513115 0.513924 0.505074
0.518517 0.518517 0.509667
0.524086 0.523278 0.514443
0.529488 0.527871 0.519036
0.53489 0.532464 0.523629
0.540276 0.537057 0.528206
0.545678 0.54165 0.532799
0.551247 0.54641 0.537575
0.556649 0.551003 0.542168
0.562036 0.555596 0.546761
0.567437 0.560189 0.551339
0.572839 0.564782 0.555932
0.578256 0.56939 0.56054
0.58381 0.574136 0.565301
0.589212 0.578729 0.569894
0.594598 0.583322 0.574487
0.6 0.587915 0.579065
0.605386 0.592508 0.583658
0.610834 0.597147 0.588296
0.616373 0.601862 0.593027
0.621759 0.606455 0.59762
0.627161 0.611048 0.602197
0.632547 0.615641 0.606806
0.474495 0.484154 0.474495
0.479881 0.488746 0.479088
0.485283 0.493324 0.48368
0.490669 0.497917 0.488273
0.496193 0.502632 0.492988
0.501656 0.507286 0.497627
0.507042 0.511879 0.50222
0.512444 0.516472 0.506813
0.51783 0.52105 0.511406
0.523232 0.525643 0.515999
0.528771 0.530388 0.520745
0.534203 0.535012 0.525353
0.539605 0.539605 0.529946
0.544991 0.544182 0.534539
0.550393 0.548775 0.539132
0.555779 0.553368 0.543725
0.561364 0.558145 0.548486
0.566751 0.562737 0.553079
0.572152 0.56733 0.557671
0.577554 0.571908 0.562264
0.58294 0.576501 0.566857
0.588342 0.581094 0.57145
0.593927 0.58587 0.576211
0.599313 0.590463 0.580804
0.604715 0.595041 0.585397
0.610101 0.599634 0.58999
0.615503 0.604227 0.594583
0.620935 0.60885 0.599207
0.626474 0.613596 0.603937
0.631876 0.618173 0.60853
0.637263 0.622766 0.613123
0.642664 0.627359 0.617716
0.648051 0.631952 0.622309
0.489998 0.500465 0.489998
0.495384 0.505058 0.494591
0.500786 0.509651 0.499184
0.506279 0.514336 0.503883
0.511757 0.519005 0.508553
0.517159 0.523598 0.513146
0.522545 0.528191 0.517723
0.527947 0.532784 0.522316
0.533349 0.537377 0.526909
0.538872 0.542092 0.53164
0.54432 0.546731 0.536278
0.549706 0.551324 0.540871
0.555108 0.555917 0.545449
0.56051 0.56051 0.550042
0.565896 0.565087 0.554635
0.571481 0.569863 0.559411
0.576867 0.574456 0.564004
0.582269 0.579049 0.568582
0.587655 0.583642 0.573175
0.593057 0.588235 0.577768
0.598627 0.592981 0.582528
0.604028 0.597589 0.587137
0.60943 0.602182 0.59173
0.614816 0.606775 0.596307
0.620218 0.611368 0.6009
0.62562 0.615961 0.605493
0.631189 0.620722 0.610269
0.636591 0.625315 0.614862
0.641978 0.629908 0.61944
0.647379 0.634501 0.624033
0.652781 0.639094 0.628626
0.658183 0.643687 0.633234
0.663737 0.648447 0.637995
0.505516 0.516777 0.505516
0.510903 0.52137 0.510109
0.516472 0.526146 0.514885
0.521874 0.530724 0.519463
0.52726 0.535317 0.524056
0.532662 0.53991 0.528649
0.538064 0.544503 0.533242
0.543542 0.549172 0.537911
0.549035 0.553872 0.542611
0.554421 0.55845 0.547189
0.559823 0.563043 0.551781
0.565225 0.567636 0.556374
0.570611 0.572229 0.560967
0.576135 0.576944 0.565667
0.581582 0.581582 0.570321
0.586984 0.586175 0.574914
0.592386 0.590768 0.579507
0.597772 0.595361 0.5841
0.603174 0.599954 0.588693
0.608713 0.6047 0.593439
0.614145 0.609308 0.598047
0.619547 0.613901 0.60264
0.624933 0.618494 0.607233
0.630335 0.623087 0.611826
0.635721 0.62768 0.616419
0.641306 0.632456 0.621195
0.646693 0.637034 0.625772
0.652094 0.641627 0.630365
0.657496 0.64622 0.634958
0.662882 0.650813 0.639551
0.668284 0.655406 0.644144
0.673854 0.660166 0.648905
0.67924 0.664759 0.653498
0.521065 0.533135 0.521065
0.526589 0.537865 0.525795
0.531991 0.542458 0.530388
0.537377 0.547051 0.534981
0.542779 0.551629 0.539574
0.54818 0.556222 0.544167
0.553643 0.560891 0.548821
0.559152 0.565591 0.553521
0.564538 0.570184 0.558114
0.56994 0.574762 0.562707
0.575326 0.579355 0.5673
0.580728 0.583947 0.571893
0.586221 0.588647 0.576577
0.591699 0.593317 0.581247
0.597101 0.59791 0.58584
0.602487 0.602487 0.590433
0.607889 0.60708 0.595026
0.613291 0.611673 0.599603
0.61886 0.616449 0.604379
0.624262 0.621042 0.608972
0.629648 0.62562 0.613565
0.63505 0.630213 0.618158
0.640452 0.634806 0.622736
0.645975 0.639536 0.627466
0.651423 0.644175 0.632105
0.656809 0.648768 0.636698
0.662211 0.653346 0.641291
0.667597 0.657938 0.645884
0.672999 0.662531 0.650462
0.678569 0.667292 0.655222
0.68397 0.671901 0.659831
0.689372 0.676478 0.664424
0.694759 0.681086 0.669017
0.536721 0.549584 0.536721
0.542092 0.554177 0.541314
0.547494 0.55877 0.545892
0.55288 0.563363 0.550484
0.558282 0.567956 0.555077
0.563867 0.572717 0.559853
0.569253 0.57731 0.564446
0.574655 0.581903 0.569024
0.580056 0.586496 0.573617
0.585443 0.591089 0.57821
0.59089 0.595728 0.582864
0.596414 0.600443 0.587579
0.601816 0.605035 0.592172
0.607217 0.609628 0.59675
0.612604 0.614221 0.601343
0.618006 0.618814 0.605936
0.623484 0.623484 0.61062
0.628977 0.628168 0.615305
0.634363 0.632761 0.619898
0.639765 0.637354 0.624475
0.645167 0.641947 0.629068
0.650568 0.646525 0.633661
0.656077 0.65124 0.638376
0.66154 0.655894 0.64303
0.666926 0.660487 0.647608
0.672328 0.66508 0.652201
0.677714 0.669673 0.656794
0.683116 0.674266 0.661387
0.68867 0.678996 0.666133
0.694087 0.683619 0.670741
0.699489 0.688212 0.675334
0.704875 0.692805 0.679927
0.710262 0.697398 0.68452
0.552224 0.565896 0.552224
0.55761 0.570489 0.556817
0.562997 0.575082 0.56141
0.568399 0.579675 0.566003
0.573983 0.584451 0.570764
0.57937 0.589029 0.575357
0.584772 0.593622 0.57995
0.590158 0.598215 0.584543
0.59556 0.602808 0.589136
0.600992 0.607431 0.593759
0.606531 0.612177 0.598489
0.611933 0.616754 0.603082
0.617319 0.621347 0.607675
0.622721 0.62594 0.612268
0.628122 0.630533 0.616861
0.633585 0.635187 0.621515
0.639094 0.639902 0.626215
0.64448 0.64448 0.630808
0.649882 0.649073 0.635401
0.655283 0.653666 0.639994
0.66067 0.658259 0.644587
0.666255 0.663035 0.649348
0.671641 0.667613 0.653941
0.677043 0.672206 0.658534
0.682445 0.676799 0.663127
0.687831 0.681392 0.66772
0.693324 0.686076 0.672404
0.698802 0.690761 0.677073
0.704204 0.695338 0.681666
0.709606 0.699931 0.686259
0.714992 0.704524 0.690852
0.720394 0.709117 0.695445
0.725902 0.713848 0.70016
0.567727 0.582208 0.567727
0.573114 0.586801 0.57232
0.578515 0.591394 0.576913
0.584085 0.59617 0.581689
0.589487 0.600763 0.586282
0.594888 0.605356 0.590875
0.600275 0.609934 0.595453
0.605676 0.614527 0.600046
0.611246 0.619303 0.604822
0.616648 0.623896 0.609415
0.622049 0.628489 0.614008
0.627436 0.633082 0.618601
0.632837 0.637659 0.623178
0.638254 0.642267 0.627802
0.643809 0.647028 0.632547
0.64921 0.651621 0.63714
0.654597 0.656214 0.641733
0.659998 0.660792 0.646311
0.665385 0.665385 0.650904
0.670832 0.670039 0.655558
0.676356 0.674754 0.660273
0.681758 0.679347 0.664866
0.68716 0.68394 0.669459
0.692546 0.688518 0.674037
0.697948 0.693111 0.67863
0.703426 0.697795 0.683314
0.708919 0.70248 0.687999
0.714321 0.707073 0.692592
0.719707 0.711666 0.697185
0.725109 0.716243 0.701762
0.73051 0.720836 0.706355
0.736019 0.725551 0.71107
0.741466 0.730205 0.715724
0.583246 0.598535 0.583246
0.588785 0.603281 0.587991
0.594202 0.607889 0.592615
0.599603 0.612482 0.597192
0.60499 0.617075 0.601785
0.610391 0.621668 0.606378
0.615793 0.626245 0.610971
0.621363 0.631022 0.615747
0.626764 0.635615 0.62034
0.632151 0.640208 0.624918
0.637552 0.6448 0.629511
0.642954 0.649393 0.634104
0.648356 0.653986 0.638697
0.653925 0.658747 0.643473
0.659312 0.66334 0.648051
0.664714 0.667933 0.652644
0.670115 0.672526 0.657237
0.675502 0.677104 0.66183
0.680934 0.681743 0.666453
0.686473 0.686473 0.671199
0.691875 0.691066 0.675776
0.697276 0.695659 0.680369
0.702663 0.700252 0.684962
0.708064 0.704829 0.689555
0.713634 0.709606 0.694331
0.719036 0.714199 0.698909
0.724422 0.718791 0.703502
0.729824 0.723384 0.708095
0.735225 0.727977 0.712688
0.740688 0.732631 0.717342
0.746197 0.737331 0.722057
0.751583 0.741924 0.726635
0.75697 0.746517 0.731228
0.598886 0.614984 0.598886
0.604318 0.619623 0.603525
0.609705 0.624201 0.608118
0.615106 0.628794 0.612711
0.620508 0.633387 0.617288
0.625895 0.63798 0.621881
0.631479 0.642756 0.626657
0.636866 0.647334 0.631251
0.642267 0.651926 0.635843
0.647669 0.656519 0.640421
0.653056 0.661112 0.645014
0.658625 0.665873 0.64979
0.664027 0.670481 0.654383
0.669429 0.675059 0.658976
0.67483 0.679652 0.663569
0.680217 0.684245 0.668147
0.685618 0.688838 0.67274
0.691188 0.693614 0.677516
0.69659 0.698207 0.682109
0.701976 0.702785 0.686702
0.707378 0.707378 0.691279
0.712779 0.711971 0.695872
0.718196 0.716579 0.700496
0.723751 0.72134 0.705242
0.729152 0.725917 0.709834
0.734539 0.73051 0.714427
0.73994 0.735103 0.719005
0.745327 0.739696 0.723598
0.750774 0.744335 0.728252
0.756313 0.74905 0.732967
0.7617 0.753643 0.73756
0.767102 0.758236 0.742138
0.772488 0.762829 0.746746
0.614435 0.631342 0.614435
0.619821 0.635935 0.619028
0.625223 0.640528 0.623621
0.63061 0.645106 0.628214
0.636133 0.649821 0.632929
0.641596 0.654475 0.637568
0.646983 0.659068 0.642161
0.652384 0.663661 0.646754
0.657771 0.668254 0.651347
0.663172 0.672831 0.65594
0.668727 0.677577 0.660685
0.674144 0.6822 0.665293
0.679545 0.686793 0.669886
0.684932 0.691386 0.674479
0.690333 0.695964 0.679072
0.69572 0.700557 0.683665
0.701305 0.705333 0.688441
0.706691 0.709926 0.693019
0.712093 0.714519 0.697612
0.717494 0.719112 0.702205
0.722881 0.72369 0.706798
0.728283 0.728283 0.711391
0.733867 0.733059 0.716152
0.739254 0.737652 0.720745
0.744656 0.742245 0.725338
0.750042 0.746838 0.729931
0.755444 0.751415 0.734524
0.761013 0.756191 0.7393
0.766415 0.760784 0.743877
0.771817 0.765377 0.74847
0.777203 0.76997 0.753063
0.782605 0.774548 0.757656
0.788022 0.779187 0.76228
0.629953 0.647654 0.629953
0.635325 0.652247 0.634546
0.640726 0.65684 0.639139
0.646235 0.66154 0.643824
0.651698 0.666194 0.648493
0.657099 0.670787 0.653086
0.662486 0.67538 0.657679
0.667887 0.679973 0.662272
0.673289 0.684565 0.66685
0.678859 0.689326 0.671626
0.68426 0.693919 0.676219
0.689647 0.698512 0.680812
0.695048 0.703105 0.685405
0.70045 0.707698 0.689982
0.705974 0.712428 0.694713
0.711421 0.717052 0.699351
0.716808 0.721645 0.703944
0.72221 0.726238 0.708537
0.727611 0.730831 0.71313
0.732998 0.735424 0.717708
0.738567 0.740185 0.722469
0.743969 0.744778 0.727077
0.749371 0.749371 0.73167
0.754772 0.753964 0.736263
0.760159 0.758556 0.740841
0.76556 0.763149 0.745434
0.77113 0.76791 0.75021
0.776532 0.772503 0.754803
0.781933 0.777096 0.759396
0.78732 0.781689 0.763989
0.792721 0.786282 0.768566
0.798138 0.79089 0.773175
0.803677 0.795636 0.777935
0.645457 0.663966 0.645457
0.650904 0.66862 0.650111
0.656413 0.673335 0.654826
0.661814 0.677928 0.659419
0.667216 0.682506 0.663996
0.672602 0.687099 0.668589
0.678004 0.691691 0.673182
0.683482 0.696376 0.677867
0.688975 0.70106 0.682551
0.694377 0.705638 0.687129
0.699763 0.710231 0.691722
0.705165 0.714824 0.696315
0.710552 0.719417 0.700908
0.716075 0.724132 0.705623
0.721538 0.728786 0.710277
0.726925 0.733364 0.714855
0.732326 0.737957 0.719448
0.737713 0.74255 0.724041
0.743114 0.747143 0.728634
0.748669 0.751888 0.733379
0.754086 0.756497 0.737987
0.759487 0.76109 0.74258
0.764889 0.765682 0.747173
0.770275 0.770275 0.751766
0.775677 0.774868 0.756359
0.781247 0.779644 0.761135
0.786648 0.784222 0.765713
0.792035 0.788815 0.770306
0.797436 0.793408 0.774899
0.802838 0.798001 0.779492
0.808408 0.802777 0.784268
0.813809 0.807355 0.788846
0.819196 0.811963 0.793454
0.661006 0.680323 0.661006
0.666529 0.685054 0.665736
0.671931 0.689647 0.670329
0.677317 0.69424 0.674922
0.682719 0.698833 0.679515
0.688121 0.70341 0.684108
0.693584 0.70808 0.688762
0.699092 0.712779 0.693462
0.704479 0.717372 0.698054
0.70988 0.721965 0.702647
0.715282 0.726558 0.70724
0.720668 0.731136 0.711833
0.726253 0.735912 0.716594
0.731655 0.740505 0.721187
0.737041 0.745098 0.72578
0.742443 0.749691 0.730373
0.747829 0.754269 0.734966
0.753338 0.758968 0.739651
0.758801 0.763638 0.74432
0.764202 0.768231 0.748913
0.769589 0.772824 0.753506
0.77499 0.777401 0.758099
0.780392 0.781994 0.762692
0.785916 0.786725 0.767407
0.791363 0.791363 0.772045
0.796765 0.795956 0.776638
0.802152 0.800549 0.781231
0.807553 0.805127 0.785824
0.81294 0.80972 0.790417
0.818509 0.814481 0.795163
0.823926 0.819089 0.799771
0.829313 0.823682 0.804364
0.834699 0.828275 0.808957
0.676661 0.696773 0.676661
0.682048 0.701366 0.681254
0.687434 0.705959 0.685847
0.692836 0.710552 0.690425
0.698253 0.71516 0.695048
0.703807 0.719905 0.699794
0.709209 0.724498 0.704387
0.714595 0.729091 0.70898
0.719997 0.733684 0.713573
0.725383 0.738277 0.718151
0.730846 0.742916 0.722805
0.73637 0.747631 0.72752
0.741756 0.752224 0.732113
0.747158 0.756817 0.736706
0.75256 0.76141 0.741283
0.757946 0.766003 0.745876
0.763439 0.770672 0.750561
0.768917 0.775357 0.755245
0.774319 0.77995 0.759838
0.779706 0.784543 0.764431
0.785107 0.789136 0.769009
0.790509 0.793729 0.773602
0.796017 0.798428 0.778317
0.80148 0.803082 0.782971
0.806867 0.807675 0.787564
0.812268 0.812268 0.792157
0.817655 0.816861 0.796735
0.823056 0.821454 0.801328
0.828641 0.826215 0.806104
0.834028 0.830808 0.810697
0.839429 0.835401 0.81529
0.844831 0.839994 0.819867
0.850202 0.844587 0.82446
0.692164 0.713085 0.692164
0.697551 0.717678 0.696757
0.702953 0.722271 0.70135
0.708354 0.726879 0.705943
0.713924 0.73164 0.710719
0.719326 0.736233 0.715297
0.724712 0.74081 0.71989
0.730114 0.745403 0.724483
0.7355 0.749996 0.729076
0.740932 0.754635 0.7337
0.746471 0.759365 0.738445
0.751873 0.763958 0.743023
0.757275 0.768536 0.747616
0.762661 0.773129 0.752209
0.768063 0.777722 0.756802
0.773632 0.782498 0.761578
0.779034 0.787091 0.766155
0.784421 0.791669 0.770748
0.789822 0.796262 0.775341
0.795224 0.800855 0.779934
0.800687 0.805524 0.784588
0.806195 0.810224 0.789288
0.811597 0.814817 0.793881
0.816983 0.819394 0.798474
0.822385 0.823987 0.803067
0.827771 0.82858 0.80766
0.83328 0.83328 0.81236
0.838743 0.837949 0.817029
0.844144 0.842542 0.821607
0.849546 0.84712 0.8262
0.854932 0.851713 0.830793
0.860334 0.856306 0.835386
0.865858 0.861036 0.840116
0.707683 0.729397 0.707683
0.713054 0.733989 0.712276
0.718639 0.738766 0.717037
0.724025 0.743358 0.72163
0.729427 0.747951 0.726223
0.734829 0.752544 0.730816
0.740215 0.757122 0.735409
