public/LUTS/Black&White/Black&White_05.cube
TITLE "Generated by Resolve"
LUT_3D_SIZE 5
0 0 0
0.00729381 0 0
0.0709087 0.0520943 0.0520943
0.134295 0.10605 0.10605
0.19791 0.160281 0.160281
0.125841 0.135241 0.125841
0.189197 0.189197 0.179797
0.252842 0.243427 0.234028
0.316213 0.297383 0.287984
0.379767 0.351522 0.342123
0.307759 0.326589 0.307759
0.37113 0.380545 0.36173
0.434623 0.434623 0.415808
0.498146 0.488716 0.469902
0.561502 0.542687 0.523857
0.489479 0.517723 0.489479
0.553048 0.571893 0.543648
0.616419 0.625849 0.597604
0.680064 0.680064 0.65182
0.74342 0.73402 0.705791
0.671366 0.708995 0.671366
0.734981 0.763226 0.725582
0.798367 0.817182 0.779538
0.861967 0.871366 0.833722
0.925368 0.925368 0.887724
0 0 0
0.0256962 0.0162966 0.0256962
0.0893416 0.0705119 0.0799115
0.152712 0.124468 0.133867
0.216159 0.178515 0.187915
0.144259 0.153658 0.153658
0.207614 0.207614 0.207614
0.271015 0.261601 0.261601
0.33463 0.315801 0.315801
0.398001 0.369757 0.369757
0.325933 0.344747 0.335317
0.389548 0.398962 0.389548
0.452918 0.452918 0.443503
0.516564 0.507149 0.497719
0.579919 0.561105 0.55169
0.507851 0.53608 0.51725
0.571466 0.590311 0.571466
0.634852 0.644266 0.625422
0.698344 0.698344 0.679515
0.761852 0.752453 0.733608
0.689784 0.727428 0.699184
0.753201 0.781445 0.753201
0.816785 0.835599 0.80737
0.880156 0.889555 0.861326
0.943786 0.943786 0.915557
0 0 0
0.0441138 0.0347143 0.0535439
0.1075 0.0886702 0.1075
0.17113 0.142901 0.161715
0.234501 0.196857 0.215671
0.162417 0.171817 0.181247
0.226047 0.226047 0.235462
0.289418 0.280003 0.289418
0.353063 0.334218 0.343648
0.416419 0.38819 0.397604
0.34435 0.363165 0.363165
0.40795 0.417365 0.417365
0.471351 0.471351 0.471351
0.534737 0.525322 0.525322
0.598352 0.579522 0.579522
0.526268 0.554513 0.545098
0.589624 0.608469 0.599054
0.653269 0.662684 0.653269
0.71664 0.71664 0.707225
0.78027 0.770871 0.761456
0.708217 0.745846 0.727031
0.771572 0.799802 0.780987
0.835203 0.854032 0.835203
0.898589 0.907988 0.889158
0.961944 0.961944 0.94313
0 0 0.0271611
0.0625467 0.0531472 0.0813764
0.125917 0.107103 0.135332
0.189502 0.161257 0.189502
0.252918 0.21529 0.243519
0.18085 0.190249 0.209079
0.244343 0.244343 0.263188
0.307851 0.298421 0.317266
0.371221 0.352377 0.371221
0.434852 0.406607 0.425452
0.362768 0.381582 0.391012
0.426123 0.435554 0.444968
0.489769 0.489769 0.499184
0.55314 0.543725 0.55314
0.61677 0.597955 0.60737
0.544701 0.572931 0.572931
0.608057 0.626886 0.626886
0.671672 0.681102 0.681102
0.735073 0.735073 0.735073
0.798428 0.789029 0.789029
0.726558 0.764187 0.754788
0.78999 0.818235 0.808835
0.853376 0.87219 0.862791
0.917006 0.926406 0.917006
0.980362 0.980362 0.970962
0.0173495 0.0173495 0.0549783
0.0807355 0.0713359 0.10898
0.144335 0.125521 0.163165
0.207721 0.179477 0.217121
0.271351 0.233707 0.271351
0.199268 0.208667 0.236912
0.262623 0.262623 0.290867
0.326268 0.316854 0.345083
0.389654 0.370809 0.399054
0.453208 0.424979 0.453208
0.381201 0.400015 0.41883
0.444556 0.453971 0.472786
0.50808 0.50808 0.526894
0.571572 0.562158 0.580972
0.634928 0.616114 0.634928
0.562936 0.591165 0.60058
0.626474 0.645319 0.654719
0.68986 0.699275 0.708675
0.753491 0.753491 0.76289
0.816861 0.807462 0.816861
0.744793 0.782437 0.782437
0.808423 0.836652 0.836652
0.871794 0.890608 0.890608
0.935409 0.944808 0.944808
0.99826 0.99826 0.99826
