public/LUTS/Black&White/Black&White_05.cube
TITLE "Generated by Resolve"
LUT_3D_SIZE 33
0 0 0
0 0 0
0 0 0
0 0 0
0 0 0
0 0 0
0 0 0
0 0 0
0.00729381 0 0
0.0154269 0.00485237 0.00485237
0.0233158 0.0115663 0.0115663
0.0312047 0.018265 0.018265
0.0390936 0.024979 0.024979
0.0469825 0.031693 0.031693
0.0549325 0.038468 0.038468
0.0630198 0.0453803 0.0453803
0.0709087 0.0520943 0.0520943
0.0787976 0.0588083 0.0588083
0.0866865 0.0655222 0.0655222
0.0945754 0.072221 0.072221
0.102724 0.0792096 0.0792096
0.110628 0.0859083 0.0859083
0.118502 0.0926223 0.0926223
0.126406 0.0993362 0.0993362
0.134295 0.10605 0.10605
0.14229 0.112871 0.112871
0.150332 0.119738 0.119738
0.158221 0.126452 0.126452
0.16611 0.133165 0.133165
0.173999 0.139879 0.139879
0.181888 0.146578 0.146578
0.189929 0.15346 0.15346
0.19791 0.160281 0.160281
0 0 0
0 0 0
0 0 0
0 0 0
0 0 0
0.00628672 0.00157168 0.000411994
0.0141756 0.00828565 0.00712596
0.0223239 0.015259 0.0140993
0.0302129 0.021973 0.0208133
0.0381018 0.028687 0.0275273
0.0459907 0.0354009 0.0342412
0.0538796 0.0420996 0.04094
0.0617685 0.0488136 0.0476539
0.0699321 0.055787 0.0546426
0.0778058 0.062501 0.0613413
0.0856947 0.0692149 0.0680552
0.0935836 0.0759289 0.0747692
0.101472 0.0826429 0.0814832
0.109407 0.0893873 0.0882429
0.117525 0.0963302 0.0951705
0.125414 0.103044 0.101884
0.133303 0.109743 0.108598
0.141192 0.116457 0.115312
0.149081 0.123171 0.122011
0.157061 0.129976 0.128817
0.165118 0.136858 0.135698
0.173007 0.143572 0.142412
0.180896 0.150286 0.149126
0.188785 0.157 0.15584
0.196674 0.163699 0.162554
0.2047 0.170565 0.169406
0.212711 0.177386 0.176242
0.220584 0.184115 0.182956
0 0 0
0 0 0
0.00529488 0.00529488 0.00296025
0.0131685 0.0119936 0.00965896
0.0210727 0.0187076 0.0163729
0.0289616 0.0254215 0.0230869
0.0370947 0.0323796 0.030045
0.0449989 0.0391089 0.0367742
0.0528878 0.0458228 0.0434882
0.0607767 0.0525368 0.0502022
0.0686656 0.0592508 0.0569162
0.0765545 0.0659495 0.0636149
0.0847028 0.0729381 0.0706035
0.092607 0.0796368 0.0773175
0.100481 0.0863508 0.0840162
0.10837 0.0930648 0.0907301
0.116258 0.0997787 0.0974441
0.124178 0.106508 0.104173
0.132311 0.113466 0.111131
0.1402 0.12018 0.117845
0.148089 0.126894 0.124559
0.155978 0.133593 0.131273
0.163867 0.140307 0.137987
0.172015 0.147295 0.144961
0.179904 0.153994 0.151675
0.187793 0.160708 0.158373
0.195682 0.167422 0.165087
0.203571 0.174136 0.171801
0.211521 0.180911 0.178576
0.219623 0.187823 0.185489
0.227512 0.194537 0.192203
0.235386 0.201251 0.198917
0.243259 0.207965 0.205631
0.0122072 0.0157168 0.0122072
0.0200809 0.0224308 0.0189212
0.0279698 0.0291447 0.0256352
0.0358434 0.0358434 0.0323339
0.0437476 0.0425574 0.0390478
0.0518959 0.049546 0.0460365
0.0597848 0.0562448 0.0527352
0.0676738 0.0629587 0.0594492
0.0755627 0.0696727 0.0661631
0.0834516 0.0763867 0.0728771
0.0915541 0.0833143 0.0798047
0.0994888 0.090074 0.0865644
0.107378 0.096788 0.0932784
0.115282 0.103502 0.0999924
0.123156 0.110201 0.106691
0.131044 0.116915 0.113405
0.139208 0.123903 0.120394
0.147097 0.130602 0.127092
0.154986 0.137316 0.133806
0.162875 0.14403 0.14052
0.170764 0.150744 0.147234
0.178653 0.157458 0.153948
0.186801 0.164431 0.160922
0.19469 0.171145 0.167636
0.202579 0.177859 0.17435
0.210468 0.184558 0.181048
0.218357 0.191272 0.187762
0.226291 0.198032 0.194522
0.234394 0.204959 0.20145
0.242298 0.211673 0.208164
0.250187 0.218387 0.214878
0.258061 0.225101 0.221592
0.265934 0.231815 0.228305
0.0348821 0.0395666 0.0348821
0.0427405 0.0462806 0.0415961
0.0506294 0.0529946 0.0483101
0.0586709 0.0598459 0.0551614
0.0666819 0.0666819 0.0619974
0.0745708 0.0733959 0.0686961
0.0824598 0.0800946 0.0754101
0.0903487 0.0868086 0.0821241
0.0982376 0.0935225 0.088838
0.106325 0.100435 0.0957351
0.114275 0.10721 0.102525
0.122164 0.113924 0.109239
0.130053 0.120638 0.115953
0.137942 0.127352 0.122652
0.14583 0.134051 0.129366
0.153964 0.141009 0.136324
0.161883 0.147753 0.143053
0.169757 0.154452 0.149767
0.177646 0.161166 0.156481
0.185534 0.16788 0.163195
0.193423 0.174594 0.169909
0.201587 0.181567 0.176883
0.209476 0.188281 0.183597
0.217365 0.194995 0.190295
0.225254 0.201709 0.197009
0.233143 0.208408 0.203723
0.241291 0.215396 0.210697
0.24918 0.22211 0.217411
0.257069 0.228809 0.224125
0.264958 0.235523 0.230838
0.272847 0.242237 0.237552
0.280751 0.248966 0.244282
0.288884 0.255924 0.25124
0.0575418 0.0634165 0.0575418
0.0654154 0.0701305 0.0642557
0.0734264 0.0769665 0.071107
0.0814527 0.0838178 0.0779431
0.0893568 0.0905318 0.0846571
0.0972457 0.0972457 0.091371
0.105135 0.10396 0.098085
0.113024 0.110674 0.104799
0.121172 0.117647 0.111772
0.129061 0.124361 0.118486
0.13695 0.131075 0.1252
0.144839 0.137774 0.131899
0.152728 0.144488 0.138613
0.160784 0.151369 0.145495
0.168765 0.158175 0.1523
0.176654 0.164889 0.159014
0.184543 0.171603 0.165728
0.192432 0.178317 0.172442
0.20032 0.185031 0.179156
0.208423 0.191959 0.186084
0.216373 0.198703 0.192844
0.224262 0.205417 0.199557
0.232151 0.212131 0.206271
0.24004 0.218845 0.21297
0.247929 0.225559 0.219684
0.256077 0.232532 0.226658
0.263966 0.239246 0.233371
0.271855 0.24596 0.240085
0.279744 0.252659 0.246799
0.287633 0.259373 0.253513
0.295521 0.266087 0.260227
0.30367 0.27306 0.267201
0.311543 0.279789 0.273915
0.0802777 0.0873274 0.0802777
0.088365 0.094255 0.0872053
0.0962539 0.100969 0.0939193
0.104128 0.107668 0.100618
0.112032 0.114382 0.107332
0.119921 0.121096 0.114046
0.127901 0.127901 0.120851
0.135958 0.134783 0.127733
0.143847 0.141497 0.134447
0.151736 0.148211 0.141161
0.159625 0.154925 0.147875
0.167514 0.161624 0.154574
0.175555 0.16849 0.16144
0.183566 0.175311 0.168276
0.19144 0.182025 0.174975
0.199329 0.188739 0.181689
0.207218 0.195453 0.188403
0.215106 0.202167 0.195117
0.223194 0.209064 0.202029
0.231159 0.215854 0.208804
0.239048 0.222568 0.215518
0.246937 0.229267 0.222232
0.254826 0.235981 0.228946
0.262715 0.242695 0.235645
0.270863 0.249668 0.242634
0.278752 0.256382 0.249332
0.286641 0.263096 0.256046
0.29453 0.26981 0.26276
0.302419 0.276524 0.269474
0.310552 0.283467 0.276417
0.318471 0.290211 0.283162
0.326345 0.29691 0.289876
0.334218 0.303639 0.29659
0.103166 0.111391 0.103166
0.11104 0.118105 0.10988
0.118929 0.124819 0.116594
0.126802 0.131518 0.123293
0.134707 0.138231 0.130007
0.142672 0.145022 0.136797
0.150744 0.151919 0.143694
0.158633 0.158633 0.150408
0.166522 0.165347 0.157122
0.174411 0.172061 0.163836
0.1823 0.178775 0.17055
0.190448 0.185748 0.177523
0.198337 0.192462 0.184237
0.206241 0.199176 0.190951
0.214115 0.205875 0.19765
0.222004 0.212589 0.204364
0.230015 0.219425 0.2112
0.238056 0.226276 0.218051
0.245945 0.23299 0.224765
0.253834 0.239704 0.231479
0.261723 0.246418 0.238193
0.269612 0.253132 0.244907
0.277668 0.259998 0.251789
0.285649 0.266819 0.258595
0.293538 0.273518 0.265309
0.301427 0.280232 0.272007
0.309316 0.286946 0.278721
0.317205 0.29366 0.285435
0.325307 0.300587 0.292363
0.333257 0.307347 0.299123
0.341146 0.314061 0.305837
0.34902 0.320775 0.312551
0.356893 0.327489 0.319265
0.125841 0.135241 0.125841
0.133715 0.141955 0.132555
0.141604 0.148669 0.139269
0.149493 0.155383 0.145983
0.157641 0.162356 0.152956
0.16553 0.16907 0.15967
0.173419 0.175769 0.166369
0.181308 0.182483 0.173083
0.189197 0.189197 0.179797
0.197131 0.195956 0.186557
0.205234 0.202884 0.193484
0.213123 0.209598 0.200198
0.221012 0.216312 0.206912
0.228916 0.223026 0.213626
0.236789 0.229725 0.220325
0.244785 0.236545 0.227146
0.252842 0.243427 0.234028
0.260731 0.250126 0.240726
0.26862 0.25684 0.24744
0.276509 0.263554 0.254154
0.284398 0.270268 0.260868
0.292424 0.277119 0.26772
0.300435 0.283955 0.274556
0.308324 0.290669 0.28127
0.316213 0.297383 0.287984
0.324102 0.304082 0.294682
0.331991 0.310796 0.301396
0.340139 0.317784 0.308385
0.348028 0.324483 0.315084
0.355932 0.331197 0.321798
0.363821 0.337911 0.328511
0.371695 0.344625 0.335225
0.379767 0.351522 0.342123
0.148516 0.159091 0.148516
0.15639 0.165805 0.15523
0.164279 0.172519 0.161944
0.172427 0.179492 0.168917
0.180316 0.186206 0.175631
0.188205 0.19292 0.182345
0.196094 0.199619 0.189044
0.203983 0.206332 0.195758
0.211902 0.213077 0.202502
0.22002 0.22002 0.209445
0.227909 0.226734 0.216159
0.235798 0.233448 0.222873
0.243687 0.240162 0.229587
0.251591 0.246876 0.236301
0.259739 0.253849 0.243275
0.267628 0.260563 0.249989
0.275517 0.267277 0.256703
0.283406 0.273976 0.263401
0.291295 0.28069 0.270115
0.299245 0.28748 0.276905
0.307332 0.294377 0.283803
0.315221 0.301091 0.290517
0.32311 0.307805 0.29723
0.330999 0.314519 0.303944
0.338888 0.321233 0.310658
0.346899 0.328054 0.317479
0.354925 0.33492 0.324346
0.362814 0.341634 0.33106
0.370703 0.348333 0.337758
0.378607 0.355047 0.344472
0.386496 0.361761 0.351186
0.394537 0.368643 0.358068
0.402518 0.375448 0.364874
0.171191 0.18294 0.171191
0.179278 0.189883 0.178134
0.187213 0.196628 0.184878
0.195102 0.203342 0.191592
0.202991 0.210056 0.198306
0.21088 0.21677 0.20502
0.218769 0.223468 0.211719
0.226932 0.230457 0.218708
0.234821 0.237171 0.225422
0.242695 0.24387 0.23212
0.250584 0.250584 0.238834
0.258473 0.257298 0.245548
0.266377 0.264012 0.252262
0.274525 0.270985 0.259236
0.282414 0.277699 0.265949
0.290303 0.284413 0.272663
0.298192 0.291127 0.279377
0.306081 0.297826 0.286076
0.314015 0.304601 0.292836
0.322118 0.311528 0.299779
0.330007 0.318227 0.306477
0.337896 0.324941 0.313191
0.345785 0.331655 0.319905
0.353674 0.338369 0.326619
0.361654 0.345174 0.333425
0.369726 0.352056 0.340307
0.3776 0.35877 0.347021
0.385489 0.365484 0.353735
0.393378 0.372183 0.360433
0.401282 0.378897 0.367147
0.40943 0.385885 0.374121
0.417319 0.392584 0.380835
0.425193 0.399298 0.387549
0.194064 0.206989 0.194064
0.201999 0.213764 0.200839
0.209888 0.220478 0.207553
0.217777 0.227192 0.214267
0.225666 0.233906 0.220981
0.233555 0.24062 0.227695
0.241703 0.247578 0.234653
0.249607 0.254307 0.241382
0.257496 0.261021 0.248096
0.26537 0.26772 0.254795
0.273259 0.274434 0.261509
0.281147 0.281147 0.268223
0.289311 0.288121 0.275196
0.2972 0.294835 0.28191
0.305089 0.301549 0.288624
0.312978 0.308263 0.295338
0.320867 0.314977 0.302052
0.329015 0.32195 0.309026
0.336904 0.328664 0.31574
0.344793 0.335378 0.322454
0.352682 0.342077 0.329152
0.360571 0.348791 0.335866
0.36849 0.355535 0.342611
0.376608 0.362478 0.349554
0.384512 0.369192 0.356268
0.392401 0.375906 0.362982
0.400275 0.38262 0.369696
0.408164 0.389334 0.37641
0.416129 0.396109 0.383185
0.424216 0.403021 0.390082
0.432105 0.409735 0.396796
0.439994 0.416434 0.40351
0.447868 0.423163 0.410224
0.2168 0.230915 0.2168
0.224674 0.237629 0.223514
0.232563 0.244343 0.230228
0.240452 0.251041 0.236942
0.248508 0.257939 0.243824
0.256504 0.264729 0.250629
0.264378 0.271443 0.257343
0.272267 0.278157 0.264042
0.280156 0.284871 0.270756
0.288045 0.291585 0.27747
0.296162 0.298512 0.284413
0.304082 0.305272 0.291157
0.311986 0.311986 0.297871
0.319875 0.318685 0.304585
0.327764 0.325399 0.311299
0.335653 0.332113 0.317998
0.343801 0.339086 0.324987
0.35169 0.3458 0.331685
0.359579 0.352514 0.338399
0.367468 0.359228 0.345113
0.375357 0.365942 0.351827
0.383246 0.372656 0.358541
0.391409 0.379629 0.365515
0.399283 0.386328 0.372229
0.407172 0.393042 0.378943
0.415061 0.399756 0.385657
0.42295 0.40647 0.392355
0.430884 0.41323 0.39913
0.438987 0.420157 0.406043
0.446891 0.426871 0.412757
0.45478 0.433585 0.419471
0.462669 0.440284 0.426184
0.470542 0.447013 0.432898
0.239475 0.254765 0.239475
0.247349 0.261479 0.246189
0.255238 0.268193 0.252903
0.263264 0.275059 0.25977
0.271275 0.28188 0.26659
0.279164 0.288594 0.273304
0.287053 0.295293 0.280003
0.294942 0.302007 0.286717
0.302831 0.308721 0.293431
0.310918 0.315633 0.300343
0.318868 0.322408 0.307118
0.326757 0.329122 0.313832
0.334646 0.335836 0.320546
0.34255 0.34255 0.32726
0.350423 0.349248 0.333959
0.358587 0.356237 0.340948
0.366476 0.362951 0.347662
0.374365 0.36965 0.35436
0.382254 0.376364 0.361074
0.390143 0.383078 0.367788
0.398276 0.390036 0.374746
0.40618 0.396765 0.381476
0.414069 0.403479 0.38819
0.421958 0.410193 0.394903
0.429847 0.416907 0.401617
0.437736 0.423621 0.408331
0.445884 0.430594 0.415305
0.453773 0.437308 0.422019
0.461662 0.444007 0.428717
0.469566 0.450721 0.435431
0.477455 0.457435 0.442145
0.485359 0.464164 0.448875
0.493477 0.471122 0.455833
0.26215 0.278614 0.26215
0.270024 0.285328 0.268864
0.278172 0.292302 0.275837
0.286061 0.299016 0.282551
0.29395 0.30573 0.289265
0.301839 0.312444 0.295979
0.309728 0.319142 0.302678
0.317739 0.325994 0.309529
0.32578 0.332845 0.316381
0.333654 0.339544 0.323079
0.341543 0.346258 0.329793
0.349432 0.352972 0.336507
0.357321 0.359686 0.343221
0.365393 0.366567 0.350103
0.373373 0.373373 0.356909
0.381262 0.380087 0.363622
0.389151 0.386801 0.370336
0.39704 0.3935 0.377035
0.404929 0.400214 0.383749
0.413031 0.407156 0.390692
0.420966 0.413901 0.397436
0.428855 0.420615 0.40415
0.436744 0.427329 0.410864
0.444633 0.434043 0.417578
0.452522 0.440757 0.424292
0.460685 0.44773 0.431266
0.468559 0.454444 0.43798
0.476448 0.461158 0.444694
0.484337 0.467857 0.451392
0.492241 0.474571 0.458106
0.50013 0.481285 0.46482
0.508278 0.488258 0.471794
0.516152 0.494972 0.478508
0.284886 0.302525 0.284886
0.292958 0.309438 0.291798
0.300847 0.316152 0.298512
0.308736 0.322866 0.305226
0.316625 0.32958 0.31194
0.324514 0.336294 0.318654
0.332509 0.343099 0.32546
0.340566 0.349981 0.332341
0.348455 0.356695 0.339055
0.356329 0.363394 0.345754
0.364218 0.370108 0.352468
0.372107 0.376822 0.359182
0.380148 0.383688 0.366049
0.388159 0.390509 0.372869
0.396048 0.397223 0.379583
0.403937 0.403937 0.386297
0.411826 0.410651 0.393011
0.419715 0.41735 0.39971
0.427863 0.424338 0.406699
0.435752 0.431052 0.413413
0.443641 0.437751 0.420111
0.45153 0.444465 0.426825
0.459419 0.451179 0.433539
0.467506 0.458091 0.440452
0.475471 0.464866 0.447227
0.48336 0.47158 0.453941
0.491234 0.478294 0.460655
0.499123 0.485008 0.467369
0.507027 0.491722 0.474067
0.51516 0.498665 0.481025
0.523064 0.505409 0.487755
0.530953 0.512108 0.494469
0.538827 0.518822 0.501183
0.307759 0.326589 0.307759
0.315633 0.333303 0.314473
0.323522 0.340002 0.321187
0.331411 0.346716 0.327901
0.3393 0.353429 0.334615
0.347463 0.360403 0.341588
0.355352 0.367117 0.348302
0.363241 0.373831 0.355016
0.37113 0.380545 0.36173
0.379004 0.387259 0.368429
0.386969 0.394049 0.375219
0.395056 0.400946 0.382132
0.402945 0.407645 0.38883
0.410834 0.414359 0.395544
0.418723 0.421073 0.402258
0.426612 0.427787 0.408972
0.434623 0.434623 0.415808
0.442649 0.441474 0.42266
0.450538 0.448188 0.429374
0.458427 0.454902 0.436088
0.466316 0.461601 0.442786
0.474205 0.468315 0.4495
0.482277 0.475212 0.456382
0.490242 0.482002 0.463188
0.498146 0.488716 0.469902
0.506035 0.49543 0.476616
0.513909 0.502144 0.48333
0.521798 0.508858 0.490043
0.529915 0.515785 0.496971
0.53785 0.522545 0.503716
0.545739 0.529259 0.51043
0.553628 0.535958 0.517143
0.561502 0.542687 0.523857
0.330434 0.350439 0.330434
0.338308 0.357153 0.337148
0.346197 0.363867 0.343862
0.354086 0.370581 0.350576
0.362249 0.377554 0.357549
0.370138 0.384253 0.364263
0.378027 0.390967 0.370977
0.385916 0.397681 0.377691
0.393805 0.404395 0.384405
0.40174 0.411154 0.391165
0.409842 0.418082 0.398093
0.417731 0.424796 0.404807
0.42562 0.43151 0.411505
0.433509 0.438209 0.418219
0.441398 0.444923 0.424933
0.449393 0.451743 0.431739
0.457435 0.45861 0.438621
0.465324 0.465324 0.445335
0.473213 0.472038 0.452049
0.481102 0.478752 0.458762
0.488991 0.485466 0.465461
0.497154 0.492439 0.472435
0.505043 0.499153 0.479149
0.512932 0.505852 0.485863
0.520821 0.512566 0.492576
0.52871 0.51928 0.49929
0.536736 0.526146 0.506142
0.544747 0.532967 0.512978
0.552636 0.539681 0.519692
0.560525 0.546395 0.52639
0.568414 0.553109 0.533104
0.576303 0.559808 0.539818
0.584375 0.56672 0.546731
0.353109 0.374289 0.353109
0.360983 0.381003 0.359823
0.368872 0.387717 0.366537
0.37702 0.39469 0.37351
0.384924 0.401404 0.380224
0.392813 0.408103 0.386938
0.400702 0.414816 0.393652
0.408591 0.42153 0.400366
0.416739 0.428504 0.40734
0.424628 0.435218 0.414054
0.432517 0.441932 0.420768
0.440406 0.448646 0.427482
0.448295 0.45536 0.43418
0.456214 0.462089 0.440925
0.464332 0.469047 0.447868
0.472221 0.475746 0.454582
0.48011 0.48246 0.461295
0.487999 0.489174 0.468009
0.495888 0.495888 0.474723
0.503853 0.502678 0.481514
0.511925 0.509575 0.488411
0.519829 0.516289 0.495109
0.527718 0.523003 0.501823
0.535607 0.529702 0.508537
0.543496 0.536416 0.515251
0.551507 0.543267 0.522087
0.559533 0.550103 0.528939
0.567422 0.556817 0.535653
0.575311 0.563531 0.542367
0.5832 0.570245 0.549065
0.591089 0.576959 0.555779
0.599145 0.583841 0.562661
0.607111 0.590646 0.569482
0.375784 0.398138 0.375784
0.383886 0.405081 0.382727
0.391821 0.411826 0.389487
0.399695 0.41854 0.396185
0.407599 0.425254 0.402899
0.415488 0.431968 0.409613
0.423377 0.438666 0.416327
0.431525 0.445655 0.423301
0.439414 0.452369 0.430014
0.447303 0.459068 0.436728
0.455192 0.465782 0.443442
0.463081 0.472496 0.450156
0.47097 0.47921 0.45687
0.479118 0.486183 0.463828
0.487007 0.492897 0.470542
0.494896 0.499611 0.477256
0.502785 0.506325 0.48397
0.510674 0.513024 0.490684
0.518624 0.519799 0.497444
0.526711 0.526711 0.504372
0.5346 0.533425 0.511086
0.542504 0.540139 0.5178
0.550393 0.546853 0.524498
0.558282 0.553567 0.531212
0.56643 0.56054 0.538186
0.574319 0.567254 0.5449
0.582208 0.573968 0.551614
0.590097 0.580667 0.558328
0.597986 0.587381 0.565042
0.605966 0.594186 0.571847
0.614023 0.601068 0.578729
0.621912 0.607782 0.585443
0.629786 0.614496 0.592157
0.398672 0.422202 0.398672
0.406592 0.428962 0.405432
0.414481 0.435676 0.412146
0.42237 0.44239 0.41886
0.430259 0.449104 0.425574
0.438163 0.455817 0.432288
0.446311 0.462791 0.439261
0.4542 0.469505 0.445975
0.462089 0.476219 0.452689
0.469978 0.482918 0.459388
0.477867 0.489632 0.466102
0.486 0.496605 0.473075
0.493904 0.503319 0.479789
0.501793 0.510033 0.486503
0.509682 0.516747 0.493217
0.517571 0.523461 0.499931
0.52546 0.530175 0.506645
0.533608 0.537148 0.513619
0.541497 0.543862 0.520333
0.549386 0.550576 0.527047
0.557275 0.557275 0.533745
0.565179 0.563989 0.540459
0.573083 0.570733 0.547204
0.581216 0.577676 0.554147
0.589105 0.58439 0.560861
0.596994 0.591104 0.567575
0.604883 0.597818 0.574289
0.612772 0.604532 0.581003
0.620737 0.611322 0.587793
0.628809 0.618219 0.59469
0.636698 0.624933 0.601404
0.644587 0.631632 0.608103
0.652461 0.638346 0.614832
0.421393 0.446113 0.421393
0.429267 0.452827 0.428107
0.437156 0.459525 0.434821
0.445045 0.466239 0.441535
0.453117 0.473136 0.448432
0.461097 0.479927 0.455222
0.468986 0.486641 0.461936
0.476875 0.493355 0.46865
0.484764 0.500069 0.475364
0.492638 0.506783 0.482063
0.500755 0.51371 0.489006
0.50869 0.52047 0.495766
0.516579 0.527169 0.502464
0.524468 0.533883 0.509178
0.532357 0.540597 0.515892
0.540246 0.547311 0.522606
0.548394 0.554284 0.52958
0.556283 0.560998 0.536294
0.564172 0.567712 0.543008
0.572061 0.574426 0.549722
0.57995 0.581125 0.55642
0.587854 0.587854 0.563134
0.596002 0.594827 0.570108
0.603891 0.601526 0.576822
0.61178 0.60824 0.583535
0.619669 0.614954 0.590249
0.627543 0.621668 0.596963
0.635706 0.628641 0.603937
0.643595 0.635355 0.610651
0.651484 0.642069 0.61735
0.659373 0.648783 0.624063
0.667262 0.655482 0.630777
0.675181 0.662257 0.637552
0.444068 0.469963 0.444068
0.451942 0.476677 0.450782
0.459831 0.483391 0.457496
0.467872 0.490257 0.464363
0.475883 0.497078 0.471183
0.483772 0.503777 0.477897
0.491661 0.510491 0.484611
0.49955 0.517205 0.491325
0.507439 0.523919 0.498039
0.515587 0.530892 0.505013
0.523476 0.537606 0.511727
0.531365 0.54432 0.518441
0.539254 0.551034 0.525139
0.547143 0.557733 0.531853
0.55523 0.56466 0.538766
0.56318 0.57142 0.545541
0.571069 0.578134 0.552254
0.578958 0.584848 0.558968
0.586847 0.591562 0.565682
0.594736 0.598276 0.572396
0.602869 0.605234 0.579355
0.610788 0.611963 0.586069
0.618677 0.618677 0.592782
0.626566 0.625376 0.599496
0.634455 0.63209 0.60621
0.642344 0.638804 0.612924
0.650492 0.645777 0.619898
0.658381 0.652491 0.626612
0.66627 0.659205 0.633326
0.674159 0.665919 0.640024
0.682048 0.672633 0.646738
0.689967 0.679362 0.653483
0.69807 0.68632 0.660441
0.466743 0.493812 0.466743
0.474708 0.500603 0.473548
0.48278 0.5075 0.480446
0.490654 0.514214 0.487144
0.498558 0.520928 0.493858
0.506447 0.527626 0.500572
0.514336 0.53434 0.507286
0.522347 0.541192 0.514122
0.530373 0.548028 0.520974
0.538262 0.554742 0.527687
0.546151 0.561456 0.534401
0.55404 0.56817 0.541115
0.561929 0.574884 0.547814
0.570001 0.581765 0.554711
0.577981 0.588571 0.561502
0.585855 0.595285 0.568215
0.593744 0.601984 0.574929
0.601633 0.608698 0.581643
0.609522 0.615412 0.588357
0.617639 0.622354 0.5953
0.625559 0.629099 0.602045
0.633463 0.635813 0.608759
0.641352 0.642527 0.615457
0.649241 0.649241 0.622171
0.65713 0.65594 0.628885
0.665278 0.662928 0.635859
0.673167 0.669627 0.642573
0.681056 0.676341 0.649287
0.688945 0.683055 0.656001
0.696834 0.689769 0.662715
0.704982 0.696742 0.669688
0.712871 0.703456 0.676402
0.720745 0.71017 0.683116
0.489479 0.517723 0.489479
0.497566 0.524636 0.496406
0.505455 0.53135 0.50312
0.513329 0.538064 0.509819
0.521233 0.544778 0.516533
0.529122 0.551492 0.523247
0.537118 0.558297 0.530068
0.545159 0.565179 0.536934
0.553048 0.571893 0.543648
0.560937 0.578592 0.550362
0.568826 0.585306 0.557076
0.576715 0.59202 0.56379
0.584863 0.598993 0.570764
0.592767 0.605707 0.577478
0.600656 0.612421 0.584176
0.60853 0.619135 0.59089
0.616419 0.625849 0.597604
0.62446 0.6327 0.604471
0.632456 0.639536 0.611292
0.640345 0.64625 0.618006
0.648234 0.652949 0.62472
0.656138 0.659663 0.631434
0.664027 0.666377 0.638132
0.672114 0.673289 0.645045
0.680064 0.680064 0.65182
0.687953 0.686778 0.658534
0.695842 0.693492 0.665248
0.703731 0.700206 0.671962
0.71162 0.706905 0.678676
0.719753 0.713863 0.685634
0.727657 0.720592 0.692363
0.735546 0.727306 0.699077
0.74342 0.73402 0.705791
0.512367 0.541772 0.512367
0.520241 0.548486 0.519081
0.52813 0.5552 0.525795
0.536004 0.561913 0.532494
0.543938 0.568658 0.539254
0.552056 0.575601 0.546197
0.559945 0.582315 0.552895
0.567834 0.589029 0.559609
0.575723 0.595743 0.566323
0.583612 0.602441 0.573037
0.591577 0.609247 0.579828
0.599649 0.616144 0.586725
0.607538 0.622843 0.593439
0.615442 0.629557 0.600153
0.623331 0.636271 0.606851
0.631205 0.642985 0.613565
0.639231 0.649821 0.620417
0.647242 0.656672 0.627253
0.655131 0.663386 0.633967
0.66302 0.6701 0.640681
0.670924 0.676799 0.647395
0.678813 0.683513 0.654108
0.68687 0.69041 0.66099
0.69485 0.6972 0.667796
0.702739 0.703914 0.674495
0.710628 0.710628 0.681208
0.718517 0.717342 0.687922
0.726406 0.724056 0.694636
0.734554 0.731029 0.70161
0.742443 0.737728 0.708324
0.750332 0.744442 0.715038
0.758221 0.751156 0.721752
0.766094 0.75787 0.728466
0.535042 0.565621 0.535042
0.542916 0.572335 0.541756
0.550805 0.579049 0.54847
0.558694 0.585779 0.555184
0.566842 0.592737 0.562158
0.574731 0.599451 0.568872
0.58262 0.606165 0.57557
0.590509 0.612879 0.582284
0.598398 0.619593 0.588998
0.606348 0.626352 0.595773
0.614435 0.63328 0.602686
0.622324 0.639994 0.6094
0.630213 0.646693 0.616114
0.638117 0.653407 0.622827
0.646006 0.660121 0.629526
0.654154 0.667094 0.636515
0.662043 0.673808 0.643214
0.669917 0.680522 0.649927
0.677806 0.687236 0.656641
0.68571 0.69395 0.663355
0.69369 0.700755 0.670176
0.701747 0.707637 0.677043
0.709636 0.714351 0.683757
0.717525 0.72105 0.690471
0.725414 0.727764 0.697169
0.733303 0.734478 0.703883
0.741344 0.741344 0.71075
0.74934 0.748165 0.717571
0.757229 0.754879 0.724285
0.765118 0.761593 0.730999
0.773007 0.768307 0.737713
0.780896 0.775006 0.744427
0.788968 0.781933 0.751339
0.557717 0.589487 0.557717
0.565591 0.596185 0.564431
0.573724 0.603159 0.571389
0.581628 0.609873 0.578119
0.589517 0.616587 0.584833
0.597406 0.623301 0.591546
0.605295 0.630014 0.598245
0.613184 0.636728 0.604959
0.621332 0.643702 0.611933
