public/LUTS/Black&White/Black&White_01.cube
TITLE "Generated by Resolve"
LUT_3D_SIZE 33
0.170306 0.170306 0.170306
0.175402 0.175402 0.175402
0.180911 0.180911 0.180911
0.186648 0.186648 0.186648
0.192157 0.192157 0.192157
0.197665 0.197665 0.197665
0.203189 0.203189 0.203189
0.208713 0.208713 0.208713
0.214237 0.214237 0.214237
0.219944 0.219944 0.219944
0.225467 0.225467 0.225467
0.230976 0.230976 0.230976
0.2365 0.2365 0.2365
0.242008 0.242008 0.242008
0.247578 0.247578 0.247578
0.253254 0.253254 0.253254
0.258778 0.258778 0.258778
0.264286 0.264286 0.264286
0.26981 0.26981 0.26981
0.275319 0.275319 0.275319
0.281056 0.281056 0.281056
0.286564 0.286564 0.286564
0.292073 0.292073 0.292073
0.297597 0.297597 0.297597
0.30312 0.30312 0.30312
0.308721 0.308721 0.308721
0.314351 0.314351 0.314351
0.319875 0.319875 0.319875
0.325383 0.325383 0.325383
0.330907 0.330907 0.330907
0.336416 0.336416 0.336416
0.342061 0.342061 0.342061
0.347662 0.347662 0.347662
0.18851 0.18851 0.18851
0.194018 0.194018 0.194018
0.199756 0.199756 0.199756
0.205264 0.205264 0.205264
0.210788 0.210788 0.210788
0.216297 0.216297 0.216297
0.22182 0.22182 0.22182
0.227543 0.227543 0.227543
0.233051 0.233051 0.233051
0.238575 0.238575 0.238575
0.244083 0.244083 0.244083
0.249607 0.249607 0.249607
0.255116 0.255116 0.255116
0.260853 0.260853 0.260853
0.266361 0.266361 0.266361
0.271885 0.271885 0.271885
0.277394 0.277394 0.277394
0.282918 0.282918 0.282918
0.288472 0.288472 0.288472
0.294163 0.294163 0.294163
0.299672 0.299672 0.299672
0.305196 0.305196 0.305196
0.310704 0.310704 0.310704
0.316228 0.316228 0.316228
0.321813 0.321813 0.321813
0.327459 0.327459 0.327459
0.332982 0.332982 0.332982
0.338491 0.338491 0.338491
0.344015 0.344015 0.344015
0.349523 0.349523 0.349523
0.355154 0.355154 0.355154
0.360769 0.360769 0.360769
0.366293 0.366293 0.366293
0.207294 0.207294 0.207294
0.212863 0.212863 0.212863
0.218387 0.218387 0.218387
0.223896 0.223896 0.223896
0.229419 0.229419 0.229419
0.234928 0.234928 0.234928
0.240635 0.240635 0.240635
0.246174 0.246174 0.246174
0.251682 0.251682 0.251682
0.257206 0.257206 0.257206
0.26273 0.26273 0.26273
0.268238 0.268238 0.268238
0.27396 0.27396 0.27396
0.279484 0.279484 0.279484
0.284993 0.284993 0.284993
0.290517 0.290517 0.290517
0.296025 0.296025 0.296025
0.301564 0.301564 0.301564
0.307271 0.307271 0.307271
0.312795 0.312795 0.312795
0.318303 0.318303 0.318303
0.323827 0.323827 0.323827
0.329335 0.329335 0.329335
0.335058 0.335058 0.335058
0.340581 0.340581 0.340581
0.34609 0.34609 0.34609
0.351614 0.351614 0.351614
0.357137 0.357137 0.357137
0.362692 0.362692 0.362692
0.368368 0.368368 0.368368
0.373892 0.373892 0.373892
0.3794 0.3794 0.3794
0.384924 0.384924 0.384924
0.225986 0.225986 0.225986
0.231495 0.231495 0.231495
0.237018 0.237018 0.237018
0.242527 0.242527 0.242527
0.248051 0.248051 0.248051
0.253773 0.253773 0.253773
0.259297 0.259297 0.259297
0.264805 0.264805 0.264805
0.270329 0.270329 0.270329
0.275837 0.275837 0.275837
0.281529 0.281529 0.281529
0.287083 0.287083 0.287083
0.292607 0.292607 0.292607
0.298116 0.298116 0.298116
0.303624 0.303624 0.303624
0.309148 0.309148 0.309148
0.31487 0.31487 0.31487
0.320394 0.320394 0.320394
0.325902 0.325902 0.325902
0.331426 0.331426 0.331426
0.336934 0.336934 0.336934
0.342458 0.342458 0.342458
0.34818 0.34818 0.34818
0.353704 0.353704 0.353704
0.359213 0.359213 0.359213
0.364736 0.364736 0.364736
0.370245 0.370245 0.370245
0.375799 0.375799 0.375799
0.381491 0.381491 0.381491
0.387015 0.387015 0.387015
0.392523 0.392523 0.392523
0.398032 0.398032 0.398032
0.403555 0.403555 0.403555
0.244617 0.244617 0.244617
0.250141 0.250141 0.250141
0.25565 0.25565 0.25565
0.26128 0.26128 0.26128
0.266896 0.266896 0.266896
0.272404 0.272404 0.272404
0.277928 0.277928 0.277928
0.283436 0.283436 0.283436
0.28896 0.28896 0.28896
0.294636 0.294636 0.294636
0.300206 0.300206 0.300206
0.305715 0.305715 0.305715
0.311238 0.311238 0.311238
0.316747 0.316747 0.316747
0.322271 0.322271 0.322271
0.327977 0.327977 0.327977
0.333516 0.333516 0.333516
0.339025 0.339025 0.339025
0.344549 0.344549 0.344549
0.350057 0.350057 0.350057
0.355566 0.355566 0.355566
0.361303 0.361303 0.361303
0.366812 0.366812 0.366812
0.372335 0.372335 0.372335
0.377844 0.377844 0.377844
0.383368 0.383368 0.383368
0.38909 0.38909 0.38909
0.394614 0.394614 0.394614
0.400122 0.400122 0.400122
0.405646 0.405646 0.405646
0.411154 0.411154 0.411154
0.416693 0.416693 0.416693
0.4224 0.4224 0.4224
0.263249 0.263249 0.263249
0.268772 0.268772 0.268772
0.274388 0.274388 0.274388
0.280003 0.280003 0.280003
0.285527 0.285527 0.285527
0.291051 0.291051 0.291051
0.296559 0.296559 0.296559
0.302083 0.302083 0.302083
0.307805 0.307805 0.307805
0.313313 0.313313 0.313313
0.318837 0.318837 0.318837
0.324346 0.324346 0.324346
0.32987 0.32987 0.32987
0.335515 0.335515 0.335515
0.341115 0.341115 0.341115
0.346624 0.346624 0.346624
0.352148 0.352148 0.352148
0.357656 0.357656 0.357656
0.36318 0.36318 0.36318
0.368872 0.368872 0.368872
0.374411 0.374411 0.374411
0.379934 0.379934 0.379934
0.385458 0.385458 0.385458
0.390967 0.390967 0.390967
0.39649 0.39649 0.39649
0.402213 0.402213 0.402213
0.407721 0.407721 0.407721
0.413245 0.413245 0.413245
0.418753 0.418753 0.418753
0.424277 0.424277 0.424277
0.429786 0.429786 0.429786
0.435523 0.435523 0.435523
0.441032 0.441032 0.441032
0.281926 0.281926 0.281926
0.287617 0.287617 0.287617
0.293126 0.293126 0.293126
0.29865 0.29865 0.29865
0.304158 0.304158 0.304158
0.309682 0.309682 0.309682
0.315267 0.315267 0.315267
0.320912 0.320912 0.320912
0.326436 0.326436 0.326436
0.331945 0.331945 0.331945
0.337469 0.337469 0.337469
0.342977 0.342977 0.342977
0.348623 0.348623 0.348623
0.354223 0.354223 0.354223
0.359747 0.359747 0.359747
0.365255 0.365255 0.365255
0.370779 0.370779 0.370779
0.376287 0.376287 0.376287
0.381964 0.381964 0.381964
0.387533 0.387533 0.387533
0.393057 0.393057 0.393057
0.398566 0.398566 0.398566
0.404089 0.404089 0.404089
0.409598 0.409598 0.409598
0.41532 0.41532 0.41532
0.420844 0.420844 0.420844
0.426352 0.426352 0.426352
0.431876 0.431876 0.431876
0.437385 0.437385 0.437385
0.443091 0.443091 0.443091
0.448631 0.448631 0.448631
0.454154 0.454154 0.454154
0.459663 0.459663 0.459663
0.300725 0.300725 0.300725
0.306249 0.306249 0.306249
0.311757 0.311757 0.311757
0.317281 0.317281 0.317281
0.322789 0.322789 0.322789
0.328374 0.328374 0.328374
0.334035 0.334035 0.334035
0.339559 0.339559 0.339559
0.345068 0.345068 0.345068
0.350591 0.350591 0.350591
0.3561 0.3561 0.3561
0.361822 0.361822 0.361822
0.367346 0.367346 0.367346
0.372854 0.372854 0.372854
0.378378 0.378378 0.378378
0.383886 0.383886 0.383886
0.389502 0.389502 0.389502
0.395132 0.395132 0.395132
0.400656 0.400656 0.400656
0.406165 0.406165 0.406165
0.411688 0.411688 0.411688
0.417197 0.417197 0.417197
0.422858 0.422858 0.422858
0.428443 0.428443 0.428443
0.433967 0.433967 0.433967
0.439475 0.439475 0.439475
0.444999 0.444999 0.444999
0.450507 0.450507 0.450507
0.456199 0.456199 0.456199
0.461753 0.461753 0.461753
0.467262 0.467262 0.467262
0.472786 0.472786 0.472786
0.478294 0.478294 0.478294
0.319371 0.319371 0.319371
0.32488 0.32488 0.32488
0.330404 0.330404 0.330404
0.335912 0.335912 0.335912
0.341634 0.341634 0.341634
0.347158 0.347158 0.347158
0.352667 0.352667 0.352667
0.35819 0.35819 0.35819
0.363699 0.363699 0.363699
0.369253 0.369253 0.369253
0.374945 0.374945 0.374945
0.380453 0.380453 0.380453
0.385977 0.385977 0.385977
0.391501 0.391501 0.391501
0.397009 0.397009 0.397009
0.402609 0.402609 0.402609
0.408255 0.408255 0.408255
0.413764 0.413764 0.413764
0.419287 0.419287 0.419287
0.424811 0.424811 0.424811
0.43032 0.43032 0.43032
0.43595 0.43595 0.43595
0.441566 0.441566 0.441566
0.447074 0.447074 0.447074
0.452598 0.452598 0.452598
0.458106 0.458106 0.458106
0.46363 0.46363 0.46363
0.469352 0.469352 0.469352
0.474861 0.474861 0.474861
0.480385 0.480385 0.480385
0.485908 0.485908 0.485908
0.491417 0.491417 0.491417
0.497078 0.497078 0.497078
0.338003 0.338003 0.338003
0.343511 0.343511 0.343511
0.349035 0.349035 0.349035
0.354757 0.354757 0.354757
0.360265 0.360265 0.360265
0.365789 0.365789 0.365789
0.371298 0.371298 0.371298
0.376822 0.376822 0.376822
0.382361 0.382361 0.382361
0.388067 0.388067 0.388067
0.393576 0.393576 0.393576
0.3991 0.3991 0.3991
0.404608 0.404608 0.404608
0.410132 0.410132 0.410132
0.415854 0.415854 0.415854
0.421378 0.421378 0.421378
0.426886 0.426886 0.426886
0.432395 0.432395 0.432395
0.437919 0.437919 0.437919
0.443488 0.443488 0.443488
0.449165 0.449165 0.449165
0.454673 0.454673 0.454673
0.460197 0.460197 0.460197
0.465705 0.465705 0.465705
0.471229 0.471229 0.471229
0.476844 0.476844 0.476844
0.482475 0.482475 0.482475
0.487984 0.487984 0.487984
0.493507 0.493507 0.493507
0.499016 0.499016 0.499016
0.50454 0.50454 0.50454
0.510185 0.510185 0.510185
0.515785 0.515785 0.515785
0.356634 0.356634 0.356634
0.362325 0.362325 0.362325
0.36788 0.36788 0.36788
0.373388 0.373388 0.373388
0.378912 0.378912 0.378912
0.384421 0.384421 0.384421
0.389944 0.389944 0.389944
0.395666 0.395666 0.395666
0.401175 0.401175 0.401175
0.406699 0.406699 0.406699
0.412207 0.412207 0.412207
0.417731 0.417731 0.417731
0.423239 0.423239 0.423239
0.428977 0.428977 0.428977
0.434485 0.434485 0.434485
0.440009 0.440009 0.440009
0.445518 0.445518 0.445518
0.451041 0.451041 0.451041
0.456596 0.456596 0.456596
0.462287 0.462287 0.462287
0.467796 0.467796 0.467796
0.47332 0.47332 0.47332
0.478828 0.478828 0.478828
0.484352 0.484352 0.484352
0.489937 0.489937 0.489937
0.495583 0.495583 0.495583
0.501106 0.501106 0.501106
0.506615 0.506615 0.506615
0.512139 0.512139 0.512139
0.517647 0.517647 0.517647
0.523384 0.523384 0.523384
0.528893 0.528893 0.528893
0.534417 0.534417 0.534417
0.375418 0.375418 0.375418
0.380987 0.380987 0.380987
0.386511 0.386511 0.386511
0.39202 0.39202 0.39202
0.397543 0.397543 0.397543
0.403052 0.403052 0.403052
0.408774 0.408774 0.408774
0.414298 0.414298 0.414298
0.419821 0.419821 0.419821
0.42533 0.42533 0.42533
0.430854 0.430854 0.430854
0.436362 0.436362 0.436362
0.442084 0.442084 0.442084
0.447608 0.447608 0.447608
0.453117 0.453117 0.453117
0.45864 0.45864 0.45864
0.464149 0.464149 0.464149
0.469886 0.469886 0.469886
0.475395 0.475395 0.475395
0.480919 0.480919 0.480919
0.486427 0.486427 0.486427
0.491951 0.491951 0.491951
0.497475 0.497475 0.497475
0.503182 0.503182 0.503182
0.508705 0.508705 0.508705
0.514229 0.514229 0.514229
0.519738 0.519738 0.519738
0.525261 0.525261 0.525261
0.530831 0.530831 0.530831
0.536492 0.536492 0.536492
0.542016 0.542016 0.542016
0.547524 0.547524 0.547524
0.553048 0.553048 0.553048
0.39411 0.39411 0.39411
0.399619 0.399619 0.399619
0.405142 0.405142 0.405142
0.410651 0.410651 0.410651
0.416312 0.416312 0.416312
0.421897 0.421897 0.421897
0.42742 0.42742 0.42742
0.432929 0.432929 0.432929
0.438453 0.438453 0.438453
0.443961 0.443961 0.443961
0.449653 0.449653 0.449653
0.455207 0.455207 0.455207
0.460716 0.460716 0.460716
0.466239 0.466239 0.466239
0.471748 0.471748 0.471748
0.477272 0.477272 0.477272
0.482994 0.482994 0.482994
0.488518 0.488518 0.488518
0.494026 0.494026 0.494026
0.49955 0.49955 0.49955
0.505058 0.505058 0.505058
0.510582 0.510582 0.510582
0.516304 0.516304 0.516304
0.521828 0.521828 0.521828
0.527337 0.527337 0.527337
0.53286 0.53286 0.53286
0.538369 0.538369 0.538369
0.543923 0.543923 0.543923
0.549615 0.549615 0.549615
0.555123 0.555123 0.555123
0.560647 0.560647 0.560647
0.566155 0.566155 0.566155
0.571679 0.571679 0.571679
0.412741 0.412741 0.412741
0.41825 0.41825 0.41825
0.423774 0.423774 0.423774
0.429404 0.429404 0.429404
0.435019 0.435019 0.435019
0.440528 0.440528 0.440528
0.446052 0.446052 0.446052
0.45156 0.45156 0.45156
0.457084 0.457084 0.457084
0.46276 0.46276 0.46276
0.46833 0.46833 0.46833
0.473838 0.473838 0.473838
0.479362 0.479362 0.479362
0.484871 0.484871 0.484871
0.490394 0.490394 0.490394
0.496117 0.496117 0.496117
0.50164 0.50164 0.50164
0.507149 0.507149 0.507149
0.512657 0.512657 0.512657
0.518181 0.518181 0.518181
0.523888 0.523888 0.523888
0.529427 0.529427 0.529427
0.534936 0.534936 0.534936
0.540459 0.540459 0.540459
0.545968 0.545968 0.545968
0.551492 0.551492 0.551492
0.557214 0.557214 0.557214
0.562737 0.562737 0.562737
0.568246 0.568246 0.568246
0.57377 0.57377 0.57377
0.579278 0.579278 0.579278
0.584817 0.584817 0.584817
0.590524 0.590524 0.590524
0.431373 0.431373 0.431373
0.436896 0.436896 0.436896
0.442618 0.442618 0.442618
0.448127 0.448127 0.448127
0.453651 0.453651 0.453651
0.459174 0.459174 0.459174
0.464683 0.464683 0.464683
0.470298 0.470298 0.470298
0.475929 0.475929 0.475929
0.481437 0.481437 0.481437
0.486961 0.486961 0.486961
0.49247 0.49247 0.49247
0.497993 0.497993 0.497993
0.503639 0.503639 0.503639
0.509239 0.509239 0.509239
0.514748 0.514748 0.514748
0.520272 0.520272 0.520272
0.52578 0.52578 0.52578
0.531304 0.531304 0.531304
0.536995 0.536995 0.536995
0.542535 0.542535 0.542535
0.548058 0.548058 0.548058
0.553582 0.553582 0.553582
0.559091 0.559091 0.559091
0.564599 0.564599 0.564599
0.570336 0.570336 0.570336
0.575845 0.575845 0.575845
0.581369 0.581369 0.581369
0.586877 0.586877 0.586877
0.592401 0.592401 0.592401
0.59791 0.59791 0.59791
0.603647 0.603647 0.603647
0.609155 0.609155 0.609155
0.45005 0.45005 0.45005
0.455741 0.455741 0.455741
0.46125 0.46125 0.46125
0.466773 0.466773 0.466773
0.472282 0.472282 0.472282
0.477806 0.477806 0.477806
0.483391 0.483391 0.483391
0.489036 0.489036 0.489036
0.49456 0.49456 0.49456
0.500069 0.500069 0.500069
0.505592 0.505592 0.505592
0.511116 0.511116 0.511116
0.516747 0.516747 0.516747
0.522347 0.522347 0.522347
0.527871 0.527871 0.527871
0.533379 0.533379 0.533379
0.538903 0.538903 0.538903
0.544411 0.544411 0.544411
0.550149 0.550149 0.550149
0.555657 0.555657 0.555657
0.561181 0.561181 0.561181
0.56669 0.56669 0.56669
0.572213 0.572213 0.572213
0.577874 0.577874 0.577874
0.583444 0.583444 0.583444
0.588968 0.588968 0.588968
0.594476 0.594476 0.594476
0.6 0.6 0.6
0.605524 0.605524 0.605524
0.611231 0.611231 0.611231
0.616754 0.616754 0.616754
0.622278 0.622278 0.622278
0.627787 0.627787 0.627787
0.468849 0.468849 0.468849
0.474372 0.474372 0.474372
0.479881 0.479881 0.479881
0.485405 0.485405 0.485405
0.490913 0.490913 0.490913
0.496651 0.496651 0.496651
0.502159 0.502159 0.502159
0.507683 0.507683 0.507683
0.513191 0.513191 0.513191
0.518715 0.518715 0.518715
0.524285 0.524285 0.524285
0.529946 0.529946 0.529946
0.53547 0.53547 0.53547
0.540978 0.540978 0.540978
0.546502 0.546502 0.546502
0.55201 0.55201 0.55201
0.557641 0.557641 0.557641
0.563256 0.563256 0.563256
0.56878 0.56878 0.56878
0.574289 0.574289 0.574289
0.579812 0.579812 0.579812
0.585321 0.585321 0.585321
0.590982 0.590982 0.590982
0.596567 0.596567 0.596567
0.60209 0.60209 0.60209
0.607599 0.607599 0.607599
0.613123 0.613123 0.613123
0.618631 0.618631 0.618631
0.624323 0.624323 0.624323
0.629877 0.629877 0.629877
0.635386 0.635386 0.635386
0.640909 0.640909 0.640909
0.646418 0.646418 0.646418
0.487495 0.487495 0.487495
0.493004 0.493004 0.493004
0.498512 0.498512 0.498512
0.504036 0.504036 0.504036
0.509758 0.509758 0.509758
0.515282 0.515282 0.515282
0.52079 0.52079 0.52079
0.526314 0.526314 0.526314
0.531823 0.531823 0.531823
0.537392 0.537392 0.537392
0.543069 0.543069 0.543069
0.548592 0.548592 0.548592
0.554101 0.554101 0.554101
0.559625 0.559625 0.559625
0.565133 0.565133 0.565133
0.570733 0.570733 0.570733
0.576379 0.576379 0.576379
0.581888 0.581888 0.581888
0.587411 0.587411 0.587411
0.59292 0.59292 0.59292
0.598444 0.598444 0.598444
0.604166 0.604166 0.604166
0.609689 0.609689 0.609689
0.615198 0.615198 0.615198
0.620722 0.620722 0.620722
0.62623 0.62623 0.62623
0.631861 0.631861 0.631861
0.637476 0.637476 0.637476
0.643 0.643 0.643
0.648508 0.648508 0.648508
0.654032 0.654032 0.654032
0.659541 0.659541 0.659541
0.665217 0.665217 0.665217
0.506127 0.506127 0.506127
0.511635 0.511635 0.511635
0.517159 0.517159 0.517159
0.522881 0.522881 0.522881
0.528389 0.528389 0.528389
0.533913 0.533913 0.533913
0.539422 0.539422 0.539422
0.544945 0.544945 0.544945
0.550668 0.550668 0.550668
0.556191 0.556191 0.556191
0.5617 0.5617 0.5617
0.567224 0.567224 0.567224
0.572732 0.572732 0.572732
0.578271 0.578271 0.578271
0.583978 0.583978 0.583978
0.589487 0.589487 0.589487
0.59501 0.59501 0.59501
0.600519 0.600519 0.600519
0.606043 0.606043 0.606043
0.611627 0.611627 0.611627
0.617288 0.617288 0.617288
0.622797 0.622797 0.622797
0.628321 0.628321 0.628321
0.633829 0.633829 0.633829
0.639353 0.639353 0.639353
0.644968 0.644968 0.644968
0.650599 0.650599 0.650599
0.656107 0.656107 0.656107
0.661631 0.661631 0.661631
0.66714 0.66714 0.66714
0.672663 0.672663 0.672663
0.678309 0.678309 0.678309
0.683894 0.683894 0.683894
0.524758 0.524758 0.524758
0.530449 0.530449 0.530449
0.536004 0.536004 0.536004
0.541512 0.541512 0.541512
0.547036 0.547036 0.547036
0.552544 0.552544 0.552544
0.558053 0.558053 0.558053
0.56379 0.56379 0.56379
0.569299 0.569299 0.569299
0.574823 0.574823 0.574823
0.580331 0.580331 0.580331
0.585855 0.585855 0.585855
0.591379 0.591379 0.591379
0.597101 0.597101 0.597101
0.602609 0.602609 0.602609
0.608133 0.608133 0.608133
0.613642 0.613642 0.613642
0.619165 0.619165 0.619165
0.62472 0.62472 0.62472
0.630411 0.630411 0.630411
0.63592 0.63592 0.63592
0.641443 0.641443 0.641443
0.646952 0.646952 0.646952
0.652461 0.652461 0.652461
0.658198 0.658198 0.658198
0.663706 0.663706 0.663706
0.66923 0.66923 0.66923
0.674739 0.674739 0.674739
0.680262 0.680262 0.680262
0.685847 0.685847 0.685847
0.691508 0.691508 0.691508
0.697017 0.697017 0.697017
0.702541 0.702541 0.702541
0.543557 0.543557 0.543557
0.549111 0.549111 0.549111
0.554635 0.554635 0.554635
0.560143 0.560143 0.560143
0.565667 0.565667 0.565667
0.571176 0.571176 0.571176
0.576898 0.576898 0.576898
0.582422 0.582422 0.582422
0.587945 0.587945 0.587945
0.593454 0.593454 0.593454
0.598978 0.598978 0.598978
0.604685 0.604685 0.604685
0.610208 0.610208 0.610208
0.615732 0.615732 0.615732
0.621241 0.621241 0.621241
0.626764 0.626764 0.626764
0.632273 0.632273 0.632273
0.63801 0.63801 0.63801
0.643519 0.643519 0.643519
0.649042 0.649042 0.649042
0.654551 0.654551 0.654551
0.660075 0.660075 0.660075
0.665614 0.665614 0.665614
0.671305 0.671305 0.671305
0.676829 0.676829 0.676829
0.682353 0.682353 0.682353
0.687861 0.687861 0.687861
0.693385 0.693385 0.693385
0.698955 0.698955 0.698955
0.704616 0.704616 0.704616
0.71014 0.71014 0.71014
0.715648 0.715648 0.715648
0.721172 0.721172 0.721172
0.562234 0.562234 0.562234
0.567742 0.567742 0.567742
0.573266 0.573266 0.573266
0.578775 0.578775 0.578775
0.584436 0.584436 0.584436
0.590021 0.590021 0.590021
0.595544 0.595544 0.595544
0.601053 0.601053 0.601053
0.606577 0.606577 0.606577
0.612085 0.612085 0.612085
0.617792 0.617792 0.617792
0.623331 0.623331 0.623331
0.62884 0.62884 0.62884
0.634363 0.634363 0.634363
0.639887 0.639887 0.639887
0.645396 0.645396 0.645396
0.651118 0.651118 0.651118
0.656641 0.656641 0.656641
0.66215 0.66215 0.66215
0.667674 0.667674 0.667674
0.673182 0.673182 0.673182
0.678706 0.678706 0.678706
0.684428 0.684428 0.684428
0.689952 0.689952 0.689952
0.69546 0.69546 0.69546
0.700984 0.700984 0.700984
0.706493 0.706493 0.706493
0.712215 0.712215 0.712215
0.717739 0.717739 0.717739
0.723247 0.723247 0.723247
0.728771 0.728771 0.728771
0.734279 0.734279 0.734279
0.739849 0.739849 0.739849
0.580865 0.580865 0.580865
0.586374 0.586374 0.586374
0.591897 0.591897 0.591897
0.597543 0.597543 0.597543
0.603143 0.603143 0.603143
0.608652 0.608652 0.608652
0.614176 0.614176 0.614176
0.619684 0.619684 0.619684
0.625208 0.625208 0.625208
0.63093 0.63093 0.63093
0.636454 0.636454 0.636454
0.641962 0.641962 0.641962
0.647486 0.647486 0.647486
0.652995 0.652995 0.652995
0.658671 0.658671 0.658671
0.66424 0.66424 0.66424
0.669749 0.669749 0.669749
0.675273 0.675273 0.675273
0.680781 0.680781 0.680781
0.686305 0.686305 0.686305
0.692012 0.692012 0.692012
0.697551 0.697551 0.697551
0.703059 0.703059 0.703059
0.708583 0.708583 0.708583
0.714092 0.714092 0.714092
0.719615 0.719615 0.719615
0.725338 0.725338 0.725338
0.730861 0.730861 0.730861
0.73637 0.73637 0.73637
0.741894 0.741894 0.741894
0.747402 0.747402 0.747402
0.752941 0.752941 0.752941
0.758648 0.758648 0.758648
0.599496 0.599496 0.599496
0.605081 0.605081 0.605081
0.610742 0.610742 0.610742
0.616251 0.616251 0.616251
0.621775 0.621775 0.621775
0.627283 0.627283 0.627283
0.632807 0.632807 0.632807
0.638422 0.638422 0.638422
0.644053 0.644053 0.644053
0.649561 0.649561 0.649561
0.655085 0.655085 0.655085
0.660594 0.660594 0.660594
0.666117 0.666117 0.666117
0.671778 0.671778 0.671778
0.677363 0.677363 0.677363
0.682872 0.682872 0.682872
0.688396 0.688396 0.688396
0.693904 0.693904 0.693904
0.699428 0.699428 0.699428
0.705119 0.705119 0.705119
0.710658 0.710658 0.710658
0.716182 0.716182 0.716182
0.721691 0.721691 0.721691
0.727214 0.727214 0.727214
0.732723 0.732723 0.732723
0.73846 0.73846 0.73846
0.743969 0.743969 0.743969
0.749493 0.749493 0.749493
0.755001 0.755001 0.755001
0.760525 0.760525 0.760525
0.766247 0.766247 0.766247
0.771756 0.771756 0.771756
0.777279 0.777279 0.777279
0.618189 0.618189 0.618189
0.623865 0.623865 0.623865
0.629374 0.629374 0.629374
0.634882 0.634882 0.634882
0.640406 0.640406 0.640406
0.64593 0.64593 0.64593
0.65153 0.65153 0.65153
0.65716 0.65716 0.65716
0.662684 0.662684 0.662684
0.668193 0.668193 0.668193
0.673716 0.673716 0.673716
0.67924 0.67924 0.67924
0.684962 0.684962 0.684962
0.690471 0.690471 0.690471
0.695994 0.695994 0.695994
0.701503 0.701503 0.701503
0.707027 0.707027 0.707027
0.712657 0.712657 0.712657
0.718273 0.718273 0.718273
0.723781 0.723781 0.723781
0.72929 0.72929 0.72929
0.734813 0.734813 0.734813
0.740337 0.740337 0.740337
0.745998 0.745998 0.745998
0.751568 0.751568 0.751568
0.757092 0.757092 0.757092
0.7626 0.7626 0.7626
0.768124 0.768124 0.768124
0.773648 0.773648 0.773648
0.779355 0.779355 0.779355
0.784878 0.784878 0.784878
0.790402 0.790402 0.790402
0.795911 0.795911 0.795911
0.636973 0.636973 0.636973
0.642496 0.642496 0.642496
0.648005 0.648005 0.648005
0.653529 0.653529 0.653529
0.659068 0.659068 0.659068
0.664775 0.664775 0.664775
0.670283 0.670283 0.670283
0.675807 0.675807 0.675807
0.681315 0.681315 0.681315
0.686824 0.686824 0.686824
0.692409 0.692409 0.692409
0.69807 0.69807 0.69807
0.703593 0.703593 0.703593
0.709102 0.709102 0.709102
0.714626 0.714626 0.714626
0.720134 0.720134 0.720134
0.725765 0.725765 0.725765
0.73138 0.73138 0.73138
0.736904 0.736904 0.736904
0.742412 0.742412 0.742412
0.747936 0.747936 0.747936
0.753445 0.753445 0.753445
0.759106 0.759106 0.759106
0.764691 0.764691 0.764691
0.770214 0.770214 0.770214
0.775723 0.775723 0.775723
0.781231 0.781231 0.781231
0.786755 0.786755 0.786755
0.792477 0.792477 0.792477
0.798001 0.798001 0.798001
0.80351 0.80351 0.80351
0.809033 0.809033 0.809033
0.814542 0.814542 0.814542
0.655604 0.655604 0.655604
0.661128 0.661128 0.661128
0.666636 0.666636 0.666636
0.67216 0.67216 0.67216
0.677882 0.677882 0.677882
0.683406 0.683406 0.683406
0.688914 0.688914 0.688914
0.694438 0.694438 0.694438
0.699947 0.699947 0.699947
0.705516 0.705516 0.705516
0.711192 0.711192 0.711192
0.716716 0.716716 0.716716
0.722225 0.722225 0.722225
0.727749 0.727749 0.727749
0.733257 0.733257 0.733257
0.738979 0.738979 0.738979
0.744503 0.744503 0.744503
0.750011 0.750011 0.750011
0.755535 0.755535 0.755535
0.761044 0.761044 0.761044
0.766644 0.766644 0.766644
0.77229 0.77229 0.77229
0.777813 0.777813 0.777813
0.783322 0.783322 0.783322
0.788846 0.788846 0.788846
0.794354 0.794354 0.794354
0.8 0.8 0.8
0.8056 0.8056 0.8056
0.811124 0.811124 0.811124
0.816632 0.816632 0.816632
0.822156 0.822156 0.822156
0.827665 0.827665 0.827665
0.833341 0.833341 0.833341
0.67425 0.67425 0.67425
0.679759 0.679759 0.679759
0.685481 0.685481 0.685481
0.691005 0.691005 0.691005
0.696513 0.696513 0.696513
0.702037 0.702037 0.702037
0.707546 0.707546 0.707546
0.713069 0.713069 0.713069
