public/LUTS/Black&White/Black&White_03.cube
TITLE "Generated by Resolve"
LUT_3D_SIZE 33
0.423575 0.423575 0.423575
0.430167 0.429129 0.429129
0.437278 0.435126 0.435126
0.444678 0.441382 0.441382
0.451881 0.44741 0.44741
0.459159 0.453529 0.453529
0.466545 0.45977 0.45977
0.473976 0.466102 0.466102
0.481392 0.47248 0.47248
0.489006 0.479133 0.479133
0.496376 0.485634 0.485634
0.503761 0.492226 0.492226
0.511131 0.498878 0.498878
0.518456 0.505562 0.505562
0.525826 0.512337 0.512337
0.533333 0.51928 0.51928
0.540642 0.52607 0.52607
0.547967 0.532876 0.532876
0.555261 0.539712 0.539712
0.562539 0.546517 0.546517
0.570047 0.553597 0.553597
0.577279 0.560403 0.560403
0.584482 0.567193 0.567193
0.591684 0.573983 0.573983
0.59884 0.580743 0.580743
0.606043 0.587564 0.587564
0.61323 0.594369 0.594369
0.620249 0.600992 0.600992
0.627253 0.607614 0.607614
0.634195 0.61416 0.61416
0.641047 0.6206 0.6206
0.647974 0.627115 0.627115
0.654826 0.633539 0.633539
0.443458 0.444495 0.443458
0.450568 0.450568 0.449531
0.458106 0.456992 0.455955
0.465522 0.463264 0.462226
0.47303 0.469596 0.468559
0.480537 0.475944 0.474907
0.488075 0.482338 0.4813
0.495903 0.489067 0.488029
0.503502 0.495628 0.494591
0.51107 0.502251 0.501213
0.518593 0.508888 0.507851
0.526055 0.515557 0.514519
0.533501 0.522286 0.521248
0.541176 0.529335 0.528283
0.548562 0.536126 0.535073
0.555932 0.542916 0.541878
0.563256 0.549722 0.548684
0.57055 0.556512 0.555474
0.577859 0.563348 0.56231
0.585321 0.570352 0.569314
0.592538 0.577127 0.576089
0.59971 0.583856 0.582818
0.60679 0.590539 0.589502
0.61384 0.597177 0.596139
0.620951 0.603891 0.602853
0.628092 0.610651 0.609613
0.635004 0.617166 0.616129
0.64181 0.62359 0.622553
0.648539 0.629938 0.628901
0.655268 0.636271 0.635218
0.662074 0.642664 0.641627
0.668757 0.648936 0.647898
0.675196 0.654963 0.653925
0.464546 0.466697 0.464546
0.472023 0.473136 0.470985
0.4795 0.4795 0.477348
0.487068 0.485924 0.483772
0.494728 0.492409 0.490257
0.502449 0.49897 0.496818
0.510399 0.505776 0.503624
0.51812 0.512398 0.510246
0.525795 0.519036 0.516884
0.53344 0.525719 0.523568
0.541039 0.532448 0.530297
0.548592 0.539208 0.537057
0.556329 0.546242 0.544091
0.563745 0.553002 0.550851
0.571115 0.559777 0.557626
0.578439 0.566537 0.564385
0.585733 0.573312 0.57116
0.593011 0.580087 0.577935
0.600427 0.58703 0.584878
0.607538 0.593683 0.591531
0.614603 0.600305 0.598154
0.621637 0.606912 0.604761
0.628626 0.613474 0.611337
0.635752 0.620203 0.618051
0.642527 0.626581 0.624445
0.649256 0.632929 0.630777
0.65597 0.639246 0.637095
0.662593 0.645487 0.643336
0.669154 0.651652 0.6495
0.675731 0.657832 0.65568
0.682063 0.663767 0.661616
0.688396 0.669673 0.667521
0.694621 0.675486 0.673335
0.486198 0.489494 0.486198
0.493782 0.496025 0.492729
0.501457 0.502602 0.499306
0.509178 0.509178 0.505882
0.516945 0.51577 0.512474
0.525002 0.522667 0.519356
0.532799 0.52932 0.526024
0.540581 0.536004 0.532708
0.548318 0.542702 0.539406
0.555978 0.549416 0.54612
0.56379 0.556344 0.553048
0.571359 0.563119 0.559823
0.578805 0.569848 0.566552
0.586191 0.576593 0.573297
0.5935 0.583307 0.580011
0.600717 0.589975 0.586679
0.608133 0.596857 0.593545
0.615228 0.603449 0.600153
0.622309 0.61004 0.606744
0.629282 0.616571 0.613275
0.636164 0.622995 0.619699
0.642939 0.629358 0.626062
0.649927 0.635935 0.632639
0.656626 0.642222 0.638926
0.663218 0.648417 0.645121
0.669657 0.654475 0.651179
0.67602 0.660456 0.65716
0.682399 0.666438 0.663142
0.688853 0.672511 0.6692
0.695003 0.678264 0.674952
0.701015 0.683864 0.680552
0.70692 0.689357 0.686046
0.712795 0.69482 0.691524
0.508339 0.51281 0.508339
0.515999 0.519432 0.514961
0.523751 0.52607 0.521614
0.531716 0.532891 0.52842
0.539681 0.539681 0.53521
0.547524 0.546349 0.541878
0.555322 0.553017 0.548547
0.563088 0.559686 0.555215
0.570779 0.566354 0.561883
0.578622 0.57322 0.56875
0.586252 0.57998 0.575509
0.593698 0.586618 0.582147
0.601007 0.59324 0.588769
0.60824 0.599817 0.595361
0.615427 0.606409 0.601938
0.622766 0.613199 0.608728
0.629801 0.619684 0.615213
0.636683 0.626062 0.621592
0.643488 0.632395 0.627924
0.650263 0.638712 0.634241
0.656962 0.644968 0.640497
0.663767 0.651347 0.646876
0.670192 0.657374 0.652903
0.676539 0.66331 0.658839
0.682857 0.669245 0.664775
0.689097 0.67509 0.670619
0.695399 0.68101 0.676539
0.70135 0.686564 0.682094
0.707225 0.692042 0.687572
0.713069 0.69749 0.693034
0.718822 0.702846 0.698375
0.724437 0.708034 0.703563
0.730068 0.713252 0.708782
0.530755 0.5364 0.530755
0.538491 0.543099 0.537453
0.54641 0.549905 0.544259
0.55436 0.556695 0.551064
0.562173 0.563348 0.557702
0.569986 0.569986 0.56434
0.577752 0.576623 0.570977
0.585473 0.583246 0.5776
0.593347 0.590082 0.584451
0.600839 0.596613 0.590982
0.608255 0.603143 0.597513
0.615579 0.609674 0.604044
0.622782 0.616175 0.610544
0.629999 0.622751 0.617121
0.637018 0.629175 0.623529
0.643885 0.635477 0.629831
0.650706 0.641764 0.636118
0.657404 0.647959 0.642329
0.663966 0.654047 0.648417
0.670588 0.660212 0.654582
0.676997 0.666194 0.660548
0.68333 0.672084 0.666453
0.68954 0.677882 0.672236
0.695567 0.683513 0.677882
0.701488 0.689036 0.683406
0.707561 0.694728 0.689082
0.71339 0.700145 0.694514
0.719066 0.70544 0.699809
0.724575 0.710567 0.704921
0.729976 0.715572 0.709926
0.735348 0.720531 0.714885
0.740841 0.725612 0.719966
0.745998 0.730358 0.724712
0.553338 0.560128 0.553338
0.561257 0.566995 0.56022
0.569024 0.573648 0.566873
0.576806 0.580285 0.573495
0.584558 0.586862 0.580087
0.592264 0.593393 0.586618
0.599985 0.599985 0.59321
0.607721 0.606622 0.599847
0.615213 0.613092 0.606317
0.622583 0.619501 0.612726
0.629786 0.625818 0.619043
0.636851 0.63209 0.625315
0.643961 0.638498 0.631724
0.650965 0.644846 0.638071
0.657694 0.65098 0.644205
0.664271 0.656992 0.650217
0.670741 0.662928 0.656153
0.67715 0.668849 0.662074
0.68365 0.674876 0.668101
0.689891 0.680659 0.673884
0.695918 0.686229 0.679454
0.701823 0.691722 0.684947
0.707698 0.697185 0.69041
0.713481 0.702571 0.695796
0.71931 0.708003 0.701228
0.724773 0.713069 0.706294
0.730144 0.718044 0.711269
0.735485 0.723003 0.716228
0.740734 0.727855 0.72108
0.745968 0.732692 0.725917
0.750912 0.737224 0.730449
0.755749 0.741665 0.73489
0.760571 0.746075 0.7393
0.576013 0.583886 0.576013
0.583642 0.590478 0.582605
0.591272 0.596994 0.58912
0.598901 0.603479 0.595605
0.606531 0.609934 0.60206
0.614191 0.616419 0.60856
0.621836 0.622934 0.615061
0.629191 0.629191 0.621317
0.636423 0.635401 0.627527
0.643595 0.641596 0.633722
0.650629 0.647761 0.639887
0.65771 0.654047 0.646174
0.664363 0.659983 0.65211
0.670909 0.665888 0.658015
0.677378 0.671763 0.66389
0.683742 0.677562 0.669688
0.690028 0.683314 0.675441
0.696162 0.688945 0.681086
0.702098 0.694408 0.686549
0.707988 0.699855 0.691981
0.713756 0.70518 0.697307
0.719341 0.710338 0.702464
0.72491 0.71548 0.707607
0.730343 0.720516 0.712642
0.735668 0.725444 0.717571
0.740841 0.730236 0.722362
0.745861 0.734859 0.726986
0.750729 0.739345 0.731472
0.755688 0.743908 0.736034
0.760494 0.748318 0.740444
0.765133 0.75256 0.744686
0.769604 0.756619 0.748745
0.773968 0.760555 0.752682
0.598108 0.607004 0.598108
0.605615 0.613489 0.604578
0.613138 0.619883 0.610986
0.620584 0.626184 0.617288
0.628199 0.632639 0.623728
0.635538 0.638804 0.629908
0.642832 0.644953 0.636057
0.649989 0.651026 0.64213
0.656977 0.656977 0.648081
0.663844 0.662882 0.653986
0.670741 0.66891 0.659998
0.677348 0.674723 0.665812
0.683772 0.68043 0.671534
0.689998 0.686015 0.677104
0.696056 0.691478 0.682567
0.702144 0.697002 0.68809
0.708186 0.70251 0.693614
0.713939 0.707759 0.698863
0.719509 0.712856 0.70396
0.724956 0.717845 0.708934
0.730343 0.722789 0.713878
0.735744 0.727779 0.718868
0.740978 0.732586 0.723674
0.745922 0.737133 0.728237
0.750774 0.741588 0.732692
0.755581 0.746014 0.737102
0.760311 0.750347 0.741451
0.765042 0.754696 0.745785
0.769451 0.758694 0.749798
0.77377 0.762615 0.753719
0.778073 0.766522 0.75761
0.782315 0.770352 0.76144
0.786572 0.774182 0.765286
0.619745 0.629602 0.619745
0.626993 0.635828 0.625956
0.634287 0.642008 0.632136
0.641794 0.648371 0.638498
0.648981 0.654368 0.644511
0.656016 0.660243 0.650385
0.662959 0.666041 0.656184
0.669841 0.671839 0.661967
0.676631 0.677592 0.66772
0.683391 0.683391 0.673533
0.689738 0.688869 0.678996
0.695933 0.69427 0.684398
0.702052 0.699672 0.689799
0.708019 0.704982 0.695125
0.713985 0.710353 0.700496
0.719554 0.715373 0.705516
0.725032 0.720333 0.71046
0.730465 0.725246 0.715389
0.735759 0.730068 0.720211
0.740917 0.734768 0.72491
0.745983 0.739391 0.729534
0.750851 0.743832 0.733959
0.755657 0.748226 0.738369
0.760342 0.752514 0.742641
0.764843 0.756619 0.746761
0.769268 0.760662 0.75079
0.773663 0.76466 0.754788
0.777935 0.768536 0.758679
0.782132 0.772335 0.762478
0.786221 0.776043 0.766171
0.790234 0.779644 0.769787
0.794324 0.783322 0.773449
0.798352 0.786923 0.777066
0.640711 0.651453 0.640711
0.647944 0.657649 0.646906
0.654932 0.663523 0.652781
0.661875 0.669322 0.658564
0.668788 0.675074 0.664332
0.675624 0.68072 0.669978
0.682261 0.686229 0.675486
0.68896 0.691844 0.681086
0.695338 0.697185 0.686442
0.701625 0.702495 0.691752
0.707713 0.707713 0.696971
0.713573 0.712779 0.702037
0.719234 0.717739 0.706996
0.724987 0.722835 0.712093
0.730449 0.727718 0.716976
0.735759 0.732448 0.721706
0.740856 0.737026 0.726284
0.745815 0.741482 0.730739
0.750744 0.745922 0.73518
0.755688 0.750423 0.739681
0.760342 0.75462 0.743877
0.764813 0.758663 0.747921
0.769146 0.7626 0.751858
0.773465 0.766506 0.755764
0.777768 0.770428 0.759686
0.782025 0.774289 0.763531
0.786068 0.777935 0.767193
0.790051 0.781537 0.770794
0.794034 0.785122 0.77438
0.797971 0.788663 0.77792
0.801984 0.792279 0.781521
0.805783 0.795666 0.784924
0.809552 0.799008 0.788266
0.660929 0.672465 0.660929
0.667781 0.678264 0.666728
0.674495 0.683894 0.672343
0.681102 0.689342 0.677806
0.687617 0.694682 0.683146
0.694087 0.699992 0.688457
0.700664 0.705425 0.693889
0.706889 0.710552 0.699016
0.712871 0.715511 0.703975
0.7187 0.720378 0.708843
0.724437 0.725231 0.713695
0.730022 0.730022 0.718486
0.735561 0.734859 0.723323
0.740703 0.739345 0.72781
0.745693 0.743755 0.732204
0.750637 0.748135 0.736599
0.755474 0.752438 0.740902
0.760266 0.756725 0.74519
0.764721 0.760708 0.749172
0.769085 0.764614 0.753079
0.773419 0.76849 0.756954
0.777661 0.77232 0.760784
0.781811 0.776059 0.764523
0.785977 0.779812 0.768277
0.78996 0.783398 0.771862
0.793927 0.786984 0.775448
0.797833 0.790494 0.778958
0.801663 0.793942 0.782406
0.805463 0.797345 0.785809
0.809308 0.800793 0.789258
0.813046 0.804135 0.792599
0.816739 0.807416 0.795865
0.820356 0.81062 0.799084
0.68011 0.692363 0.68011
0.686503 0.697704 0.685466
0.692927 0.703014 0.690776
0.699275 0.708217 0.695979
0.705608 0.71339 0.701137
0.711727 0.718334 0.706081
0.717678 0.72314 0.710903
0.723552 0.727932 0.715694
0.72929 0.732631 0.720378
0.734768 0.737148 0.72491
0.740185 0.741695 0.729442
0.745357 0.746075 0.733822
0.750393 0.750393 0.738155
0.755261 0.75462 0.742367
0.759915 0.758663 0.746426
0.764401 0.762585 0.750347
0.768963 0.766629 0.754376
0.773312 0.770474 0.758236
0.777569 0.774258 0.762005
0.781704 0.777935 0.765682
0.785733 0.781521 0.769284
0.789746 0.785107 0.772869
0.793851 0.7888 0.776562
0.797742 0.792294 0.780041
0.801541 0.795697 0.783459
0.80531 0.799069 0.786816
0.809033 0.802411 0.790173
0.812772 0.805768 0.793515
0.816526 0.809125 0.796872
0.820111 0.812314 0.800061
0.823667 0.815457 0.80322
0.827222 0.818601 0.806348
0.830732 0.821698 0.809461
0.698238 0.711131 0.698238
0.704265 0.716121 0.703227
0.710231 0.720974 0.708095
0.716304 0.725887 0.713008
0.722301 0.730709 0.71783
0.728054 0.735317 0.722423
0.733623 0.739742 0.726848
0.73904 0.74406 0.731167
0.744366 0.748348 0.735454
0.749691 0.752712 0.739818
0.754711 0.756863 0.743969
0.759457 0.7608 0.747921
0.764019 0.764675 0.751781
0.768521 0.768521 0.755627
0.772931 0.772335 0.759441
0.777356 0.776196 0.763302
0.781506 0.779828 0.766934
0.78558 0.783398 0.770504
0.789624 0.786954 0.77406
0.793606 0.790478 0.777584
0.79762 0.794064 0.78117
0.801434 0.797452 0.784558
0.805203 0.800809 0.787915
0.808942 0.804135 0.791257
0.812634 0.807446 0.794553
0.816266 0.810681 0.797787
0.819944 0.813977 0.801083
0.823484 0.817121 0.804227
0.827008 0.820249 0.807355
0.830503 0.823346 0.810452
0.833936 0.826368 0.813474
0.837324 0.829358 0.816464
0.840818 0.832425 0.819532
0.715068 0.728557 0.715068
0.720836 0.733272 0.719799
0.726665 0.738003 0.724514
0.732189 0.742382 0.728893
0.737636 0.746654 0.733166
0.743053 0.750912 0.737423
0.748348 0.755062 0.741573
0.753506 0.759136 0.745647
0.75848 0.763058 0.749569
0.763226 0.766857 0.753368
0.767895 0.770642 0.757153
0.772427 0.77438 0.760891
0.776791 0.778027 0.764538
0.781094 0.781689 0.7682
0.78529 0.78529 0.771801
0.78938 0.78883 0.775341
0.793393 0.792309 0.77882
0.797314 0.795712 0.782223
0.801144 0.799069 0.78558
0.805051 0.802518 0.789029
0.808835 0.805859 0.79237
0.812528 0.809125 0.795636
0.816144 0.812329 0.79884
0.819699 0.815488 0.801999
0.82324 0.818631 0.805142
0.826871 0.821881 0.808392
0.83032 0.824948 0.81146
0.833722 0.827955 0.814466
0.837079 0.83093 0.817441
0.840452 0.83389 0.820401
0.843778 0.83682 0.823331
0.847196 0.839811 0.826337
0.850446 0.842649 0.82916
0.73077 0.744823 0.73077
0.736248 0.749249 0.735195
0.741588 0.753491 0.739437
0.746822 0.75758 0.743526
0.751919 0.761486 0.747448
0.756863 0.76527 0.751232
0.761807 0.769085 0.755032
0.76672 0.7729 0.758846
0.771405 0.776547 0.762509
0.775921 0.780102 0.766064
0.780301 0.783612 0.769558
0.784604 0.787106 0.773068
0.788876 0.790677 0.776623
0.793011 0.794171 0.780118
0.796963 0.797528 0.783475
0.800855 0.800855 0.786801
0.8047 0.804166 0.790127
0.808499 0.807462 0.793408
0.812329 0.810819 0.79678
0.815961 0.813993 0.799939
0.819532 0.817136 0.803082
0.823102 0.820264 0.80621
0.826612 0.823362 0.809323
0.830137 0.82649 0.812451
0.833555 0.829526 0.815473
0.836912 0.832486 0.818433
0.840269 0.835447 0.821393
0.84358 0.838361 0.824323
0.84683 0.84123 0.827192
0.850156 0.84416 0.830106
0.853376 0.846967 0.832929
0.85658 0.84976 0.835721
0.859754 0.852522 0.838468
0.745449 0.760021 0.745449
0.750362 0.763912 0.749325
0.755245 0.767681 0.753109
0.760143 0.77142 0.756848
0.764996 0.775097 0.760525
0.769894 0.77882 0.764248
0.774517 0.782315 0.767727
0.779049 0.785763 0.771176
0.78352 0.789197 0.774624
0.7879 0.792615 0.778027
0.792172 0.796002 0.78143
0.796353 0.799405 0.784817
0.800351 0.802686 0.788113
0.804288 0.805966 0.791394
0.808133 0.809216 0.794644
0.811887 0.812406 0.797833
0.81561 0.81561 0.801038
0.819303 0.818799 0.804211
0.822889 0.821912 0.807324
0.826413 0.824979 0.810407
0.829862 0.827985 0.813413
0.833265 0.830961 0.816388
0.836713 0.833997 0.819425
0.840101 0.836988 0.8224
0.843397 0.839887 0.825315
0.846647 0.842741 0.828153
0.849836 0.845548 0.830976
0.85304 0.848356 0.833783
0.856306 0.85124 0.836652
0.859464 0.854002 0.839429
0.862577 0.856703 0.842115
0.86566 0.859373 0.844785
0.868742 0.862028 0.847456
0.758679 0.773754 0.758679
0.763394 0.777432 0.762356
0.768063 0.780987 0.765911
0.772671 0.784451 0.769375
0.777401 0.788006 0.772931
0.781964 0.791409 0.776333
0.78645 0.794766 0.779675
0.790829 0.798032 0.782956
0.795102 0.801266 0.786191
0.799313 0.804532 0.789441
0.803525 0.807858 0.792782
0.807492 0.811032 0.795956
0.811337 0.814176 0.799084
0.815091 0.817273 0.802197
0.818784 0.820371 0.805295
0.822477 0.823499 0.808423
0.826108 0.826612 0.811536
0.829587 0.829587 0.814511
0.833021 0.832547 0.817456
0.836423 0.835492 0.820401
0.83978 0.838407 0.823331
0.843198 0.841398 0.826322
0.846448 0.844236 0.829145
0.849653 0.847044 0.831952
0.852842 0.849836 0.83476
0.856016 0.852613 0.837537
0.85919 0.855406 0.84033
0.862318 0.858137 0.843061
0.865385 0.860807 0.845731
0.868437 0.863478 0.848386
0.871473 0.866102 0.851026
0.874495 0.868696 0.85362
0.877546 0.871336 0.85626
0.771115 0.786679 0.771115
0.775601 0.790127 0.774563
0.780118 0.793515 0.777966
0.78471 0.796963 0.781415
0.78912 0.800198 0.784649
0.793484 0.803403 0.787839
0.797803 0.806592 0.791028
0.80206 0.80975 0.794186
0.806332 0.812985 0.797421
0.810346 0.816037 0.800488
0.814267 0.819089 0.803525
0.818112 0.822141 0.806577
0.821851 0.825177 0.809613
0.825498 0.828168 0.812619
0.829145 0.83122 0.815656
0.832639 0.83415 0.818586
0.836088 0.837079 0.821515
0.83949 0.839963 0.824414
0.842817 0.842817 0.827253
0.846113 0.845655 0.830091
0.849424 0.848524 0.832975
0.852644 0.851316 0.835752
0.855802 0.854078 0.838514
0.858915 0.856779 0.84123
0.861997 0.859464 0.8439
0.86511 0.862181 0.846616
0.868208 0.864897 0.849332
0.871214 0.867521 0.851957
0.874189 0.8701 0.854551
0.87715 0.872663 0.857099
0.88011 0.875212 0.859648
0.883116 0.877806 0.862257
0.886076 0.880354 0.86479
0.782986 0.798993 0.782986
0.787381 0.80235 0.786328
0.791699 0.80557 0.789563
0.796033 0.808743 0.792737
0.80032 0.811872 0.79585
0.804547 0.814923 0.798901
0.808682 0.817929 0.801907
0.812909 0.821042 0.805035
0.816922 0.824033 0.808026
0.820844 0.826993 0.810987
0.824643 0.829908 0.813901
0.828321 0.832807 0.816785
0.831937 0.835706 0.819684
0.835584 0.838697 0.82269
0.839033 0.84155 0.825544
0.842405 0.844373 0.828351
0.845716 0.84715 0.831144
0.848997 0.849928 0.833921
0.852262 0.85272 0.836713
0.855543 0.855543 0.839521
0.858671 0.858228 0.842206
0.861753 0.860883 0.844877
0.864836 0.863554 0.847532
0.867872 0.866194 0.850187
0.870985 0.86891 0.852888
0.873945 0.871489 0.855467
0.87689 0.874037 0.85803
0.879835 0.876585 0.860578
0.88275 0.879118 0.863111
0.885679 0.881651 0.865629
0.888609 0.884184 0.868162
0.891478 0.886625 0.870619
0.894347 0.889082 0.87306
0.794369 0.810834 0.794369
0.798566 0.813977 0.797528
0.802716 0.817014 0.800565
0.806851 0.82002 0.803555
0.811002 0.822995 0.806531
0.815122 0.82594 0.809476
0.819272 0.828962 0.812497
0.823224 0.8318 0.815351
0.827085 0.834638 0.818189
0.830884 0.837476 0.821027
0.834592 0.840299 0.82385
0.838285 0.843198 0.826749
0.841764 0.845975 0.829511
0.845167 0.848722 0.832273
0.848524 0.851484 0.835035
0.851804 0.854215 0.837766
0.855039 0.856916 0.840467
0.858305 0.859678 0.843229
0.861433 0.862333 0.845884
0.864546 0.864988 0.848524
0.867613 0.867613 0.851148
0.870619 0.870192 0.853742
0.87361 0.87277 0.856321
0.876646 0.87541 0.858961
0.879591 0.877958 0.861494
0.88249 0.880476 0.864012
0.885374 0.882963 0.866499
0.888228 0.88542 0.868971
0.891096 0.887907 0.871443
0.894011 0.89041 0.87396
0.896834 0.892836 0.876387
0.899641 0.895232 0.878767
0.902434 0.897597 0.881148
0.805173 0.822049 0.805173
0.809216 0.825055 0.808179
0.81326 0.828 0.811109
0.817288 0.830869 0.813993
0.821363 0.833768 0.816892
0.82536 0.836606 0.81973
0.829297 0.839399 0.822522
0.833158 0.842161 0.825284
0.836912 0.844892 0.828
0.840574 0.847578 0.830701
0.844251 0.850385 0.833494
0.847761 0.853101 0.836225
0.851148 0.855787 0.838911
0.854459 0.858442 0.841566
0.857694 0.861082 0.844205
0.860883 0.863706 0.84683
0.864134 0.866438 0.849561
0.867231 0.869032 0.852155
0.870283 0.871611 0.854719
0.873289 0.874144 0.857267
0.876265 0.876692 0.8598
0.879225 0.879225 0.862333
0.882231 0.881819 0.864942
0.8851 0.884291 0.867414
0.887953 0.886748 0.869871
0.890806 0.889204 0.872328
0.893629 0.891646 0.874769
0.896529 0.894148 0.877272
0.899306 0.896544 0.879667
0.902083 0.898909 0.882033
0.90486 0.901289 0.884398
0.907622 0.903639 0.886763
0.910399 0.905989 0.889113
0.815564 0.832853 0.815564
0.81944 0.835691 0.818402
0.823362 0.838499 0.82121
0.827344 0.841352 0.824048
0.831296 0.844114 0.826825
0.835142 0.846799 0.829511
0.838926 0.849454 0.832151
0.84268 0.85211 0.834806
0.846357 0.854749 0.837461
0.85005 0.857481 0.840177
0.853513 0.860059 0.842771
0.856901 0.862654 0.845365
0.860212 0.865248 0.847959
0.863447 0.867842 0.850553
0.866682 0.870481 0.853193
0.869795 0.873045 0.855741
0.872847 0.875563 0.858274
0.875883 0.878096 0.860792
0.878859 0.880598 0.86331
0.881804 0.883085 0.865797
0.884794 0.885634 0.86833
0.887678 0.88809 0.870787
0.890532 0.890532 0.873243
0.893355 0.892958 0.875669
0.896162 0.895354 0.878065
0.898939 0.897749 0.880446
0.901793 0.900206 0.882918
0.90454 0.902586 0.885283
0.907286 0.904936 0.887648
0.910018 0.907271 0.889967
0.912734 0.909575 0.892287
0.915465 0.911894 0.894606
0.918257 0.914275 0.896986
0.825528 0.843229 0.825528
0.829343 0.845991 0.828305
0.833204 0.848753 0.831052
0.837003 0.851392 0.833707
0.840803 0.854032 0.836332
0.844572 0.856626 0.838941
0.84828 0.85919 0.841505
0.851957 0.861784 0.844083
0.855573 0.864363 0.846677
0.859083 0.866911 0.84921
0.862486 0.869429 0.851743
0.865782 0.871946 0.854246
0.868986 0.874434 0.856748
0.872206 0.876997 0.859312
0.875334 0.87953 0.861845
0.87837 0.882017 0.864317
0.881346 0.884474 0.866773
0.884291 0.8869 0.869215
0.887205 0.889342 0.871641
0.890181 0.891859 0.874159
0.893034 0.894286 0.876585
0.895857 0.896666 0.878965
0.898634 0.899046 0.881346
0.901411 0.901411 0.883711
0.904173 0.903777 0.886076
0.906996 0.906218 0.888518
0.909712 0.908537 0.890837
0.912413 0.910857 0.893156
0.915114 0.913161 0.89546
0.917815 0.915465 0.897765
0.920592 0.91783 0.900145
0.923278 0.920104 0.902403
0.925948 0.922362 0.904662
0.835126 0.853223 0.835126
0.838911 0.855955 0.837858
0.842603 0.858549 0.840467
0.846296 0.861097 0.843
0.849989 0.8636 0.845518
0.853651 0.866102 0.84802
0.857328 0.86865 0.850553
0.86096 0.871168 0.853086
0.864424 0.87361 0.855528
0.867826 0.876051 0.857969
0.871153 0.878492 0.86041
0.874403 0.880949 0.862852
0.877638 0.883482 0.8654
0.880705 0.885908 0.867811
0.883711 0.888319 0.870222
0.886687 0.89073 0.872648
0.889632 0.893141 0.875044
0.892576 0.895582 0.877485
0.89546 0.897993 0.879896
0.898283 0.900359 0.882261
0.901076 0.902708 0.884627
0.903853 0.905058 0.886976
0.9066 0.907393 0.889311
0.909392 0.909789 0.891691
0.912123 0.912123 0.894026
0.914809 0.914427 0.89633
0.917494 0.916716 0.898634
0.920165 0.919005 0.900908
0.922835 0.921263 0.903181
0.925566 0.923613 0.905531
0.928237 0.925887 0.90779
0.930907 0.92813 0.910033
0.933562 0.930358 0.912276
0.84448 0.862959 0.84448
0.848051 0.865492 0.847013
0.851667 0.867994 0.849515
0.855299 0.870481 0.852003
0.858915 0.872923 0.854444
0.862577 0.875425 0.856947
0.866117 0.877821 0.859342
0.869596 0.880217 0.861738
0.87303 0.882597 0.864118
0.876356 0.884978 0.866499
0.879622 0.887358 0.868879
0.882856 0.889799 0.871321
0.885954 0.89218 0.873701
0.88896 0.89456 0.876081
0.89192 0.89691 0.878431
0.894835 0.89926 0.880781
0.897749 0.901656 0.883177
0.900649 0.904036 0.885557
0.903456 0.906371 0.887892
0.906218 0.90869 0.890211
0.908965 0.910994 0.892515
0.911696 0.913298 0.89482
0.914473 0.915663 0.897185
0.917189 0.917983 0.899489
0.91986 0.920256 0.901778
0.922515 0.922515 0.904036
0.92517 0.924773 0.906294
0.92781 0.927047 0.908553
0.930541 0.929381 0.910903
0.933181 0.931609 0.91313
0.935821 0.933837 0.915358
0.93846 0.936065 0.917586
0.9411 0.938293 0.919814
0.853437 0.872312 0.853437
0.856931 0.874754 0.855894
0.860456 0.877165 0.858305
0.863996 0.879561 0.8607
0.867643 0.882033 0.863172
0.871153 0.884382 0.865522
0.874617 0.886702 0.867842
0.878019 0.889021 0.870146
0.881376 0.89134 0.872465
0.884672 0.893675 0.874815
0.887938 0.896071 0.877195
0.891035 0.898375 0.879499
0.894057 0.900679 0.881819
0.897017 0.902998 0.884138
0.899947 0.905318 0.886458
0.902907 0.907713 0.888853
0.90573 0.910018 0.891142
0.908507 0.912306 0.893431
0.911284 0.914595 0.89572
0.914031 0.916884 0.898009
0.916777 0.919188 0.900313
0.919524 0.921508 0.902632
0.922194 0.923766 0.904906
0.924849 0.926024 0.907164
0.927504 0.928283 0.909407
0.930144 0.930526 0.91165
0.932815 0.932815 0.913939
0.93547 0.935088 0.916213
0.938094 0.937316 0.918441
0.940719 0.939544 0.920668
0.943343 0.941756 0.922881
0.945968 0.943969 0.925093
0.948653 0.946242 0.927367
0.862104 0.881361 0.862104
0.865553 0.883757 0.8645
0.869093 0.886198 0.866941
0.872557 0.888518 0.869261
0.87602 0.890806 0.87155
0.879469 0.893095 0.873838
0.882887 0.895369 0.876112
0.886244 0.897627 0.87837
