public/LUTS/Black&White/Black&White_06.cube
TITLE "Generated by Resolve"
LUT_3D_SIZE 9
0 0 0
0 0 0
0 0 0
0 0 0
0 0 0
0.031693 0.00636301 0.00636301
0.0656596 0.0352636 0.0352636
0.0999008 0.0644388 0.0644388
0.134142 0.0936294 0.0936294
0 0 0
0 0 0
0.0268406 0.0217746 0.0167239
0.0610971 0.0509651 0.0459144
0.0953536 0.0801404 0.0750896
0.12932 0.109041 0.10399
0.163577 0.138231 0.133181
0.197818 0.167407 0.162356
0.232059 0.196597 0.191546
0.0565652 0.0666819 0.0565652
0.0907912 0.0958572 0.0857404
0.124758 0.124758 0.114641
0.159014 0.153948 0.143832
0.193271 0.183124 0.173007
0.227237 0.212024 0.201907
0.261479 0.241215 0.231098
0.295735 0.27039 0.260273
0.3299 0.299504 0.289372
0.154482 0.169665 0.154482
0.188617 0.198749 0.183566
0.222675 0.227741 0.212558
0.256931 0.256931 0.241733
0.291188 0.286107 0.270924
0.325139 0.315007 0.299825
0.359396 0.344198 0.329
0.393652 0.373373 0.35819
0.427604 0.402274 0.387091
0.252384 0.272648 0.252384
0.286336 0.301549 0.281285
0.320592 0.330724 0.310475
0.354849 0.359915 0.339651
0.388952 0.388952 0.368688
0.423056 0.41799 0.397742
0.457313 0.447181 0.426917
0.491524 0.47631 0.456062
0.525521 0.505257 0.485008
0.35024 0.37557 0.35024
0.384253 0.404532 0.379202
0.418509 0.433722 0.408392
0.45275 0.462898 0.437568
0.486732 0.491798 0.466468
0.520974 0.520974 0.495644
0.55523 0.550164 0.524834
0.589273 0.579141 0.553811
0.623438 0.60824 0.582925
0.448005 0.478401 0.448005
0.48217 0.507515 0.477119
0.516426 0.536706 0.50631
0.550668 0.565881 0.535485
0.584634 0.594781 0.564385
0.618891 0.623957 0.593561
0.653147 0.653147 0.622751
0.687114 0.682048 0.651652
0.72134 0.711223 0.680827
0.545846 0.581308 0.545846
0.580087 0.610498 0.575036
0.614343 0.639689 0.604212
0.64831 0.668589 0.633127
0.682551 0.697765 0.662303
0.716808 0.72694 0.691478
0.751064 0.75613 0.720668
0.785031 0.785031 0.749569
0.819257 0.814206 0.778744
0.643778 0.684291 0.643778
0.678004 0.713481 0.672969
0.712261 0.742657 0.702144
0.746227 0.771557 0.731044
0.780484 0.800748 0.760235
0.81474 0.829923 0.78941
0.848951 0.859068 0.818555
0.882963 0.887999 0.847486
0.917189 0.917189 0.876677
0 0 0
0 0 0
0 0 0
0 0 0
0.00735485 0 0
0.0413672 0.0160525 0.0211032
0.0755627 0.0451667 0.0502174
0.109819 0.0743572 0.079408
0.143923 0.10341 0.108461
0 0 0
0.00265507 0.00265507 0.00265507
0.036759 0.031693 0.031693
0.0710155 0.0608835 0.0608835
0.105272 0.0900587 0.0900587
0.139239 0.118959 0.118959
0.17348 0.148135 0.148135
0.207736 0.177325 0.177325
0.241703 0.206226 0.206226
0.0664836 0.0766003 0.0715343
0.10042 0.105501 0.10042
0.134676 0.134676 0.12961
0.168933 0.163867 0.158785
0.203174 0.193042 0.187976
0.237156 0.221942 0.216876
0.271397 0.251118 0.246052
0.305653 0.280308 0.275242
0.339605 0.309209 0.304143
0.164401 0.179583 0.169436
0.198337 0.208484 0.198337
0.232593 0.237659 0.227527
0.26685 0.26685 0.256703
0.300816 0.295735 0.285603
0.335058 0.324926 0.314794
0.369314 0.354101 0.343969
0.403571 0.383291 0.373159
0.437522 0.412192 0.40206
0.262303 0.282567 0.267353
0.296254 0.311467 0.296254
0.33051 0.340642 0.325444
0.364767 0.369833 0.35462
0.398718 0.398718 0.38352
0.432975 0.427909 0.412695
0.467231 0.457099 0.441886
0.501366 0.486152 0.470954
0.535439 0.515175 0.499977
0.360098 0.385412 0.365133
0.394171 0.41445 0.394171
0.428428 0.443626 0.423346
0.462654 0.472786 0.452506
0.496635 0.501701 0.481437
0.530892 0.530892 0.510613
0.565148 0.560082 0.539803
0.599115 0.588968 0.568704
0.633356 0.618158 0.597879
0.457847 0.488243 0.462898
0.492088 0.517433 0.492088
0.526329 0.546609 0.521263
0.560403 0.575616 0.550271
0.594553 0.6047 0.579339
0.628809 0.633875 0.60853
0.662974 0.662974 0.637629
0.697032 0.691951 0.666606
0.731258 0.721141 0.695796
0.555764 0.591226 0.560815
0.590005 0.620417 0.590005
0.624247 0.649592 0.619181
0.658213 0.678492 0.648081
0.69247 0.707683 0.677256
0.726726 0.736858 0.706447
0.760739 0.765805 0.735393
0.794949 0.794949 0.764523
0.829175 0.824125 0.793713
0.653696 0.694209 0.658747
0.687922 0.7234 0.687922
0.722179 0.752575 0.717113
0.756146 0.781476 0.746014
0.790402 0.810651 0.775189
0.824659 0.839841 0.804379
0.858625 0.868742 0.83328
0.892866 0.897917 0.862455
0.927108 0.927108 0.891646
0 0 0
0 0 0
0 0 0
0 0 0
0.0172732 0 0.00712596
0.0512398 0.0259098 0.0360266
0.085481 0.0550851 0.0652018
0.119738 0.0842756 0.0943923
0.15378 0.113268 0.123384
0 0 0
0.0124971 0.0124971 0.0175784
0.0466773 0.0416114 0.0466773
0.0809339 0.0708019 0.0758679
0.115084 0.0998703 0.104936
0.149157 0.128878 0.133944
0.183398 0.158053 0.163119
0.217655 0.187243 0.192309
0.251606 0.216144 0.22121
0.0764019 0.0865187 0.0865187
0.110338 0.115404 0.115404
0.144594 0.144594 0.144594
0.178851 0.173785 0.173785
0.212833 0.202701 0.202701
0.247059 0.231861 0.231861
0.281315 0.261036 0.261036
0.315419 0.290059 0.290059
0.349523 0.319127 0.319127
0.174136 0.189319 0.184253
0.208255 0.218387 0.213321
0.242512 0.247578 0.242512
0.276768 0.276768 0.271687
0.310719 0.305653 0.300587
0.344976 0.334844 0.329778
0.379232 0.364019 0.358953
0.413199 0.39292 0.387854
0.44744 0.42211 0.417044
0.271946 0.292195 0.282063
0.306172 0.32137 0.311238
0.340429 0.350561 0.340429
0.37467 0.379751 0.369604
0.408637 0.408637 0.398505
0.442893 0.437827 0.427695
0.47715 0.467002 0.45687
0.511116 0.495903 0.485771
0.545357 0.525093 0.514961
0.369848 0.395178 0.379965
0.404089 0.424369 0.409155
0.438331 0.453544 0.438331
0.472313 0.482444 0.467231
0.506554 0.51162 0.496422
0.54081 0.54081 0.525597
0.575067 0.569986 0.554788
0.609033 0.598886 0.583688
0.643275 0.628077 0.612879
0.467765 0.498161 0.477882
0.502007 0.527352 0.507073
0.536248 0.556527 0.536248
0.570214 0.585428 0.565148
0.604471 0.614603 0.594339
0.638727 0.643793 0.623514
0.672831 0.672831 0.652552
0.70695 0.701869 0.68159
0.741176 0.73106 0.710781
0.565682 0.601144 0.575799
0.599924 0.630335 0.60499
0.634104 0.659449 0.634104
0.668132 0.688411 0.663066
0.702388 0.717586 0.692241
0.736645 0.746777 0.721431
0.770611 0.775677 0.750332
0.804852 0.804852 0.779507
0.839094 0.834043 0.808698
0.663615 0.704128 0.673732
0.697841 0.733318 0.702922
0.731884 0.762264 0.731884
0.766064 0.791394 0.760998
0.80032 0.820569 0.790173
0.834455 0.849638 0.819242
0.868544 0.87866 0.848264
0.902785 0.907835 0.87744
0.937026 0.937026 0.90663
0 0 0
0 0 0
0 0 0
0 0 0
0.0271611 0.00691234 0.0220951
0.0611429 0.0358282 0.0510109
0.0953994 0.0650034 0.0802014
0.129656 0.0941939 0.109377
0.163607 0.123095 0.138277
0 0 0.00358587
0.0223392 0.0223392 0.0324865
0.0565957 0.0515297 0.0616617
0.0908522 0.080705 0.0908522
0.124819 0.109606 0.119738
0.159075 0.138796 0.148928
0.193317 0.167971 0.178103
0.227497 0.197086 0.207218
0.261524 0.226062 0.236194
0.0862287 0.0963455 0.101411
0.120256 0.125322 0.130388
0.154513 0.154513 0.159579
0.188754 0.183688 0.188754
0.222736 0.212589 0.217655
0.256977 0.241779 0.246845
0.291234 0.270954 0.27602
0.325261 0.299916 0.304982
0.359442 0.329046 0.334112
0.183978 0.199176 0.199176
0.218173 0.228305 0.228305
0.25243 0.257496 0.257496
0.286534 0.286534 0.286534
0.320638 0.315572 0.315572
0.354894 0.344762 0.344762
0.389151 0.373938 0.373938
0.423117 0.402838 0.402838
0.457343 0.432029 0.432029
0.281849 0.302113 0.297047
0.316091 0.331289 0.326223
0.350332 0.360479 0.355413
0.384314 0.38938 0.384314
0.418555 0.418555 0.413489
0.452811 0.447745 0.442679
0.48687 0.476738 0.471656
0.521035 0.505821 0.500755
0.555261 0.535012 0.529946
0.379767 0.405097 0.394965
0.413993 0.434272 0.42414
0.448249 0.463462 0.45333
0.482216 0.492363 0.482216
0.516472 0.521538 0.511406
0.550729 0.550729 0.540581
0.584695 0.579629 0.569482
0.618952 0.608804 0.598672
0.653178 0.637995 0.627863
0.477684 0.50808 0.492866
0.51191 0.537255 0.522057
0.546166 0.566445 0.551232
0.580133 0.595346 0.580133
0.614389 0.624521 0.609323
0.648646 0.653712 0.638498
0.682612 0.682612 0.667399
0.716854 0.711788 0.69659
0.751095 0.740978 0.72578
0.575601 0.611063 0.590784
0.609827 0.640238 0.619974
0.643793 0.669139 0.648875
0.67805 0.698329 0.67805
0.712306 0.727504 0.70724
0.746532 0.756664 0.736385
0.780514 0.785595 0.765316
0.814771 0.814771 0.794491
0.849012 0.843961 0.823682
0.673533 0.714046 0.688716
0.707759 0.743221 0.717906
0.741726 0.772122 0.746792
0.775982 0.801312 0.775982
0.810239 0.830488 0.805158
0.844297 0.85948 0.834165
0.878447 0.888563 0.863249
0.912703 0.917754 0.892424
0.946853 0.946853 0.921538
0 0 0
0 0 0
0 0 0
0.00283818 0 0.00791943
0.03682 0.016556 0.03682
0.0710613 0.0457313 0.0659953
0.105318 0.0749218 0.0951858
0.1393 0.103838 0.124086
0.173526 0.133013 0.153262
0 0.00306706 0.0182803
0.0322576 0.0322576 0.0474708
0.0665141 0.0614481 0.0766461
0.100755 0.0906233 0.105837
0.134737 0.119524 0.134737
0.168978 0.148699 0.163912
0.203235 0.17789 0.193103
0.237201 0.20679 0.221988
0.271443 0.235966 0.251179
0.0959335 0.10605 0.116197
0.130175 0.135241 0.145373
0.164431 0.164431 0.174563
0.198627 0.193561 0.203693
0.232639 0.222507 0.232639
0.266896 0.251698 0.26183
0.301152 0.280873 0.291005
0.335119 0.309773 0.319905
0.369345 0.338964 0.349096
0.193851 0.209049 0.214115
0.228092 0.238224 0.24329
0.262348 0.267414 0.27248
0.2963 0.2963 0.301381
0.330556 0.32549 0.330556
0.364813 0.354681 0.359747
0.398962 0.383749 0.388815
0.433036 0.412757 0.417823
0.467262 0.441947 0.447013
0.291768 0.312032 0.312032
0.326009 0.341207 0.341207
0.360235 0.370382 0.370382
0.394217 0.399283 0.399283
0.428473 0.428473 0.428473
0.46273 0.457664 0.457664
0.496712 0.48658 0.48658
0.530953 0.51574 0.51574
0.565179 0.54493 0.54493
0.389685 0.415015 0.409949
0.423911 0.44419 0.439124
0.458 0.473198 0.468132
0.492134 0.502266 0.4972
0.52639 0.531456 0.52639
0.560647 0.560647 0.555581
0.594614 0.589532 0.584466
0.628855 0.618723 0.613657
0.663096 0.647913 0.642832
0.487602 0.517998 0.507866
0.521828 0.547173 0.537041
0.555795 0.576074 0.565942
0.590051 0.605264 0.595117
0.624308 0.63444 0.624308
0.658335 0.663401 0.653254
0.692515 0.692515 0.682383
0.726772 0.721706 0.711574
0.761013 0.750896 0.740749
0.585519 0.620981 0.605768
0.619745 0.650156 0.634958
0.653712 0.679057 0.663859
0.687968 0.708247 0.693034
0.722225 0.737423 0.722225
0.756191 0.766323 0.751125
0.790433 0.795514 0.780301
0.824689 0.824689 0.809491
0.85893 0.85388 0.838666
0.683452 0.723964 0.7037
0.717662 0.753124 0.732876
0.751644 0.78204 0.761776
0.785901 0.811231 0.790967
0.820142 0.840406 0.820142
0.854124 0.869307 0.849042
0.888365 0.898482 0.878233
0.922621 0.927672 0.907408
0.956573 0.956573 0.936309
0 0 0
0 0 0
0 0 0
0.012665 0 0.022797
0.0467231 0.0264744 0.0518044
0.0809796 0.0556497 0.0809796
0.115236 0.0848402 0.11017
0.149203 0.113741 0.139055
0.183444 0.142931 0.168246
0.00793469 0.0129854 0.0332647
0.0421759 0.0421759 0.0624552
0.0764324 0.0713664 0.0916304
0.11043 0.100282 0.120562
0.14464 0.129442 0.149722
0.178897 0.158618 0.178897
0.213153 0.187808 0.208087
0.24712 0.216709 0.236988
0.281361 0.245884 0.266163
0.105852 0.115969 0.131182
0.140093 0.145159 0.160372
0.17435 0.17435 0.189548
0.208301 0.203235 0.218448
0.242557 0.232425 0.247639
0.276814 0.261601 0.276814
0.31078 0.290501 0.305715
0.345037 0.319692 0.33489
0.379263 0.348867 0.36408
0.203769 0.218952 0.229099
0.23801 0.248142 0.258274
0.272251 0.277333 0.287465
0.306218 0.306218 0.316365
0.340475 0.335409 0.345541
0.374731 0.364584 0.374731
0.408698 0.393484 0.403632
0.442954 0.422675 0.432807
0.47718 0.45185 0.461997
0.301686 0.321935 0.327016
0.335912 0.351125 0.356191
0.370077 0.380224 0.38529
0.404135 0.409201 0.414282
0.438392 0.438392 0.443458
0.472648 0.467567 0.472648
0.506615 0.496468 0.501534
0.540871 0.525658 0.530724
0.575097 0.554849 0.559915
0.399603 0.424918 0.424918
0.433829 0.454109 0.454109
0.467796 0.483009 0.483009
0.502052 0.512184 0.512184
0.536309 0.541375 0.541375
0.570413 0.570413 0.570413
0.604532 0.599451 0.599451
0.638773 0.628641 0.628641
0.672969 0.657786 0.657786
0.49752 0.527916 0.522835
0.531701 0.557046 0.551965
0.565713 0.585992 0.580926
0.59997 0.615167 0.610101
0.634226 0.644358 0.639292
0.668193 0.673259 0.668193
0.702434 0.702434 0.697368
0.73669 0.731624 0.726558
0.770733 0.760616 0.75555
0.595438 0.6309 0.620752
0.62945 0.659861 0.649729
0.66363 0.688975 0.678843
0.697887 0.718166 0.708019
0.732128 0.747341 0.737209
0.76611 0.776242 0.76611
0.800351 0.805417 0.795285
0.834607 0.834607 0.824475
0.868559 0.863508 0.853376
0.69337 0.733883 0.718685
0.727306 0.762768 0.747585
0.761563 0.791959 0.776776
0.795804 0.821134 0.805951
0.829801 0.850065 0.834867
0.864027 0.879225 0.864027
0.898283 0.9084 0.893217
0.93254 0.937591 0.922393
0.966491 0.966491 0.951293
0 0 0
0 0 0
0 0 0.00869764
0.0225071 0.00732433 0.0377203
0.0566415 0.0363928 0.0667887
0.090898 0.065568 0.095964
0.125093 0.0946975 0.125093
0.159121 0.123659 0.15404
0.193347 0.152834 0.18323
0.0178531 0.0229038 0.048249
0.0520943 0.0520943 0.0774395
0.0863508 0.0812695 0.106615
0.120302 0.11017 0.135515
0.154559 0.139361 0.164706
0.188815 0.168536 0.193881
0.222843 0.197498 0.222843
0.257038 0.226612 0.251957
0.291264 0.255802 0.281147
0.11577 0.125887 0.146166
0.150011 0.155077 0.175357
0.184131 0.184131 0.20441
0.218219 0.213153 0.233433
0.252476 0.242344 0.262623
0.286732 0.271519 0.291798
0.320699 0.30042 0.320699
0.35494 0.329595 0.349874
0.389181 0.358785 0.379065
0.213687 0.22887 0.244083
0.247913 0.258061 0.273274
0.281895 0.286961 0.302159
0.316136 0.316136 0.33135
0.350393 0.345327 0.360525
0.384649 0.374502 0.389715
0.418616 0.403403 0.418616
0.452857 0.432578 0.447791
0.487098 0.461769 0.476982
0.311604 0.331853 0.342
0.34583 0.361044 0.371176
0.379797 0.389944 0.400076
0.414054 0.41912 0.429267
0.44831 0.44831 0.458442
0.482277 0.477195 0.487343
0.516533 0.506386 0.516533
0.550774 0.535576 0.545708
0.585016 0.564752 0.574899
0.409522 0.434836 0.439918
0.443748 0.464027 0.469093
0.477714 0.492927 0.497993
0.511971 0.522103 0.527169
0.546227 0.551293 0.556359
0.580194 0.580194 0.58526
0.614435 0.609369 0.614435
0.648692 0.63856 0.643626
0.682826 0.667628 0.672709
0.507424 0.53782 0.53782
0.541543 0.566888 0.566888
0.575631 0.595911 0.595911
0.609888 0.625086 0.625086
0.644114 0.654261 0.654261
0.678096 0.683177 0.683177
0.712352 0.712352 0.712352
0.746609 0.741543 0.741543
0.78056 0.770443 0.770443
0.605341 0.640803 0.635737
0.639292 0.669703 0.664637
0.673548 0.698894 0.693828
0.707805 0.728069 0.723003
0.741878 0.757076 0.75201
0.776013 0.78616 0.781079
0.810269 0.815335 0.810269
0.84445 0.84445 0.839384
0.878477 0.873426 0.86836
0.703182 0.743694 0.733577
0.737224 0.772686 0.76257
0.771481 0.801877 0.79176
0.805722 0.831052 0.820935
0.839689 0.859953 0.849836
0.873945 0.889128 0.879011
0.908202 0.918318 0.908202
0.942229 0.94728 0.937148
0.97641 0.97641 0.966278
0 0 0
0 0 0
0 0 0.023682
0.0323033 0.0171206 0.0525826
0.0665599 0.0462959 0.0817731
0.100816 0.0754864 0.110948
0.134783 0.104387 0.139849
0.169039 0.133562 0.169039
0.203265 0.162753 0.198215
0.0277714 0.0328222 0.0632334
0.0620127 0.0620127 0.0924239
0.0962081 0.0911421 0.121569
0.13022 0.120089 0.1505
0.164477 0.149279 0.17969
0.198734 0.178454 0.208865
0.2327 0.207355 0.237766
0.266941 0.23653 0.266941
0.301183 0.265721 0.296132
0.125689 0.135805 0.161151
0.15993 0.164996 0.190341
0.193973 0.193973 0.219318
0.228138 0.223072 0.248417
0.262394 0.252262 0.277607
0.296544 0.281346 0.306691
0.330617 0.310338 0.335683
0.364858 0.339513 0.364858
0.3991 0.368704 0.394049
0.223606 0.238788 0.259068
0.257832 0.267979 0.288258
0.291798 0.296864 0.317143
0.326055 0.326055 0.346334
0.360311 0.355245 0.375525
0.394308 0.384176 0.40444
0.428534 0.413321 0.4336
0.462776 0.442496 0.462776
0.496864 0.471534 0.491814
0.321523 0.341772 0.356985
0.355581 0.370794 0.386007
0.389715 0.399847 0.415061
0.423972 0.429038 0.444251
0.458228 0.458228 0.473426
0.492195 0.487114 0.502327
0.526436 0.516304 0.531518
0.560693 0.54548 0.560693
0.594644 0.574395 0.589593
0.41944 0.444755 0.454902
0.453376 0.473655 0.483803
0.487633 0.502846 0.512978
0.521889 0.532021 0.542168
0.556146 0.561212 0.571344
0.590097 0.590097 0.600244
0.624353 0.619287 0.629435
0.65861 0.648463 0.65861
0.692561 0.677378 0.68751
0.517342 0.547738 0.552819
0.551293 0.576638 0.581704
0.58555 0.605829 0.610895
0.619806 0.635004 0.64007
0.653773 0.663905 0.668971
0.688014 0.69308 0.698161
0.722271 0.722271 0.727337
0.756527 0.751461 0.756527
0.790478 0.780362 0.785428
0.615259 0.650721 0.650721
0.64921 0.679622 0.679622
0.683467 0.708812 0.708812
0.717708 0.737987 0.737987
0.75169 0.766888 0.766888
0.785931 0.796078 0.796078
0.820188 0.825254 0.825254
0.854292 0.854292 0.854292
0.888395 0.883345 0.883345
0.713039 0.753552 0.748501
0.747143 0.782605 0.777554
0.781399 0.811795 0.806745
0.815595 0.840909 0.835874
0.849607 0.869871 0.86482
0.883864 0.899046 0.893996
0.91812 0.928237 0.923186
0.952087 0.957137 0.952087
0.986313 0.986313 0.981277
0 0 0
0 0 0.00947585
0.00801099 0 0.038407
0.0422217 0.027039 0.0675517
0.0764782 0.0562142 0.0967269
0.110735 0.0854047 0.125917
0.144701 0.114305 0.154818
0.178958 0.143481 0.183993
0.213184 0.172671 0.213184
0.0376898 0.0427405 0.0782025
0.071931 0.071931 0.107393
0.105882 0.100816 0.136278
0.140139 0.130007 0.165469
0.174395 0.159182 0.194644
0.208637 0.188357 0.223819
0.242618 0.217273 0.252735
0.27686 0.246448 0.28191
0.311101 0.275639 0.311101
0.135607 0.145724 0.17612
0.169833 0.174914 0.20531
0.2038 0.2038 0.234195
0.238056 0.23299 0.263386
0.272312 0.262165 0.292561
0.306279 0.291066 0.321462
0.340536 0.320256 0.350652
0.374777 0.349432 0.379828
0.408957 0.378561 0.408957
0.233524 0.248707 0.274037
0.267674 0.277821 0.303136
0.301717 0.306783 0.332113
0.335973 0.335973 0.361303
0.37023 0.365164 0.390478
0.404196 0.394049 0.419379
0.438453 0.423239 0.448569
0.472694 0.452415 0.477745
0.506722 0.481392 0.506722
0.331441 0.35169 0.371954
0.365438 0.380636 0.4009
0.399634 0.409766 0.43003
0.43389 0.438956 0.45922
0.468009 0.468009 0.488273
0.502113 0.497032 0.517296
0.536355 0.526223 0.546487
0.570611 0.555398 0.575662
0.604562 0.584314 0.604562
0.429358 0.454673 0.469871
0.463294 0.483574 0.498756
0.497551 0.512764 0.527947
0.531807 0.541939 0.557122
0.565774 0.57084 0.586023
0.600015 0.600015 0.615213
0.634272 0.629206 0.644388
0.668345 0.658198 0.673396
0.70248 0.687297 0.70248
0.527062 0.557458 0.567575
0.561212 0.586557 0.596674
0.595468 0.615747 0.625864
0.629725 0.644923 0.655039
0.663691 0.673823 0.68394
0.697932 0.702998 0.71313
0.732189 0.732189 0.742306
0.766155 0.76109 0.771206
0.800397 0.79028 0.800397
0.624887 0.660365 0.6654
0.659129 0.68954 0.694591
0.693385 0.71873 0.723766
0.727626 0.747906 0.752956
0.761608 0.776806 0.781857
0.79585 0.805997 0.811032
0.830106 0.835172 0.840223
0.864073 0.864073 0.869123
0.898314 0.893263 0.898314
0.72282 0.763333 0.763333
0.757061 0.792523 0.792523
0.791318 0.821714 0.821714
0.825269 0.850599 0.850599
0.859525 0.879789 0.879789
0.893782 0.908965 0.908965
0.928008 0.938125 0.938125
0.962005 0.967041 0.967041
0.995666 0.995666 0.995666
