public/LUTS/Black&White/Black&White_08.cube
TITLE "Generated by Resolve"
LUT_3D_SIZE 33
0 0 0
0 0 0
0 0 0
0 0 0
0 0 0
0 0 0
0 0 0
0 0 0
0 0 0
0 0 0
0 0 0
0 0 0
0 0 0
0 0 0
0 0 0
0 0 0
0 0 0
0 0 0
0 0 0
0 0 0
0 0 0
0 0 0
0 0 0
0 0 0
0 0 0
0.00573739 0 0
0.0171206 0 0
0.0282902 0 0
0.0394598 0 0
0.0506447 0.00231937 0.00231937
0.0618143 0.0118257 0.0118257
0.0731975 0.0215457 0.0215457
0.0845045 0.03122 0.03122
0 0 0
0 0 0
0 0 0
0 0 0
0 0 0
0 0 0
0 0 0
0 0 0
0 0 0
0 0 0
0 0 0
0 0 0
0 0 0
0 0 0
0 0 0
0 0 0
0 0 0
0 0 0
0 0 0
0 0 0
0 0 0
0 0 0
0.00418097 0 0
0.0153506 0 0
0.0266575 0 0
0.038056 0 0
0.0492256 0.00755322 0.0059205
0.0604105 0.0170596 0.0154269
0.0715801 0.026566 0.024918
0.0827497 0.0360723 0.0344244
0.0941176 0.0457771 0.0441291
0.105455 0.0554513 0.0538033
0.116609 0.0649577 0.0633249
0 0 0
0 0 0
0 0 0
0 0 0
0 0 0
0 0 0
0 0 0
0 0 0
0 0 0
0 0 0
0 0 0
0 0 0
0 0 0
0 0 0
0 0 0
0 0 0
0 0 0
0 0 0
0 0 0
0.00277714 0 0
0.0139467 0 0
0.0251164 0 0
0.036286 0.00294499 0
0.047837 0.0128176 0.00952163
0.0590066 0.0223239 0.019028
0.070161 0.0318303 0.0285191
0.0813306 0.0413367 0.0380255
0.0925002 0.0508431 0.0475319
0.103777 0.0604257 0.0571298
0.115236 0.0702068 0.0669108
0.126406 0.0797131 0.0764172
0.13756 0.0892195 0.0859083
0.148714 0.0987259 0.0954299
0 0 0
0 0 0
0 0 0
0 0 0
0 0 0
0 0 0
0 0 0
0 0 0
0 0 0
0 0 0
0 0 0
0 0 0
0 0 0
0 0 0
0 0 0
0 0 0
0.00137331 0 0
0.0125429 0 0
0.0237125 0 0
0.0348821 0.00820935 0.00325017
0.0460517 0.0177157 0.0127413
0.0572213 0.0272068 0.0222477
0.0687724 0.0370947 0.0321202
0.079942 0.0465858 0.0416266
0.0911116 0.0560922 0.051133
0.102266 0.0655985 0.0606241
0.113436 0.0751049 0.0701305
0.124681 0.0846723 0.0796979
0.136156 0.0944839 0.0895094
0.147341 0.103975 0.0990158
0.158511 0.113481 0.108522
0.169665 0.122988 0.118013
0.180819 0.132494 0.127535
0 0 0
0 0 0
0 0 0
0 0 0
0 0 0
0 0 0
0 0 0
0 0 0
0 0 0
0 0 0
0 0 0
0 0 0
0 0 0
0 0 0
0.0107576 0 0
0.0222782 0.00393683 0
0.0334783 0.0134737 0.00683604
0.0446479 0.0229801 0.0163272
0.0558175 0.0324712 0.0258335
0.0669871 0.0419776 0.0353399
0.0781567 0.0514839 0.0448463
0.0897078 0.0613565 0.0547189
0.100877 0.0708629 0.0642252
0.112032 0.0803693 0.0737163
0.123201 0.0898756 0.0832227
0.134371 0.0993668 0.0927291
0.145922 0.109255 0.102602
0.157092 0.118761 0.112108
0.168261 0.128252 0.121614
0.179431 0.137758 0.131121
0.1906 0.147265 0.140612
0.201785 0.156786 0.150149
0.213291 0.166644 0.160006
0 0 0
0 0 0
0 0 0
0 0 0
0 0 0
0 0 0
0 0 0
0 0 0
0 0 0
0 0 0
0 0 0
0.00935378 0 0
0.0205234 0.00886549 0.000549325
0.0319371 0.0186007 0.0102846
0.0432441 0.0282444 0.0199283
0.0544137 0.0377356 0.0294347
0.0655833 0.0472419 0.038941
0.0767376 0.0567483 0.0484321
0.0879072 0.0662547 0.0579385
0.099382 0.0760662 0.0677501
0.110628 0.0856336 0.0773175
0.121798 0.0951247 0.0868238
0.132967 0.104631 0.0963302
0.144137 0.114137 0.105821
0.155306 0.123644 0.115328
0.166842 0.133516 0.1252
0.178012 0.143023 0.134707
0.189181 0.152529 0.144213
0.200351 0.16202 0.153704
0.211536 0.171527 0.16321
0.222705 0.181033 0.172717
0.234241 0.190906 0.182589
0.245396 0.200412 0.192111
0 0 0
0 0 0
0 0 0
0 0 0
0 0 0
0 0 0
0 0 0
0 0 0
0.00794995 0.00462348 0
0.0191196 0.0141146 0.00415045
0.0302892 0.023621 0.0136416
0.0414588 0.0331273 0.0231479
0.052842 0.0428321 0.0328527
0.0641794 0.0525063 0.0425269
0.075349 0.0620127 0.0520333
0.0865187 0.071519 0.0615396
0.0976883 0.0810101 0.071046
0.108843 0.0905165 0.0805371
0.120287 0.100298 0.0903182
0.131563 0.109895 0.0999313
0.142733 0.119402 0.109422
0.153903 0.128908 0.118929
0.165072 0.138415 0.128435
0.176242 0.147906 0.137926
0.187793 0.157794 0.147814
0.198947 0.167285 0.157305
0.210117 0.176791 0.166812
0.221286 0.186297 0.176318
0.232456 0.195789 0.185809
0.243977 0.205631 0.195651
0.255177 0.215183 0.205203
0.266346 0.224674 0.214694
0.277501 0.23418 0.224216
0 0 0
0 0 0
0 0 0
0 0 0
0 0 0
0.00628672 0.00961318 0
0.0177157 0.019379 0.00773632
0.0288853 0.0288853 0.0172427
0.0400549 0.0383917 0.0267491
0.0512245 0.0478981 0.0362554
0.0623941 0.0573892 0.0457465
0.07393 0.067277 0.0556344
0.0851148 0.0767681 0.0651255
0.0962844 0.0862745 0.0746319
0.107454 0.0957809 0.0841382
0.118624 0.105287 0.0936446
0.129961 0.114961 0.103319
0.141329 0.124666 0.113024
0.152499 0.134173 0.12253
0.163668 0.143664 0.132021
0.174838 0.15317 0.141527
0.186007 0.162676 0.151034
0.197421 0.172412 0.160769
0.208728 0.182055 0.170413
0.219898 0.191562 0.179919
0.231052 0.201053 0.18941
0.242222 0.210559 0.198917
0.253391 0.220066 0.208423
0.264881 0.229877 0.218235
0.276112 0.239445 0.227802
0.287282 0.248951 0.237308
0.298451 0.258442 0.246799
0.309606 0.267964 0.256321
0 0 0
0 0.00526436 0
0.00476081 0.0147707 0.00146487
0.0159304 0.0242771 0.0109712
0.0274815 0.0341497 0.0208438
0.0386511 0.0436561 0.0303502
0.0498207 0.0531472 0.0398413
0.0609903 0.0626535 0.0493477
0.0721599 0.0721599 0.058854
0.0834058 0.0817273 0.0684215
0.0948653 0.0915389 0.078233
0.106035 0.101045 0.0877394
0.11722 0.110552 0.0972305
0.128389 0.120043 0.106737
0.139559 0.129549 0.116243
0.150866 0.139193 0.125887
0.162264 0.148928 0.135622
0.173434 0.158434 0.145129
0.184604 0.167941 0.154635
0.195773 0.177447 0.164126
0.206943 0.186938 0.173632
0.218326 0.196643 0.183337
0.229664 0.206317 0.193011
0.240833 0.215824 0.202518
0.252003 0.22533 0.212024
0.263157 0.234821 0.221515
0.274327 0.244327 0.231022
0.285878 0.254215 0.240909
0.297047 0.263706 0.250401
0.308217 0.273213 0.259907
0.319387 0.282719 0.269413
0.330556 0.29221 0.278904
0.34197 0.301991 0.288685
0.0145571 0.0295262 0.0145571
0.0256962 0.0390326 0.0240635
0.0368658 0.0485389 0.0335699
0.0484169 0.0584115 0.0434424
0.0595865 0.0679179 0.0529488
0.0707561 0.0774243 0.0624552
0.0819257 0.0869154 0.0719463
0.0930953 0.0964218 0.0814527
0.104311 0.105974 0.0910048
0.115801 0.115801 0.100832
0.12697 0.125307 0.110338
0.13814 0.134813 0.119844
0.149325 0.14432 0.129335
0.160494 0.153811 0.138842
0.17203 0.163699 0.148714
0.1832 0.173205 0.158221
0.194369 0.182696 0.167727
0.205539 0.192203 0.177234
0.216709 0.201709 0.18674
0.227985 0.211307 0.196338
0.239429 0.221088 0.206119
0.250599 0.230594 0.21561
0.261769 0.240101 0.225116
0.272938 0.249592 0.234623
0.284108 0.259098 0.244129
0.295445 0.268772 0.253803
0.306813 0.278477 0.263508
0.317983 0.287984 0.273014
0.329152 0.297475 0.282506
0.340322 0.306981 0.292012
0.351492 0.316487 0.301518
0.362905 0.326223 0.311254
0.374182 0.335866 0.320897
0.0466621 0.0633097 0.0466621
0.0581216 0.0731212 0.0564889
0.0693523 0.0826886 0.0660563
0.0805219 0.0921798 0.0755474
0.0916915 0.101686 0.0850538
0.102861 0.111192 0.0945602
0.114031 0.120699 0.104051
0.125582 0.130571 0.113939
0.136751 0.140078 0.123445
0.147906 0.149584 0.132937
0.159075 0.159075 0.142443
0.170245 0.168582 0.151949
0.18143 0.178088 0.161456
0.192981 0.187961 0.171328
0.204135 0.197467 0.180819
0.215305 0.206973 0.190326
0.226474 0.21648 0.199832
0.237644 0.225971 0.209339
0.24889 0.235554 0.218906
0.260365 0.24535 0.228717
0.271534 0.254856 0.238224
0.282704 0.264363 0.247715
0.293873 0.273869 0.257221
0.305043 0.28336 0.266728
0.31635 0.293004 0.276371
0.327749 0.302754 0.286107
0.338918 0.312245 0.295613
0.350088 0.321752 0.305119
0.361257 0.331243 0.314611
0.372427 0.340749 0.324117
0.383978 0.350637 0.333989
0.395148 0.360128 0.343496
0.406287 0.36965 0.353002
0.079057 0.0973526 0.079057
0.0902876 0.10695 0.0886549
0.101457 0.116457 0.0981613
0.112627 0.125963 0.107652
0.123796 0.135454 0.117159
0.134966 0.144961 0.126665
0.146487 0.154818 0.136507
0.157687 0.16434 0.146044
0.168856 0.173846 0.15555
0.180011 0.183352 0.165042
0.19118 0.192859 0.174548
0.20235 0.20235 0.184054
0.213901 0.212238 0.193927
0.225071 0.221729 0.203433
0.23624 0.231235 0.212924
0.24741 0.240742 0.222431
0.258579 0.250248 0.231937
0.270115 0.260121 0.24181
0.2813 0.269627 0.251316
0.29247 0.279133 0.260822
0.303639 0.288624 0.270314
0.314809 0.298131 0.27982
0.326009 0.307668 0.289357
0.337514 0.31751 0.299199
0.348684 0.327016 0.308705
0.359854 0.336522 0.318212
0.371023 0.346014 0.327718
0.382193 0.35552 0.337224
0.393469 0.365118 0.346822
0.404913 0.374899 0.356588
0.416083 0.384405 0.366094
0.427253 0.393896 0.375601
0.438392 0.403418 0.385107
0.111238 0.131228 0.111238
0.122393 0.140719 0.120745
0.133562 0.150225 0.130251
0.144717 0.159731 0.139757
0.156146 0.169482 0.149508
0.167452 0.17911 0.159136
0.178607 0.188617 0.168627
0.189776 0.198123 0.178134
0.200946 0.207614 0.18764
0.212116 0.217121 0.197147
0.223606 0.226947 0.206958
0.234821 0.2365 0.216526
0.246006 0.246006 0.226032
0.257176 0.255512 0.235523
0.268345 0.265003 0.245029
0.279515 0.27451 0.254536
0.291066 0.284398 0.264408
0.30222 0.293889 0.273915
0.31339 0.303395 0.283421
0.324559 0.312901 0.292927
0.335729 0.322393 0.302419
0.346914 0.331899 0.311925
0.35845 0.341787 0.321813
0.369619 0.351278 0.331304
0.380789 0.360784 0.34081
0.391959 0.370291 0.350317
0.403128 0.379782 0.359808
0.414359 0.389364 0.36939
0.425834 0.399161 0.379187
0.437018 0.408667 0.388693
0.448188 0.418173 0.398199
0.459342 0.42768 0.407706
0.470497 0.437186 0.417212
0.143343 0.164996 0.143343
0.154482 0.174502 0.15285
0.165652 0.184009 0.162356
0.177035 0.193713 0.172076
0.188373 0.203387 0.181735
0.199542 0.212879 0.191241
0.210712 0.222385 0.200732
0.221881 0.231891 0.210239
0.233051 0.241398 0.219745
0.244495 0.251179 0.229526
0.255756 0.260777 0.239124
0.266926 0.270268 0.248631
0.278096 0.279774 0.258122
0.289281 0.289281 0.267628
0.300435 0.298772 0.277134
0.311986 0.308659 0.287007
0.323156 0.318166 0.296513
0.334325 0.327657 0.30602
0.345495 0.337163 0.315526
0.356664 0.34667 0.325017
0.368185 0.356512 0.334874
0.379385 0.366049 0.344396
0.390555 0.375555 0.353902
0.401724 0.385046 0.363409
0.412894 0.394553 0.372915
0.424063 0.404059 0.382406
0.435599 0.413931 0.392294
0.446769 0.423438 0.401801
0.457938 0.432944 0.411292
0.469108 0.442435 0.420798
0.480278 0.451942 0.430304
0.491478 0.461479 0.439826
0.502968 0.471336 0.449683
0.175448 0.198764 0.175448
0.186587 0.20827 0.184955
0.198138 0.218143 0.194842
0.209308 0.227649 0.204334
0.220478 0.237156 0.21384
0.231647 0.246647 0.223346
0.242817 0.256153 0.232837
0.25417 0.265843 0.242527
0.265538 0.275532 0.252232
0.276692 0.285039 0.261723
0.287861 0.294545 0.271229
0.299031 0.304051 0.280735
0.310201 0.313542 0.290227
0.32163 0.323293 0.299977
0.332921 0.332921 0.309606
0.344091 0.342428 0.319112
0.355261 0.351934 0.328618
0.36643 0.361425 0.338125
0.3776 0.370932 0.347616
0.389075 0.380758 0.357443
0.40032 0.390311 0.366995
0.41149 0.399817 0.376501
0.42266 0.409323 0.386007
0.433829 0.41883 0.395514
0.444999 0.428321 0.40502
0.456535 0.438209 0.414893
0.467704 0.4477 0.424399
0.478874 0.457206 0.433906
0.490043 0.466712 0.443397
0.501213 0.476219 0.452903
0.512383 0.48571 0.462409
0.523934 0.495598 0.472282
0.535073 0.505104 0.481788
0.20763 0.232609 0.20763
0.219074 0.24242 0.217441
0.230243 0.251911 0.226932
0.241413 0.261418 0.236439
0.252583 0.270924 0.245945
0.263752 0.28043 0.255451
0.275074 0.290074 0.265095
0.286473 0.299809 0.27483
0.297642 0.309316 0.284337
0.308797 0.318807 0.293828
0.319966 0.328313 0.303334
0.331136 0.337819 0.31284
0.342535 0.347524 0.322545
0.353857 0.357198 0.332219
0.365026 0.36669 0.341711
0.376196 0.376196 0.351217
0.387366 0.385702 0.360723
0.398535 0.395209 0.37023
0.410071 0.405081 0.380102
0.421256 0.414588 0.389609
0.432425 0.424079 0.3991
0.443595 0.433585 0.408606
0.454765 0.443091 0.418112
0.466209 0.452873 0.427893
0.47747 0.46247 0.437491
0.48864 0.471977 0.446998
0.499809 0.481483 0.456504
0.510979 0.490974 0.466011
0.522148 0.500481 0.475502
0.533669 0.510323 0.485344
0.544869 0.51986 0.494881
0.556039 0.529366 0.504387
0.567178 0.538872 0.513893
0.24004 0.266682 0.24004
0.251179 0.276188 0.249546
0.262348 0.285695 0.259037
0.273518 0.295186 0.268544
0.284688 0.304692 0.27805
0.296239 0.314565 0.287922
0.307408 0.324071 0.297429
0.318578 0.333577 0.306935
0.329747 0.343084 0.316442
0.340902 0.352575 0.325933
0.352193 0.362188 0.335546
0.363622 0.371969 0.345327
0.374792 0.38146 0.354818
0.385962 0.390967 0.364324
0.397131 0.400458 0.373816
0.408301 0.409964 0.383322
0.419654 0.419654 0.393011
0.431006 0.429343 0.402701
0.442176 0.438849 0.412207
0.453346 0.448356 0.421714
0.46453 0.457862 0.431205
0.4757 0.467353 0.440711
0.487114 0.477104 0.450462
0.498405 0.486732 0.46009
0.509575 0.496239 0.469596
0.520745 0.505745 0.479103
0.531914 0.515251 0.488609
0.543084 0.524758 0.498116
0.554574 0.534569 0.507927
0.565805 0.544121 0.517479
0.576974 0.553628 0.526986
0.588144 0.563134 0.536492
0.599283 0.572641 0.545998
0.272145 0.30045 0.272145
0.283284 0.309957 0.281651
0.294453 0.319463 0.291142
0.305623 0.328969 0.300664
0.317174 0.338842 0.310521
0.328344 0.348333 0.320027
0.339513 0.357839 0.329534
0.350683 0.367346 0.33904
0.361852 0.376852 0.348547
0.373098 0.386419 0.358114
0.384558 0.396231 0.367926
0.395727 0.405737 0.377417
0.406897 0.415229 0.386923
0.418067 0.424735 0.396429
0.429236 0.434226 0.405921
0.440558 0.443885 0.415579
0.451957 0.45362 0.425315
0.463111 0.463111 0.434806
0.474281 0.472618 0.444312
0.485451 0.482124 0.453819
0.49662 0.49163 0.46331
0.508186 0.501503 0.473198
0.519356 0.511009 0.482704
0.53051 0.5205 0.492195
0.54168 0.530007 0.501701
0.55285 0.539513 0.511208
0.564233 0.549218 0.520912
0.57557 0.558892 0.530587
0.58674 0.568399 0.540093
0.59791 0.577905 0.549584
0.609079 0.587396 0.559091
0.620249 0.596902 0.568597
0.631662 0.606683 0.578378
0.30425 0.334218 0.30425
0.315389 0.343725 0.313756
0.326558 0.353231 0.323247
0.338094 0.363104 0.333135
0.349279 0.37261 0.342626
0.360449 0.382116 0.352132
0.371618 0.391608 0.361639
0.382788 0.401114 0.371145
0.394324 0.411002 0.381018
0.405493 0.420493 0.390524
0.416663 0.429999 0.400031
0.427832 0.439506 0.409522
0.439002 0.448997 0.419028
0.450217 0.458549 0.428565
0.461723 0.468376 0.438407
0.472892 0.477882 0.447913
0.484062 0.487388 0.45742
0.495216 0.496895 0.466911
0.506386 0.506386 0.476417
0.517678 0.515999 0.48603
0.529107 0.525765 0.495796
0.540276 0.535271 0.505302
0.551461 0.544778 0.514809
0.562615 0.554284 0.5243
0.573785 0.56379 0.533806
0.585138 0.573465 0.543496
0.596506 0.583169 0.553185
0.607675 0.59266 0.562692
0.618845 0.602167 0.572198
0.630014 0.611673 0.581689
0.641184 0.62118 0.591196
0.652598 0.630915 0.600946
0.663874 0.640558 0.61059
0.336355 0.367987 0.336355
0.347814 0.377813 0.346181
0.359045 0.387381 0.355734
0.370199 0.396872 0.36524
0.381384 0.406378 0.374731
0.392554 0.415885 0.384237
0.403723 0.425376 0.393744
0.415259 0.435264 0.403616
0.426429 0.44477 0.413123
0.437598 0.454261 0.422629
0.448768 0.463767 0.432135
0.459937 0.473274 0.441627
0.471122 0.48278 0.451148
0.482658 0.492653 0.461006
0.493828 0.502144 0.470512
0.504997 0.51165 0.480018
0.516167 0.521157 0.489525
0.527321 0.530663 0.499016
0.538582 0.540246 0.508598
0.550042 0.550042 0.51841
0.561212 0.559548 0.527901
0.572381 0.569039 0.537408
0.583566 0.578546 0.546914
0.59472 0.588052 0.556405
0.606271 0.597925 0.566293
0.617441 0.607431 0.575799
0.628611 0.616938 0.58529
0.63978 0.626444 0.594797
0.65095 0.635935 0.604303
0.662257 0.645579 0.613931
0.673671 0.655314 0.623682
0.684825 0.66482 0.633173
0.695979 0.674327 0.642695
0.368734 0.40206 0.368734
0.379965 0.411643 0.378332
0.391135 0.421149 0.387839
0.402304 0.43064 0.39733
0.413474 0.440146 0.406836
0.424659 0.449653 0.416342
0.436194 0.459525 0.426215
0.447364 0.469032 0.435721
0.458534 0.478538 0.445228
0.469703 0.488029 0.454719
0.480873 0.497536 0.464225
0.492393 0.507393 0.474083
0.503578 0.516915 0.483604
0.514763 0.526421 0.493111
0.525933 0.535927 0.502617
0.537087 0.545419 0.512108
0.548257 0.554925 0.521614
0.559808 0.564813 0.531487
0.570977 0.574304 0.540993
0.582147 0.58381 0.5505
0.593317 0.593317 0.560006
0.604486 0.602823 0.569512
0.615702 0.61236 0.579049
0.627192 0.622202 0.588891
0.638376 0.631708 0.598383
0.649546 0.641199 0.607889
0.6607 0.650706 0.617395
0.67187 0.660212 0.626902
0.683162 0.669825 0.636515
0.694591 0.679591 0.646281
0.70576 0.689097 0.655787
0.71693 0.698589 0.665278
0.728084 0.708095 0.674784
0.400931 0.435904 0.400931
0.41207 0.445411 0.410437
0.423239 0.454917 0.419928
0.434394 0.464424 0.429435
0.445838 0.474174 0.439185
0.45713 0.483803 0.448814
0.468299 0.493294 0.45832
0.479469 0.5028 0.467826
0.490639 0.512306 0.477317
0.501793 0.521813 0.486824
0.513283 0.53164 0.496651
0.524514 0.541192 0.506203
0.535683 0.550698 0.515709
0.546853 0.560189 0.525216
0.558022 0.569696 0.534722
0.569192 0.579202 0.544213
0.580743 0.589075 0.554101
0.591897 0.598581 0.563592
0.603067 0.608087 0.573098
0.614237 0.617594 0.582605
0.625406 0.627085 0.592096
0.636591 0.636591 0.601617
0.648127 0.646464 0.61149
0.659297 0.65597 0.620981
0.670466 0.665476 0.630488
0.681636 0.674983 0.639994
0.692805 0.684474 0.6495
0.704356 0.694362 0.659373
0.715526 0.703868 0.668879
0.726696 0.713359 0.67837
0.737865 0.722866 0.687877
0.749035 0.732357 0.697383
0.76025 0.741939 0.706966
0.433036 0.469673 0.433036
0.444175 0.479179 0.442527
0.455344 0.488685 0.452033
0.466728 0.498405 0.461769
0.478065 0.508064 0.471412
0.489235 0.517571 0.480919
0.500404 0.527062 0.490425
0.511574 0.536568 0.499931
0.522744 0.546075 0.509422
0.534279 0.555947 0.51931
0.545449 0.565454 0.528817
0.556619 0.57496 0.538308
0.567788 0.584466 0.547814
0.578958 0.593957 0.557321
0.590417 0.603754 0.567102
0.601678 0.613336 0.576699
0.612848 0.622843 0.586206
0.624002 0.632349 0.595697
0.635172 0.641855 0.605203
0.646342 0.651362 0.61471
0.657877 0.661204 0.624567
0.669062 0.670741 0.634089
0.680232 0.680232 0.643595
0.691402 0.689738 0.653086
0.702571 0.699245 0.662593
0.713741 0.708751 0.672099
0.725277 0.718624 0.681971
0.736461 0.72813 0.691478
0.747631 0.737636 0.700984
0.758801 0.747127 0.710475
0.76997 0.756634 0.719982
0.78117 0.766171 0.729519
0.79266 0.776013 0.739376
0.465141 0.503441 0.465141
0.476402 0.513069 0.474754
0.487816 0.522835 0.48452
0.498985 0.532326 0.494026
0.51017 0.541833 0.503517
0.52134 0.551339 0.513024
0.532509 0.560845 0.52253
0.543862 0.570535 0.532219
0.555215 0.580224 0.541909
0.566384 0.589731 0.551415
0.577554 0.599222 0.560922
0.588724 0.608728 0.570413
0.599893 0.618235 0.579919
0.611322 0.627985 0.58967
0.622614 0.637613 0.599298
0.633783 0.64712 0.608804
0.644953 0.656626 0.618311
0.656107 0.666117 0.627802
0.667277 0.675624 0.637308
0.678767 0.68545 0.647135
0.689998 0.695003 0.656687
0.701167 0.704509 0.666194
0.712337 0.714015 0.6757
0.723507 0.723507 0.685191
0.734676 0.733013 0.694697
0.746227 0.742901 0.704585
0.757382 0.752392 0.714076
0.768551 0.761898 0.723583
0.779736 0.771405 0.733089
0.790906 0.780896 0.74258
0.802457 0.790784 0.752468
0.813611 0.800275 0.761959
0.824765 0.809796 0.771481
0.497322 0.537301 0.497322
0.508751 0.547097 0.507118
0.519921 0.556603 0.516625
0.53109 0.56611 0.526131
0.54226 0.575601 0.535622
0.553445 0.585107 0.545129
0.564767 0.594766 0.554788
0.57615 0.604486 0.564508
0.58732 0.613993 0.574014
0.598489 0.623499 0.58352
0.609659 0.633005 0.593027
0.620829 0.642496 0.602518
0.63238 0.652384 0.61239
0.643549 0.661875 0.621897
0.654719 0.671382 0.631403
0.665888 0.680888 0.640909
0.677058 0.690394 0.650416
0.688441 0.700099 0.660121
0.699763 0.709773 0.669795
0.710933 0.71928 0.679301
0.722103 0.728771 0.688792
0.733272 0.738277 0.698299
0.744442 0.747784 0.707805
0.755901 0.757565 0.717586
0.767163 0.767163 0.727184
0.778332 0.776669 0.73669
0.789487 0.78616 0.746181
0.800656 0.795666 0.755688
0.811841 0.805173 0.765194
0.823362 0.815015 0.775036
0.834562 0.824552 0.784573
0.845731 0.834058 0.794079
0.85687 0.843565 0.803586
0.529717 0.571359 0.529717
0.540856 0.580865 0.539223
0.552026 0.590372 0.54873
0.563195 0.599878 0.558236
0.574426 0.60943 0.567788
0.585931 0.619257 0.577615
0.597086 0.628748 0.587106
0.608255 0.638254 0.596613
0.619425 0.647761 0.606119
0.630594 0.657267 0.615625
0.641886 0.66688 0.625238
0.653315 0.676646 0.635004
0.664485 0.686152 0.644495
0.675654 0.695644 0.654002
0.686824 0.70515 0.663508
0.697993 0.714656 0.673014
0.709346 0.724346 0.682704
0.720699 0.734035 0.692393
0.731868 0.743542 0.7019
0.743038 0.753048 0.711406
0.754208 0.762539 0.720897
0.765377 0.772045 0.730404
0.776806 0.781796 0.740154
0.788098 0.791424 0.749783
0.799268 0.800931 0.759289
0.810437 0.810437 0.768795
0.821591 0.819928 0.778286
0.832761 0.829435 0.787793
0.844327 0.839323 0.797665
0.855482 0.848814 0.807172
0.866667 0.85832 0.816678
0.877836 0.867826 0.826185
0.888975 0.877333 0.835691
0.561822 0.605127 0.561822
0.572961 0.614633 0.571328
0.584131 0.62414 0.580835
0.595315 0.633661 0.590356
0.606851 0.643519 0.600214
0.618021 0.653025 0.60972
0.629191 0.662531 0.619211
0.64036 0.672023 0.628717
0.65153 0.681529 0.638224
0.662791 0.691127 0.647807
0.67425 0.700908 0.657603
0.68542 0.710414 0.667109
0.69659 0.719921 0.6766
0.707759 0.729427 0.686107
0.718929 0.738918 0.695613
0.730465 0.748806 0.705486
0.741634 0.758312 0.714992
0.752804 0.767803 0.724498
0.763973 0.77731 0.734005
0.775143 0.786816 0.743511
0.786465 0.79646 0.753155
0.797864 0.806195 0.762875
0.809033 0.815702 0.772381
0.820203 0.825193 0.781888
0.831373 0.834699 0.791394
0.842542 0.844205 0.8009
0.853925 0.853925 0.810605
0.865248 0.863584 0.820279
0.876417 0.873091 0.82977
0.887587 0.882582 0.839277
0.898772 0.892088 0.848783
0.909941 0.901595 0.858289
0.921355 0.911376 0.86807
0.593927 0.638911 0.593927
0.605066 0.648402 0.603433
0.616602 0.658274 0.613306
0.627787 0.667796 0.622812
0.638956 0.677287 0.632319
0.650126 0.686793 0.641825
0.661295 0.6963 0.651316
0.672465 0.705806 0.660822
0.684016 0.715679 0.67071
