public/LUTS/Black&White/Black&White_07.cube
TITLE "Generated by Resolve"
LUT_3D_SIZE 9
0 0 0
0 0 0
0 0 0
0 0 0
0 0 0
0 0 0
0 0 0
0.0168612 0 0
0.0541543 0.0100252 0.0100252
0 0 0
0 0 0
0 0 0
0 0 0
0.011902 0 0
0.0488899 0.0268101 0.0213169
0.0861982 0.0585946 0.0531014
0.123507 0.0903792 0.0848859
0.160784 0.122164 0.11667
0 0 0
0.00694286 0.0124666 0.00144961
0.0439307 0.0439307 0.0329137
0.081239 0.0757153 0.0646983
0.118547 0.1075 0.0964828
0.155535 0.138964 0.127947
0.192844 0.170748 0.159731
0.230137 0.202533 0.191516
0.267338 0.234226 0.223209
0.0762951 0.0928359 0.0762951
0.113466 0.124514 0.107973
0.150576 0.1561 0.139559
0.187869 0.187869 0.171328
0.225177 0.219654 0.203113
0.262165 0.251118 0.234592
0.299474 0.282902 0.266377
0.336767 0.314687 0.298146
0.373754 0.346166 0.329625
0.182925 0.20499 0.182925
0.219898 0.236469 0.214405
0.257206 0.268254 0.246189
0.294514 0.300023 0.277974
0.331655 0.331655 0.30959
0.368795 0.363287 0.341222
0.406104 0.395071 0.373007
0.443366 0.426795 0.404746
0.480385 0.45832 0.436271
0.289494 0.317082 0.289494
0.326543 0.348623 0.321035
0.363836 0.380407 0.352819
0.401144 0.412192 0.384604
0.438132 0.443656 0.416083
0.475441 0.475441 0.447852
0.512749 0.507225 0.479637
0.549828 0.538781 0.511208
0.587015 0.570474 0.542901
0.395956 0.429068 0.395956
0.433173 0.460777 0.42768
0.470481 0.492561 0.459464
0.507774 0.524346 0.491234
0.544778 0.55581 0.522713
0.582071 0.587594 0.554498
0.619379 0.619379 0.586282
0.656367 0.650858 0.617746
0.69366 0.682643 0.649531
0.502525 0.541146 0.502525
0.539803 0.572931 0.53431
0.577111 0.604715 0.566094
0.614115 0.636194 0.597574
0.651408 0.667964 0.629343
0.688716 0.699748 0.661128
0.726009 0.731533 0.692912
0.763012 0.763012 0.724392
0.80029 0.794797 0.756176
0.609171 0.6533 0.609171
0.646464 0.685084 0.640955
0.683772 0.716869 0.67274
0.72076 0.748333 0.704219
0.758053 0.780118 0.736004
0.795361 0.811902 0.767773
0.832624 0.843641 0.799527
0.869657 0.875166 0.831037
0.90695 0.90695 0.862821
0 0 0
0 0 0
0 0 0
0 0 0
0 0 0
0 0 0
0 0 0
0.0276646 0 0
0.0648051 0.0206912 0.0261845
0 0 0
0 0 0
0 0 0
0 0 0
0.0227054 0.00613413 0.00613413
0.0596933 0.0376135 0.0376135
0.0970016 0.069398 0.069398
0.13431 0.101183 0.101183
0.171283 0.132662 0.132662
0 0 0
0.0174258 0.0229496 0.0174258
0.0547341 0.0547341 0.0492103
0.0920424 0.0865187 0.0809949
0.129335 0.118303 0.112779
0.166339 0.149767 0.144244
0.203632 0.181552 0.176028
0.24094 0.213336 0.207813
0.277913 0.244816 0.239292
0.0870985 0.103639 0.0925917
0.124071 0.135103 0.124071
0.161364 0.166888 0.15584
0.198672 0.198672 0.187625
0.23566 0.230137 0.219104
0.272969 0.261921 0.250889
0.310262 0.293706 0.282658
0.34757 0.32549 0.314443
0.384558 0.35697 0.345922
0.193729 0.215793 0.199237
0.230701 0.247272 0.230701
0.268009 0.279042 0.262486
0.305303 0.310826 0.29427
0.342306 0.342306 0.325734
0.379599 0.37409 0.357519
0.416907 0.405875 0.389303
0.454078 0.437522 0.420966
0.491188 0.469123 0.452567
0.300221 0.32781 0.305715
0.337346 0.359426 0.337346
0.37464 0.391196 0.369116
0.411917 0.42295 0.40087
0.448936 0.454459 0.432364
0.486244 0.486244 0.464149
0.523552 0.518029 0.495933
0.56054 0.549493 0.527413
0.597818 0.581277 0.559197
0.406699 0.439796 0.412192
0.443976 0.47158 0.443976
0.48127 0.503365 0.475761
0.51838 0.534936 0.507332
0.555566 0.566613 0.53901
0.592874 0.598398 0.570794
0.630091 0.630091 0.602487
0.66717 0.661646 0.634043
0.704463 0.693431 0.665827
0.513329 0.551949 0.518822
0.550607 0.583734 0.550607
0.587915 0.615518 0.582391
0.624903 0.646983 0.61387
0.662211 0.678767 0.64564
0.699504 0.710552 0.677424
0.736553 0.742077 0.708949
0.7738 0.7738 0.740673
0.811093 0.8056 0.772473
0.619974 0.664103 0.625483
0.657267 0.695888 0.657267
0.69456 0.727672 0.689036
0.731563 0.759136 0.720516
0.768856 0.790921 0.7523
0.806165 0.822705 0.784085
0.843153 0.85417 0.815549
0.880461 0.885954 0.847333
0.917739 0.917739 0.879118
0 0 0
0 0 0
0 0 0
0 0 0
0 0 0
0 0 0
0.00115969 0 0
0.038468 0 0.0108644
0.0755322 0.0314183 0.0424353
0 0 0
0 0 0
0 0 0
0 0 0
0.0333867 0.0168307 0.0223545
0.0704967 0.0484169 0.0539406
0.10779 0.0801862 0.0857099
0.145098 0.111971 0.117494
0.182071 0.14345 0.148974
0 0.00227359 0.00227359
0.0282292 0.033753 0.033753
0.0655375 0.0655375 0.0655375
0.102831 0.097322 0.097322
0.139849 0.128817 0.128817
0.177127 0.160571 0.160571
0.214435 0.192355 0.192355
0.25156 0.223957 0.223957
0.288716 0.255619 0.255619
0.0977035 0.114244 0.108721
0.134859 0.145907 0.140383
0.172168 0.177691 0.172168
0.209476 0.209476 0.203952
0.246464 0.24094 0.235416
0.283772 0.272725 0.267201
0.321065 0.304509 0.298985
0.358068 0.335973 0.330465
0.395346 0.367773 0.362249
0.204227 0.226276 0.215244
0.241505 0.258061 0.247013
0.278798 0.289845 0.278798
0.316106 0.32163 0.310582
0.353094 0.353094 0.342061
0.390402 0.384878 0.373846
0.42771 0.416663 0.405615
0.464698 0.448142 0.437095
0.501991 0.479927 0.468879
0.310857 0.338445 0.321874
0.348135 0.37023 0.353658
0.385443 0.401999 0.385443
0.422431 0.433478 0.416907
0.459739 0.465248 0.448692
0.497032 0.497032 0.480476
0.53434 0.528817 0.512261
0.571328 0.560296 0.543725
0.608621 0.592081 0.575525
0.417487 0.450599 0.428504
0.45478 0.482383 0.460288
0.492073 0.514153 0.492073
0.529076 0.545632 0.523552
0.566369 0.577417 0.555322
0.603677 0.609201 0.587106
0.640818 0.640818 0.618723
0.677974 0.67245 0.65037
0.715251 0.704234 0.682155
0.524132 0.562753 0.535149
0.56141 0.594537 0.566934
0.598642 0.626245 0.598642
0.635706 0.657786 0.630182
0.672999 0.68957 0.661967
0.710307 0.721355 0.693751
0.747311 0.752819 0.725216
0.784604 0.784604 0.757
0.821897 0.816388 0.788785
0.630777 0.674907 0.641794
0.668055 0.706691 0.673579
0.705119 0.738231 0.705119
0.742351 0.76994 0.736843
0.77966 0.801724 0.768612
0.816831 0.833371 0.800275
0.853956 0.864973 0.831876
0.891249 0.896757 0.863645
0.928542 0.928542 0.895445
0 0 0
0 0 0
0 0 0
0 0 0
0 0 0
0 0 0
0.0119631 0 0
0.0492714 0.0106355 0.0271763
0.086244 0.0421149 0.0586557
0 0 0
0 0 0
0 0 0
0.00700389 0 0.00700389
0.0439918 0.0274357 0.038468
0.0813001 0.0592203 0.0702525
0.118593 0.0909895 0.102037
0.155825 0.122698 0.133745
0.192874 0.154253 0.165286
0.00196841 0.0129854 0.0185092
0.0390326 0.0445411 0.0500649
0.0763256 0.0763256 0.0818494
0.113634 0.10811 0.113634
0.150622 0.13959 0.145113
0.18793 0.171374 0.176898
0.225238 0.203143 0.208667
0.262287 0.234684 0.240208
0.299504 0.266407 0.271931
0.108431 0.124971 0.124971
0.145663 0.15671 0.15671
0.182971 0.188495 0.188495
0.220127 0.220127 0.220127
0.257267 0.251743 0.251743
0.294575 0.283528 0.283528
0.331868 0.315312 0.315312
0.368856 0.346777 0.346777
0.406149 0.378561 0.378561
0.215015 0.237079 0.231556
0.252293 0.268864 0.26334
0.289601 0.300649 0.295125
0.326604 0.332113 0.326604
0.363897 0.363897 0.358373
0.401205 0.395682 0.390158
0.4383 0.427253 0.421729
0.475502 0.45893 0.453422
0.512779 0.490715 0.485206
0.32166 0.349233 0.338201
0.358938 0.381018 0.36997
0.396246 0.412802 0.401755
0.433234 0.444282 0.433234
0.470527 0.476051 0.465019
0.507836 0.507836 0.496803
0.544823 0.539315 0.528267
0.582132 0.571099 0.560052
0.619425 0.602884 0.591836
0.42829 0.461387 0.444831
0.465568 0.493172 0.476616
0.502876 0.524956 0.5084
0.539864 0.556435 0.539864
0.577173 0.588205 0.571649
0.614481 0.619989 0.603433
0.651469 0.651469 0.634897
0.688777 0.683253 0.666682
0.726055 0.715038 0.698482
0.53492 0.573556 0.551461
0.572198 0.605325 0.583246
0.609201 0.636805 0.614725
0.64651 0.668589 0.64651
0.683803 0.700374 0.678279
0.72108 0.732113 0.710033
0.758099 0.763622 0.741543
0.795407 0.795407 0.773327
0.8327 0.827192 0.805112
0.641581 0.685695 0.658122
0.678859 0.717479 0.689906
0.715846 0.748959 0.72137
0.753155 0.780743 0.753155
0.790463 0.812512 0.784939
0.827558 0.844099 0.81651
0.864744 0.875776 0.848188
0.902052 0.907561 0.879973
0.939254 0.939254 0.911665
0 0 0
0 0 0
0 0 0
0 0 0
0 0 0
0 0 0
0.0227665 0 0.0117189
0.0597696 0.0211337 0.0431983
0.0970321 0.0529183 0.0749828
0 0 0
0 0 0
0 0 0
0.017792 0.00675975 0.0233158
0.0547951 0.0382239 0.0547951
0.0920882 0.0700084 0.0865644
0.129397 0.101793 0.118349
0.166384 0.133272 0.149828
0.203677 0.165057 0.181613
0.0125429 0.0235599 0.0346075
0.0498207 0.0553445 0.066392
0.087129 0.087129 0.0981765
0.124376 0.118853 0.1299
0.161425 0.150393 0.161425
0.198734 0.182177 0.19321
0.236027 0.213947 0.224994
0.27303 0.245426 0.256458
0.310307 0.277211 0.288243
0.119188 0.135729 0.141253
0.156466 0.167498 0.173022
0.193774 0.199283 0.204807
0.230762 0.230762 0.236271
0.268055 0.262547 0.268055
0.305364 0.294331 0.29984
0.34255 0.325994 0.331518
0.37966 0.35758 0.363104
0.416953 0.389364 0.394888
0.225818 0.247883 0.247883
0.263096 0.279667 0.279667
0.300389 0.311421 0.311421
0.337392 0.342916 0.342916
0.374701 0.374701 0.374701
0.412009 0.406485 0.406485
0.449012 0.43798 0.43798
0.486305 0.469734 0.469734
0.523583 0.501518 0.501518
0.332464 0.360037 0.354513
0.369741 0.391821 0.386297
0.406851 0.423407 0.417884
0.444022 0.45507 0.449546
0.481331 0.486854 0.481331
0.518639 0.518639 0.513115
0.555627 0.550103 0.544579
0.592935 0.581888 0.576364
0.630213 0.613672 0.608148
0.439094 0.47219 0.461158
0.476371 0.503975 0.492927
0.513359 0.535454 0.524407
0.550668 0.567224 0.556191
0.587976 0.599008 0.587976
0.625025 0.630549 0.619501
0.662257 0.662257 0.651225
0.699565 0.694041 0.683009
0.736858 0.725826 0.714794
0.545724 0.584344 0.567788
0.583001 0.616129 0.599573
0.620005 0.647608 0.631037
0.657298 0.679393 0.662821
0.694606 0.711162 0.694606
0.731594 0.742641 0.726085
0.768902 0.774426 0.757855
0.80621 0.80621 0.789639
0.843488 0.837995 0.821424
0.652384 0.696498 0.674434
0.689647 0.728267 0.706203
0.72665 0.759747 0.737697
0.763958 0.791531 0.769482
0.801251 0.823316 0.801251
0.838254 0.854795 0.832731
0.875547 0.886564 0.864515
0.912856 0.918349 0.8963
0.949828 0.949828 0.927764
0 0 0
0 0 0
0 0 0
0 0 0
0 0 0
0 0 0
0.0335546 0.000457771 0.0280461
0.0705425 0.0319219 0.0595102
0.107836 0.0637217 0.0912947
0 0 0
0 0 0
0 0 0.0078584
0.0283207 0.0172885 0.0393683
0.0655985 0.0490272 0.071107
0.102892 0.0808118 0.102892
0.1402 0.112596 0.134676
0.177188 0.14406 0.166155
0.214481 0.175845 0.19794
0.0233463 0.0343633 0.0509194
0.0606241 0.0661479 0.0827039
0.0979324 0.0979324 0.114488
0.13492 0.129397 0.145968
0.172229 0.161181 0.177752
0.209522 0.192966 0.209522
0.246525 0.224445 0.241001
0.283833 0.256229 0.272786
0.321111 0.288014 0.30457
0.129976 0.146517 0.157565
0.167269 0.178302 0.189349
0.204562 0.210086 0.221134
0.24155 0.24155 0.252598
0.278859 0.273335 0.284382
0.316167 0.305119 0.316167
0.353155 0.336599 0.347631
0.390463 0.368383 0.379416
0.427741 0.400168 0.4112
0.236622 0.258671 0.264195
0.273899 0.290455 0.295979
0.311101 0.322148 0.327672
0.348196 0.353719 0.359228
0.385504 0.385504 0.391012
0.422797 0.417273 0.422797
0.4598 0.448753 0.454276
0.497093 0.480537 0.486061
0.534386 0.512322 0.517845
0.343252 0.37084 0.37084
0.380529 0.402625 0.402625
0.417533 0.434089 0.434089
0.454826 0.465873 0.465873
0.492134 0.497658 0.497658
0.52929 0.52929 0.52929
0.56643 0.560906 0.560906
0.603738 0.592691 0.592691
0.64097 0.62443 0.62443
0.449882 0.482994 0.47747
0.487114 0.514717 0.509194
0.524163 0.546242 0.540719
0.561471 0.578027 0.572503
0.598764 0.609812 0.604288
0.635767 0.641291 0.635767
0.67306 0.67306 0.667536
0.710369 0.704845 0.699321
0.747448 0.736416 0.730907
0.556527 0.595148 0.584115
0.593576 0.626703 0.615656
0.630793 0.658396 0.647364
0.668101 0.690181 0.679149
0.705409 0.721965 0.710933
0.742397 0.753445 0.742397
0.779706 0.785214 0.774182
0.816999 0.816999 0.805966
0.853971 0.848478 0.83743
0.663172 0.707301 0.690761
0.700145 0.738766 0.722225
0.737453 0.77055 0.754009
0.774746 0.802335 0.785794
0.811765 0.833829 0.817288
0.849058 0.865583 0.849058
0.886351 0.897368 0.880827
0.923659 0.929152 0.912612
0.960632 0.960632 0.944091
0 0 0
0 0 0
0 0 0
0 0 0
0 0 0
0.00704967 0 0.0125734
0.0442817 0.0111849 0.0442817
0.0813458 0.0427253 0.0758221
0.118639 0.0745098 0.107622
0 0 0
0 0 0
0.00209049 0 0.0241855
0.0390784 0.0280461 0.0556497
0.0763867 0.0598306 0.0874342
0.113695 0.0916152 0.119219
0.150759 0.123156 0.150759
0.187991 0.154864 0.182467
0.225269 0.186648 0.214252
0.0341497 0.0451667 0.0672465
0.0714275 0.0769513 0.0990311
0.108583 0.108583 0.130678
0.145724 0.1402 0.16228
0.183032 0.171984 0.194064
0.220325 0.203769 0.225849
0.257328 0.235233 0.257328
0.294621 0.267018 0.289097
0.331914 0.298802 0.320897
0.14078 0.157321 0.173877
0.178058 0.189105 0.205661
0.215061 0.220584 0.23714
0.252354 0.252354 0.268925
0.289662 0.284138 0.30071
0.32697 0.315923 0.332479
0.363958 0.347402 0.363958
0.401251 0.379171 0.395743
0.438544 0.410956 0.427527
0.24741 0.269474 0.280522
0.284703 0.301259 0.312306
0.321691 0.332738 0.343771
0.358999 0.364508 0.375555
0.396292 0.396292 0.40734
0.43328 0.427771 0.438804
0.470588 0.459556 0.470588
0.507897 0.491341 0.502373
0.545174 0.523125 0.534157
0.354055 0.381628 0.387152
0.391333 0.413413 0.418936
0.428321 0.444892 0.450416
0.465629 0.476677 0.482185
0.502937 0.508461 0.51397
0.539925 0.539925 0.545449
0.577234 0.57171 0.577234
0.614527 0.603494 0.609018
0.651698 0.635157 0.640681
0.460685 0.493782 0.493782
0.497841 0.525444 0.525444
0.534966 0.557046 0.557046
0.572259 0.58883 0.58883
0.609552 0.620584 0.620584
0.646555 0.652079 0.652079
0.683864 0.683864 0.683864
0.721172 0.715648 0.715648
0.758144 0.747127 0.747127
0.567315 0.605951 0.600427
0.604288 0.637415 0.631891
0.641596 0.6692 0.663676
0.678904 0.700984 0.69546
0.716014 0.73257 0.727047
0.753201 0.764233 0.758709
0.790494 0.796017 0.790494
0.827726 0.827726 0.822202
0.864775 0.859281 0.853758
0.673884 0.717998 0.706981
0.710948 0.749569 0.738552
0.748257 0.781353 0.770336
0.78555 0.813138 0.802121
0.822538 0.844602 0.833585
0.859846 0.876387 0.86537
0.897154 0.908171 0.897154
0.934203 0.939712 0.928679
0.971435 0.971435 0.960403
0 0 0
0 0 0
0 0 0
0 0 0
0 0 0
0.0178531 0 0.0289006
0.0548409 0.0217441 0.0603647
0.0921492 0.0535286 0.0921492
0.129442 0.0853132 0.123934
0 0 0
0 0 0.0087129
0.0128481 0.00732433 0.0404517
0.0498817 0.0388495 0.0719615
0.0871901 0.070634 0.103746
0.124498 0.102403 0.135531
0.161486 0.133883 0.16701
0.198779 0.165667 0.198779
0.236072 0.197452 0.230579
0.0449378 0.0559701 0.0835737
0.0822309 0.0877546 0.115358
0.11931 0.11931 0.146914
0.156527 0.151003 0.178607
0.19382 0.182788 0.210391
0.231022 0.214466 0.242069
0.268116 0.246036 0.27364
0.305425 0.277821 0.305425
0.342702 0.309606 0.337209
0.151583 0.168124 0.190204
0.188861 0.199908 0.221988
0.225849 0.231373 0.253452
0.263157 0.263157 0.285237
0.300465 0.294942 0.317021
0.337484 0.326452 0.348531
0.374762 0.35819 0.38027
0.412055 0.389975 0.412055
0.44918 0.421607 0.443687
0.258213 0.280278 0.296834
0.295323 0.311879 0.32845
0.332494 0.343526 0.360098
0.369787 0.375311 0.391882
0.407095 0.407095 0.423667
0.444083 0.43856 0.455131
0.481392 0.470344 0.486915
0.5187 0.502129 0.5187
0.555673 0.533608 0.550164
0.364858 0.392432 0.403479
0.401816 0.423911 0.434943
0.439124 0.455695 0.466728
0.476432 0.487465 0.498512
0.513741 0.519249 0.530297
0.550729 0.550729 0.561761
0.588022 0.582513 0.593545
0.62533 0.614282 0.62533
0.662303 0.645762 0.656809
0.471489 0.504585 0.510109
0.508461 0.536065 0.541588
0.545769 0.567849 0.573373
0.583062 0.599619 0.605142
0.62005 0.631098 0.636622
0.657359 0.662882 0.668406
0.694667 0.694667 0.700191
0.73196 0.726436 0.73196
0.768948 0.757916 0.763439
0.578119 0.616739 0.616739
0.615091 0.648219 0.648219
0.652399 0.680003 0.680003
0.689693 0.711788 0.711788
0.726696 0.743252 0.743252
0.763989 0.775036 0.775036
0.801297 0.806821 0.806821
0.838453 0.838453 0.838453
0.875578 0.870085 0.870085
0.684596 0.728725 0.723217
0.721752 0.760372 0.754864
0.759045 0.792157 0.786648
0.796292 0.82388 0.818372
0.833341 0.855406 0.849912
0.870649 0.88719 0.881682
0.907958 0.918975 0.913466
0.944945 0.950439 0.944945
0.982223 0.982223 0.97673
0 0 0
0 0 0
0 0 0
0 0 0
0 0 0.0134127
0.0286564 0.00106813 0.0451972
0.0656443 0.0325475 0.0766613
0.102953 0.064332 0.108446
0.140246 0.0961166 0.140246
0 0 0
0 0 0.0250095
0.0233768 0.0178683 0.0564889
0.0606851 0.0496529 0.0882734
0.0979934 0.0814221 0.120043
0.135286 0.113207 0.151827
0.17229 0.144686 0.183307
0.209583 0.176455 0.215091
0.246876 0.208255 0.246876
0.0557412 0.0667582 0.0998703
0.0930343 0.0985428 0.131655
0.130022 0.130022 0.163119
0.16733 0.161807 0.194903
0.204623 0.193576 0.226688
0.241611 0.225055 0.258152
0.27892 0.25684 0.289937
0.316228 0.288624 0.321721
0.353445 0.320348 0.353445
0.162387 0.178927 0.2065
0.199573 0.21062 0.238209
0.236652 0.242176 0.269749
0.27396 0.27396 0.301534
0.311269 0.305745 0.333318
0.348257 0.337209 0.364797
0.385565 0.368994 0.396582
0.422858 0.400778 0.428351
0.459907 0.432334 0.459907
0.269017 0.291081 0.313146
0.30605 0.322606 0.344671
0.343282 0.35433 0.376394
0.380591 0.386114 0.408179
0.417762 0.417762 0.439811
0.454887 0.449363 0.471427
0.492195 0.481147 0.503212
0.529488 0.512932 0.534997
0.566476 0.544411 0.566476
0.375647 0.403235 0.419776
0.412619 0.434714 0.45124
0.449928 0.466484 0.483024
0.487236 0.498268 0.514809
0.524224 0.529747 0.546288
0.561517 0.561517 0.578058
0.598825 0.593301 0.609842
0.635935 0.624887 0.641428
0.673106 0.656565 0.673106
0.482063 0.515175 0.526192
0.519265 0.546868 0.557885
0.556558 0.578637 0.58967
0.593866 0.610422 0.621454
0.630854 0.641901 0.652918
0.668162 0.673686 0.684703
0.70547 0.70547 0.716487
0.742458 0.736934 0.747951
0.779736 0.768719 0.779736
0.588617 0.627237 0.632731
0.625895 0.659022 0.664515
0.663203 0.690806 0.6963
0.700496 0.722591 0.728084
0.737499 0.754055 0.759564
0.774792 0.78584 0.791333
0.8121 0.817624 0.823117
0.849088 0.849088 0.854582
0.886381 0.880873 0.886381
0.695262 0.739391 0.739391
0.73254 0.771176 0.771176
0.769848 0.80296 0.80296
0.806836 0.834424 0.834424
0.844144 0.866209 0.866209
0.881453 0.897993 0.897993
0.91873 0.929747 0.929747
0.955749 0.961242 0.961242
0.992401 0.992401 0.992401
