public/LUTS/Black&White/Black&White_04.cube
TITLE "Generated by Resolve"
LUT_3D_SIZE 33
0 0 0
0.00695811 0.00585946 0.00585946
0.0144503 0.0122377 0.0122377
0.0221866 0.0188602 0.0188602
0.0296788 0.0252232 0.0252232
0.0371557 0.0315862 0.0315862
0.0446479 0.0379644 0.0379644
0.0521401 0.0443275 0.0443275
0.0596323 0.050721 0.050721
0.0673533 0.0573129 0.0573129
0.0748455 0.0636912 0.0636912
0.0823224 0.0700542 0.0700542
0.0898146 0.0764172 0.0764172
0.0973068 0.0827955 0.0827955
0.104845 0.0892195 0.0892195
0.11252 0.0957809 0.0957809
0.120012 0.102144 0.102144
0.127489 0.108522 0.108522
0.134981 0.114885 0.114885
0.142458 0.121248 0.121248
0.15021 0.127871 0.127871
0.157687 0.134249 0.134249
0.165179 0.140612 0.140612
0.172656 0.14699 0.14699
0.180148 0.153353 0.153353
0.187732 0.159823 0.159823
0.195361 0.166339 0.166339
0.202853 0.172717 0.172717
0.210346 0.17908 0.17908
0.217838 0.185443 0.185443
0.225315 0.191821 0.191821
0.232944 0.198337 0.198337
0.240528 0.204807 0.204807
0.0210117 0.0221103 0.0210117
0.0284886 0.0284886 0.0273899
0.0362249 0.035111 0.0340124
0.0437018 0.041474 0.0403754
0.051194 0.047837 0.0467384
0.0586862 0.0542153 0.0531167
0.0661631 0.0605783 0.0594797
0.0738994 0.0672007 0.0661021
0.0813916 0.0735637 0.0724651
0.0888685 0.079942 0.0788434
0.0963607 0.086305 0.0852064
0.103838 0.092668 0.0915694
0.11133 0.0990463 0.0979477
0.119066 0.105669 0.10457
0.126558 0.112032 0.110933
0.134035 0.118395 0.117296
0.141527 0.124773 0.123674
0.149004 0.131136 0.130037
0.156542 0.137545 0.136446
0.164233 0.144121 0.143023
0.171725 0.1505 0.149401
0.179217 0.156863 0.155764
0.186694 0.163226 0.162142
0.194186 0.169604 0.168505
0.201755 0.176059 0.17496
0.2094 0.182589 0.181491
0.216892 0.188952 0.187854
0.224369 0.195331 0.194232
0.231861 0.201694 0.200595
0.239353 0.208057 0.206958
0.246967 0.214572 0.213474
0.254566 0.221057 0.219959
0.262043 0.22742 0.226322
0.04271 0.0449378 0.04271
0.050248 0.0513619 0.0491493
0.0577401 0.0577401 0.0555276
0.0652171 0.0641031 0.0618906
0.0727092 0.0704662 0.0682536
0.0802014 0.0768444 0.0746319
0.0879072 0.0834363 0.0812238
0.0954147 0.0898299 0.0876173
0.102907 0.0961929 0.0939803
0.110384 0.102571 0.100359
0.117876 0.108934 0.106722
0.125353 0.115297 0.113085
0.133104 0.12192 0.119707
0.140597 0.128298 0.126085
0.148074 0.134661 0.132448
0.155566 0.141039 0.138811
0.163043 0.147402 0.14519
0.17055 0.153796 0.151583
0.178271 0.160388 0.158175
0.185748 0.166766 0.164553
0.19324 0.173129 0.170916
0.200732 0.179492 0.177279
0.208209 0.18587 0.183658
0.215946 0.192477 0.190265
0.223438 0.198856 0.196643
0.230915 0.205219 0.203006
0.238407 0.211597 0.209384
0.245884 0.21796 0.215747
0.253437 0.224384 0.222171
0.261112 0.230945 0.228733
0.268605 0.237324 0.235111
0.276081 0.243687 0.241474
0.283558 0.250065 0.247852
0.0643015 0.067628 0.0643015
0.0717632 0.0740063 0.0706645
0.0792554 0.0803693 0.0770428
0.0867323 0.0867323 0.0834058
0.0942245 0.0931106 0.0897841
0.101976 0.099733 0.0963912
0.109453 0.106096 0.10277
0.116945 0.112459 0.109133
0.124422 0.118837 0.115496
0.131899 0.1252 0.121874
0.139605 0.131777 0.12845
0.147127 0.138186 0.134859
0.15462 0.144564 0.141222
0.162112 0.150927 0.147601
0.169589 0.15729 0.153964
0.177081 0.163668 0.160342
0.184817 0.170291 0.166964
0.192294 0.176654 0.173327
0.199786 0.183017 0.17969
0.207263 0.189395 0.186069
0.214755 0.195758 0.192432
0.222248 0.202121 0.198795
0.229984 0.208743 0.205417
0.237461 0.215122 0.21178
0.244953 0.221485 0.218158
0.25243 0.227848 0.224521
0.259922 0.234226 0.2309
0.267445 0.240635 0.237308
0.275151 0.247211 0.243885
0.282643 0.253574 0.250248
0.29012 0.259953 0.256626
0.297597 0.266316 0.262989
0.305074 0.272694 0.269368
0.0858167 0.0902571 0.0858167
0.0932784 0.0966354 0.0921798
0.100771 0.102998 0.098558
0.108385 0.109514 0.105058
0.115999 0.115999 0.111543
0.123476 0.122362 0.117906
0.130968 0.128725 0.124285
0.138445 0.135103 0.130648
0.145937 0.141466 0.137011
0.153613 0.148028 0.143572
0.161166 0.154452 0.150011
0.168643 0.16083 0.156374
0.176135 0.167193 0.162737
0.183627 0.173556 0.169116
0.191104 0.179934 0.175479
0.198825 0.186526 0.182086
0.206332 0.19292 0.188464
0.213809 0.199283 0.194842
0.221302 0.205661 0.201205
0.228779 0.212024 0.207584
0.236271 0.218387 0.213947
0.244007 0.22501 0.220569
0.251499 0.231388 0.226932
0.258976 0.237751 0.233295
0.266468 0.244129 0.239673
0.273945 0.250492 0.246036
0.281682 0.257115 0.252659
0.289174 0.263478 0.259037
0.296666 0.269841 0.2654
0.304143 0.276219 0.271763
0.311635 0.282582 0.278141
0.319127 0.288975 0.28452
0.326848 0.295583 0.291127
0.107332 0.112902 0.107332
0.114794 0.119265 0.113695
0.122408 0.125765 0.120195
0.130022 0.132265 0.12668
0.137499 0.138628 0.133059
0.144991 0.144991 0.139422
0.152483 0.151369 0.145785
0.15996 0.157733 0.152163
0.167697 0.164355 0.158785
0.175189 0.170718 0.165148
0.182666 0.177096 0.171527
0.190158 0.183459 0.17789
0.19765 0.189822 0.184253
0.205295 0.196353 0.190784
0.212863 0.202808 0.197238
0.220356 0.209186 0.203616
0.227848 0.215549 0.209979
0.235325 0.221927 0.216358
0.242817 0.22829 0.222721
0.250507 0.234867 0.229297
0.25803 0.241276 0.235706
0.265522 0.247654 0.242084
0.273014 0.254017 0.248447
0.280491 0.26038 0.25481
0.287984 0.266758 0.261189
0.29572 0.273381 0.267811
0.303197 0.279744 0.274174
0.310689 0.286122 0.280537
0.318166 0.292485 0.286915
0.325658 0.298848 0.293278
0.33315 0.305226 0.299657
0.340887 0.311833 0.306264
0.348348 0.318212 0.312642
0.128893 0.135576 0.128893
0.136568 0.142153 0.13547
0.144045 0.148531 0.141833
0.151537 0.154894 0.148211
0.15903 0.161257 0.154574
0.166506 0.167636 0.160937
0.17409 0.17409 0.167407
0.181735 0.180621 0.173938
0.189227 0.186984 0.180301
0.196704 0.193362 0.186664
0.204196 0.199725 0.193042
0.211673 0.206088 0.199405
0.219303 0.212604 0.205921
0.226902 0.219089 0.21239
0.234379 0.225452 0.218769
0.241871 0.231815 0.225132
0.249363 0.238193 0.231495
0.25684 0.244556 0.237873
0.264515 0.251118 0.244419
0.272068 0.257542 0.250858
0.279545 0.26392 0.257221
0.287037 0.270283 0.2636
0.29453 0.276646 0.269963
0.302007 0.283024 0.276326
0.309743 0.289647 0.282948
0.317235 0.29601 0.289326
0.324712 0.302373 0.295689
0.332204 0.308751 0.302068
0.339696 0.315114 0.308431
0.347402 0.321706 0.315022
0.354925 0.328099 0.321416
0.362402 0.334478 0.327779
0.369879 0.340841 0.334157
0.150607 0.158419 0.150607
0.158083 0.164782 0.156985
0.165576 0.17116 0.163348
0.173053 0.177523 0.169726
0.180545 0.183886 0.176089
0.188098 0.190341 0.182528
0.195758 0.196887 0.189075
0.20325 0.20325 0.195453
0.210742 0.209628 0.201816
0.218219 0.215991 0.208179
0.225711 0.222354 0.214557
0.233448 0.228977 0.22118
0.240925 0.23534 0.227543
0.248417 0.241718 0.233906
0.255909 0.248081 0.240284
0.263386 0.254444 0.246647
0.270985 0.260929 0.253132
0.278614 0.267445 0.259632
0.286091 0.273808 0.266011
0.293584 0.280186 0.272374
0.301076 0.286549 0.278737
0.308553 0.292912 0.285115
0.316197 0.299443 0.291646
0.323781 0.305898 0.2981
0.331273 0.312276 0.304479
0.33875 0.318639 0.310842
0.346227 0.325017 0.317205
0.353719 0.33138 0.323583
0.36141 0.337957 0.330144
0.368948 0.344366 0.336568
0.37644 0.350744 0.342931
0.383917 0.357107 0.349294
0.391394 0.363485 0.355673
0.172137 0.181048 0.172137
0.179599 0.187427 0.1785
0.187091 0.19379 0.184878
0.194568 0.200153 0.191241
0.202304 0.206775 0.197864
0.209796 0.213153 0.204227
0.217288 0.219516 0.21059
0.224765 0.225879 0.216968
0.232258 0.232258 0.223331
0.23978 0.238666 0.229755
0.247471 0.245243 0.236332
0.254963 0.251606 0.242695
0.262455 0.257984 0.249058
0.269932 0.264347 0.255436
0.277424 0.27071 0.261799
0.284993 0.27718 0.268254
0.292638 0.283711 0.274784
0.30013 0.290074 0.281147
0.307607 0.296437 0.287526
0.315099 0.302815 0.293889
0.322591 0.309178 0.300267
0.33022 0.315694 0.306767
0.337819 0.322164 0.313252
0.345296 0.328542 0.319615
0.352789 0.334905 0.325994
0.360265 0.341268 0.332357
0.367758 0.347646 0.33872
0.375494 0.354269 0.345342
0.382971 0.360632 0.351705
0.390463 0.366995 0.358083
0.397955 0.373373 0.364446
0.405432 0.379736 0.370825
0.413092 0.386297 0.377371
0.193652 0.203677 0.193652
0.201114 0.210056 0.200015
0.208606 0.216419 0.206394
0.216342 0.223041 0.213001
0.223819 0.229404 0.219379
0.231312 0.235782 0.225742
0.238804 0.242145 0.232105
0.246281 0.248524 0.238483
0.253803 0.254917 0.244877
0.261509 0.261509 0.251469
0.268986 0.267872 0.257847
0.276478 0.274235 0.26421
0.28397 0.280613 0.270573
0.291447 0.286976 0.276951
0.299184 0.293599 0.283558
0.306676 0.299977 0.289937
0.314168 0.30634 0.2963
0.321645 0.312703 0.302678
0.329137 0.319081 0.309041
0.33669 0.325521 0.31548
0.34435 0.332067 0.322026
0.351843 0.33843 0.328405
0.359335 0.344808 0.334768
0.366812 0.351171 0.341131
0.374304 0.357534 0.347509
0.381903 0.364019 0.353994
0.389517 0.370535 0.360494
0.397009 0.376898 0.366857
0.404486 0.383261 0.373236
0.411978 0.389639 0.379599
0.419471 0.396002 0.385962
0.427115 0.402533 0.392493
0.434669 0.409003 0.398962
0.215167 0.226322 0.215167
0.222843 0.232898 0.221744
0.230365 0.239307 0.228153
0.237858 0.24567 0.234531
0.24535 0.252049 0.240894
0.252827 0.258412 0.247257
0.260319 0.264775 0.253635
0.268055 0.271397 0.260258
0.275547 0.277775 0.266621
0.283024 0.284138 0.272984
0.290517 0.290517 0.279362
0.297993 0.29688 0.285725
0.305486 0.303243 0.292088
0.313222 0.309865 0.298711
0.320699 0.316228 0.305089
0.328191 0.322606 0.311452
0.335683 0.328969 0.317815
0.34316 0.335332 0.324193
0.350698 0.341756 0.330602
0.358389 0.348333 0.337179
0.365866 0.354696 0.343542
0.373358 0.361074 0.34992
0.38085 0.367437 0.356283
0.388327 0.3738 0.362646
0.395911 0.38027 0.369116
0.403555 0.386801 0.375647
0.411032 0.393164 0.38201
0.418524 0.399527 0.388388
0.426017 0.405905 0.394751
0.433494 0.412268 0.401114
0.441245 0.418891 0.407736
0.448722 0.425254 0.414099
0.456199 0.431632 0.420478
0.236866 0.249134 0.236866
0.244404 0.255573 0.243305
0.251896 0.261936 0.249668
0.259373 0.268315 0.256046
0.266865 0.274678 0.262409
0.274357 0.281041 0.268772
0.282063 0.287648 0.27538
0.28957 0.294041 0.281773
0.297063 0.300404 0.288136
0.30454 0.306767 0.294499
0.312032 0.313146 0.300877
0.319509 0.319509 0.30724
0.327245 0.326131 0.313863
0.334737 0.332494 0.320226
0.342229 0.338872 0.326604
0.349706 0.345235 0.332967
0.357198 0.351614 0.339345
0.364935 0.358221 0.345953
0.372412 0.364599 0.352331
0.379904 0.370962 0.358694
0.387396 0.377325 0.365057
0.394873 0.383703 0.371435
0.40238 0.390097 0.377829
0.410101 0.396689 0.384421
0.417594 0.403052 0.390799
0.425071 0.40943 0.397162
0.432547 0.415793 0.403525
0.44004 0.422171 0.409903
0.447593 0.428595 0.416327
0.455268 0.435157 0.422889
0.46276 0.44152 0.429252
0.470237 0.447883 0.435615
0.477714 0.454261 0.441993
0.258442 0.271839 0.258442
0.265919 0.278202 0.26482
0.273396 0.284581 0.271183
0.280888 0.290944 0.277562
0.288548 0.297475 0.284092
0.296117 0.303929 0.290547
0.303593 0.310307 0.29691
0.311086 0.31667 0.303288
0.318578 0.323033 0.309651
0.326055 0.329412 0.316014
0.333745 0.335988 0.322606
0.341268 0.342397 0.329
0.34876 0.34876 0.335378
0.356252 0.355138 0.341741
0.363729 0.361501 0.348119
0.371221 0.367864 0.354482
0.378958 0.374487 0.361105
0.38645 0.380865 0.367468
0.393927 0.387228 0.373846
0.401419 0.393606 0.380209
0.408896 0.399969 0.386572
0.416388 0.406332 0.39295
0.424125 0.412955 0.399573
0.431617 0.419318 0.405936
0.439094 0.425696 0.412299
0.446586 0.432059 0.418677
0.454063 0.438437 0.42504
0.461601 0.444846 0.431464
0.469291 0.451423 0.438025
0.476783 0.457786 0.444404
0.484276 0.464164 0.450767
0.491753 0.470527 0.45713
0.499229 0.47689 0.463508
0.279957 0.294469 0.279957
0.287434 0.300847 0.286336
0.294911 0.30721 0.292699
0.302541 0.313726 0.299214
0.31014 0.320195 0.305684
0.317632 0.326574 0.312062
0.325109 0.332937 0.318425
0.332601 0.3393 0.324788
0.340078 0.345678 0.331167
0.347753 0.352239 0.337728
0.355306 0.358663 0.344152
0.362783 0.365026 0.350515
0.370275 0.371405 0.356893
0.377768 0.377768 0.363256
0.385245 0.384131 0.369619
0.392996 0.390753 0.376242
0.400473 0.397131 0.38262
0.407965 0.403494 0.388983
0.415442 0.409857 0.395361
0.422934 0.416236 0.401724
0.430655 0.422827 0.408316
0.438163 0.429221 0.41471
0.44564 0.435584 0.421088
0.453132 0.441962 0.427451
0.460609 0.448325 0.433814
0.468101 0.454704 0.440192
0.475837 0.461311 0.446815
0.483314 0.467689 0.453178
0.490806 0.474052 0.459541
0.498299 0.480415 0.465919
0.505776 0.486793 0.472282
0.513283 0.493187 0.478676
0.520989 0.499779 0.485283
0.301472 0.317098 0.301472
0.308949 0.323476 0.307851
0.316686 0.330098 0.314473
0.324163 0.336461 0.320836
0.331655 0.342824 0.327214
0.339147 0.349203 0.333577
0.346624 0.355566 0.33994
0.354238 0.362051 0.346426
0.361852 0.368566 0.352941
0.369329 0.374929 0.359304
0.376822 0.381292 0.365667
0.384314 0.387671 0.372045
0.391791 0.394034 0.378408
0.399451 0.400565 0.384939
0.407019 0.407019 0.391394
0.414511 0.413397 0.397772
0.421988 0.41976 0.404135
0.42948 0.426123 0.410498
0.436957 0.432502 0.416876
0.444663 0.439078 0.423453
0.452186 0.445487 0.429862
0.459678 0.45185 0.436225
0.467155 0.458228 0.442603
0.474647 0.464591 0.448966
0.482124 0.470954 0.455329
0.489876 0.477577 0.461952
0.497353 0.483955 0.46833
0.504845 0.490318 0.474693
0.512322 0.496681 0.481056
0.519814 0.503059 0.487434
0.527306 0.509422 0.493797
0.535027 0.516045 0.50042
0.542504 0.522423 0.506798
0.323049 0.339788 0.323049
0.330709 0.346365 0.329625
0.338201 0.352728 0.335988
0.345678 0.359091 0.342351
0.35317 0.365469 0.34873
0.360662 0.371832 0.355093
0.368246 0.378302 0.361563
0.375891 0.384817 0.368078
0.383368 0.391196 0.374456
0.39086 0.397559 0.380819
0.398337 0.403937 0.387182
0.405829 0.4103 0.393561
0.413458 0.416815 0.400076
0.421057 0.423285 0.406546
0.428534 0.429648 0.412909
0.436027 0.436027 0.419287
0.443503 0.44239 0.42565
0.450996 0.448753 0.432013
0.458732 0.455375 0.438636
0.466224 0.461753 0.445014
0.473701 0.468116 0.451377
0.481193 0.474495 0.45774
0.488685 0.480858 0.464118
0.496345 0.487404 0.470665
0.503899 0.493843 0.477104
0.511391 0.500221 0.483482
0.518868 0.506584 0.489845
0.52636 0.512947 0.496208
0.533852 0.519326 0.502586
0.541558 0.525917 0.509178
0.549065 0.532311 0.515572
0.556558 0.538674 0.521935
0.564019 0.545052 0.528313
0.344762 0.362615 0.344762
0.352239 0.368994 0.351141
0.359716 0.375357 0.357504
0.367208 0.381735 0.363867
0.374685 0.388098 0.370245
0.382437 0.39472 0.376867
0.389914 0.401083 0.38323
0.397406 0.407462 0.389593
0.404883 0.413825 0.395972
0.412375 0.420188 0.402335
0.419928 0.426642 0.408774
0.427588 0.433188 0.415335
0.43508 0.439551 0.421698
0.442573 0.445914 0.428061
0.45005 0.452293 0.434424
0.457542 0.458656 0.440803
0.465141 0.465141 0.447288
0.472755 0.471641 0.453788
0.480247 0.478019 0.460151
0.487739 0.484382 0.466529
0.495216 0.490745 0.472892
0.502708 0.497124 0.479271
0.510353 0.503655 0.485801
0.517937 0.510109 0.492256
0.525414 0.516472 0.498619
0.532906 0.52285 0.504997
0.540383 0.529213 0.51136
0.547875 0.535592 0.517723
0.555566 0.542168 0.524315
0.563104 0.548577 0.530709
0.570581 0.55494 0.537087
0.578073 0.561303 0.54345
0.585534 0.567681 0.549828
0.366278 0.38526 0.366278
0.373754 0.391623 0.372656
0.381231 0.398001 0.379019
0.388724 0.404364 0.385397
0.39646 0.410986 0.392004
0.403952 0.41735 0.398383
0.411429 0.423713 0.404746
0.418921 0.430091 0.411109
0.426398 0.436454 0.417487
0.433936 0.442878 0.423911
0.441627 0.449454 0.430472
0.449119 0.455817 0.436851
0.456596 0.462181 0.443214
0.464088 0.468559 0.449577
0.471565 0.474922 0.45594
0.479149 0.481392 0.462409
0.486793 0.487907 0.46894
0.494285 0.494285 0.475303
0.501762 0.500648 0.481682
0.509255 0.507012 0.488045
0.516732 0.51339 0.494408
0.524483 0.520012 0.50103
0.53196 0.526375 0.507408
0.539452 0.532738 0.513771
0.546929 0.539117 0.520134
0.554421 0.54548 0.526513
0.562036 0.551995 0.533013
0.569635 0.558465 0.539498
0.577127 0.564843 0.545861
0.584619 0.571206 0.552239
0.592096 0.577569 0.558602
0.599588 0.583947 0.564965
0.607248 0.590509 0.571527
0.387793 0.407889 0.387793
0.39527 0.414252 0.394171
0.402747 0.42063 0.400534
0.410483 0.427253 0.407156
0.417975 0.433616 0.413535
0.425467 0.439979 0.419898
0.432944 0.446357 0.426261
0.440436 0.45272 0.432639
0.448173 0.459342 0.439261
0.45565 0.465705 0.445624
0.463142 0.472084 0.451987
0.470634 0.478447 0.458366
0.478111 0.48481 0.464729
0.485634 0.491218 0.471122
0.493339 0.49781 0.477714
0.500832 0.504173 0.484092
0.508309 0.510552 0.490455
0.515801 0.516915 0.496818
0.523278 0.523278 0.503197
0.530846 0.529717 0.509636
0.538506 0.536263 0.516182
0.545998 0.542641 0.522545
0.553475 0.549004 0.528923
0.560967 0.555367 0.535286
0.568444 0.561746 0.54165
0.576059 0.568231 0.54815
0.583673 0.574731 0.55465
0.591165 0.581109 0.561013
0.598642 0.587472 0.567391
0.606134 0.593835 0.573754
0.613626 0.600214 0.580118
0.621271 0.606744 0.586648
0.628824 0.613199 0.593118
0.409323 0.430518 0.409323
0.416999 0.43711 0.4159
0.424521 0.443519 0.422309
0.431998 0.449882 0.428672
0.43949 0.456245 0.43505
0.446983 0.462623 0.441413
0.454459 0.468986 0.447776
0.462211 0.475608 0.454398
0.469688 0.481971 0.460777
0.47718 0.48835 0.46714
0.484657 0.494713 0.473503
0.492149 0.501091 0.479881
0.499641 0.507454 0.486244
0.507378 0.514076 0.492866
0.514855 0.520439 0.499229
0.522347 0.526802 0.505608
0.529824 0.533181 0.511971
0.537316 0.539544 0.518334
0.544854 0.545968 0.524758
0.552529 0.552529 0.531334
0.560021 0.558907 0.537697
0.567514 0.56527 0.54406
0.575006 0.571649 0.550439
0.582483 0.578012 0.556802
0.590219 0.584634 0.563424
0.597711 0.590997 0.569802
0.605188 0.59736 0.576165
0.61268 0.603738 0.582528
0.620172 0.610101 0.588907
0.627741 0.616571 0.595361
0.635386 0.623087 0.601892
0.642878 0.629465 0.608255
0.650339 0.635828 0.614633
0.431022 0.453346 0.431022
0.438544 0.459785 0.437446
0.446036 0.466148 0.443824
0.453513 0.472511 0.450187
0.461006 0.478889 0.456565
0.468498 0.485252 0.462928
0.476234 0.491875 0.469551
0.483726 0.498238 0.475914
0.491203 0.504616 0.482292
0.49868 0.510979 0.488655
0.506172 0.517342 0.495018
0.513893 0.523949 0.501625
0.521401 0.530343 0.508003
0.528893 0.536706 0.514382
0.53637 0.543069 0.520745
0.543862 0.549447 0.527123
0.551339 0.55581 0.533486
0.559075 0.562432 0.540108
0.566567 0.568795 0.546471
0.574044 0.575174 0.55285
0.581537 0.581537 0.559213
0.589029 0.5879 0.565576
0.596536 0.594308 0.571984
0.604242 0.6009 0.578576
0.611734 0.607263 0.584939
0.619226 0.613642 0.591302
0.626703 0.620005 0.597681
0.634195 0.626368 0.604044
0.641749 0.632807 0.610483
0.649424 0.639353 0.617029
0.656901 0.645731 0.623407
0.664378 0.652094 0.62977
0.671855 0.658473 0.636149
0.452598 0.476036 0.452598
0.46006 0.482414 0.458961
0.467552 0.488777 0.465339
0.475029 0.495155 0.471702
0.482689 0.501686 0.478248
0.490257 0.508141 0.484688
0.497749 0.514504 0.491066
0.505226 0.520882 0.497429
0.512718 0.527245 0.503807
0.520195 0.533608 0.51017
0.527901 0.5402 0.516747
0.535424 0.546609 0.523156
0.542916 0.552972 0.529519
0.550408 0.559335 0.535897
0.557885 0.565713 0.54226
0.565377 0.572076 0.548623
0.573114 0.578698 0.555245
0.580591 0.585061 0.561624
0.588083 0.59144 0.567987
0.59556 0.597803 0.574365
0.603052 0.604166 0.580728
0.610544 0.610544 0.587106
0.61828 0.617166 0.593713
0.625757 0.623529 0.600076
0.633249 0.629892 0.606455
0.640726 0.636271 0.612818
0.648219 0.642634 0.619196
0.655955 0.649256 0.625818
0.663447 0.655634 0.632181
0.670924 0.661997 0.638544
0.678416 0.66836 0.644923
0.685893 0.674723 0.651286
0.693416 0.681147 0.65771
0.474113 0.49868 0.474113
0.481575 0.505043 0.480476
0.489067 0.511421 0.486854
0.496696 0.517937 0.49337
0.504295 0.524407 0.49984
0.511788 0.53077 0.506203
0.519265 0.537133 0.512581
0.526757 0.543511 0.518944
0.534234 0.549874 0.525322
0.54197 0.556497 0.531929
0.549462 0.562875 0.538308
0.556939 0.569238 0.544671
0.564431 0.575601 0.551034
0.571923 0.581979 0.557412
0.579599 0.58854 0.563973
0.587137 0.594965 0.570397
0.594629 0.601328 0.576776
0.602106 0.607691 0.583139
0.609598 0.614069 0.589502
0.617075 0.620432 0.59588
0.624811 0.627039 0.602472
0.632303 0.633433 0.608865
0.639796 0.639796 0.615228
0.647272 0.646159 0.621607
0.654765 0.652537 0.62797
0.662257 0.6589 0.634333
0.669978 0.665522 0.640955
0.67747 0.671885 0.647334
0.684962 0.678264 0.653696
0.692454 0.684627 0.66006
0.699931 0.69099 0.666438
0.707439 0.697383 0.672831
0.715145 0.70399 0.679423
0.495628 0.521309 0.495628
0.503182 0.527764 0.502083
0.510842 0.534295 0.508629
0.518318 0.540673 0.514992
0.525811 0.547036 0.521355
0.533303 0.553399 0.527733
0.54078 0.559777 0.534096
0.548394 0.566262 0.540581
0.556008 0.572763 0.547082
0.563485 0.579126 0.553445
0.570977 0.585504 0.559823
0.578454 0.591867 0.566186
0.585946 0.59823 0.572564
0.593606 0.604776 0.579095
0.601175 0.611231 0.58555
0.608652 0.617594 0.591913
0.616144 0.623972 0.598291
0.623621 0.630335 0.604654
0.631113 0.636698 0.611017
0.638819 0.64329 0.617609
0.646342 0.649683 0.624018
0.653819 0.656062 0.630381
0.661311 0.662425 0.636744
0.668788 0.668788 0.643122
0.67628 0.675166 0.649485
0.684016 0.681788 0.656107
0.691508 0.688151 0.66247
0.698985 0.69453 0.668849
0.706477 0.700893 0.675212
0.71397 0.707256 0.681575
0.721706 0.713878 0.688197
0.729183 0.720241 0.694575
0.73666 0.726619 0.700938
0.517205 0.543999 0.517205
0.524865 0.550561 0.523766
0.532357 0.556939 0.530144
0.539834 0.563302 0.536507
0.547326 0.569665 0.54287
0.554818 0.576043 0.549249
0.562402 0.582513 0.555718
0.570031 0.589029 0.562234
0.577523 0.595392 0.568597
0.585 0.60177 0.574975
0.592493 0.608133 0.581338
0.599985 0.614511 0.587716
0.607721 0.621118 0.594324
0.615198 0.627497 0.600702
0.62269 0.63386 0.607065
0.630167 0.640223 0.613428
0.637659 0.646601 0.619806
0.645289 0.653117 0.626322
0.652888 0.659586 0.632792
0.660365 0.665949 0.63917
0.667857 0.672328 0.645533
0.675349 0.678691 0.651896
0.682826 0.685069 0.658274
0.690501 0.691615 0.66482
0.698054 0.698054 0.67126
0.705531 0.704417 0.677623
0.713024 0.710781 0.683986
0.7205 0.717159 0.690364
0.727993 0.723522 0.696727
0.735714 0.730129 0.703334
0.743221 0.736507 0.709712
0.750713 0.742885 0.716091
0.758175 0.749249 0.722454
0.538918 0.566827 0.538918
0.54638 0.57319 0.545281
0.553872 0.579568 0.551659
0.561349 0.585931 0.558022
0.568872 0.59234 0.564431
0.576577 0.598917 0.571008
0.58407 0.605295 0.577386
0.591546 0.611658 0.583749
0.599039 0.618036 0.590127
0.606516 0.624399 0.59649
0.614084 0.630838 0.60293
0.621744 0.637385 0.609476
0.629236 0.643748 0.615839
0.636728 0.650126 0.622217
0.644205 0.656489 0.62858
0.651698 0.662867 0.634943
0.659297 0.669352 0.641443
0.666911 0.675853 0.647944
0.674403 0.682216 0.654307
0.68188 0.688594 0.660685
0.689372 0.694957 0.667048
0.696864 0.70132 0.673411
0.704509 0.707866 0.679957
0.712077 0.714321 0.686397
0.71957 0.720684 0.692775
0.727047 0.727047 0.699138
0.734539 0.733425 0.705516
0.742016 0.739788 0.711879
0.749767 0.74641 0.718502
0.757244 0.752773 0.724865
0.764736 0.759152 0.731243
0.772229 0.765515 0.737606
0.77969 0.771893 0.743984
0.560433 0.589456 0.560433
0.567895 0.595834 0.566796
0.575387 0.602197 0.573175
0.582879 0.608576 0.579553
0.590616 0.615183 0.58616
0.598108 0.621561 0.592523
0.605585 0.627924 0.598901
0.613077 0.634287 0.605264
0.620554 0.640665 0.611643
0.628092 0.647089 0.618067
0.635782 0.653651 0.624628
0.643259 0.660029 0.630991
0.650752 0.666392 0.637354
0.658244 0.672755 0.643732
0.665721 0.679133 0.650095
0.673457 0.68574 0.656718
0.680949 0.692119 0.663096
0.688426 0.698482 0.669459
0.695918 0.70486 0.675822
0.703395 0.711223 0.6822
0.710994 0.717693 0.688655
0.718624 0.724208 0.695186
0.726116 0.730587 0.701549
0.733593 0.73695 0.707927
0.741085 0.743313 0.71429
0.748577 0.749691 0.720653
0.756191 0.756191 0.727169
0.76379 0.762676 0.733654
0.771282 0.769039 0.740017
0.778775 0.775402 0.74638
0.786252 0.781781 0.752758
0.793744 0.788144 0.759121
0.801404 0.794705 0.765682
0.581949 0.612085 0.581949
0.58941 0.618463 0.588327
