public/LUTS/Cinematic/Cinematic_04.cube
TITLE "Generated by Resolve"
LUT_3D_SIZE 33
0.0152895 0.0522316 0.089189
0.0529335 0.0505226 0.08748
0.0906081 0.0488289 0.085771
0.128267 0.0471199 0.084062
0.165942 0.0454108 0.0823529
0.203616 0.0437018 0.0806592
0.241276 0.0419928 0.0789502
0.27895 0.0402838 0.0772412
0.316625 0.0385901 0.0755322
0.354284 0.0368811 0.0738231
0.391959 0.035172 0.0721294
0.429633 0.033463 0.0704204
0.467292 0.031754 0.0687114
0.504967 0.030045 0.0670024
0.542641 0.0283513 0.0652934
0.580301 0.0266423 0.0635843
0.617975 0.0249332 0.0618906
0.65565 0.0232242 0.0601816
0.693309 0.0215152 0.0584726
0.730983 0.0198062 0.0567636
0.768658 0.0181125 0.0550546
0.806317 0.0164034 0.0533608
0.843992 0.0146944 0.0516518
0.881666 0.0129854 0.0499428
0.919326 0.0112764 0.0482338
0.957 0.00956741 0.0465248
0.994675 0.00787366 0.0448157
1 0.00616464 0.043122
1 0.00445563 0.041413
1 0.00274662 0.039704
1 0.00103761 0.037995
1 0 0.036286
1 0 0.0345769
0.00959792 0.0859083 0.0834974
0.0472572 0.0841993 0.0817884
0.0849165 0.0824903 0.0800946
0.122591 0.0807813 0.0783856
0.160266 0.0790875 0.0766766
0.197925 0.0773785 0.0749676
0.235599 0.0756695 0.0732586
0.273274 0.0739605 0.0715496
0.310933 0.0722515 0.0698558
0.348608 0.0705425 0.0681468
0.386282 0.0688487 0.0664378
0.423941 0.0671397 0.0647288
0.461616 0.0654307 0.0630198
0.499275 0.0637217 0.061326
0.53695 0.0620127 0.059617
0.574624 0.0603037 0.057908
0.612284 0.0586099 0.056199
0.649958 0.0569009 0.05449
0.687633 0.0551919 0.052781
0.725292 0.0534829 0.0510872
0.762966 0.0517739 0.0493782
0.800641 0.0500649 0.0476692
0.8383 0.0483711 0.0459602
0.875975 0.0466621 0.0442512
0.913649 0.0449531 0.0425422
0.951308 0.0432441 0.0408484
0.988983 0.0415351 0.0391394
1 0.039826 0.0374304
1 0.0381323 0.0357214
1 0.0364233 0.0340124
1 0.0347143 0.0323186
1 0.0330053 0.0306096
1 0.0312963 0.0289006
0.00390631 0.1196 0.0778058
0.0415656 0.117891 0.076112
0.0792248 0.116182 0.074403
0.116899 0.114473 0.072694
0.154574 0.112764 0.070985
0.192233 0.11107 0.069276
0.229908 0.109361 0.0675822
0.267582 0.107652 0.0658732
0.305241 0.105943 0.0641642
0.342916 0.104234 0.0624552
0.380591 0.102525 0.0607462
0.41825 0.100832 0.0590372
0.455924 0.0991226 0.0573434
0.493599 0.0974136 0.0556344
0.531258 0.0957046 0.0539254
0.568933 0.0939956 0.0522164
0.606607 0.0922866 0.0505074
0.644266 0.0905928 0.0488136
0.681941 0.0888838 0.0471046
0.719615 0.0871748 0.0453956
0.757275 0.0854658 0.0436866
0.794949 0.0837568 0.0419776
0.832624 0.0820478 0.0402686
0.870283 0.080354 0.0385748
0.907958 0.078645 0.0368658
0.945632 0.076936 0.0351568
0.983291 0.075227 0.0334478
1 0.073518 0.0317388
1 0.071809 0.0300298
1 0.0701152 0.028336
1 0.0684062 0.026627
1 0.0666972 0.024918
1 0.0649882 0.023209
0 0.153277 0.0721294
0.035874 0.151583 0.0704204
0.0735485 0.149874 0.0687114
0.111208 0.148165 0.0670024
0.148882 0.146456 0.0652934
0.186557 0.144747 0.0635996
0.224216 0.143038 0.0618906
0.261891 0.141344 0.0601816
0.299565 0.139635 0.0584726
0.337224 0.137926 0.0567636
0.374899 0.136217 0.0550698
0.412573 0.134508 0.0533608
0.450233 0.132799 0.0516518
0.487907 0.131106 0.0499428
0.525582 0.129397 0.0482338
0.563241 0.127687 0.0465248
0.600916 0.125978 0.044831
0.63859 0.124269 0.043122
0.676249 0.12256 0.041413
0.713924 0.120867 0.039704
0.751598 0.119158 0.037995
0.789258 0.117449 0.036286
0.826932 0.11574 0.0345922
0.864607 0.114031 0.0328832
0.902266 0.112322 0.0311742
0.939941 0.110628 0.0294652
0.977615 0.108919 0.0277562
1 0.10721 0.0260624
1 0.105501 0.0243534
1 0.103792 0.0226444
1 0.102083 0.0209354
1 0.100389 0.0192264
1 0.0986801 0.0175174
0 0.186969 0.0664378
0.0301823 0.18526 0.0647288
0.0678569 0.183566 0.0630198
0.105531 0.181857 0.061326
0.143191 0.180148 0.059617
0.180865 0.178439 0.057908
0.21854 0.17673 0.056199
0.256199 0.175021 0.05449
0.293873 0.173327 0.052781
0.331548 0.171618 0.0510872
0.369207 0.169909 0.0493782
0.406882 0.1682 0.0476692
0.444556 0.166491 0.0459602
0.482216 0.164782 0.0442512
0.51989 0.163088 0.0425422
0.557565 0.161379 0.0408484
0.595224 0.15967 0.0391394
0.632898 0.157961 0.0374304
0.670573 0.156252 0.0357214
0.708232 0.154543 0.0340124
0.745907 0.15285 0.0323186
0.783581 0.151141 0.0306096
0.821241 0.149432 0.0289006
0.858915 0.147723 0.0271916
0.89659 0.146014 0.0254826
0.934249 0.144305 0.0237736
0.971923 0.142611 0.0220798
1 0.140902 0.0203708
1 0.139193 0.0186618
1 0.137484 0.0169528
1 0.135775 0.0152438
1 0.134066 0.01355
1 0.132372 0.011841
0 0.220661 0.0607462
0.024506 0.218952 0.0590372
0.0621653 0.217243 0.0573434
0.0998398 0.215534 0.0556344
0.137514 0.21384 0.0539254
0.175174 0.212131 0.0522164
0.212848 0.210422 0.0505074
0.250523 0.208713 0.0487984
0.288182 0.207004 0.0471046
0.325856 0.205295 0.0453956
0.363531 0.203601 0.0436866
0.40119 0.201892 0.0419776
0.438865 0.200183 0.0402686
0.476539 0.198474 0.0385748
0.514199 0.196765 0.0368658
0.551873 0.195056 0.0351568
0.589548 0.193362 0.0334478
0.627207 0.191653 0.0317388
0.664881 0.189944 0.0300298
0.702541 0.188235 0.028336
0.740215 0.186526 0.026627
0.77789 0.184817 0.024918
0.815549 0.183124 0.023209
0.853223 0.181415 0.0215
0.890898 0.179706 0.0198062
0.928557 0.177996 0.0180972
0.966232 0.176287 0.0163882
1 0.174578 0.0146792
1 0.172885 0.0129702
1 0.171176 0.0112612
1 0.169467 0.00956741
1 0.167758 0.0078584
1 0.166049 0.00614939
0 0.254353 0.0550546
0.0188144 0.252644 0.0533608
0.0564889 0.250935 0.0516518
0.0941482 0.249226 0.0499428
0.131823 0.247517 0.0482338
0.169497 0.245823 0.0465248
0.207156 0.244114 0.044831
0.244831 0.242405 0.043122
0.282506 0.240696 0.041413
0.320165 0.238987 0.039704
0.357839 0.237278 0.037995
0.395499 0.235584 0.036286
0.433173 0.233875 0.0345922
0.470848 0.232166 0.0328832
0.508507 0.230457 0.0311742
0.546181 0.228748 0.0294652
0.583856 0.227039 0.0277562
0.621515 0.225345 0.0260624
0.65919 0.223636 0.0243534
0.696864 0.221927 0.0226444
0.734524 0.220218 0.0209354
0.772198 0.218509 0.0192264
0.809873 0.2168 0.0175174
0.847532 0.215106 0.0158236
0.885206 0.213397 0.0141146
0.922881 0.211688 0.0124056
0.96054 0.209979 0.0106966
0.998215 0.20827 0.00898756
1 0.206561 0.00727855
1 0.204868 0.0055848
1 0.203159 0.00387579
1 0.20145 0.00216678
1 0.199741 0.000457771
0 0.288029 0.0493782
0.0131228 0.286336 0.0476692
0.0507973 0.284627 0.0459602
0.0884565 0.282918 0.0442512
0.126131 0.281209 0.0425422
0.163806 0.2795 0.0408484
0.201465 0.27779 0.0391394
0.239139 0.276097 0.0374304
0.276814 0.274388 0.0357214
0.314473 0.272679 0.0340124
0.352148 0.27097 0.0323186
0.389822 0.269261 0.0306096
0.427482 0.267552 0.0289006
0.465156 0.265858 0.0271916
0.502831 0.264149 0.0254826
0.54049 0.26244 0.0237736
0.578164 0.260731 0.0220798
0.615839 0.259022 0.0203708
0.653498 0.257313 0.0186618
0.691173 0.255619 0.0169528
0.728847 0.25391 0.0152438
0.766506 0.252201 0.0135348
0.804181 0.250492 0.011841
0.841856 0.248783 0.010132
0.879515 0.247074 0.00842298
0.917189 0.24538 0.00671397
0.954864 0.243671 0.00500496
0.992523 0.241962 0.00331121
1 0.240253 0.0016022
1 0.238544 0
1 0.236835 0
1 0.235142 0
1 0.233433 0
0 0.321721 0.0436866
0.00743114 0.320012 0.0419776
0.0451057 0.318303 0.0402686
0.0827802 0.316609 0.0385748
0.120439 0.3149 0.0368658
0.158114 0.313191 0.0351568
0.195789 0.311482 0.0334478
0.233448 0.309773 0.0317388
0.271122 0.30808 0.0300298
0.308797 0.306371 0.028336
0.346456 0.304662 0.026627
0.384131 0.302953 0.024918
0.421805 0.301244 0.023209
0.459464 0.299535 0.0215
0.497139 0.297841 0.0198062
0.534813 0.296132 0.0180972
0.572473 0.294423 0.0163882
0.610147 0.292714 0.0146792
0.647822 0.291005 0.0129702
0.685481 0.289296 0.0112612
0.723156 0.287602 0.00956741
0.76083 0.285893 0.0078584
0.798489 0.284184 0.00614939
0.836164 0.282475 0.00444038
0.873838 0.280766 0.00273136
0.911498 0.279057 0.00102235
0.949172 0.277363 0
0.986847 0.275654 0
1 0.273945 0
1 0.272236 0
1 0.270527 0
1 0.268818 0
1 0.267124 0
0 0.355413 0.037995
0.00175479 0.353704 0.036286
0.0394141 0.351995 0.0345922
0.0770886 0.350286 0.0328832
0.114763 0.348592 0.0311742
0.152422 0.346883 0.0294652
0.190097 0.345174 0.0277562
0.227771 0.343465 0.0260624
0.265431 0.341756 0.0243534
0.303105 0.340047 0.0226444
0.34078 0.338354 0.0209354
0.378439 0.336645 0.0192264
0.416114 0.334936 0.0175174
0.453788 0.333227 0.0158236
0.491447 0.331518 0.0141146
0.529122 0.329809 0.0124056
0.566796 0.328115 0.0106966
0.604456 0.326406 0.00898756
0.64213 0.324697 0.00727855
0.679805 0.322988 0.0055848
0.717464 0.321279 0.00387579
0.755138 0.31957 0.00216678
0.792813 0.317876 0.000457771
0.830472 0.316167 0
0.868147 0.314458 0
0.905821 0.312749 0
0.943481 0.31104 0
0.981155 0.309331 0
1 0.307637 0
1 0.305928 0
1 0.304219 0
1 0.30251 0
1 0.300801 0
0 0.389105 0.0323033
0 0.387396 0.0306096
0.0337377 0.385687 0.0289006
0.071397 0.383978 0.0271916
0.109071 0.382269 0.0254826
0.146746 0.38056 0.0237736
0.184405 0.378866 0.0220798
0.22208 0.377157 0.0203708
0.259754 0.375448 0.0186618
0.297414 0.373739 0.0169528
0.335088 0.37203 0.0152438
0.372763 0.370321 0.0135348
0.410422 0.368627 0.011841
0.448096 0.366918 0.010132
0.485771 0.365209 0.00842298
0.52343 0.3635 0.00671397
0.561105 0.361791 0.00500496
0.598779 0.360098 0.00331121
0.636439 0.358389 0.0016022
0.674113 0.35668 0
0.711772 0.354971 0
0.749447 0.353262 0
0.787121 0.351553 0
0.824781 0.349859 0
0.862455 0.34815 0
0.90013 0.346441 0
0.937789 0.344732 0
0.975464 0.343023 0
1 0.341314 0
1 0.33962 0
1 0.337911 0
1 0.336202 0
1 0.334493 0
0 0.422782 0.026627
0 0.421088 0.024918
0.0280461 0.419379 0.023209
0.0657206 0.41767 0.0215
0.10338 0.415961 0.0198062
0.141054 0.414252 0.0180972
0.178729 0.412543 0.0163882
0.216388 0.410849 0.0146792
0.254063 0.40914 0.0129702
0.291722 0.407431 0.0112612
0.329397 0.405722 0.00956741
0.367071 0.404013 0.0078584
0.40473 0.402304 0.00614939
0.442405 0.40061 0.00444038
0.480079 0.398901 0.00273136
0.517739 0.397192 0.00102235
0.555413 0.395483 0
0.593088 0.393774 0
0.630747 0.392065 0
0.668421 0.390372 0
0.706096 0.388663 0
0.743755 0.386954 0
0.78143 0.385245 0
0.819104 0.383536 0
0.856764 0.381826 0
0.894438 0.380133 0
0.932113 0.378424 0
0.969772 0.376715 0
1 0.375006 0
1 0.373297 0
1 0.371588 0
1 0.369894 0
1 0.368185 0
0 0.456474 0.0209354
0 0.454765 0.0192264
0.0223545 0.453056 0.0175174
0.060029 0.451362 0.0158236
0.0976883 0.449653 0.0141146
0.135363 0.447944 0.0124056
0.173037 0.446235 0.0106966
0.210697 0.444526 0.00898756
0.248371 0.442817 0.00727855
0.286046 0.441123 0.0055848
0.323705 0.439414 0.00387579
0.361379 0.437705 0.00216678
0.399054 0.435996 0.000457771
0.436713 0.434287 0
0.474388 0.432578 0
0.512062 0.430884 0
0.549722 0.429175 0
0.587396 0.427466 0
0.625071 0.425757 0
0.66273 0.424048 0
0.700404 0.422354 0
0.738079 0.420645 0
0.775738 0.418936 0
0.813413 0.417227 0
0.851087 0.415518 0
0.888747 0.413809 0
0.926421 0.412116 0
0.964096 0.410407 0
1 0.408698 0
1 0.406989 0
1 0.40528 0
1 0.403571 0
1 0.401877 0
0 0.490166 0.0152438
0 0.488457 0.01355
0.0166629 0.486748 0.011841
0.0543374 0.485039 0.010132
0.0920119 0.483345 0.00842298
0.129671 0.481636 0.00671397
0.167346 0.479927 0.00500496
0.20502 0.478218 0.00331121
0.242679 0.476509 0.0016022
0.280354 0.4748 0
0.318029 0.473106 0
0.355688 0.471397 0
0.393362 0.469688 0
0.431037 0.467979 0
0.468696 0.46627 0
0.506371 0.464561 0
0.544045 0.462867 0
0.581704 0.461158 0
0.619379 0.459449 0
0.657053 0.45774 0
0.694713 0.456031 0
0.732387 0.454322 0
0.770062 0.452628 0
0.807721 0.450919 0
0.845396 0.44921 0
0.88307 0.447501 0
0.920729 0.445792 0
0.958404 0.444083 0
0.996078 0.44239 0
1 0.440681 0
1 0.438972 0
1 0.437263 0
1 0.435554 0
0 0.523857 0.00956741
0 0.522148 0.0078584
0.0109865 0.520439 0.00614939
0.0486458 0.51873 0.00444038
0.0863203 0.517021 0.00273136
0.123995 0.515312 0.00102235
0.161654 0.513619 0
0.199329 0.51191 0
0.237003 0.510201 0
0.274662 0.508492 0
0.312337 0.506783 0
0.350011 0.505074 0
0.387671 0.50338 0
0.425345 0.501671 0
0.46302 0.499962 0
0.500679 0.498253 0
0.538354 0.496544 0
0.576028 0.494835 0
0.613687 0.493141 0
0.651362 0.491432 0
0.689036 0.489723 0
0.726696 0.488014 0
0.76437 0.486305 0
0.802045 0.484611 0
0.839704 0.482902 0
0.877379 0.481193 0
0.915038 0.479484 0
0.952712 0.477775 0
0.990387 0.476066 0
1 0.474372 0
1 0.472663 0
1 0.470954 0
1 0.469245 0
0 0.557534 0.00387579
0 0.55584 0.00216678
0.00529488 0.554131 0.000457771
0.0429694 0.552422 0
0.0806287 0.550713 0
0.118303 0.549004 0
0.155978 0.547295 0
0.193637 0.545602 0
0.231312 0.543893 0
0.268986 0.542184 0
0.306645 0.540475 0
0.34432 0.538766 0
0.381994 0.537057 0
0.419654 0.535363 0
0.457328 0.533654 0
0.494987 0.531945 0
0.532662 0.530236 0
0.570336 0.528527 0
0.607996 0.526818 0
0.64567 0.525124 0
0.683345 0.523415 0
0.721004 0.521706 0
0.758679 0.519997 0
0.796353 0.518288 0
0.834012 0.516579 0
0.871687 0.514885 0
0.909361 0.513176 0
0.947021 0.511467 0
0.984695 0.509758 0
1 0.508049 0
1 0.50634 0
1 0.504646 0
1 0.502937 0
0 0.591226 0
0 0.589517 0
0 0.587808 0
0.0372778 0.586114 0
0.0749523 0.584405 0
0.112612 0.582696 0
0.150286 0.580987 0
0.187945 0.579278 0
0.22562 0.577569 0
0.263294 0.575875 0
0.300954 0.574166 0
0.338628 0.572457 0
0.376303 0.570748 0
0.413962 0.569039 0
0.451637 0.56733 0
0.489311 0.565637 0
0.52697 0.563928 0
0.564645 0.562219 0
0.602319 0.56051 0
0.639979 0.558801 0
0.677653 0.557092 0
0.715328 0.555398 0
0.752987 0.553689 0
0.790661 0.55198 0
0.828336 0.550271 0
0.865995 0.548562 0
0.90367 0.546868 0
0.941344 0.545159 0
0.979004 0.54345 0
1 0.541741 0
1 0.540032 0
1 0.538323 0
1 0.536629 0
0 0.624918 0
0 0.623209 0
0 0.6215 0
0.0315862 0.619791 0
0.0692607 0.618097 0
0.10692 0.616388 0
0.144594 0.614679 0
0.182269 0.61297 0
0.219928 0.611261 0
0.257603 0.609552 0
0.295277 0.607858 0
0.332937 0.606149 0
0.370611 0.60444 0
0.408286 0.602731 0
0.445945 0.601022 0
0.483619 0.599313 0
0.521294 0.59762 0
0.558953 0.595911 0
0.596628 0.594202 0
0.634302 0.592493 0
0.671962 0.590784 0
0.709636 0.589075 0
0.747311 0.587381 0
0.78497 0.585672 0
0.822644 0.583963 0
0.860319 0.582254 0
0.897978 0.580545 0
0.935653 0.578836 0
0.973327 0.577142 0
1 0.575433 0
1 0.573724 0
1 0.572015 0
1 0.570306 0
0 0.65861 0
0 0.656901 0
0 0.655192 0
0.0258946 0.653483 0
0.0635691 0.651774 0
0.101244 0.650065 0
0.138903 0.648371 0
0.176577 0.646662 0
0.214252 0.644953 0
0.251911 0.643244 0
0.289586 0.641535 0
0.32726 0.639826 0
0.36492 0.638132 0
0.402594 0.636423 0
0.440269 0.634714 0
0.477928 0.633005 0
0.515602 0.631296 0
0.553277 0.629587 0
0.590936 0.627894 0
0.628611 0.626184 0
0.666285 0.624475 0
0.703944 0.622766 0
0.741619 0.621057 0
0.779293 0.619348 0
0.816953 0.617655 0
0.854627 0.615946 0
0.892302 0.614237 0
0.929961 0.612528 0
0.967636 0.610819 0
1 0.60911 0
1 0.607416 0
1 0.605707 0
1 0.603998 0
0 0.692287 0
0 0.690593 0
0 0.688884 0
0.0202182 0.687175 0
0.0578775 0.685466 0
0.095552 0.683757 0
0.133227 0.682048 0
0.170886 0.680354 0
0.20856 0.678645 0
0.246235 0.676936 0
0.283894 0.675227 0
0.321569 0.673518 0
0.359243 0.671809 0
0.396902 0.670115 0
0.434577 0.668406 0
0.472251 0.666697 0
0.509911 0.664988 0
0.547585 0.663279 0
0.58526 0.66157 0
0.622919 0.659876 0
0.660594 0.658167 0
0.698268 0.656458 0
0.735927 0.654749 0
0.773602 0.65304 0
0.811261 0.651331 0
0.848936 0.649638 0
0.88661 0.647929 0
0.924269 0.64622 0
0.961944 0.644511 0
0.999619 0.642802 0
1 0.641093 0
1 0.639399 0
1 0.63769 0
0 0.725978 0
0 0.724269 0
0 0.72256 0
0.0145266 0.720867 0
0.0522011 0.719158 0
0.0898604 0.717449 0
0.127535 0.71574 0
0.165209 0.714031 0
0.202869 0.712322 0
0.240543 0.710628 0
0.278218 0.708919 0
0.315877 0.70721 0
0.353552 0.705501 0
0.391211 0.703792 0
0.428885 0.702083 0
0.46656 0.700389 0
0.504219 0.69868 0
0.541894 0.696971 0
0.579568 0.695262 0
0.617227 0.693553 0
0.654902 0.691844 0
0.692576 0.69015 0
0.730236 0.688441 0
0.76791 0.686732 0
0.805585 0.685023 0
0.843244 0.683314 0
0.880919 0.681605 0
0.918593 0.679911 0
0.956252 0.678203 0
0.993927 0.676493 0
1 0.674784 0
1 0.673075 0
1 0.671366 0
0 0.75967 0
0 0.757961 0
0 0.756252 0
0.00883497 0.754543 0
0.0465095 0.75285 0
0.0841688 0.751141 0
0.121843 0.749432 0
0.159518 0.747723 0
0.197177 0.746014 0
0.234852 0.744305 0
0.272526 0.742611 0
0.310185 0.740902 0
0.34786 0.739193 0
0.385534 0.737484 0
0.423194 0.735775 0
0.460868 0.734066 0
0.498543 0.732372 0
0.536202 0.730663 0
0.573877 0.728954 0
0.611551 0.727245 0
0.64921 0.725536 0
0.686885 0.723827 0
0.724559 0.722133 0
0.762219 0.720424 0
0.799893 0.718715 0
0.837568 0.717006 0
0.875227 0.715297 0
0.912902 0.713588 0
0.950576 0.711894 0
0.988235 0.710185 0
1 0.708476 0
1 0.706767 0
1 0.705058 0
0 0.793362 0
0 0.791653 0
0 0.789944 0
0.00314336 0.788235 0
0.0408179 0.786526 0
0.0784924 0.784817 0
0.116152 0.783123 0
0.153826 0.781415 0
0.191501 0.779706 0
0.22916 0.777996 0
0.266835 0.776287 0
0.304509 0.774578 0
0.342168 0.772885 0
0.379843 0.771176 0
0.417517 0.769467 0
0.455177 0.767758 0
0.492851 0.766049 0
0.530526 0.76434 0
0.568185 0.762646 0
0.605859 0.760937 0
0.643534 0.759228 0
0.681193 0.757519 0
0.718868 0.75581 0
0.756542 0.754101 0
0.794202 0.752407 0
0.831876 0.750698 0
0.869551 0.748989 0
0.90721 0.74728 0
0.944884 0.745571 0
0.982559 0.743862 0
1 0.742168 0
1 0.740459 0
1 0.73875 0
0 0.827039 0
0 0.825345 0
0 0.823636 0
0 0.821927 0
0.0351263 0.820218 0
0.0728008 0.818509 0
0.110475 0.8168 0
0.148135 0.815106 0
0.185809 0.813397 0
0.223484 0.811688 0
0.261143 0.809979 0
0.298817 0.80827 0
0.336492 0.806561 0
0.374151 0.804868 0
0.411826 0.803159 0
0.4495 0.80145 0
0.48716 0.799741 0
0.524834 0.798032 0
0.562509 0.796323 0
0.600168 0.794629 0
0.637842 0.79292 0
0.675517 0.791211 0
0.713176 0.789502 0
0.750851 0.787793 0
0.788525 0.786084 0
0.826185 0.78439 0
0.863859 0.782681 0
0.901534 0.780972 0
0.939193 0.779263 0
0.976867 0.777554 0
1 0.775845 0
1 0.774151 0
1 0.772442 0
0 0.860731 0
0 0.859022 0
0 0.857313 0
0 0.855619 0
0.0294499 0.85391 0
0.0671092 0.852201 0
0.104784 0.850492 0
0.142458 0.848783 0
0.180117 0.847074 0
0.217792 0.84538 0
0.255467 0.843671 0
0.293126 0.841962 0
0.3308 0.840253 0
0.368475 0.838544 0
0.406134 0.836835 0
0.443809 0.835142 0
0.481483 0.833432 0
0.519142 0.831724 0
0.556817 0.830014 0
0.594491 0.828305 0
0.632151 0.826596 0
0.669825 0.824903 0
0.707485 0.823194 0
0.745159 0.821485 0
0.782834 0.819776 0
0.820493 0.818067 0
0.858167 0.816358 0
0.895842 0.814664 0
0.933501 0.812955 0
0.971176 0.811246 0
1 0.809537 0
1 0.807828 0
1 0.806119 0
0 0.894423 0
0 0.892714 0
0 0.891005 0
0 0.889296 0
0.0237583 0.887602 0
0.0614328 0.885893 0
0.0990921 0.884184 0
0.136767 0.882475 0
0.174441 0.880766 0
0.2121 0.879057 0
0.249775 0.877363 0
0.287449 0.875654 0
0.325109 0.873945 0
0.362783 0.872236 0
0.400443 0.870527 0
0.438117 0.868818 0
0.475792 0.867124 0
0.513451 0.865415 0
0.551125 0.863706 0
0.5888 0.861997 0
0.626459 0.860288 0
0.664134 0.858579 0
0.701808 0.856886 0
0.739467 0.855177 0
0.777142 0.853468 0
0.814817 0.851759 0
0.852476 0.85005 0
0.89015 0.848341 0
0.927825 0.846647 0
0.965484 0.844938 0
1 0.843229 0
1 0.84152 0
1 0.839811 0
0 0.928115 0
0 0.926406 0
0 0.924697 0
0 0.922988 0
0.0180667 0.921279 0
0.0557412 0.91957 0
0.0934005 0.917876 0
0.131075 0.916167 0
0.16875 0.914458 0
0.206409 0.912749 0
0.244083 0.91104 0
0.281758 0.909331 0
0.319417 0.907637 0
0.357092 0.905928 0
0.394766 0.904219 0
0.432425 0.90251 0
0.4701 0.900801 0
0.507774 0.899092 0
0.545434 0.897398 0
0.583108 0.895689 0
0.620783 0.89398 0
0.658442 0.892271 0
0.696117 0.890562 0
0.733791 0.888853 0
0.77145 0.88716 0
0.809125 0.885451 0
0.846799 0.883741 0
0.884459 0.882033 0
0.922133 0.880323 0
0.959808 0.878614 0
0.997467 0.876921 0
1 0.875212 0
1 0.873503 0
0 0.961791 0
0 0.960082 0
0 0.958389 0
0 0.95668 0
0.0123751 0.954971 0
0.0500496 0.953262 0
0.0877241 0.951553 0
0.125383 0.949844 0
0.163058 0.94815 0
