public/LUTS/Cinematic/Cinematic_26.cube
TITLE "Generated by Resolve"
LUT_3D_SIZE 5
0.0552834 0.081529 0.0893568
0.172915 0.110094 0.0921035
0.510475 0.128054 0.0741588
0.81886 0.261769 0.135256
0.911803 0.433951 0.16907
0.0589761 0.161379 0.103929
0.142306 0.17969 0.109606
0.453712 0.207401 0.0732128
0.801282 0.328206 0.138857
0.911894 0.438148 0.169619
0.0753033 0.347219 0.166094
0.131212 0.375601 0.151278
0.523964 0.501701 0.176608
0.859998 0.498146 0.17023
0.915724 0.617472 0.196948
0.14406 0.641733 0.239475
0.200549 0.667445 0.217533
0.5664 0.778027 0.261311
0.876921 0.746746 0.215503
0.918944 0.728206 0.216938
0.230701 0.884489 0.313054
0.316808 0.905196 0.294575
0.609277 0.943358 0.346319
0.874311 0.949996 0.389395
0.949859 0.925765 0.38645
0.0405432 0.220279 0.292622
0.0406043 0.213886 0.242191
0.298817 0.234821 0.190875
0.762875 0.380514 0.238239
0.922515 0.481788 0.222385
0.0374762 0.189288 0.219913
0.0403601 0.203555 0.232013
0.316838 0.236774 0.213352
0.769436 0.317922 0.157
0.91133 0.403342 0.165194
0.0967422 0.460029 0.373541
0.086717 0.420645 0.293904
0.348257 0.464134 0.234836
0.808927 0.50692 0.164309
0.915846 0.622202 0.197742
0.16173 0.708293 0.462486
0.155871 0.686412 0.368093
0.423896 0.727581 0.297887
0.828672 0.783185 0.288853
0.919448 0.743328 0.219806
0.213474 0.898741 0.559808
0.212787 0.893996 0.467643
0.515648 0.920531 0.389609
0.806928 0.953201 0.436301
0.946044 0.914595 0.358892
0.104417 0.481086 0.622873
0.0995804 0.467109 0.534569
0.0936446 0.448142 0.3991
0.639963 0.447562 0.255695
0.947158 0.619471 0.595254
0.0878309 0.417014 0.534661
0.0901808 0.425391 0.556527
0.0848707 0.410132 0.457694
0.595361 0.415961 0.285344
0.914443 0.592737 0.553857
0.0891127 0.423316 0.524269
0.0952621 0.448539 0.540261
0.113909 0.50988 0.587823
0.717372 0.585702 0.586419
0.951888 0.633112 0.574182
0.155169 0.681727 0.715007
0.167178 0.728664 0.722515
0.175296 0.758755 0.694499
0.772244 0.803098 0.60647
0.952544 0.790311 0.509743
0.219104 0.919295 0.867216
0.219104 0.919295 0.811261
0.239811 0.922438 0.721325
0.747753 0.952193 0.626886
0.959365 0.924407 0.511757
0.164263 0.710063 0.821668
0.162173 0.703746 0.797116
0.15642 0.68368 0.760845
0.502525 0.667781 0.753017
0.920592 0.685664 0.749538
0.145998 0.639811 0.779507
0.144656 0.633967 0.786923
0.14049 0.619867 0.753292
0.425116 0.611246 0.697215
0.870146 0.638743 0.672053
0.143801 0.631754 0.77525
0.146807 0.642802 0.783536
0.153109 0.666789 0.804074
0.554513 0.660792 0.808865
0.905501 0.68748 0.762097
0.150973 0.659297 0.790555
0.15642 0.680751 0.796613
0.165728 0.716457 0.815473
0.648783 0.792691 0.859953
0.967544 0.825345 0.863005
0.193713 0.820264 0.908446
0.200031 0.845075 0.912016
0.210895 0.887678 0.914626
0.608759 0.957763 0.88072
0.975021 0.95581 0.798337
0.195285 0.826917 0.902754
0.194919 0.82565 0.898299
0.190753 0.809445 0.895354
0.415747 0.794354 0.923232
0.914855 0.758618 0.918883
0.190127 0.805829 0.912688
0.188769 0.800107 0.914549
0.187106 0.793713 0.913985
0.246082 0.787396 0.919173
0.84889 0.763989 0.929793
0.186557 0.791409 0.914275
0.185 0.785367 0.914092
0.184298 0.782513 0.913909
0.279942 0.778408 0.931197
0.865049 0.763958 0.94522
0.184405 0.783001 0.914
0.185031 0.785336 0.914015
0.188388 0.798779 0.914504
0.468071 0.820981 0.948302
0.926909 0.818341 0.955444
0.188281 0.798505 0.915053
0.191287 0.81033 0.914977
0.196017 0.829038 0.915663
0.591165 0.868559 0.95729
0.951614 0.957076 0.951675
