public/LUTS/Cinematic/Cinematic_23.cube
TITLE "Generated by Resolve"
LUT_3D_SIZE 5
0.0809491 0.128237 0.14107
0.25008 0.149996 0.121431
0.632944 0.200793 0.0991226
0.850324 0.282506 0.142519
0.911757 0.431708 0.168765
0.0642252 0.217044 0.157214
0.27512 0.221637 0.120012
0.676722 0.315877 0.118044
0.863935 0.416571 0.159503
0.912902 0.494194 0.17734
0.098909 0.432868 0.211887
0.258488 0.495094 0.190539
0.725124 0.503273 0.152575
0.914748 0.594278 0.192935
0.91664 0.651362 0.202838
0.164874 0.693614 0.269825
0.314656 0.727581 0.242985
0.722622 0.825162 0.30277
0.919478 0.761837 0.223362
0.919554 0.747936 0.220691
0.2589 0.907088 0.333471
0.400626 0.921019 0.321508
0.679606 0.946456 0.371435
0.905684 0.951583 0.402686
0.949126 0.929137 0.37911
0.0465248 0.246876 0.326726
0.0787976 0.247974 0.270237
0.456382 0.302373 0.2336
0.813718 0.418448 0.258976
0.926421 0.501915 0.252003
0.049546 0.26363 0.309514
0.0915389 0.29279 0.347631
0.572549 0.353582 0.302617
0.853651 0.417334 0.256504
0.917983 0.477562 0.198322
0.119615 0.548882 0.45391
0.113024 0.516457 0.379889
0.653574 0.555718 0.287007
0.889036 0.621347 0.255299
0.917174 0.670069 0.206241
0.17258 0.748684 0.506981
0.196323 0.738582 0.413489
0.613169 0.798077 0.373617
0.889097 0.770245 0.224659
0.920089 0.763912 0.223758
0.217578 0.913695 0.567712
0.314137 0.928206 0.45922
0.618402 0.949477 0.439124
0.850385 0.955169 0.454658
0.951263 0.92491 0.404807
0.105318 0.483757 0.637644
0.0997024 0.467918 0.534035
0.222217 0.472831 0.396414
0.714199 0.471321 0.31136
0.956191 0.642267 0.642847
0.107042 0.492073 0.624094
0.108736 0.496468 0.656886
0.290303 0.491341 0.517311
0.751675 0.509819 0.44007
0.958541 0.666499 0.69894
0.110262 0.506127 0.61326
0.119921 0.544228 0.641566
0.424918 0.616907 0.716777
0.832547 0.683421 0.706218
0.958465 0.691981 0.658595
0.167865 0.729641 0.755901
0.179278 0.773388 0.76762
0.372457 0.807568 0.726818
0.866255 0.812512 0.607446
0.956436 0.809827 0.562936
0.219104 0.919295 0.852171
0.219104 0.919295 0.799207
0.504814 0.955169 0.676234
0.792493 0.966049 0.640375
0.96228 0.933898 0.552407
0.165225 0.712474 0.835584
0.162066 0.702129 0.81181
0.156985 0.684733 0.775952
0.615473 0.671778 0.778454
0.933516 0.692515 0.772015
0.161166 0.696284 0.834684
0.159609 0.689296 0.842649
0.155703 0.676524 0.80975
0.65478 0.667811 0.805722
0.941573 0.690013 0.78584
0.16083 0.695369 0.83183
0.16466 0.709789 0.84062
0.170184 0.721126 0.859724
0.732082 0.724941 0.864683
0.965118 0.736461 0.827817
0.164736 0.710979 0.83267
0.169665 0.729992 0.840269
0.181537 0.764111 0.857069
0.782971 0.826368 0.893095
0.977523 0.840467 0.889555
0.197238 0.833829 0.915587
0.203464 0.858289 0.916808
0.21384 0.89897 0.916869
0.722011 0.966598 0.888609
0.980514 0.958999 0.814542
0.193133 0.817761 0.912596
0.191592 0.812131 0.90631
0.187884 0.797787 0.89984
0.544701 0.784314 0.930419
0.922652 0.75436 0.920089
0.187228 0.794079 0.914366
0.185718 0.788144 0.914168
0.183612 0.779767 0.913848
0.580453 0.770504 0.942
0.928908 0.746929 0.926162
0.184985 0.785153 0.914015
0.185122 0.785779 0.914107
0.184314 0.782513 0.913939
0.616693 0.775402 0.956771
0.942931 0.763012 0.943816
0.184756 0.784329 0.914
0.186557 0.791577 0.914229
0.191608 0.811414 0.914992
0.724971 0.831449 0.966186
0.976593 0.829694 0.953902
0.190372 0.806851 0.914824
0.193561 0.819211 0.915282
0.198428 0.838605 0.91603
0.713283 0.886213 0.958038
0.966125 0.965637 0.950591
