public/LUTS/Cinematic/Cinematic_23.cube
TITLE "Generated by Resolve"
LUT_3D_SIZE 9
0.0809491 0.128237 0.14107
0.140017 0.134035 0.132158
0.25008 0.149996 0.121431
0.436164 0.167422 0.0774395
0.632944 0.200793 0.0991226
0.766155 0.234562 0.123827
0.850324 0.282506 0.142519
0.910674 0.356329 0.159823
0.911757 0.431708 0.168765
0.0715038 0.163378 0.145632
0.149828 0.158862 0.136858
0.265354 0.172992 0.115892
0.45333 0.207202 0.0776989
0.653666 0.238956 0.105913
0.777386 0.266026 0.128542
0.855314 0.302876 0.145296
0.910674 0.357488 0.159945
0.911559 0.416831 0.166873
0.0642252 0.217044 0.157214
0.128084 0.223148 0.147936
0.27512 0.221637 0.120012
0.474495 0.253849 0.0890974
0.676722 0.315877 0.118044
0.793774 0.37261 0.142885
0.863935 0.416571 0.159503
0.91223 0.457435 0.172183
0.912902 0.494194 0.17734
0.0689555 0.305104 0.178637
0.125429 0.317662 0.161837
0.249195 0.366125 0.163058
0.496529 0.339178 0.109407
0.707546 0.38674 0.13193
0.821378 0.453117 0.157961
0.900191 0.515969 0.178637
0.914488 0.567163 0.188556
0.91519 0.595285 0.193118
0.098909 0.432868 0.211887
0.151965 0.449363 0.191424
0.258488 0.495094 0.190539
0.509483 0.574792 0.218921
0.725124 0.503273 0.152575
0.839811 0.534035 0.172915
0.914748 0.594278 0.192935
0.916411 0.642588 0.201266
0.91664 0.651362 0.202838
0.132311 0.566354 0.242252
0.183246 0.583551 0.219379
0.285374 0.617044 0.217182
0.505135 0.688045 0.2439
0.727749 0.734279 0.270634
0.843626 0.650523 0.19353
0.916915 0.661021 0.204562
0.917998 0.698314 0.211383
0.91812 0.699763 0.211627
0.164874 0.693614 0.269825
0.21503 0.7093 0.24448
0.314656 0.727581 0.242985
0.513222 0.78146 0.268193
0.722622 0.825162 0.30277
0.839673 0.84004 0.329534
0.919478 0.761837 0.223362
0.919676 0.750454 0.221225
0.919554 0.747936 0.220691
0.203647 0.806622 0.296544
0.251667 0.817105 0.270893
0.351247 0.824598 0.274083
0.526848 0.860426 0.301091
0.701152 0.89749 0.339864
0.823529 0.924102 0.373648
0.922637 0.929015 0.396735
0.922683 0.834897 0.237949
0.921706 0.808209 0.232532
0.2589 0.907088 0.333471
0.304479 0.91519 0.313329
0.400626 0.921019 0.321508
0.544411 0.942229 0.347234
0.679606 0.946456 0.371435
0.792157 0.948745 0.385046
0.905684 0.951583 0.402686
0.952773 0.952773 0.409064
0.949126 0.929137 0.37911
0.0404517 0.173404 0.212421
0.0889448 0.173754 0.197208
0.184421 0.175174 0.1691
0.328557 0.225269 0.191012
0.578927 0.262135 0.171374
0.749081 0.3084 0.150393
0.844327 0.341299 0.147387
0.911101 0.386938 0.163302
0.911986 0.443381 0.170275
0.0408942 0.180789 0.202747
0.0871901 0.189975 0.216098
0.209186 0.196445 0.19118
0.403357 0.22298 0.177172
0.629892 0.25832 0.145266
0.765545 0.293553 0.131182
0.84976 0.324239 0.146487
0.910887 0.372534 0.161624
0.911803 0.432822 0.168933
0.0446632 0.234974 0.220096
0.0590677 0.244022 0.219913
0.226764 0.240253 0.193912
0.442176 0.265339 0.172152
0.65301 0.313954 0.142565
0.778256 0.352758 0.138018
0.856611 0.38117 0.153933
0.911604 0.419898 0.167285
0.912428 0.468574 0.173709
0.0707866 0.356725 0.260014
0.0725261 0.337484 0.235294
0.182116 0.354223 0.206409
0.46334 0.359625 0.171221
0.677394 0.398535 0.148226
0.801923 0.462318 0.156466
0.882139 0.521447 0.176944
0.914412 0.56582 0.188342
0.915114 0.592401 0.19266
0.101091 0.477165 0.289555
0.104601 0.461738 0.262562
0.205631 0.485451 0.225879
0.438132 0.555642 0.238529
0.68893 0.515709 0.156588
0.820249 0.541024 0.171374
0.905379 0.600229 0.192691
0.916503 0.646433 0.201953
0.916823 0.657984 0.204013
0.132738 0.598871 0.318379
0.144854 0.590967 0.28835
0.243931 0.613916 0.245594
0.447883 0.669429 0.263676
0.691798 0.726894 0.288655
0.823148 0.655207 0.191791
0.91574 0.665461 0.205234
0.918166 0.703197 0.212268
0.918288 0.707271 0.213031
0.163073 0.713161 0.345174
0.184833 0.713542 0.310246
0.283406 0.731731 0.26891
0.467399 0.767224 0.286915
0.673716 0.811536 0.316915
0.822187 0.834989 0.344518
0.913222 0.766323 0.223468
0.919768 0.75375 0.22182
0.919738 0.752789 0.221683
0.189944 0.812497 0.376822
0.227085 0.819104 0.335378
0.32607 0.830396 0.29929
0.488472 0.848096 0.317586
0.663813 0.884504 0.351888
0.800336 0.913008 0.384466
0.905287 0.923476 0.408621
0.922667 0.835233 0.23801
0.921584 0.805829 0.232029
0.214603 0.902815 0.426352
0.282719 0.916335 0.372549
0.374914 0.924743 0.345144
0.512871 0.933806 0.365164
0.654292 0.948104 0.392325
0.770016 0.950469 0.40708
0.878584 0.952483 0.416159
0.954025 0.954025 0.422629
0.949462 0.927092 0.383658
0.0465248 0.246876 0.326726
0.0455024 0.24506 0.2972
0.0787976 0.247974 0.270237
0.226917 0.257481 0.210407
0.456382 0.302373 0.2336
0.659724 0.375952 0.263676
0.813718 0.418448 0.258976
0.915053 0.462959 0.258671
0.926421 0.501915 0.252003
0.0488746 0.259358 0.319051
0.0498207 0.262181 0.335866
0.086244 0.262318 0.301366
0.270375 0.271733 0.241321
0.498283 0.324331 0.263478
0.698375 0.380194 0.273579
0.83151 0.417594 0.259022
0.922881 0.46363 0.256901
0.92369 0.491951 0.231098
0.049546 0.26363 0.309514
0.0528115 0.277836 0.324224
0.0915389 0.29279 0.347631
0.327153 0.304219 0.291615
0.572549 0.353582 0.302617
0.757351 0.382528 0.276875
0.853651 0.417334 0.256504
0.923201 0.45005 0.22974
0.917983 0.477562 0.198322
0.0664225 0.338384 0.339925
0.0724041 0.363256 0.351507
0.0800946 0.389319 0.358938
0.378668 0.399466 0.314092
0.631662 0.436408 0.317586
0.782757 0.481132 0.297383
0.868208 0.513985 0.276402
0.926696 0.543282 0.25156
0.92224 0.567483 0.220905
0.119615 0.548882 0.45391
0.116472 0.536706 0.419791
0.113024 0.516457 0.379889
0.328527 0.543435 0.332387
0.653574 0.555718 0.287007
0.80322 0.570581 0.281651
0.889036 0.621347 0.255299
0.921141 0.661204 0.22005
0.917174 0.670069 0.206241
0.147234 0.653849 0.482658
0.144564 0.643687 0.442741
0.147829 0.62829 0.397314
0.36701 0.659373 0.339666
0.624643 0.71545 0.354559
0.804501 0.676966 0.252644
0.899733 0.681987 0.23566
0.918471 0.712566 0.21413
0.918639 0.719951 0.215427
0.17258 0.748684 0.506981
0.170718 0.741817 0.463966
0.196323 0.738582 0.413489
0.409918 0.7608 0.352407
0.613169 0.798077 0.373617
0.794217 0.829862 0.394736
0.889097 0.770245 0.224659
0.919982 0.76025 0.223087
0.920089 0.763912 0.223758
0.195041 0.831189 0.534615
0.193988 0.82739 0.489754
0.251789 0.83415 0.431357
0.443458 0.847135 0.376287
0.612696 0.870146 0.399817
0.762966 0.899565 0.428214
0.884657 0.918257 0.445869
0.922805 0.838071 0.238575
0.921721 0.808713 0.232578
0.217578 0.913695 0.567712
0.217166 0.912261 0.525826
0.314137 0.928206 0.45922
0.479652 0.938048 0.415534
0.618402 0.949477 0.439124
0.74081 0.95404 0.45623
0.850385 0.955169 0.454658
0.956436 0.956436 0.452934
0.951263 0.92491 0.404807
0.0740673 0.36054 0.487465
0.0724956 0.357 0.44651
0.071107 0.354513 0.400931
0.102266 0.355276 0.341726
0.335836 0.369238 0.23827
0.585931 0.371115 0.237507
0.75523 0.451545 0.275624
0.874907 0.541833 0.443534
0.946487 0.586938 0.499123
0.0765698 0.37229 0.481529
0.0768444 0.371847 0.500237
0.0749523 0.36788 0.448676
0.123796 0.368551 0.379721
0.389288 0.372076 0.265126
0.60589 0.392569 0.280507
0.770855 0.47097 0.32932
0.886717 0.552392 0.470359
0.945769 0.585489 0.488167
0.0777295 0.378119 0.473136
0.0812543 0.391943 0.491112
0.0830396 0.397711 0.517647
0.155718 0.394614 0.44686
0.443214 0.393561 0.342428
0.648753 0.435248 0.35407
0.798489 0.504662 0.419226
0.908721 0.55227 0.463706
0.943481 0.576471 0.453056
0.0790265 0.384665 0.464866
0.083238 0.401541 0.480446
0.0897231 0.427527 0.502815
0.19588 0.459464 0.545953
0.515435 0.474556 0.463844
0.713497 0.527687 0.500252
0.847929 0.551247 0.490883
0.940291 0.568139 0.467811
0.939818 0.563577 0.400183
0.0967422 0.457908 0.493355
0.102266 0.480385 0.504265
0.110216 0.511803 0.522972
0.166217 0.56231 0.55584
0.563806 0.593698 0.549462
0.761959 0.626871 0.553765
0.866835 0.656168 0.542931
0.948211 0.665446 0.502678
0.944335 0.664698 0.437903
0.148577 0.65893 0.632303
0.155993 0.686763 0.638575
0.156878 0.690059 0.61561
0.18468 0.682673 0.573602
0.538247 0.706416 0.530144
0.779995 0.709789 0.4692
0.885039 0.719722 0.485023
0.945983 0.742428 0.434043
0.941573 0.745052 0.370321
0.181201 0.780545 0.701564
0.180224 0.776959 0.667521
0.178973 0.772259 0.627329
0.239628 0.773068 0.571298
0.550835 0.791379 0.509972
0.742672 0.821698 0.513481
0.881056 0.792935 0.390188
0.942184 0.780591 0.359564
0.939773 0.785199 0.33106
0.200244 0.850355 0.717281
0.199725 0.848386 0.683452
0.198795 0.844968 0.639735
0.308751 0.854597 0.570993
0.568139 0.865873 0.507698
0.718959 0.886 0.521263
0.853697 0.909529 0.51986
0.939956 0.850141 0.316381
0.931167 0.824277 0.264485
0.219104 0.919295 0.729809
0.219104 0.919295 0.697246
0.219043 0.919081 0.654963
0.382589 0.941848 0.575158
0.592371 0.95201 0.519997
0.709895 0.959365 0.540475
0.817914 0.960021 0.531319
0.954177 0.960708 0.512596
0.955642 0.926818 0.45803
0.105318 0.483757 0.637644
0.10248 0.475456 0.590845
0.0997024 0.467918 0.534035
0.0959182 0.456947 0.457755
0.222217 0.472831 0.396414
0.518822 0.452628 0.271366
0.714199 0.471321 0.31136
0.847517 0.545739 0.444541
0.956191 0.642267 0.642847
0.105821 0.486458 0.629847
0.105074 0.48246 0.642023
0.102358 0.474922 0.590478
0.0983597 0.463981 0.506661
0.247242 0.478462 0.440833
0.544411 0.458091 0.338964
0.724132 0.485847 0.362036
0.857893 0.559838 0.490074
0.957015 0.65069 0.664912
0.107042 0.492073 0.624094
0.108507 0.497169 0.635309
0.108736 0.496468 0.656886
0.104768 0.485451 0.586404
0.290303 0.491341 0.517311
0.57116 0.487648 0.435859
0.751675 0.509819 0.44007
0.874495 0.589364 0.566064
0.958541 0.666499 0.69894
0.107805 0.495583 0.618296
0.111116 0.508385 0.628824
0.116411 0.529122 0.648203
0.118944 0.537606 0.675822
0.358419 0.531731 0.628809
0.633417 0.546654 0.558526
0.796109 0.585977 0.588891
0.901381 0.647684 0.673457
0.959106 0.67483 0.681163
0.110262 0.506127 0.61326
0.113802 0.52018 0.622385
0.119921 0.544228 0.641566
0.128557 0.57789 0.665629
0.424918 0.616907 0.716777
0.694286 0.632471 0.661875
0.832547 0.683421 0.706218
0.942916 0.701961 0.699153
0.958465 0.691981 0.658595
0.125673 0.568429 0.634668
0.130449 0.587259 0.641932
0.136858 0.612146 0.65713
0.144549 0.641794 0.677775
0.409293 0.705211 0.726192
0.740764 0.729503 0.704051
0.856779 0.759457 0.71339
0.950942 0.767239 0.697124
0.95996 0.757717 0.65449
0.167865 0.729641 0.755901
0.172808 0.748821 0.760388
0.179278 0.773388 0.76762
0.184573 0.792859 0.760586
0.372457 0.807568 0.726818
0.712276 0.813855 0.674495
0.866255 0.812512 0.607446
0.958968 0.808408 0.613855
0.956436 0.809827 0.562936
0.202991 0.860304 0.843976
0.204608 0.866178 0.828305
0.203937 0.863722 0.801129
0.202594 0.858793 0.760128
0.427314 0.876066 0.700511
0.700587 0.880507 0.642405
0.821454 0.899016 0.635416
0.949233 0.859617 0.503105
0.951782 0.84062 0.450111
0.219104 0.919295 0.852171
0.219104 0.919295 0.827848
0.219104 0.919295 0.799207
0.219104 0.919295 0.756024
0.504814 0.955169 0.676234
0.698909 0.961379 0.633616
0.792493 0.966049 0.640375
0.924224 0.96611 0.60589
0.96228 0.933898 0.552407
0.135958 0.601511 0.753368
0.133806 0.594659 0.728466
0.1308 0.585306 0.691188
0.127886 0.57644 0.645075
0.148714 0.566476 0.597589
0.399634 0.580957 0.582452
0.665248 0.575097 0.546166
0.826627 0.597528 0.564889
0.946227 0.646448 0.652644
0.134493 0.595804 0.748943
0.133761 0.592187 0.756512
0.131441 0.584741 0.731365
0.128389 0.576059 0.681682
0.168536 0.572168 0.634134
0.425956 0.57557 0.610986
0.682429 0.578546 0.573556
0.833417 0.601068 0.586542
0.953124 0.652033 0.676143
0.134569 0.596445 0.745724
0.134798 0.596811 0.751644
0.133837 0.59205 0.761807
0.131395 0.584421 0.73402
0.202167 0.584436 0.691051
0.465553 0.574655 0.657969
0.70695 0.582391 0.613062
0.84567 0.609247 0.62179
0.958419 0.664225 0.712261
0.13518 0.599176 0.742809
0.137148 0.606653 0.748959
0.139651 0.616068 0.758892
0.140322 0.617151 0.776684
0.258824 0.617563 0.765194
0.533425 0.601907 0.732692
0.748547 0.60737 0.683436
0.86743 0.641367 0.690074
0.961501 0.6963 0.766079
0.136049 0.602884 0.739742
0.138689 0.613306 0.745815
0.14313 0.630228 0.75639
0.149889 0.656184 0.775067
0.30898 0.675227 0.810559
0.599283 0.667552 0.794018
0.789136 0.671138 0.755428
0.894835 0.710033 0.769848
0.966537 0.746426 0.812055
0.139193 0.615778 0.739254
0.142138 0.627283 0.744091
0.146578 0.644495 0.754192
0.153277 0.67039 0.771435
0.308965 0.713893 0.805692
0.650385 0.743511 0.822416
0.818326 0.75198 0.795102
0.919936 0.781537 0.818357
0.970382 0.784756 0.809293
0.151446 0.664302 0.753491
0.155062 0.678462 0.758129
0.159518 0.695781 0.766247
0.16553 0.718624 0.779141
0.29073 0.757519 0.805783
0.628885 0.797467 0.820844
0.832853 0.822568 0.807813
0.933486 0.837354 0.811292
0.972717 0.833616 0.796384
0.184497 0.788632 0.844709
0.187976 0.802136 0.847395
0.192294 0.818936 0.850721
0.198016 0.841215 0.852476
0.204028 0.864073 0.84506
0.562493 0.890837 0.819287
0.809232 0.890593 0.778424
0.938888 0.881727 0.732204
0.968307 0.872984 0.714992
0.213367 0.897124 0.916686
0.217731 0.914122 0.916884
0.219104 0.919295 0.913985
0.219104 0.919295 0.879988
0.236423 0.923781 0.837385
0.607965 0.962463 0.78175
0.789929 0.965286 0.746319
0.8878 0.972946 0.726238
0.970535 0.943694 0.682277
0.165225 0.712474 0.835584
0.164172 0.709072 0.827359
0.162066 0.702129 0.81181
0.159442 0.69308 0.792844
0.156985 0.684733 0.775952
0.330495 0.688319 0.785565
0.615473 0.671778 0.778454
0.812757 0.662974 0.756283
0.933516 0.692515 0.772015
0.162493 0.701625 0.835416
0.162066 0.699504 0.839338
0.160662 0.694575 0.831601
0.158053 0.686107 0.809552
0.155932 0.679347 0.788907
0.349798 0.684047 0.798474
0.632242 0.668833 0.789807
0.81857 0.660212 0.766201
0.936507 0.690364 0.7776
0.161166 0.696284 0.834684
0.160662 0.693965 0.837903
0.159609 0.689296 0.842649
0.15758 0.681956 0.833448
0.155703 0.676524 0.80975
0.373465 0.681041 0.81677
0.65478 0.667811 0.805722
0.826596 0.659052 0.781079
0.941573 0.690013 0.78584
0.160861 0.695186 0.833738
0.161379 0.69691 0.836759
0.161868 0.698482 0.841199
0.160769 0.693339 0.848981
0.159045 0.68716 0.84062
0.415793 0.691691 0.847074
0.69044 0.683207 0.832624
0.840818 0.672435 0.806531
0.953033 0.701457 0.801617
0.16083 0.695369 0.83183
0.162387 0.701106 0.835309
0.16466 0.709789 0.84062
0.167788 0.721584 0.850263
0.170184 0.721126 0.859724
0.464683 0.722774 0.87686
0.732082 0.724941 0.864683
0.861341 0.712734 0.83769
0.965118 0.736461 0.827817
0.161593 0.698314 0.830915
0.163455 0.705638 0.83389
0.166384 0.716884 0.839506
0.170947 0.734279 0.849729
0.176059 0.752438 0.859434
0.500801 0.766308 0.892088
0.766247 0.773449 0.885206
0.884947 0.767498 0.860838
0.970962 0.785504 0.859693
0.164736 0.710979 0.83267
0.166903 0.719478 0.835569
0.169665 0.729992 0.840269
0.173861 0.745937 0.849058
0.181537 0.764111 0.857069
0.498711 0.797879 0.887587
0.782971 0.826368 0.893095
0.899275 0.827176 0.875425
0.977523 0.840467 0.889555
0.173526 0.745129 0.84242
0.176074 0.755138 0.845273
0.179065 0.766644 0.849592
0.182895 0.78143 0.855833
0.187533 0.795956 0.858503
0.495003 0.831327 0.884886
0.773632 0.863859 0.885954
0.899733 0.889769 0.874876
0.982727 0.900374 0.879072
0.197238 0.833829 0.915587
0.199969 0.844511 0.916274
0.203464 0.858289 0.916808
0.208392 0.877684 0.917586
0.21384 0.89897 0.916869
0.391272 0.94226 0.925582
0.722011 0.966598 0.888609
0.880735 0.966308 0.852399
0.980514 0.958999 0.814542
0.189273 0.803189 0.900877
0.188952 0.802213 0.899123
0.18764 0.79733 0.892683
0.185672 0.790051 0.886076
0.183886 0.783154 0.883223
0.215167 0.781018 0.890089
0.560464 0.770977 0.909529
0.794903 0.764004 0.906722
0.926467 0.743832 0.895415
0.186114 0.790417 0.90515
0.185885 0.789303 0.907561
0.18526 0.786862 0.905592
0.183612 0.780987 0.896345
0.181949 0.775021 0.889677
0.230823 0.776059 0.897963
0.576883 0.765316 0.914839
0.798367 0.759243 0.910246
0.928771 0.740536 0.898207
0.183871 0.781216 0.90779
0.183154 0.778271 0.910277
0.182391 0.775082 0.911452
0.181277 0.770764 0.91017
0.179828 0.765774 0.900298
0.243107 0.768719 0.907103
0.596078 0.758587 0.922286
0.803647 0.754147 0.91548
0.932479 0.737942 0.902815
0.182513 0.775876 0.9084
0.182132 0.774136 0.910567
0.181628 0.772107 0.911772
0.180346 0.766796 0.913283
0.178927 0.761044 0.912474
0.252796 0.765194 0.92166
0.614054 0.755764 0.933425
0.81239 0.753979 0.924407
0.939895 0.741299 0.911315
0.181872 0.773419 0.907317
0.182071 0.773938 0.910079
0.18262 0.776104 0.91162
0.183261 0.778485 0.913695
0.182162 0.774075 0.913664
0.281666 0.775067 0.931456
0.640146 0.767452 0.950195
0.8271 0.76788 0.937102
0.948623 0.758312 0.923949
0.181613 0.772366 0.905959
0.182177 0.774563 0.908278
0.183429 0.779263 0.911192
0.185504 0.787381 0.91397
0.18764 0.795682 0.914443
0.327901 0.798962 0.936675
0.692241 0.794202 0.961028
0.851896 0.795895 0.952392
0.963623 0.788357 0.938521
0.181964 0.773892 0.905455
0.182864 0.777264 0.907362
0.18439 0.783062 0.910933
0.186923 0.792844 0.913878
0.189944 0.805081 0.914763
0.357961 0.824506 0.940002
0.730999 0.831296 0.965301
0.872145 0.835538 0.959762
0.976822 0.829221 0.948394
0.184115 0.782193 0.908186
0.185397 0.787137 0.910201
0.186938 0.793072 0.911955
0.189364 0.80264 0.914443
0.192126 0.813596 0.915053
0.382727 0.835187 0.942382
0.721126 0.860624 0.960067
0.879774 0.892363 0.953857
0.974823 0.889693 0.945815
0.189532 0.803464 0.913466
0.19118 0.809842 0.914214
0.193149 0.81767 0.915129
0.195804 0.828153 0.915618
0.198764 0.839887 0.916091
0.39971 0.864469 0.944045
0.715267 0.891249 0.951461
0.872663 0.927321 0.942138
0.964172 0.962371 0.932494
0.193133 0.817761 0.912596
0.192889 0.816831 0.911238
0.191592 0.812131 0.90631
0.189746 0.80502 0.90135
0.187884 0.797787 0.89984
0.186282 0.791226 0.901579
0.544701 0.784314 0.930419
0.790616 0.78085 0.931365
0.922652 0.75436 0.920089
0.189731 0.804288 0.914748
0.189502 0.803021 0.914672
0.188952 0.801022 0.914565
0.187533 0.795529 0.910903
0.185916 0.789364 0.905776
0.198016 0.786999 0.909545
0.559365 0.777981 0.935317
0.795087 0.775341 0.934127
0.926024 0.750866 0.922057
0.187228 0.794079 0.914366
0.186435 0.790982 0.914244
0.185718 0.788144 0.914168
0.184741 0.784298 0.913985
0.183612 0.779767 0.913848
0.211505 0.780423 0.919127
0.580453 0.770504 0.942
0.799542 0.769482 0.938796
0.928908 0.746929 0.926162
0.185763 0.788235 0.914153
0.185122 0.785718 0.914076
0.184421 0.783093 0.913985
0.183185 0.778103 0.913802
0.181827 0.772564 0.913603
0.218662 0.775433 0.922454
0.593622 0.765621 0.951705
0.807218 0.766857 0.946181
0.935134 0.748638 0.933242
0.184985 0.785153 0.914015
0.184924 0.784878 0.914
0.185122 0.785779 0.914107
0.185458 0.786923 0.914107
0.184314 0.782513 0.913939
0.24622 0.783444 0.92697
0.616693 0.775402 0.956771
0.82179 0.77792 0.957153
0.942931 0.763012 0.943816
0.184604 0.783703 0.914
0.184924 0.784985 0.914031
0.185885 0.788571 0.914199
0.187518 0.795239 0.914397
0.189151 0.801892 0.914611
0.294667 0.803784 0.933364
0.678019 0.795438 0.961624
0.848524 0.799115 0.961379
0.960876 0.789349 0.949233
0.184756 0.784329 0.914
0.185428 0.786786 0.914107
0.186557 0.791577 0.914229
0.188632 0.799817 0.914549
0.191608 0.811414 0.914992
0.336416 0.826505 0.938079
0.724971 0.831449 0.966186
0.871489 0.836545 0.962844
0.976593 0.829694 0.953902
0.186282 0.790311 0.914199
0.187274 0.794156 0.914366
0.188586 0.799435 0.914549
0.190692 0.80798 0.91487
0.193469 0.818845 0.915267
0.365362 0.837415 0.940948
0.7149 0.862303 0.962386
0.878843 0.893675 0.961028
0.976272 0.890059 0.956374
0.190372 0.806851 0.914824
0.191791 0.812268 0.915038
0.193561 0.819211 0.915282
0.195911 0.828626 0.915648
0.198428 0.838605 0.91603
0.393652 0.860227 0.943893
0.713283 0.886213 0.958038
0.870726 0.924437 0.955428
0.966125 0.965637 0.950591
