public/LUTS/Cinematic/Cinematic_04.cube
TITLE "Generated by Resolve"
LUT_3D_SIZE 5
0.0152895 0.0522316 0.089189
0.316625 0.0385901 0.0755322
0.617975 0.0249332 0.0618906
0.919326 0.0112764 0.0482338
1 0 0.0345769
0 0.321721 0.0436866
0.271122 0.30808 0.0300298
0.572473 0.294423 0.0163882
0.873838 0.280766 0.00273136
1 0.267124 0
0 0.591226 0
0.22562 0.577569 0
0.52697 0.563928 0
0.828336 0.550271 0
1 0.536629 0
0 0.860731 0
0.180117 0.847074 0
0.481483 0.833432 0
0.782834 0.819776 0
1 0.806119 0
0 1 0
0.134615 1 0
0.435981 1 0
0.737331 1 0
1 1 0
0.00943008 0.0463874 0.398322
0.310765 0.0327306 0.384665
0.612131 0.019089 0.371023
0.913481 0.00543221 0.357366
1 0 0.343725
0 0.315877 0.352819
0.265278 0.30222 0.339178
0.566629 0.288579 0.325521
0.867979 0.274922 0.311879
1 0.261265 0.298222
0 0.585382 0.307317
0.219776 0.571725 0.293675
0.521126 0.558083 0.280018
0.822477 0.544427 0.266377
1 0.53077 0.25272
0 0.854887 0.261814
0.174273 0.84123 0.248173
0.475624 0.827573 0.234516
0.776974 0.813931 0.220874
1 0.800275 0.207218
0 1 0.216312
0.128771 1 0.20267
0.430121 1 0.189014
0.731487 1 0.175372
1 1 0.161715
0.00358587 0.0405432 0.707485
0.304921 0.0268864 0.693828
0.606271 0.0132296 0.680171
0.907637 0 0.666529
1 0 0.652873
0 0.310033 0.661982
0.259419 0.296376 0.648325
0.560784 0.282719 0.634684
0.862135 0.269078 0.621027
1 0.255421 0.607385
0 0.579522 0.61648
0.213916 0.565881 0.602823
0.515282 0.552224 0.589181
0.816632 0.538582 0.575525
1 0.524926 0.561883
0 0.849027 0.570977
0.168429 0.835386 0.557321
0.46978 0.821729 0.543679
0.77113 0.808087 0.530022
1 0.79443 0.516381
0 1 0.525475
0.122927 1 0.511818
0.424277 1 0.498177
0.725628 1 0.48452
1 1 0.470878
0 0.0346838 1
0.299077 0.0210422 1
0.600427 0.00738537 0.989334
0.901778 0 0.975677
1 0 0.962036
0 0.304173 0.97113
0.253574 0.290532 0.957488
0.554925 0.276875 0.943832
0.856275 0.263218 0.93019
1 0.249577 0.916533
0 0.573678 0.925628
0.208072 0.560037 0.911986
0.509422 0.54638 0.898329
0.810788 0.532723 0.884688
1 0.519081 0.871031
0 0.843183 0.880125
0.16257 0.829541 0.866484
0.46392 0.815885 0.852827
0.765286 0.802228 0.839185
1 0.788586 0.825528
0 1 0.834623
0.117067 1 0.820981
0.418433 1 0.807324
0.719783 1 0.793683
1 1 0.780026
0 0.0288396 1
0.293217 0.0151827 1
0.594568 0.00154116 1
0.895933 0 1
1 0 1
0 0.298329 1
0.24773 0.284672 1
0.549081 0.271031 1
0.850431 0.257374 1
1 0.243717 1
0 0.567834 1
0.202228 0.554177 1
0.503578 0.540536 1
0.804929 0.526879 1
1 0.513222 1
0 0.837339 1
0.156725 0.823682 1
0.458076 0.81004 1
0.759426 0.796384 1
1 0.782727 1
0 1 1
0.111223 1 1
0.412573 1 1
0.713924 1 1
1 1 1
