public/LUTS/Cinematic/Cinematic_08.cube
TITLE "Generated by Resolve"
LUT_3D_SIZE 9
0 0.000640879 0.0167697
0.0951705 0 0.0141451
0.23006 0 0.0115206
0.364935 0 0.00889601
0.499809 0 0.00627146
0.634684 0 0.00364691
0.769558 0 0.00102235
0.904433 0 0
1 0 0
0 0.129381 0.00801099
0.0864271 0.126757 0.00538643
0.221302 0.124117 0.00276188
0.356176 0.121492 0.000137331
0.491051 0.118868 0
0.62594 0.116243 0
0.760815 0.113619 0
0.895689 0.110994 0
1 0.10837 0
0 0.258122 0
0.0776837 0.255497 0
0.212558 0.252872 0
0.347433 0.250248 0
0.482307 0.247623 0
0.617182 0.244999 0
0.752056 0.242374 0
0.886946 0.23975 0
1 0.237125 0
0 0.386877 0
0.068925 0.384253 0
0.2038 0.381628 0
0.338674 0.379004 0
0.473564 0.376379 0
0.608438 0.373754 0
0.743313 0.37113 0
0.878187 0.368505 0
1 0.365881 0
0 0.515633 0
0.0601816 0.513008 0
0.195056 0.510384 0
0.329931 0.507759 0
0.464805 0.505135 0
0.59968 0.50251 0
0.734554 0.49987 0
0.869444 0.497246 0
1 0.494621 0
0 0.644388 0
0.0514229 0.641764 0
0.186297 0.639124 0
0.321187 0.6365 0
0.456062 0.633875 0
0.590936 0.631251 0
0.725811 0.628626 0
0.860685 0.626001 0
0.99556 0.623377 0
0 0.773129 0
0.0426795 0.770504 0
0.177554 0.76788 0
0.312428 0.765255 0
0.447303 0.762631 0
0.582177 0.760006 0
0.717067 0.757382 0
0.851942 0.754757 0
0.986816 0.752132 0
0 0.901884 0
0.0339208 0.89926 0
0.168811 0.896635 0
0.303685 0.894011 0
0.43856 0.891386 0
0.573434 0.888762 0
0.708309 0.886137 0
0.843183 0.883513 0
0.978073 0.880888 0
0 1 0
0.0251774 1 0
0.160052 1 0
0.294926 1 0
0.429801 1 0
0.564691 1 0
0.699565 1 0
0.83444 1 0
0.969314 1 0
0 0 0.153124
0.0940566 0 0.1505
0.228931 0 0.147875
0.363806 0 0.145251
0.49868 0 0.142626
0.633555 0 0.140002
0.768429 0 0.137377
0.903319 0 0.134752
1 0 0.132128
0 0.128252 0.144381
0.0852979 0.125628 0.141756
0.220172 0.123003 0.139132
0.355062 0.120378 0.136507
0.489937 0.117754 0.133883
0.624811 0.115129 0.131258
0.759686 0.11249 0.128634
0.89456 0.109865 0.126009
1 0.10724 0.123384
0 0.257008 0.135622
0.0765545 0.254383 0.132998
0.211429 0.251759 0.130373
0.346303 0.249119 0.127749
0.481178 0.246494 0.125124
0.616053 0.24387 0.122499
0.750942 0.241245 0.119875
0.885817 0.238621 0.11725
1 0.235996 0.114626
0 0.385748 0.126879
0.0677958 0.383124 0.124254
0.202686 0.380499 0.12163
0.33756 0.377874 0.119005
0.472435 0.37525 0.116381
0.607309 0.372625 0.113756
0.742184 0.370001 0.111131
0.877058 0.367376 0.108507
1 0.364752 0.105882
0 0.514504 0.11812
0.0590524 0.511879 0.115496
0.193927 0.509255 0.112871
0.328801 0.50663 0.110246
0.463676 0.504005 0.107622
0.598566 0.501381 0.104997
0.73344 0.498756 0.102373
0.868315 0.496132 0.0997482
1 0.493507 0.0971237
0 0.643259 0.109377
0.0502937 0.640635 0.106752
0.185183 0.63801 0.104128
0.320058 0.635386 0.101503
0.454932 0.632761 0.0988785
0.589807 0.630137 0.0962539
0.724681 0.627512 0.0936294
0.859571 0.624872 0.0910048
0.994446 0.622248 0.0883803
0 0.772015 0.100633
0.0415503 0.76939 0.0980087
0.176425 0.766766 0.0953689
0.311299 0.764141 0.0927443
0.446189 0.761501 0.0901198
0.581064 0.758877 0.0874952
0.715938 0.756252 0.0848707
0.850813 0.753628 0.0822461
0.985687 0.751003 0.0796216
0 0.900755 0.0918746
0.0328069 0.898131 0.08925
0.167681 0.895506 0.0866255
0.302556 0.892882 0.0840009
0.43743 0.890257 0.0813764
0.572305 0.887633 0.0787518
0.707179 0.885008 0.0761273
0.842069 0.882383 0.0735027
0.976944 0.879759 0.0708782
0 1 0.0831311
0.0240482 1 0.0805066
0.158923 1 0.0778821
0.293812 1 0.0752575
0.428687 1 0.0726177
0.563561 1 0.0699931
0.698436 1 0.0673686
0.83331 1 0.064744
0.968185 1 0.0621195
0 0 0.289509
0.0929274 0 0.286885
0.227802 0 0.28426
0.362676 0 0.281636
0.497551 0 0.279011
0.632441 0 0.276387
0.767315 0 0.273762
0.90219 0 0.271122
1 0 0.268498
0 0.127123 0.280751
0.084184 0.124498 0.278126
0.219059 0.121874 0.275502
0.353933 0.119249 0.272877
0.488807 0.116625 0.270253
0.623682 0.114 0.267628
0.758556 0.111376 0.265003
0.893446 0.108751 0.262379
1 0.106126 0.259754
0 0.255879 0.272007
0.0754253 0.253254 0.269383
0.2103 0.250629 0.266758
0.345174 0.248005 0.264134
0.480064 0.24538 0.261509
0.614939 0.242756 0.258885
0.749813 0.240131 0.25626
0.884688 0.237491 0.253635
1 0.234867 0.251011
0 0.384634 0.263249
0.0666819 0.38201 0.260624
0.201556 0.379385 0.258
0.336431 0.376761 0.255375
0.471305 0.374121 0.25275
0.60618 0.371496 0.250126
0.741054 0.368872 0.247501
0.875944 0.366247 0.244877
1 0.363622 0.242252
0 0.513375 0.254505
0.0579232 0.51075 0.251881
0.192798 0.508125 0.249256
0.327688 0.505501 0.246632
0.462562 0.502876 0.244007
0.597436 0.500252 0.241382
0.732311 0.497627 0.238758
0.867185 0.495003 0.236133
1 0.492378 0.233509
0 0.64213 0.245747
0.0491798 0.639506 0.243122
0.184054 0.636881 0.240497
0.318929 0.634256 0.237873
0.453803 0.631632 0.235248
0.588678 0.629007 0.232624
0.723568 0.626383 0.229999
0.858442 0.623758 0.227375
0.993317 0.621134 0.22475
0 0.770886 0.237003
0.0404212 0.768261 0.234379
0.175311 0.765637 0.231754
0.310185 0.763012 0.229129
0.44506 0.760388 0.226505
0.579934 0.757763 0.22388
0.714809 0.755138 0.221256
0.849683 0.752514 0.218631
0.984573 0.749874 0.216007
0 0.899641 0.22826
0.0316777 0.897017 0.225635
0.166552 0.894392 0.223011
0.301427 0.891768 0.220371
0.436301 0.889143 0.217746
0.571191 0.886503 0.215122
0.706065 0.883879 0.212497
0.84094 0.881254 0.209873
0.975814 0.87863 0.207248
0 1 0.219501
0.0229191 1 0.216876
0.157809 1 0.214252
0.292683 1 0.211627
0.427558 1 0.209003
0.562432 1 0.206378
0.697307 1 0.203754
0.832181 1 0.201129
0.967071 1 0.198505
0 0 0.425879
0.0917983 0 0.423255
0.226673 0 0.42063
0.361563 0 0.418006
0.496437 0 0.415381
0.631312 0 0.412757
0.766186 0 0.410132
0.901061 0 0.407507
1 0 0.404883
0 0.125994 0.417136
0.0830549 0.123369 0.414511
0.217929 0.120745 0.411887
0.352804 0.11812 0.409262
0.487678 0.115496 0.406638
0.622553 0.112871 0.404013
0.757443 0.110246 0.401389
0.892317 0.107622 0.398764
1 0.104997 0.396139
0 0.254749 0.408377
0.0742962 0.252125 0.405753
0.209186 0.2495 0.403128
0.34406 0.246876 0.400504
0.478935 0.244251 0.397879
0.613809 0.241627 0.395254
0.748684 0.239002 0.39263
0.883558 0.236378 0.390005
1 0.233753 0.387381
0 0.383505 0.399634
0.0655528 0.38088 0.397009
0.200427 0.378256 0.394385
0.335302 0.375631 0.39176
0.470176 0.373007 0.389136
0.605066 0.370382 0.386511
0.73994 0.367758 0.383886
0.874815 0.365133 0.381262
1 0.362493 0.378637
0 0.512261 0.390875
0.0567941 0.509636 0.388251
0.191684 0.507012 0.385626
0.326558 0.504387 0.383001
0.461433 0.501762 0.380377
0.596307 0.499123 0.377752
0.731182 0.496498 0.375128
0.866056 0.493874 0.372503
1 0.491249 0.369879
0 0.641016 0.382132
0.0480507 0.638376 0.379507
0.182925 0.635752 0.376883
0.3178 0.633127 0.374258
0.452689 0.630503 0.371633
0.587564 0.627878 0.369009
0.722438 0.625254 0.366384
0.857313 0.622629 0.36376
0.992187 0.620005 0.361135
0 0.769757 0.373388
0.0393072 0.767132 0.370764
0.174182 0.764508 0.368124
0.309056 0.761883 0.365499
0.443931 0.759258 0.362875
0.578805 0.756634 0.36025
0.71368 0.754009 0.357626
0.848569 0.751385 0.355001
0.983444 0.74876 0.352377
0 0.898512 0.36463
0.0305486 0.895888 0.362005
0.165423 0.893263 0.35938
0.300313 0.890639 0.356756
0.435187 0.888014 0.354131
0.570062 0.88539 0.351507
0.704936 0.882765 0.348882
0.839811 0.88014 0.346258
0.974685 0.877516 0.343633
0 1 0.355886
0.0218051 1 0.353262
0.15668 1 0.350637
0.291554 1 0.348013
0.426429 1 0.345373
0.561303 1 0.342748
0.696193 1 0.340124
0.831067 1 0.337499
0.965942 1 0.334874
0 0 0.562264
0.0906691 0 0.55964
0.225559 0 0.557015
0.360433 0 0.554391
0.495308 0 0.551766
0.630182 0 0.549142
0.765057 0 0.546517
0.899931 0 0.543877
1 0 0.541253
0 0.12488 0.553506
0.0819257 0.122255 0.550881
0.2168 0.119631 0.548257
0.351675 0.117006 0.545632
0.486564 0.114382 0.543008
0.621439 0.111742 0.540383
0.756313 0.109117 0.537758
0.891188 0.106493 0.535134
1 0.103868 0.532509
0 0.253635 0.544762
0.0731823 0.250996 0.542138
0.208057 0.248371 0.539513
0.342931 0.245747 0.536889
0.477806 0.243122 0.534264
0.61268 0.240497 0.53164
0.747555 0.237873 0.529015
0.882445 0.235248 0.52639
1 0.232624 0.523766
0 0.382376 0.536004
0.0644236 0.379751 0.533379
0.199298 0.377127 0.530755
0.334188 0.374502 0.52813
0.469062 0.371878 0.525505
0.603937 0.369253 0.522881
0.738811 0.366629 0.520256
0.873686 0.364004 0.517632
1 0.361379 0.515007
0 0.511131 0.52726
0.0556802 0.508507 0.524636
0.190555 0.505882 0.522011
0.325429 0.503258 0.519387
0.460304 0.500633 0.516762
0.595178 0.498009 0.514138
0.730068 0.495384 0.511513
0.864942 0.49276 0.508888
0.999817 0.490135 0.506264
0 0.639887 0.518517
0.0469215 0.637263 0.515877
0.181796 0.634638 0.513252
0.316686 0.632013 0.510628
0.45156 0.629389 0.508003
0.586435 0.626764 0.505379
0.721309 0.624125 0.502754
0.856184 0.6215 0.50013
0.991058 0.618875 0.497505
0 0.768643 0.509758
0.0381781 0.766018 0.507134
0.173053 0.763378 0.504509
0.307927 0.760754 0.501884
0.442802 0.758129 0.49926
0.577691 0.755505 0.496635
0.712566 0.75288 0.494011
0.84744 0.750256 0.491386
0.982315 0.747631 0.488762
0 0.897383 0.501015
0.0294194 0.894759 0.49839
0.164309 0.892134 0.495766
0.299184 0.889509 0.493126
0.434058 0.886885 0.490501
0.568933 0.88426 0.487877
0.703807 0.881636 0.485252
0.838682 0.879011 0.482628
0.973571 0.876387 0.480003
0 1 0.492256
0.020676 1 0.489632
0.15555 1 0.487007
0.290425 1 0.484382
0.425299 1 0.481758
0.560189 1 0.479133
0.695064 1 0.476509
0.829938 1 0.473884
0.964813 1 0.47126
0 0 0.698634
0.0895552 0 0.69601
0.22443 0 0.693385
0.359304 0 0.690761
0.494179 0 0.688136
0.629053 0 0.685512
0.763943 0 0.682887
0.898817 0 0.680262
1 0 0.677638
0 0.123751 0.689891
0.0807965 0.121126 0.687266
0.215686 0.118502 0.684642
0.350561 0.115877 0.682017
0.485435 0.113252 0.679393
0.62031 0.110628 0.676768
0.755184 0.108003 0.674144
0.890059 0.105379 0.671519
1 0.102754 0.668894
0 0.252506 0.681132
0.0720531 0.249882 0.678508
0.206928 0.247257 0.675883
0.341802 0.244633 0.673259
0.476677 0.242008 0.670634
0.611566 0.239384 0.668009
0.746441 0.236744 0.665385
0.881315 0.234119 0.66276
1 0.231495 0.660136
0 0.381262 0.672389
0.0632944 0.378637 0.669764
0.198184 0.375998 0.66714
0.333059 0.373373 0.664515
0.467933 0.370748 0.661891
0.602808 0.368124 0.659266
0.737682 0.365499 0.656641
0.872557 0.362875 0.654017
1 0.36025 0.651392
0 0.510002 0.66363
0.054551 0.507378 0.661006
0.189425 0.504753 0.658381
0.3243 0.502129 0.655756
0.45919 0.499504 0.653132
0.594064 0.49688 0.650507
0.728939 0.494255 0.647883
0.863813 0.49163 0.645258
0.998688 0.489006 0.642634
0 0.638758 0.654887
0.0458076 0.636133 0.652262
0.180682 0.633509 0.649638
0.315557 0.630884 0.647013
0.450431 0.62826 0.644388
0.585306 0.625635 0.641764
0.72018 0.623011 0.639139
0.85507 0.620386 0.636515
0.989944 0.617761 0.63389
0 0.767514 0.646143
0.0370489 0.764889 0.643519
0.171923 0.762264 0.640879
0.306798 0.75964 0.638254
0.441688 0.757015 0.63563
0.576562 0.754391 0.633005
0.711437 0.751766 0.630381
0.846311 0.749126 0.627756
0.981186 0.746502 0.625132
0 0.896269 0.637385
0.0283055 0.893645 0.63476
0.16318 0.89102 0.632136
0.298054 0.88838 0.629511
0.432929 0.885756 0.626886
0.567803 0.883131 0.624262
0.702693 0.880507 0.621637
0.837568 0.877882 0.619013
0.972442 0.875257 0.616388
0 1 0.628641
0.0195468 1 0.626017
0.154421 1 0.623392
0.289311 1 0.620768
0.424186 1 0.618128
0.55906 1 0.615503
0.693935 1 0.612879
0.828809 1 0.610254
0.963684 1 0.60763
0 0 0.835019
0.088426 0 0.832395
0.223301 0 0.82977
0.358175 0 0.827146
0.49305 0 0.824521
0.627939 0 0.821897
0.762814 0 0.819272
0.897688 0 0.816632
1 0 0.814008
0 0.122621 0.826261
0.0796826 0.119997 0.823636
0.214557 0.117372 0.821012
0.349432 0.114748 0.818387
0.484306 0.112123 0.815763
0.619181 0.109499 0.813138
0.754055 0.106874 0.810513
0.888945 0.10425 0.807889
1 0.101625 0.805264
0 0.251377 0.817517
0.0709239 0.248753 0.814893
0.205798 0.246128 0.812268
0.340688 0.243503 0.809644
0.475563 0.240879 0.807019
0.610437 0.238254 0.804395
0.745312 0.23563 0.80177
0.880186 0.233005 0.799146
1 0.230381 0.796521
0 0.380133 0.808759
0.0621805 0.377508 0.806134
0.197055 0.374884 0.80351
0.33193 0.372259 0.800885
0.466804 0.369635 0.79826
0.601678 0.36701 0.795636
0.736568 0.364385 0.793011
0.871443 0.361746 0.790387
1 0.359121 0.787762
0 0.508888 0.800015
0.0534218 0.506264 0.797391
0.188296 0.503639 0.794766
0.323186 0.500999 0.792142
0.458061 0.498375 0.789517
0.592935 0.49575 0.786892
0.72781 0.493126 0.784268
0.862684 0.490501 0.781643
0.997559 0.487877 0.779019
0 0.637629 0.791257
0.0446784 0.635004 0.788632
0.179553 0.63238 0.786007
0.314427 0.629755 0.783383
0.449302 0.627131 0.780758
0.584192 0.624506 0.778134
0.719066 0.621881 0.775509
0.853941 0.619257 0.772885
0.988815 0.616632 0.77026
0 0.766384 0.782513
0.0359197 0.76376 0.779889
0.170809 0.761135 0.777264
0.305684 0.758511 0.774639
0.440558 0.755886 0.772015
0.575433 0.753262 0.76939
0.710307 0.750637 0.766766
0.845182 0.748012 0.764141
0.980072 0.745388 0.761517
0 0.89514 0.77377
0.0271763 0.892515 0.771145
0.162051 0.889891 0.768521
0.296925 0.887266 0.765881
0.4318 0.884642 0.763256
0.56669 0.882017 0.760632
0.701564 0.879393 0.758007
0.836439 0.876768 0.755383
0.971313 0.874128 0.752758
0 1 0.765011
0.0184329 1 0.762387
0.153307 1 0.759762
0.288182 1 0.757137
0.423056 1 0.754513
0.557931 1 0.751888
0.692805 1 0.749264
0.827695 1 0.746639
0.96257 1 0.744015
0 0 0.971389
0.0872969 0 0.968765
0.222171 0 0.96614
0.357061 0 0.963516
0.491936 0 0.960891
0.62681 0 0.958267
0.761685 0 0.955642
0.896559 0 0.953017
1 0 0.950393
0 0.121508 0.962646
0.0785534 0.118883 0.960021
0.213428 0.116258 0.957397
0.348302 0.113634 0.954772
0.483177 0.110994 0.952148
0.618067 0.10837 0.949523
0.752941 0.105745 0.946899
0.887816 0.10312 0.944274
1 0.100496 0.941649
0 0.250248 0.953887
0.0697948 0.247623 0.951263
0.204685 0.244999 0.948638
0.339559 0.242374 0.946014
0.474434 0.23975 0.943389
0.609308 0.237125 0.940764
0.744183 0.234501 0.93814
0.879057 0.231876 0.935515
1 0.229252 0.932891
0 0.379004 0.945144
0.0610513 0.376379 0.942519
0.195926 0.373754 0.939895
0.3308 0.37113 0.93727
0.46569 0.368505 0.934646
0.600565 0.365881 0.932021
0.735439 0.363256 0.929397
0.870314 0.360632 0.926772
1 0.358007 0.924147
0 0.507759 0.936385
0.0523079 0.505135 0.933761
0.187182 0.50251 0.931136
0.322057 0.499886 0.928512
0.456931 0.497261 0.925887
0.591806 0.494636 0.923262
0.72668 0.492012 0.920638
0.86157 0.489387 0.918013
0.996445 0.486748 0.915389
0 0.636515 0.927642
0.0435492 0.63389 0.925017
0.178424 0.631266 0.922393
0.313298 0.628641 0.919768
0.448188 0.626001 0.917144
0.583062 0.623377 0.914519
0.717937 0.620752 0.911894
0.852811 0.618128 0.90927
0.987686 0.615503 0.906645
0 0.76527 0.918898
0.0348058 0.762631 0.916274
0.16968 0.760006 0.913634
0.304555 0.757382 0.911009
0.439429 0.754757 0.908385
0.574304 0.752132 0.90576
0.709194 0.749508 0.903136
0.844068 0.746883 0.900511
0.978943 0.744259 0.897887
0 0.894011 0.91014
0.0260471 0.891386 0.907515
0.160922 0.888762 0.904891
0.295811 0.886137 0.902266
0.430686 0.883513 0.899641
0.56556 0.880888 0.897017
0.700435 0.878264 0.894392
0.835309 0.875639 0.891768
0.970184 0.873014 0.889143
0 1 0.901396
0.0173037 1 0.898772
0.152178 1 0.896147
0.287053 1 0.893523
0.421927 1 0.890883
0.556802 1 0.888258
0.691691 1 0.885634
0.826566 1 0.883009
0.96144 1 0.880385
0 0 1
0.086183 0 1
0.221057 0 1
0.355932 0 1
0.490806 0 1
0.625681 0 1
0.760555 0 1
0.895445 0 1
1 0 1
0 0.120378 1
0.0774243 0.117754 1
0.212299 0.115129 1
0.347189 0.112505 1
0.482063 0.10988 1
0.616938 0.107256 1
0.751812 0.104631 1
0.886687 0.102007 1
1 0.0993668 1
0 0.249134 1
0.0686809 0.246509 1
0.203555 0.243885 1
0.33843 0.24126 1
0.473304 0.238636 1
0.608179 0.235996 1
0.743069 0.233371 1
0.877943 0.230747 1
1 0.228122 1
0 0.37789 1
0.0599222 0.37525 1
0.194797 0.372625 1
0.329686 0.370001 1
0.464561 0.367376 1
0.599435 0.364752 1
0.73431 0.362127 1
0.869184 0.359503 1
1 0.356878 1
0 0.50663 1
0.0511788 0.504005 1
0.186053 0.501381 1
0.320928 0.498756 1
0.455802 0.496132 1
0.590692 0.493507 1
0.725567 0.490883 1
0.860441 0.488258 1
0.995315 0.485634 1
0 0.635386 1
0.0424201 0.632761 1
0.17731 0.630137 1
0.312184 0.627512 1
0.447059 0.624887 1
0.581933 0.622263 1
0.716808 0.619638 1
0.851682 0.617014 1
0.986572 0.614389 1
0 0.764141 1
0.0336767 0.761517 1
0.168551 0.758892 1
0.303426 0.756268 1
0.4383 0.753643 1
0.57319 0.751019 1
0.708064 0.748379 1
0.842939 0.745754 1
0.977813 0.74313 1
0 0.892897 1
0.0249332 0.890272 1
0.159808 0.887633 1
0.294682 0.885008 1
0.429557 0.882383 1
0.564431 0.879759 1
0.699306 0.877134 1
0.834195 0.87451 1
0.96907 0.871885 1
0 1 1
0.0161746 1 1
0.151049 1 1
0.285924 1 1
0.420813 1 1
0.555688 1 1
0.690562 1 1
0.825437 1 1
0.960311 1 1
