public/LUTS/Cinematic/Cinematic_25.cube
TITLE "Generated by Resolve"
LUT_3D_SIZE 33
0.043473 0.0606546 0.0658427
0.0480964 0.059968 0.0641947
0.0535439 0.0593118 0.0622263
0.0622721 0.0610971 0.0619364
0.0744945 0.0673381 0.0664378
0.0897841 0.0738384 0.0703593
0.107927 0.079408 0.0719463
0.127642 0.0847334 0.0726024
0.148516 0.0884871 0.0707713
0.171008 0.0897383 0.0641031
0.196246 0.0884718 0.0515908
0.223865 0.0885023 0.0399786
0.250645 0.0954147 0.0376135
0.283665 0.099382 0.0405585
0.323323 0.105425 0.0458076
0.37467 0.111711 0.0530098
0.432044 0.118227 0.0616159
0.491905 0.124163 0.071046
0.550546 0.130678 0.0805676
0.605203 0.141268 0.0901503
0.653712 0.160937 0.0994278
0.69659 0.182742 0.108095
0.734447 0.2047 0.116091
0.767666 0.225711 0.123384
0.79733 0.245441 0.130114
0.824186 0.265095 0.136446
0.849271 0.286748 0.142702
0.874113 0.31046 0.149142
0.899931 0.336202 0.155978
0.91075 0.360983 0.160311
0.911055 0.386816 0.163272
0.911467 0.41294 0.16643
0.911803 0.433478 0.168994
0.043473 0.061387 0.064683
0.0485389 0.0614023 0.0645151
0.0542458 0.0607767 0.0628367
0.0632639 0.0631418 0.0634012
0.0766766 0.0685435 0.066392
0.0930343 0.0738537 0.0681926
0.1122 0.0777447 0.0670329
0.131685 0.0820478 0.0657054
0.151736 0.0868086 0.0629892
0.173404 0.0897383 0.0565652
0.194842 0.0949264 0.0510262
0.219577 0.101289 0.0432288
0.247028 0.107103 0.0384833
0.2795 0.111452 0.0411536
0.319982 0.116167 0.0462654
0.37142 0.123308 0.0534981
0.429816 0.130007 0.0622263
0.48983 0.136034 0.0715953
0.549493 0.141543 0.0811475
0.606332 0.147066 0.0906844
0.65832 0.155337 0.0998093
0.702876 0.170962 0.108263
0.739315 0.194476 0.116152
0.771038 0.2177 0.123308
0.798642 0.241733 0.130053
0.824338 0.264088 0.136385
0.849287 0.28806 0.142824
0.874479 0.310948 0.149264
0.900282 0.336309 0.156039
0.91075 0.361547 0.160388
0.911055 0.387335 0.163348
0.911467 0.412589 0.166339
0.911803 0.433341 0.168963
0.0436408 0.0622568 0.0633707
0.048661 0.0625162 0.0633555
0.0546731 0.0625925 0.0631876
0.0647593 0.0647746 0.0627604
0.0779126 0.0701305 0.0643168
0.0933547 0.0762036 0.0659648
0.110506 0.0823835 0.0667124
0.12929 0.0882734 0.0664378
0.149065 0.0937667 0.0649424
0.169574 0.0990768 0.0621347
0.191608 0.103853 0.0568704
0.216999 0.108659 0.0489662
0.244602 0.113512 0.0407874
0.277272 0.117739 0.0415198
0.317494 0.123644 0.0466773
0.368841 0.132235 0.0539406
0.426719 0.14081 0.0626993
0.486748 0.148867 0.0721294
0.547005 0.154559 0.0817426
0.605112 0.160037 0.091371
0.658427 0.165774 0.100511
0.705058 0.172198 0.108721
0.744244 0.182391 0.116121
0.77499 0.207004 0.123186
0.801999 0.23238 0.129824
0.82649 0.258381 0.136294
0.849943 0.284504 0.142657
0.874479 0.310811 0.149248
0.900282 0.336095 0.156024
0.91075 0.361471 0.160357
0.911055 0.387243 0.163348
0.911467 0.412726 0.166354
0.911803 0.433066 0.168933
0.0441749 0.07364 0.0697337
0.049836 0.0728923 0.0681621
0.0568246 0.0709544 0.0660868
0.0645151 0.0720531 0.0663462
0.0772106 0.07364 0.0648814
0.092256 0.0789654 0.0663767
0.109392 0.0848402 0.0677043
0.127916 0.0907301 0.06804
0.148028 0.0962539 0.0671092
0.1691 0.101137 0.0641184
0.191531 0.105562 0.0588083
0.217548 0.110033 0.0505989
0.245792 0.114717 0.041886
0.279164 0.119341 0.0418402
0.320287 0.125231 0.0471351
0.372259 0.134188 0.0545663
0.430503 0.142565 0.0633707
0.491203 0.149371 0.0728161
0.551736 0.155642 0.0825666
0.608728 0.161776 0.0921187
0.66128 0.1682 0.101122
0.707378 0.175097 0.109361
0.746685 0.182925 0.11664
0.777646 0.205219 0.123522
0.804181 0.230121 0.130083
0.828458 0.255787 0.1364
0.852018 0.281422 0.142763
0.876326 0.306737 0.149187
0.901869 0.333852 0.1561
0.910704 0.359579 0.160143
0.911055 0.385351 0.163104
0.911437 0.410941 0.16614
0.911803 0.433249 0.168963
0.0462654 0.0853437 0.0744793
0.0524758 0.0835889 0.0718853
0.0593881 0.0815137 0.0697948
0.0652781 0.0823072 0.0708476
0.0762951 0.0836194 0.0698405
0.0919051 0.0825055 0.0666361
0.108705 0.088838 0.0685435
0.126986 0.0951705 0.0692149
0.147005 0.100954 0.0682231
0.168139 0.105943 0.0652628
0.191257 0.10988 0.0599374
0.218952 0.113008 0.0509194
0.248371 0.116381 0.041474
0.282597 0.120424 0.0423285
0.324773 0.126162 0.0478218
0.378134 0.134356 0.0553902
0.437766 0.142153 0.0644083
0.498878 0.149599 0.0740215
0.558068 0.156497 0.0836652
0.614435 0.163439 0.0931258
0.66601 0.170916 0.102129
0.710826 0.17847 0.110185
0.749706 0.187228 0.117449
0.781003 0.202625 0.123949
0.807019 0.227192 0.130388
0.831296 0.250889 0.136477
0.854994 0.275288 0.142718
0.879286 0.301213 0.149157
0.90367 0.328756 0.155901
0.910643 0.354849 0.159609
0.910979 0.380819 0.162585
0.911376 0.407187 0.165667
0.911711 0.429465 0.168444
0.0489509 0.0964981 0.0782177
0.0551461 0.0946059 0.075639
0.0616312 0.0926833 0.0737621
0.0670176 0.0930495 0.0747997
0.0760662 0.096437 0.0767681
0.0904555 0.095491 0.0727398
0.108324 0.0938277 0.0696727
0.127108 0.0991073 0.070573
0.147265 0.105165 0.0697795
0.168414 0.110842 0.0671397
0.191531 0.115999 0.0619669
0.218601 0.121035 0.0532998
0.24921 0.12459 0.0434424
0.284855 0.128191 0.0433356
0.327764 0.134508 0.0489662
0.382528 0.142885 0.0567788
0.443534 0.150332 0.0659648
0.505196 0.157519 0.0755627
0.564767 0.164767 0.0853132
0.620569 0.172457 0.0948501
0.67158 0.180438 0.103716
0.715282 0.188617 0.11165
0.752804 0.197498 0.118715
0.784466 0.208209 0.124971
0.811749 0.221576 0.130755
0.835935 0.24416 0.136736
0.859113 0.26804 0.142779
0.882902 0.294926 0.149172
0.906462 0.323354 0.155795
0.910613 0.349691 0.159121
0.910933 0.376425 0.162051
0.911345 0.403265 0.165225
0.911681 0.425361 0.167941
0.0514382 0.108125 0.0821698
0.0574197 0.106416 0.0797742
0.0638285 0.104646 0.0780957
0.0690166 0.104692 0.0791028
0.0766766 0.107286 0.080705
0.0893111 0.110796 0.082414
0.106477 0.107179 0.0762798
0.12636 0.104768 0.0724193
0.147692 0.109926 0.071931
0.169482 0.115572 0.0694285
0.193057 0.120806 0.0640574
0.220783 0.126055 0.0551461
0.250751 0.131823 0.0456397
0.286397 0.138308 0.0446174
0.330343 0.14696 0.0505379
0.385306 0.157778 0.0586404
0.446281 0.167239 0.0679179
0.509422 0.174838 0.0777142
0.570382 0.182361 0.0877089
0.626474 0.189624 0.0971542
0.676616 0.197574 0.105852
0.719738 0.205814 0.113741
0.756329 0.214771 0.120562
0.787243 0.225162 0.126741
0.814466 0.237598 0.132494
0.839139 0.251896 0.137957
0.862989 0.268788 0.143496
0.88719 0.291218 0.149615
0.909346 0.315755 0.15555
0.910491 0.342947 0.158389
0.910842 0.370321 0.161379
0.911238 0.397757 0.164538
0.911604 0.419532 0.167224
0.0534829 0.120058 0.0862745
0.0591592 0.118456 0.0840162
0.0658732 0.116945 0.0825513
0.0710155 0.116686 0.0834058
0.0778515 0.118456 0.0848707
0.0888838 0.122728 0.0870375
0.105791 0.126131 0.0882734
0.124407 0.117601 0.0769513
0.147005 0.116365 0.0751659
0.170336 0.120928 0.0722972
0.194232 0.12604 0.0673381
0.223178 0.131441 0.0578622
0.254246 0.137407 0.0479438
0.290471 0.144594 0.0459144
0.335637 0.154681 0.0520485
0.391363 0.168658 0.0605783
0.453666 0.183124 0.0705425
0.514641 0.194614 0.080415
0.575662 0.202838 0.0903792
0.631952 0.210407 0.0998093
0.682124 0.218235 0.108522
0.72433 0.226246 0.116136
0.76054 0.235355 0.122972
0.790829 0.245151 0.128969
0.817304 0.256748 0.134524
0.841962 0.270054 0.140017
0.865705 0.286 0.14548
0.890593 0.304479 0.1514
0.910231 0.323873 0.156481
0.910506 0.342641 0.158343
0.910765 0.363363 0.160616
0.911162 0.390845 0.16376
0.911421 0.411048 0.166155
0.0550088 0.132326 0.0908827
0.0608988 0.130907 0.0886854
0.0676585 0.129381 0.0869306
0.0727703 0.129335 0.0879072
0.0790875 0.13019 0.0893263
0.0890211 0.13434 0.0911727
0.104189 0.138735 0.094377
0.125902 0.141497 0.0934005
0.146639 0.131304 0.0817578
0.169039 0.128969 0.0779889
0.195499 0.132296 0.0718395
0.225299 0.137469 0.0620432
0.257069 0.14345 0.0517433
0.294469 0.151247 0.0474556
0.341665 0.162615 0.0536202
0.40061 0.177172 0.0627298
0.464347 0.193103 0.0730755
0.526268 0.208423 0.0835279
0.583612 0.221759 0.0934615
0.637812 0.232792 0.102861
0.68748 0.241871 0.111574
0.729656 0.250019 0.119158
0.764843 0.258808 0.12578
0.794415 0.268406 0.131655
0.820798 0.279698 0.137224
0.845045 0.292958 0.142611
0.869017 0.308141 0.148074
0.893614 0.325567 0.153887
0.910506 0.343709 0.15848
0.910704 0.360983 0.160342
0.910994 0.379767 0.162448
0.911254 0.39939 0.164736
0.911437 0.410697 0.16611
0.0563821 0.144579 0.0956283
0.0623636 0.143297 0.0934615
0.0693065 0.141878 0.0917525
0.0743725 0.141878 0.0926223
0.080354 0.142245 0.0939956
0.0894331 0.145922 0.0955825
0.103059 0.150484 0.0979934
0.122042 0.155566 0.101854
0.149142 0.155703 0.0955062
0.168994 0.143847 0.0867323
0.194507 0.141314 0.0801709
0.226871 0.144305 0.0680705
0.26038 0.150011 0.0558785
0.299062 0.158892 0.0495766
0.349065 0.171237 0.0555123
0.409522 0.186175 0.0649119
0.47512 0.20235 0.0755779
0.538399 0.219181 0.0864271
0.597314 0.235386 0.0969406
0.648783 0.25008 0.106279
0.694774 0.264057 0.114961
0.734127 0.275639 0.122316
0.768795 0.284703 0.128908
0.798108 0.294286 0.134768
0.824338 0.305699 0.140352
0.8486 0.318639 0.145708
0.872633 0.333257 0.151186
0.897307 0.350057 0.157031
0.91078 0.366827 0.160983
0.911055 0.383261 0.16286
0.911269 0.400961 0.16492
0.911574 0.419074 0.167147
0.911665 0.426108 0.168048
0.0576944 0.157397 0.100649
0.0636759 0.156283 0.0986496
0.0706188 0.155154 0.0970016
0.075639 0.155138 0.0976272
0.0816358 0.155428 0.0986954
0.0899519 0.15816 0.100023
0.102144 0.163455 0.101595
0.11957 0.169467 0.10486
0.144213 0.175525 0.106508
0.17467 0.173251 0.0964675
0.194217 0.157031 0.0883955
0.226978 0.15494 0.0764935
0.263645 0.15848 0.0604868
0.303807 0.16788 0.0522469
0.355123 0.180591 0.0573739
0.418372 0.196033 0.0671855
0.486015 0.212879 0.0782635
0.551186 0.230015 0.0894942
0.610178 0.247822 0.10016
0.662257 0.264759 0.109941
0.706294 0.279683 0.118334
0.743236 0.295048 0.125811
0.77467 0.310628 0.13257
0.802304 0.323522 0.138506
0.828077 0.335592 0.144045
0.851987 0.348775 0.149462
0.876173 0.363012 0.155001
0.90132 0.379767 0.160876
0.911192 0.395392 0.164263
0.911421 0.410788 0.16614
0.911696 0.427283 0.168185
0.911986 0.442924 0.17023
0.912047 0.446067 0.170642
0.0590677 0.171695 0.106706
0.0652476 0.17084 0.104631
0.0719463 0.169787 0.102785
0.0768444 0.170123 0.103182
0.0826886 0.170642 0.103975
0.0902266 0.172412 0.105074
0.101122 0.178408 0.105821
0.116884 0.184924 0.108003
0.139162 0.192126 0.111543
0.167895 0.19942 0.112291
0.203372 0.195102 0.0969863
0.228595 0.175677 0.0852979
0.26479 0.172198 0.0693523
0.309255 0.178607 0.0572976
0.361593 0.191485 0.0594797
0.427146 0.207675 0.0697185
0.498009 0.225269 0.0813764
0.5635 0.243427 0.0927749
0.623453 0.261006 0.103624
0.675456 0.27895 0.113527
0.718547 0.297108 0.122148
0.755383 0.313359 0.129809
0.784787 0.328862 0.136217
0.810254 0.345968 0.142351
0.833631 0.362875 0.148058
0.856352 0.380728 0.153811
0.880507 0.397757 0.159731
0.904891 0.415793 0.165713
0.911788 0.430716 0.168627
0.912016 0.445289 0.17055
0.912306 0.459968 0.172503
0.91249 0.473289 0.174334
0.91252 0.472923 0.174334
0.0606394 0.186786 0.113481
0.0668345 0.18584 0.111284
0.0733654 0.184894 0.109102
0.0778515 0.185458 0.109361
0.0835737 0.186404 0.109834
0.0906691 0.188174 0.110445
0.100313 0.193515 0.110948
0.113863 0.200732 0.111162
0.134981 0.208835 0.113695
0.161181 0.218082 0.116442
0.195926 0.227085 0.115068
0.237858 0.21593 0.0945907
0.266163 0.1935 0.0800183
0.311147 0.194171 0.0666361
0.367285 0.203983 0.0626535
0.435782 0.220417 0.0724193
0.507362 0.238575 0.0842451
0.57467 0.256947 0.0959945
0.635233 0.275654 0.107057
0.686748 0.294148 0.11696
0.730495 0.312413 0.12575
0.764935 0.331258 0.133349
0.794263 0.349264 0.140139
0.819471 0.366033 0.146181
0.842435 0.383963 0.151995
0.864744 0.403891 0.157992
0.887083 0.424765 0.164111
0.909712 0.445243 0.170184
0.912322 0.463004 0.172946
0.912642 0.480415 0.175341
0.912963 0.496635 0.177676
0.91313 0.505821 0.179034
0.913146 0.505104 0.178943
0.0623789 0.203113 0.120806
0.0683146 0.202457 0.118608
0.0746014 0.201801 0.116426
0.0789502 0.202548 0.116411
0.0843061 0.203662 0.116411
0.0907454 0.205432 0.116381
0.0990768 0.210544 0.115923
0.109957 0.219318 0.114031
0.129351 0.228824 0.114473
0.154589 0.238605 0.11667
0.187228 0.24979 0.119631
0.232975 0.258762 0.115663
0.282368 0.243076 0.0898146
0.313283 0.217227 0.0785077
0.37023 0.222187 0.0692607
0.443153 0.234821 0.0751965
0.516609 0.253162 0.0873121
0.584863 0.272419 0.0992752
0.646693 0.291783 0.110674
0.697688 0.310796 0.120516
0.740246 0.329931 0.129335
0.774701 0.348455 0.136934
0.802976 0.367163 0.143664
0.828382 0.387045 0.150134
0.851087 0.408103 0.156344
0.873915 0.427115 0.162417
0.897078 0.447395 0.168582
0.912398 0.468574 0.173709
0.91281 0.489143 0.176638
0.913222 0.509255 0.179522
0.913603 0.527062 0.182208
0.913771 0.534905 0.183429
0.913787 0.537545 0.18381
0.0610513 0.22501 0.127291
0.0666819 0.224994 0.12491
0.0725567 0.224704 0.122591
0.0767071 0.225467 0.122026
0.0818189 0.226673 0.121691
0.0881056 0.228748 0.121218
0.0960555 0.232975 0.120134
0.105943 0.241947 0.117708
0.122271 0.25243 0.11519
0.148028 0.262745 0.117494
0.180392 0.27454 0.12108
0.224704 0.289448 0.128054
0.276661 0.29749 0.125612
0.330556 0.273732 0.0975357
0.372885 0.248615 0.079408
0.446616 0.256565 0.0785992
0.52607 0.270985 0.0909438
0.595956 0.290532 0.10312
0.656641 0.310292 0.114397
0.7075 0.330068 0.124346
0.749584 0.349416 0.133165
0.783398 0.368444 0.140749
0.811658 0.388174 0.147677
0.835935 0.408133 0.154009
0.8598 0.428687 0.160433
0.882856 0.450584 0.166812
0.906889 0.47303 0.17348
0.912917 0.493019 0.177157
0.913268 0.512139 0.179965
0.913695 0.531807 0.182986
0.914107 0.549767 0.185748
0.914137 0.553231 0.186343
0.914229 0.555627 0.186679
0.0595102 0.252918 0.135363
0.0646677 0.253071 0.132876
0.0704356 0.253178 0.130114
0.0743725 0.2542 0.129473
0.0793622 0.255756 0.128664
0.0856031 0.258228 0.127855
0.0934005 0.261418 0.126299
0.103304 0.269917 0.123812
0.118578 0.281453 0.120348
0.143954 0.293294 0.122438
0.176761 0.30634 0.12781
0.219547 0.322545 0.135317
0.271733 0.339773 0.144015
0.330846 0.348898 0.141802
0.394018 0.320424 0.105501
0.450004 0.289097 0.0847791
0.531975 0.299306 0.0955825
0.6065 0.313222 0.107591
0.667384 0.332692 0.118822
0.717968 0.35256 0.128801
0.759075 0.372808 0.137545
0.791363 0.392584 0.145068
0.818814 0.412055 0.151888
0.843778 0.432059 0.158358
0.867842 0.452537 0.164858
0.891783 0.474357 0.171405
0.91284 0.497093 0.177737
0.913375 0.517296 0.180758
0.913802 0.538186 0.183917
0.91426 0.557565 0.187015
0.91458 0.571542 0.189258
0.914656 0.573938 0.189609
0.914717 0.576699 0.190082
0.0620737 0.284398 0.145281
0.0667277 0.284825 0.142763
0.0720836 0.285252 0.140124
0.0762036 0.286763 0.139361
0.0813306 0.288701 0.138567
0.0879072 0.291295 0.137392
0.0959487 0.294347 0.135668
0.106188 0.301366 0.13373
0.120974 0.314488 0.130831
0.143908 0.328008 0.131136
0.175998 0.341939 0.136461
0.217273 0.358938 0.143435
0.267384 0.377966 0.15198
0.330831 0.397986 0.161471
0.398749 0.404517 0.155032
0.470283 0.361776 0.104982
0.535393 0.335119 0.101274
0.611399 0.345968 0.112856
0.676097 0.358999 0.123598
0.727062 0.377157 0.133425
0.767269 0.397147 0.142046
0.798749 0.416846 0.149462
0.826291 0.436774 0.156374
0.851148 0.457267 0.163027
0.874678 0.478233 0.169482
0.899565 0.49926 0.17612
0.913451 0.5196 0.181064
0.913863 0.538796 0.184039
0.914305 0.558785 0.187213
0.914794 0.579934 0.190631
0.915007 0.589456 0.192157
0.915068 0.591684 0.192523
0.915084 0.593072 0.192752
0.0690623 0.320104 0.156939
0.0734722 0.320592 0.154574
0.0785382 0.321782 0.1523
0.0827497 0.323262 0.151278
0.087953 0.325307 0.150408
0.0944533 0.328176 0.149203
0.102525 0.331548 0.147555
0.112367 0.33695 0.145388
0.126146 0.350149 0.142657
0.146532 0.365255 0.141207
0.177981 0.38024 0.145495
0.218051 0.397955 0.152239
0.266438 0.417716 0.16051
0.327474 0.439353 0.169955
0.400732 0.459312 0.179568
0.480781 0.462028 0.165743
0.549477 0.40293 0.114046
0.61622 0.384192 0.119158
0.680735 0.394736 0.129381
0.732967 0.406729 0.13843
0.774273 0.42211 0.146593
0.805554 0.441581 0.153948
0.832578 0.461387 0.16083
0.857008 0.48159 0.16733
0.882292 0.502403 0.174075
0.906676 0.522896 0.180636
0.913893 0.541314 0.184405
0.914305 0.560662 0.187488
0.914794 0.579889 0.190631
0.915221 0.598016 0.193591
0.915373 0.604868 0.194766
0.91548 0.606806 0.195102
0.91548 0.608667 0.195453
0.0769513 0.358679 0.168994
0.0812085 0.359564 0.166674
0.0862287 0.36083 0.164477
0.0903182 0.362341 0.163424
0.0953994 0.364477 0.162463
0.102068 0.367758 0.161059
0.110079 0.371435 0.159289
0.119371 0.375769 0.157046
0.132799 0.387839 0.15407
0.150866 0.403769 0.151064
0.181521 0.420066 0.154757
0.221714 0.438605 0.161395
0.268696 0.458366 0.169299
0.327108 0.480018 0.178393
0.401358 0.503517 0.188678
0.48365 0.521172 0.197696
0.563622 0.51014 0.162707
0.622446 0.446204 0.130129
0.6851 0.433295 0.135897
0.737179 0.443259 0.144427
0.778622 0.454459 0.151904
0.811429 0.467002 0.158511
0.838834 0.486275 0.165393
0.862989 0.505318 0.171771
0.888197 0.525597 0.178439
0.913008 0.546044 0.185046
0.914412 0.563622 0.188006
0.914809 0.581064 0.190799
0.915221 0.598672 0.193698
0.915694 0.615747 0.196628
0.915785 0.620325 0.197391
0.915892 0.622522 0.197787
0.915892 0.624277 0.198093
0.085359 0.398856 0.180682
0.0894942 0.399924 0.1785
0.0941482 0.401251 0.176242
0.0982071 0.402991 0.17525
0.103532 0.405722 0.174258
0.110124 0.409003 0.172763
0.118227 0.412802 0.170779
0.12755 0.417227 0.1682
0.140078 0.426917 0.165103
0.157473 0.444205 0.161074
0.18677 0.460288 0.16405
0.226871 0.479225 0.170428
0.273259 0.499321 0.178164
0.329778 0.521096 0.18703
0.40119 0.54435 0.19707
0.490608 0.569162 0.208347
0.563684 0.578088 0.214267
0.638758 0.553613 0.165164
0.687755 0.491493 0.145922
0.741787 0.48217 0.151217
0.782345 0.490791 0.158022
0.814939 0.500954 0.164202
0.842618 0.512352 0.169894
0.868666 0.528572 0.176104
0.8934 0.548486 0.18265
0.914504 0.567651 0.188586
0.914916 0.583963 0.191226
0.915328 0.60029 0.194034
0.91574 0.617929 0.196994
0.916197 0.634485 0.199863
0.916213 0.636439 0.200214
0.916304 0.637705 0.200412
0.916304 0.638941 0.200595
0.0939956 0.439628 0.191928
0.0978561 0.440894 0.189868
0.102235 0.442557 0.187915
0.106554 0.444968 0.186969
0.111879 0.447333 0.185657
0.118639 0.450675 0.183978
0.126604 0.454566 0.181796
0.136263 0.459342 0.179004
0.148409 0.467216 0.175265
0.164492 0.483024 0.170657
0.193484 0.500237 0.173098
0.233448 0.519112 0.179446
0.278874 0.538598 0.186587
0.334783 0.560479 0.195315
0.403159 0.583352 0.205127
0.489525 0.608194 0.216373
0.574441 0.62594 0.225757
0.637507 0.630381 0.226947
0.700877 0.589487 0.167605
0.741375 0.536355 0.160281
0.786023 0.528389 0.164691
0.817456 0.536065 0.170199
0.845838 0.545541 0.175662
0.872709 0.556329 0.181079
0.898833 0.570657 0.186999
0.914931 0.587793 0.191867
0.915343 0.603784 0.194614
0.915831 0.620478 0.197452
0.916182 0.636149 0.200122
0.916609 0.649958 0.202609
0.916625 0.651225 0.202853
0.916716 0.652628 0.203067
0.916716 0.65388 0.203357
0.102831 0.480568 0.202518
0.106538 0.482322 0.200656
0.110475 0.48394 0.198962
0.114794 0.486076 0.197879
0.120455 0.489021 0.19649
0.127275 0.492561 0.194614
0.135637 0.496834 0.192264
0.145251 0.501457 0.189349
0.157122 0.507942 0.185214
0.172747 0.522347 0.180285
0.20061 0.539239 0.181857
0.24097 0.55845 0.188159
0.286015 0.577035 0.194873
0.340902 0.598337 0.203403
0.406744 0.620218 0.212772
0.489357 0.6439 0.223804
0.579751 0.666773 0.235065
0.644816 0.674617 0.241093
0.700648 0.675959 0.231632
0.750103 0.626947 0.178668
0.783337 0.579904 0.173251
0.820539 0.573007 0.176837
0.848951 0.57966 0.181689
0.875502 0.588388 0.18677
0.902327 0.598245 0.191959
0.91545 0.608011 0.195315
0.915862 0.623697 0.197971
0.916274 0.638132 0.200473
0.916701 0.654093 0.203357
0.917037 0.665309 0.205371
0.917113 0.666804 0.205631
0.917128 0.667994 0.205859
0.917128 0.669154 0.206073
0.112856 0.521935 0.212329
0.115145 0.522866 0.210819
0.118715 0.524697 0.20943
0.123033 0.527245 0.208377
0.128954 0.530388 0.206867
0.136095 0.533959 0.204776
0.144503 0.537972 0.202167
0.154208 0.542763 0.198795
0.16582 0.548241 0.194614
0.180957 0.560922 0.189517
0.209583 0.577661 0.190616
0.249149 0.596109 0.196567
0.29398 0.614298 0.203037
0.346822 0.634058 0.211017
0.410788 0.65507 0.220157
0.490227 0.678141 0.231052
0.575143 0.698985 0.241962
0.651637 0.71426 0.251164
0.702953 0.717845 0.255818
0.746853 0.712489 0.234546
0.788052 0.664668 0.18999
0.815976 0.622492 0.185
0.85037 0.615366 0.188098
0.878096 0.621103 0.192645
0.905562 0.628351 0.197482
0.916182 0.63537 0.200031
0.916396 0.642634 0.201297
0.916777 0.656458 0.203738
0.91722 0.672312 0.206607
0.917449 0.680568 0.208118
0.91754 0.6822 0.208438
0.91754 0.683253 0.208652
0.917571 0.684398 0.20885
0.123171 0.562646 0.221195
0.124147 0.563226 0.220371
0.127016 0.564721 0.219303
0.131472 0.567758 0.218372
0.13753 0.570993 0.216663
0.144961 0.574731 0.214343
0.153445 0.578683 0.21149
0.163378 0.583398 0.208072
0.175189 0.588922 0.203403
0.189822 0.599008 0.197772
0.217594 0.614893 0.198871
0.25655 0.631785 0.204425
0.301183 0.64976 0.210849
0.353216 0.66862 0.218463
0.415274 0.688319 0.227375
0.491554 0.709361 0.237812
0.572427 0.728756 0.248722
0.650034 0.745953 0.259312
0.709499 0.754833 0.266743
0.750988 0.756924 0.271275
0.783123 0.745159 0.237613
0.817792 0.701427 0.200092
0.844068 0.66305 0.19585
0.879088 0.656016 0.198932
0.907759 0.659937 0.203235
0.917006 0.664225 0.205158
0.917113 0.668894 0.206043
0.917311 0.67509 0.207141
0.917723 0.689189 0.20972
0.917906 0.695415 0.210864
0.917967 0.696971 0.211139
0.918013 0.698497 0.211429
0.918059 0.699687 0.211627
0.13373 0.602762 0.229587
0.133883 0.603357 0.229206
0.135576 0.604761 0.228855
0.139773 0.607416 0.227893
0.146059 0.61091 0.226169
0.153841 0.614862 0.223651
0.162631 0.619196 0.220569
0.172625 0.623667 0.216831
0.184573 0.628809 0.211826
0.19881 0.636713 0.205798
0.226123 0.650324 0.206821
0.265171 0.667231 0.212406
0.309255 0.684276 0.218692
0.359747 0.701076 0.225696
0.419867 0.719875 0.234424
0.493584 0.738979 0.244709
0.571496 0.75697 0.255711
0.645762 0.772763 0.266606
0.711681 0.78555 0.276936
0.755169 0.789425 0.282887
0.789441 0.79118 0.288182
0.81181 0.775753 0.247669
0.843061 0.737209 0.21004
0.870344 0.701671 0.20621
0.9066 0.694301 0.209277
0.917861 0.693767 0.210559
0.917937 0.696345 0.211032
0.918059 0.700496 0.21178
0.918318 0.708049 0.213169
0.918364 0.710323 0.213611
0.91841 0.712032 0.213901
0.918471 0.713542 0.214221
0.918486 0.714839 0.21445
0.144259 0.642603 0.23772
0.14432 0.642741 0.237247
0.14464 0.643687 0.237522
0.148058 0.646204 0.237064
0.154467 0.649912 0.235248
0.162707 0.654398 0.232547
0.171954 0.658732 0.229206
0.182071 0.662959 0.225132
0.19411 0.667796 0.219837
0.207767 0.673655 0.213519
0.235721 0.686046 0.214969
0.274189 0.701122 0.220279
0.317708 0.716793 0.226307
0.367498 0.732662 0.233143
0.425361 0.749233 0.241505
0.496544 0.766995 0.251957
0.571267 0.783276 0.263096
0.641733 0.79704 0.27422
0.705013 0.808759 0.284977
0.757748 0.818051 0.295094
0.791653 0.820111 0.300801
0.820142 0.821408 0.306676
0.838819 0.806729 0.268772
0.86508 0.770336 0.219303
0.895933 0.736767 0.215824
0.918929 0.728313 0.217014
0.918807 0.724712 0.216281
0.918883 0.726589 0.216632
0.919066 0.732265 0.217777
0.918959 0.728466 0.216983
0.918883 0.727092 0.216739
0.918959 0.728649 0.21706
0.91899 0.729778 0.217243
0.154467 0.681102 0.245502
0.154635 0.681804 0.245121
0.154925 0.682643 0.245533
0.156893 0.68484 0.245975
0.163256 0.688655 0.244236
0.171817 0.692988 0.241199
0.181277 0.697215 0.237537
0.191684 0.701442 0.233188
0.204303 0.706416 0.227481
0.218509 0.711147 0.221424
0.245274 0.71957 0.223041
0.283574 0.733944 0.228275
0.325856 0.748074 0.234119
0.375128 0.763043 0.241184
0.430961 0.777157 0.249119
0.499672 0.79292 0.259648
0.570764 0.80734 0.271
0.638071 0.819837 0.282414
0.698741 0.831189 0.293736
0.751598 0.841077 0.305119
0.792996 0.848066 0.315145
0.820645 0.849149 0.320943
0.846418 0.84979 0.327031
0.864149 0.835966 0.293767
