public/LUTS/Cinematic/Cinematic_15.cube
TITLE "Generated by Resolve"
LUT_3D_SIZE 5
0.054902 0.0431067 0.0431067
0.124636 0.0573434 0.0573434
0.230793 0.0890974 0.0855726
0.368093 0.132921 0.125109
0.529397 0.188205 0.172503
0.0638437 0.102937 0.0560159
0.138338 0.119341 0.0730297
0.307317 0.191455 0.128817
0.507378 0.274113 0.194263
0.623224 0.333898 0.246738
0.0856794 0.184421 0.0778058
0.20502 0.257496 0.130114
0.367895 0.328618 0.18439
0.58909 0.455207 0.280903
0.711147 0.551492 0.350347
0.146197 0.326986 0.136126
0.309819 0.473335 0.222202
0.495048 0.560876 0.295537
0.645975 0.611521 0.349279
0.755917 0.685435 0.403952
0.290196 0.623499 0.270604
0.429694 0.68864 0.32369
0.591775 0.726436 0.37145
0.699062 0.733303 0.402289
0.764706 0.745098 0.423499
0.0666972 0.0575418 0.109728
0.119936 0.0595407 0.100832
0.215396 0.0854505 0.121828
0.331167 0.117876 0.153689
0.468956 0.156893 0.189136
0.0673381 0.109438 0.109255
0.183429 0.164141 0.149737
0.389181 0.209491 0.178515
0.570413 0.265309 0.22945
0.677775 0.32314 0.277424
0.102358 0.220462 0.143526
0.2038 0.351019 0.197314
0.485298 0.444312 0.274556
0.677577 0.522805 0.341466
0.765988 0.603403 0.41503
0.179583 0.414145 0.222034
0.33666 0.609094 0.294102
0.585168 0.676295 0.405295
0.732174 0.705715 0.452537
0.803845 0.751431 0.519326
0.282628 0.653895 0.317693
0.45861 0.747112 0.371313
0.651331 0.76817 0.452247
0.759747 0.787167 0.509239
0.807355 0.79556 0.528511
0.0842756 0.078172 0.19939
0.16492 0.0965133 0.218814
0.255604 0.102724 0.197894
0.384817 0.134051 0.223438
0.487526 0.1608 0.247608
0.0930495 0.137377 0.20621
0.171756 0.185672 0.289189
0.354894 0.189502 0.273472
0.516808 0.219318 0.275731
0.644312 0.268788 0.316884
0.132067 0.270741 0.261006
0.178408 0.32871 0.305486
0.498817 0.526833 0.48365
0.675486 0.54548 0.485801
0.753964 0.61738 0.557671
0.216678 0.486717 0.357763
0.272526 0.566018 0.386328
0.580606 0.71429 0.588266
0.73785 0.736309 0.630289
0.806577 0.773129 0.681666
0.278401 0.628992 0.405188
0.3673 0.730831 0.462776
0.707698 0.799161 0.659266
0.779217 0.812634 0.693568
0.815702 0.816129 0.701305
0.110124 0.106218 0.303853
0.196902 0.131579 0.346731
0.286229 0.136538 0.33312
0.417838 0.14902 0.305058
0.502007 0.168597 0.323537
0.125246 0.180224 0.325795
0.18555 0.203433 0.423163
0.361273 0.235325 0.459388
0.504372 0.240345 0.391928
0.602777 0.270649 0.407874
0.171328 0.331792 0.397894
0.219486 0.361517 0.443778
0.406485 0.485145 0.574395
0.6421 0.516747 0.592813
0.730114 0.572366 0.629328
0.226215 0.485191 0.447868
0.280186 0.530129 0.485924
0.410346 0.642206 0.585992
0.762814 0.774563 0.75491
0.811276 0.797574 0.780636
0.305882 0.643107 0.528145
0.361852 0.701045 0.578607
0.603479 0.787152 0.705486
0.800793 0.828855 0.792554
0.829084 0.8336 0.797848
0.141207 0.137301 0.423499
0.231388 0.161181 0.466697
0.297597 0.156893 0.435859
0.409674 0.1608 0.396124
0.494102 0.176501 0.388205
0.153689 0.217365 0.445853
0.213397 0.230182 0.547005
0.368963 0.258488 0.56936
0.544503 0.295628 0.545617
0.581308 0.283207 0.498833
0.199268 0.357076 0.509071
0.249454 0.379675 0.550256
0.439429 0.505959 0.678294
0.67013 0.566186 0.69723
0.727565 0.564858 0.695109
0.256062 0.509316 0.558053
0.314061 0.554086 0.59646
0.420737 0.639796 0.677241
0.76202 0.777829 0.790677
0.805875 0.789578 0.801968
0.317601 0.635294 0.603906
0.368841 0.679698 0.644404
0.495949 0.754986 0.721523
0.77673 0.822141 0.811917
0.838575 0.842756 0.834943
