public/LUTS/Cinematic/Cinematic_02.cube
TITLE "Generated by Resolve"
LUT_3D_SIZE 9
0.00836194 0.0372778 0.0542916
0.149157 0.0330816 0.0500954
0.289952 0.0288853 0.0458991
0.430762 0.0246891 0.0416876
0.571557 0.0204776 0.0374914
0.712367 0.0162814 0.0332952
0.853162 0.0120851 0.029099
0.993973 0.00787366 0.0248875
1 0.00367742 0.0206912
0 0.168276 0.0402991
0.135149 0.164065 0.0360876
0.275959 0.159869 0.0318914
0.416754 0.155673 0.0276951
0.557565 0.151461 0.0234989
0.69836 0.147265 0.0192874
0.83917 0.143069 0.0150912
0.979965 0.138872 0.0108949
1 0.134661 0.00669871
0 0.299275 0.0262913
0.121157 0.295079 0.0220951
0.261952 0.290867 0.0178988
0.402762 0.286671 0.0136873
0.543557 0.282475 0.00949111
0.684367 0.278264 0.00529488
0.825162 0.274067 0.00109865
0.965972 0.269871 0
1 0.26566 0
0 0.430274 0.0122988
0.107149 0.426078 0.00808728
0.247959 0.421866 0.00389105
0.388754 0.41767 0
0.529564 0.413474 0
0.670359 0.409277 0
0.81117 0.405066 0
0.951965 0.40087 0
1 0.396674 0
0 0.561273 0
0.0931563 0.557076 0
0.233951 0.55288 0
0.374762 0.548669 0
0.515557 0.544472 0
0.656367 0.540276 0
0.797162 0.536065 0
0.937972 0.531868 0
1 0.527672 0
0 0.692271 0
0.0791485 0.688075 0
0.219959 0.683879 0
0.360754 0.679683 0
0.501564 0.675471 0
0.642359 0.671275 0
0.783169 0.667079 0
0.923964 0.662867 0
1 0.658671 0
0 0.823285 0
0.065156 0.819074 0
0.205951 0.814878 0
0.346761 0.810681 0
0.487556 0.806485 0
0.628367 0.802274 0
0.769162 0.798077 0
0.909972 0.793881 0
1 0.78967 0
0 0.954284 0
0.0511482 0.950088 0
0.191959 0.945876 0
0.332753 0.94168 0
0.473564 0.937484 0
0.614359 0.933272 0
0.755169 0.929076 0
0.895964 0.92488 0
1 0.920684 0
0 1 0
0.0371557 1 0
0.177951 1 0
0.318761 1 0
0.459556 1 0
0.600366 1 0
0.741161 1 0
0.881971 1 0
1 1 0
0.00656138 0.0354772 0.197482
0.147356 0.031281 0.193271
0.288151 0.0270848 0.189075
0.428962 0.0228885 0.184878
0.569757 0.018677 0.180682
0.710567 0.0144808 0.176471
0.851362 0.0102846 0.172274
0.992172 0.00607309 0.168078
1 0.00187686 0.163882
0 0.166476 0.183474
0.133349 0.162264 0.179278
0.274159 0.158068 0.175082
0.414954 0.153872 0.170886
0.555764 0.149676 0.166674
0.696559 0.145464 0.162478
0.837369 0.141268 0.158282
0.978164 0.137072 0.15407
1 0.13286 0.149874
0 0.297475 0.169482
0.119356 0.293278 0.165286
0.260151 0.289067 0.161074
0.400961 0.284871 0.156878
0.541756 0.280674 0.152682
0.682567 0.276463 0.14847
0.823362 0.272267 0.144274
0.964172 0.26807 0.140078
1 0.263874 0.135882
0 0.428473 0.155474
0.105348 0.424277 0.151278
0.246159 0.420081 0.147082
0.386954 0.415869 0.14287
0.527764 0.411673 0.138674
0.668559 0.407477 0.134478
0.809369 0.403265 0.130282
0.950164 0.399069 0.12607
1 0.394873 0.121874
0 0.559472 0.141482
0.0913558 0.555276 0.13727
0.232151 0.55108 0.133074
0.372961 0.546868 0.128878
0.513756 0.542672 0.124681
0.654566 0.538476 0.12047
0.795361 0.534279 0.116274
0.936172 0.530068 0.112078
1 0.525872 0.107881
0 0.690486 0.127474
0.077348 0.686275 0.123278
0.218158 0.682078 0.119081
0.358953 0.677882 0.11487
0.499763 0.673671 0.110674
0.640558 0.669474 0.106477
0.781369 0.665278 0.102281
0.922164 0.661082 0.0980697
1 0.65687 0.0938735
0 0.821485 0.113481
0.0633555 0.817273 0.10927
0.20415 0.813077 0.105074
0.344961 0.808881 0.100877
0.485756 0.804685 0.0966812
0.626566 0.800473 0.0924697
0.767361 0.796277 0.0882734
0.908171 0.792081 0.0840772
1 0.787869 0.079881
0 0.952483 0.0994736
0.0493477 0.948287 0.0952773
0.190158 0.944076 0.0910811
0.330953 0.939879 0.0868696
0.471763 0.935683 0.0826734
0.612558 0.931487 0.0784772
0.753368 0.927275 0.0742809
0.894163 0.923079 0.0700694
1 0.918883 0.0658732
0 1 0.085481
0.0353552 1 0.0812695
0.17615 1 0.0770733
0.31696 1 0.0728771
0.457755 1 0.0686809
0.598566 1 0.0644694
0.739361 1 0.0602731
0.880171 1 0.0560769
1 1 0.0518807
0.00477607 0.0336919 0.340673
0.145556 0.0294804 0.336477
0.286351 0.0252842 0.33228
0.427161 0.021088 0.328084
0.567956 0.0168765 0.323873
0.708766 0.0126802 0.319677
0.849561 0.00848402 0.31548
0.990372 0.00428779 0.311284
1 7.62951e-05 0.307073
0 0.164675 0.32668
0.131548 0.160464 0.322484
0.272358 0.156268 0.318288
0.413153 0.152071 0.314076
0.553964 0.147875 0.30988
0.694759 0.143664 0.305684
0.835569 0.139467 0.301488
0.976364 0.135271 0.297276
1 0.13106 0.29308
0 0.295674 0.312688
0.117556 0.291478 0.308476
0.25835 0.287266 0.30428
0.399161 0.28307 0.300084
0.539956 0.278874 0.295888
0.680766 0.274678 0.291676
0.821561 0.270466 0.28748
0.962371 0.26627 0.283284
1 0.262074 0.279072
0 0.426673 0.29868
0.103548 0.422477 0.294484
0.244358 0.41828 0.290288
0.385153 0.414069 0.286076
0.525963 0.409873 0.28188
0.666758 0.405676 0.277684
0.807568 0.401465 0.273472
0.948363 0.397269 0.269276
1 0.393072 0.26508
0 0.557671 0.284672
0.0895552 0.553475 0.280476
0.23035 0.549279 0.27628
0.37116 0.545083 0.272084
0.511955 0.540871 0.267872
0.652766 0.536675 0.263676
0.793561 0.532479 0.25948
0.934371 0.528267 0.255283
1 0.524071 0.251072
0 0.688685 0.27068
0.0755474 0.684474 0.266484
0.216358 0.680278 0.262272
0.357153 0.676081 0.258076
0.497963 0.67187 0.25388
0.638758 0.667674 0.249683
0.779568 0.663478 0.245472
0.920363 0.659281 0.241276
1 0.65507 0.237079
0 0.819684 0.256672
0.0615549 0.815488 0.252476
0.20235 0.811276 0.24828
0.34316 0.80708 0.244083
0.483955 0.802884 0.239872
0.624765 0.798672 0.235676
0.76556 0.794476 0.231479
0.906371 0.79028 0.227283
1 0.786084 0.223072
0 0.950683 0.242679
0.0475471 0.946487 0.238483
0.188357 0.942275 0.234272
0.329152 0.938079 0.230076
0.469963 0.933883 0.225879
0.610758 0.929686 0.221683
0.751568 0.925475 0.217472
0.892363 0.921279 0.213275
1 0.917082 0.209079
0 1 0.228672
0.0335546 1 0.224475
0.17435 1 0.220279
0.31516 1 0.216083
0.455955 1 0.211872
0.596765 1 0.207675
0.73756 1 0.203479
0.87837 1 0.199283
1 1 0.195071
0.00297551 0.0318914 0.483879
0.143755 0.0276799 0.479683
0.28455 0.0234836 0.475486
0.425361 0.0192874 0.47129
0.566155 0.0150759 0.467079
0.706966 0.0108797 0.462882
0.847761 0.00668345 0.458686
0.988571 0.00248722 0.454475
1 0 0.450278
0 0.162875 0.469886
0.129747 0.158679 0.46569
0.270558 0.154467 0.461479
0.411353 0.150271 0.457282
0.552163 0.146075 0.453086
0.692958 0.141863 0.44889
0.833768 0.137667 0.444678
0.974563 0.133471 0.440482
1 0.129259 0.436286
0 0.293873 0.455879
0.115755 0.289677 0.451682
0.25655 0.285466 0.447486
0.39736 0.28127 0.44329
0.538155 0.277073 0.439078
0.678965 0.272877 0.434882
0.81976 0.268666 0.430686
0.960571 0.264469 0.42649
1 0.260273 0.422278
0 0.424872 0.441886
0.101747 0.420676 0.43769
0.242557 0.41648 0.433478
0.383352 0.412268 0.429282
0.524163 0.408072 0.425086
0.664958 0.403876 0.42089
0.805768 0.399664 0.416678
0.946563 0.395468 0.412482
1 0.391272 0.408286
0 0.555871 0.427878
0.0877546 0.551675 0.423682
0.22855 0.547478 0.419486
0.36936 0.543282 0.41529
0.510155 0.539071 0.411078
0.650965 0.534874 0.406882
0.79176 0.530678 0.402686
0.93257 0.526467 0.398474
1 0.522271 0.394278
0 0.686885 0.413886
0.0737469 0.682673 0.409689
0.214557 0.678477 0.405478
0.355352 0.674281 0.401282
0.496162 0.670085 0.397086
0.636957 0.665873 0.392874
0.777768 0.661677 0.388678
0.918563 0.657481 0.384482
1 0.653269 0.380285
0 0.817884 0.399878
0.0597543 0.813687 0.395682
0.200549 0.809476 0.391485
0.34136 0.80528 0.387274
0.482155 0.801083 0.383078
0.622965 0.796872 0.378882
0.76376 0.792676 0.374685
0.90457 0.788479 0.370474
1 0.784283 0.366278
0 0.948882 0.385885
0.0457465 0.944686 0.381674
0.186557 0.94049 0.377478
0.327352 0.936278 0.373281
0.468162 0.932082 0.369085
0.608957 0.927886 0.364874
0.749767 0.923674 0.360678
0.890562 0.919478 0.356481
1 0.915282 0.352285
0 1 0.371878
0.031754 1 0.367681
0.172549 1 0.363485
0.313359 1 0.359274
0.454154 1 0.355077
0.594965 1 0.350881
0.735759 1 0.346685
0.87657 1 0.342473
1 1 0.338277
0.00117494 0.0300908 0.627085
0.141955 0.0258793 0.622889
0.28275 0.0216831 0.618692
0.42356 0.0174868 0.614481
0.564355 0.0132906 0.610285
0.705165 0.00907912 0.606088
0.84596 0.00488289 0.601892
0.98677 0.000686656 0.597681
1 0 0.593484
0 0.161074 0.613092
0.127962 0.156878 0.608881
0.268757 0.152667 0.604685
0.409552 0.14847 0.600488
0.550362 0.144274 0.596292
0.691157 0.140063 0.592081
0.831968 0.135866 0.587884
0.972763 0.13167 0.583688
1 0.127474 0.579492
0 0.292073 0.599084
0.113954 0.287877 0.594888
0.254749 0.28368 0.590692
0.39556 0.279469 0.58648
0.536355 0.275273 0.582284
0.677165 0.271077 0.578088
0.81796 0.266865 0.573892
0.95877 0.262669 0.56968
1 0.258473 0.565484
0 0.423072 0.585092
0.0999619 0.418875 0.58088
0.240757 0.414679 0.576684
0.381552 0.410468 0.572488
0.522362 0.406271 0.568292
0.663157 0.402075 0.56408
0.803967 0.397879 0.559884
0.944762 0.393668 0.555688
1 0.389471 0.551492
0 0.554086 0.571084
0.0859541 0.549874 0.566888
0.226749 0.545678 0.562692
0.367559 0.541482 0.55848
0.508354 0.53727 0.554284
0.649165 0.533074 0.550088
0.78996 0.528878 0.545892
0.93077 0.524666 0.54168
1 0.52047 0.537484
0 0.685084 0.557092
0.0719615 0.680873 0.55288
0.212757 0.676677 0.548684
0.353552 0.67248 0.544488
0.494362 0.668284 0.540291
0.635157 0.664073 0.53608
0.775967 0.659876 0.531884
0.916762 0.65568 0.527687
1 0.651469 0.523476
0 0.816083 0.543084
0.0579538 0.811887 0.538888
0.198749 0.807675 0.534691
0.339559 0.803479 0.53048
0.480354 0.799283 0.526284
0.621164 0.795087 0.522087
0.761959 0.790875 0.517876
0.90277 0.786679 0.51368
1 0.782483 0.509483
0 0.947082 0.529076
0.043946 0.942885 0.52488
0.184756 0.938689 0.520684
0.325551 0.934478 0.516487
0.466361 0.930282 0.512276
0.607156 0.926085 0.50808
0.747967 0.921874 0.503883
0.888762 0.917678 0.499687
1 0.913481 0.495476
0 1 0.515084
0.0299535 1 0.510887
0.170748 1 0.506676
0.311559 1 0.50248
0.452354 1 0.498283
0.593164 1 0.494087
0.733959 1 0.489876
0.874769 1 0.485679
1 1 0.481483
0 0.0282902 0.770291
0.140154 0.0240787 0.766094
0.280949 0.0198825 0.761883
0.421759 0.0156863 0.757687
0.562554 0.01149 0.753491
0.703365 0.00727855 0.749294
0.84416 0.00308232 0.745083
0.98497 0 0.740887
1 0 0.73669
0 0.159274 0.756283
0.126162 0.155077 0.752087
0.266957 0.150866 0.74789
0.407752 0.14667 0.743694
0.548562 0.142473 0.739483
0.689357 0.138262 0.735286
0.830167 0.134066 0.73109
0.970962 0.12987 0.726894
1 0.125673 0.722683
0 0.290272 0.74229
0.112154 0.286076 0.738094
0.252964 0.28188 0.733883
0.393759 0.277668 0.729686
0.534554 0.273472 0.72549
0.675364 0.269276 0.721294
0.816159 0.265064 0.717083
0.95697 0.260868 0.712886
1 0.256672 0.70869
0 0.421271 0.728283
0.0981613 0.417075 0.724086
0.238956 0.412879 0.71989
0.379751 0.408682 0.715694
0.520562 0.404471 0.711482
0.661357 0.400275 0.707286
0.802167 0.396078 0.70309
0.942962 0.391867 0.698894
1 0.387671 0.694682
0 0.552285 0.71429
0.0841535 0.548074 0.710094
0.224964 0.543877 0.705882
0.365759 0.539681 0.701686
0.506554 0.53547 0.69749
0.647364 0.531273 0.693294
0.788159 0.527077 0.689082
0.928969 0.522881 0.684886
1 0.518669 0.68069
0 0.683284 0.700282
0.070161 0.679088 0.696086
0.210956 0.674876 0.69189
0.351751 0.67068 0.687694
0.492561 0.666484 0.683482
0.633356 0.662272 0.679286
0.774166 0.658076 0.67509
0.914961 0.65388 0.670893
1 0.649683 0.666682
0 0.814282 0.68629
0.0561532 0.810086 0.682094
0.196963 0.805875 0.677882
0.337758 0.801678 0.673686
0.478553 0.797482 0.66949
0.619364 0.793286 0.665293
0.760159 0.789075 0.661082
0.900969 0.784878 0.656886
1 0.780682 0.652689
0 0.945281 0.672282
0.0421607 0.941085 0.668086
0.182956 0.936889 0.66389
0.323751 0.932677 0.659693
0.464561 0.928481 0.655482
0.605356 0.924285 0.651286
0.746166 0.920089 0.647089
0.886961 0.915877 0.642878
1 0.911681 0.638682
0 1 0.658289
0.0281529 1 0.654093
0.168963 1 0.649882
0.309758 1 0.645685
0.450553 1 0.641489
0.591363 1 0.637278
0.732158 1 0.633082
0.872969 1 0.628885
1 1 0.624689
0 0.0264897 0.913497
0.138354 0.0222934 0.909285
0.279149 0.0180819 0.905089
0.419959 0.0138857 0.900893
0.560754 0.00968948 0.896696
0.701564 0.00547799 0.892485
0.842359 0.00128176 0.888289
0.983169 0 0.884092
1 0 0.879896
0 0.157473 0.899489
0.124361 0.153277 0.895293
0.265156 0.149065 0.891096
0.405966 0.144869 0.886885
0.546761 0.140673 0.882689
0.687556 0.136477 0.878492
0.828367 0.132265 0.874296
0.969162 0.128069 0.870085
1 0.123873 0.865888
0 0.288472 0.885496
0.110353 0.284276 0.881285
0.251164 0.280079 0.877089
0.391959 0.275868 0.872892
0.532769 0.271672 0.868696
0.673564 0.267475 0.864485
0.814359 0.263264 0.860288
0.955169 0.259068 0.856092
1 0.254871 0.851896
0 0.419471 0.871489
0.0963607 0.415274 0.867292
0.237156 0.411078 0.863096
0.377966 0.406882 0.858885
0.518761 0.40267 0.854688
0.659556 0.398474 0.850492
0.800366 0.394278 0.846296
0.941161 0.390066 0.842084
1 0.38587 0.837888
0 0.550484 0.857496
0.0823529 0.546273 0.853284
0.223163 0.542077 0.849088
0.363958 0.537881 0.844892
0.504753 0.533684 0.840696
0.645563 0.529473 0.836484
0.786358 0.525277 0.832288
0.927169 0.52108 0.828092
1 0.516869 0.823896
0 0.681483 0.843488
0.0683604 0.677287 0.839292
0.209155 0.673075 0.835096
0.349966 0.668879 0.830884
0.490761 0.664683 0.826688
0.631556 0.660471 0.822492
0.772366 0.656275 0.818296
0.913161 0.652079 0.814084
1 0.647883 0.809888
0 0.812482 0.829496
0.0543526 0.808286 0.825284
0.195163 0.804089 0.821088
0.335958 0.799878 0.816892
0.476753 0.795682 0.812696
0.617563 0.791485 0.808484
0.758358 0.787274 0.804288
0.899168 0.783078 0.800092
1 0.778881 0.795895
0 0.943481 0.815488
0.0403601 0.939284 0.811292
0.181155 0.935088 0.807095
0.321965 0.930877 0.802884
0.46276 0.92668 0.798688
0.603555 0.922484 0.794491
0.744366 0.918288 0.790295
0.885161 0.914076 0.786084
1 0.90988 0.781888
0 1 0.801495
0.0263523 1 0.797284
0.167163 1 0.793088
0.307958 1 0.788891
0.448753 1 0.784695
0.589563 1 0.780484
0.730358 1 0.776287
0.871168 1 0.772091
1 1 0.76788
0 0.0246891 1
0.136553 0.0204929 1
0.277348 0.0162814 1
0.418158 0.0120851 1
0.558953 0.00788891 1
0.699763 0.00367742 1
0.840558 0 1
0.981369 0 1
1 0 1
0 0.155673 1
0.12256 0.151476 1
0.263355 0.14728 1
0.404166 0.143069 1
0.544961 0.138872 1
0.685771 0.134676 1
0.826566 0.130465 1
0.967361 0.126268 1
1 0.122072 1
0 0.286671 1
0.108553 0.282475 1
0.249363 0.278279 1
0.390158 0.274067 1
0.530968 0.269871 1
0.671763 0.265675 1
0.812558 0.261479 1
0.953368 0.257267 0.999298
1 0.253071 0.995087
0 0.41767 1
0.0945602 0.413474 1
0.235355 0.409277 1
0.376165 0.405081 1
0.51696 0.40087 0.997894
0.657771 0.396674 0.993698
0.798566 0.392477 0.989487
0.939361 0.388266 0.98529
1 0.38407 0.981094
0 0.548684 1
0.0805524 0.544472 0.99649
0.221363 0.540276 0.992294
0.362158 0.53608 0.988098
0.502968 0.531884 0.983886
0.643763 0.527672 0.97969
0.784558 0.523476 0.975494
0.925368 0.51928 0.971298
1 0.515068 0.967086
0 0.679683 0.986694
0.0665599 0.675486 0.982498
0.207355 0.671275 0.978286
0.348165 0.667079 0.97409
0.48896 0.662882 0.969894
0.629755 0.658686 0.965698
0.770565 0.654475 0.961486
0.91136 0.650278 0.95729
1 0.646082 0.953094
0 0.810681 0.972686
0.0525521 0.806485 0.96849
0.193362 0.802289 0.964294
0.334157 0.798077 0.960098
0.474968 0.793881 0.955886
0.615763 0.789685 0.95169
0.756558 0.785473 0.947494
0.897368 0.781277 0.943297
1 0.777081 0.939086
0 0.94168 0.958694
0.0385595 0.937484 0.954498
0.179355 0.933288 0.950286
0.320165 0.929091 0.94609
0.46096 0.92488 0.941894
0.601755 0.920684 0.937697
0.742565 0.916487 0.933486
0.88336 0.912276 0.92929
1 0.90808 0.925093
0 1 0.944686
0.0245518 1 0.94049
0.165362 1 0.936294
0.306157 1 0.932097
0.446967 1 0.927886
0.587762 1 0.92369
0.728557 1 0.919493
0.869368 1 0.915297
1 1 0.911086
0 0.0228885 1
0.134752 0.0186923 1
0.275563 0.0144808 1
0.416358 0.0102846 1
0.557153 0.00608835 1
0.697963 0.00189212 1
0.838758 0 1
0.979568 0 1
1 0 1
0 0.153872 1
0.12076 0.149676 1
0.261555 0.14548 1
0.402365 0.141268 1
0.54316 0.137072 1
0.68397 0.132876 1
0.824765 0.128664 1
0.96556 0.124468 1
1 0.120272 1
0 0.284871 1
0.106752 0.280674 1
0.247562 0.276478 1
0.388357 0.272282 1
0.529168 0.26807 1
0.669963 0.263874 1
0.810773 0.259678 1
0.951568 0.255467 1
1 0.25127 1
0 0.415885 1
0.0927596 0.411673 1
0.233555 0.407477 1
0.374365 0.403281 1
0.51516 0.399069 1
0.65597 0.394873 1
0.796765 0.390677 1
0.93756 0.386481 1
1 0.382269 1
0 0.546883 1
0.0787518 0.542687 1
0.219562 0.538476 1
0.360357 0.534279 1
0.501167 0.530083 1
0.641962 0.525872 1
0.782773 0.521675 1
0.923568 0.517479 1
1 0.513268 1
0 0.677882 1
0.0647593 0.673686 1
0.205554 0.669474 1
0.346365 0.665278 1
0.48716 0.661082 1
0.62797 0.656886 1
0.768765 0.652674 1
0.90956 0.648478 1
1 0.644282 1
0 0.808881 1
0.0507515 0.804685 1
0.191562 0.800488 1
0.332357 0.796277 1
0.473167 0.792081 1
0.613962 0.787884 1
0.754772 0.783688 1
0.895567 0.779477 1
1 0.77528 1
0 0.939879 1
0.036759 0.935683 1
0.177554 0.931487 1
0.318364 0.927291 1
0.459159 0.923079 1
0.59997 0.918883 1
0.740764 0.914687 1
0.881559 0.910475 1
1 0.906279 1
0 1 1
0.0227512 1 1
0.163561 1 1
0.304356 1 1
0.445167 1 1
0.585962 1 1
0.726757 1 1
0.867567 1 1
1 1 1
