public/LUTS/Cinematic/Cinematic_14.cube
TITLE "Generated by Resolve"
LUT_3D_SIZE 33
0.0588846 0.0498054 0.0498207
0.0663005 0.0511482 0.0511788
0.0755169 0.0525521 0.0531777
0.0843671 0.0539254 0.0543984
0.093904 0.0555428 0.0558938
0.104997 0.0578164 0.0578164
0.11577 0.0601663 0.0593423
0.127184 0.0623484 0.0613565
0.139147 0.0649424 0.0639506
0.151858 0.0685435 0.0668803
0.164508 0.072343 0.0697032
0.177081 0.0757458 0.0730602
0.190616 0.0789502 0.0767224
0.203723 0.0828565 0.0805676
0.216907 0.0873121 0.0843671
0.231601 0.092134 0.0881971
0.246418 0.096788 0.0924239
0.261158 0.101122 0.0965591
0.276661 0.106477 0.101381
0.292515 0.111986 0.106508
0.309209 0.117769 0.111254
0.32546 0.123537 0.116625
0.343053 0.128573 0.121843
0.361837 0.133959 0.126543
0.38088 0.140002 0.131228
0.402762 0.146502 0.137057
0.426047 0.153445 0.143954
0.449897 0.161349 0.150958
0.474678 0.170535 0.158175
0.497566 0.179065 0.164782
0.5178 0.186358 0.170382
0.530922 0.19086 0.174517
0.530816 0.190753 0.174426
0.058854 0.0559701 0.0505074
0.0658427 0.0567941 0.0514229
0.0747692 0.0577707 0.0528725
0.0845197 0.0591745 0.0546426
0.0949111 0.0615549 0.0561532
0.106935 0.0644388 0.0582437
0.118349 0.0668803 0.0604868
0.129412 0.069398 0.0628672
0.141588 0.0724804 0.0652628
0.155337 0.0761883 0.0682536
0.168566 0.0800793 0.0717327
0.181796 0.0838026 0.0756085
0.196597 0.0878767 0.07953
0.211536 0.092668 0.0840162
0.227207 0.0982681 0.0888838
0.244404 0.104402 0.0936599
0.261433 0.110079 0.0988174
0.277775 0.115267 0.103639
0.29398 0.120912 0.108644
0.31162 0.127001 0.114046
0.329488 0.133135 0.118883
0.347814 0.140078 0.124559
0.367422 0.146715 0.13022
0.387488 0.15314 0.136202
0.408103 0.160037 0.142275
0.430091 0.167224 0.148287
0.453147 0.174777 0.154986
0.47567 0.18204 0.161471
0.498024 0.189487 0.167651
0.519982 0.198596 0.174823
0.537102 0.205737 0.180819
0.548821 0.210269 0.183841
0.548745 0.210193 0.18381
0.0604715 0.0631571 0.0512398
0.0668956 0.0631266 0.0521553
0.0747234 0.0638895 0.0529793
0.0840925 0.0652781 0.0543832
0.0944381 0.067155 0.0558633
0.106386 0.0703136 0.0579995
0.118563 0.0736706 0.0606394
0.130434 0.0769055 0.0639353
0.143313 0.0808576 0.0668498
0.157351 0.0846571 0.0700236
0.171099 0.0889754 0.0739452
0.185458 0.0932784 0.0779126
0.200977 0.0978714 0.0823224
0.217014 0.10312 0.0872816
0.234043 0.109346 0.0927901
0.252827 0.11667 0.0988479
0.272511 0.124041 0.105226
0.291096 0.130816 0.110567
0.309468 0.13695 0.116243
0.328695 0.143206 0.121798
0.347875 0.149386 0.126879
0.368063 0.156771 0.132784
0.388998 0.164309 0.139147
0.409857 0.171588 0.145556
0.431296 0.178882 0.151369
0.45243 0.186587 0.158297
0.475822 0.194858 0.165042
0.498177 0.202533 0.170916
0.519387 0.210025 0.177768
0.53782 0.217243 0.184207
0.553933 0.224125 0.189776
0.564492 0.227512 0.194202
0.564233 0.227237 0.194049
0.0620737 0.0708629 0.052781
0.068452 0.0708476 0.0537423
0.0758526 0.0715496 0.0541543
0.0843519 0.0723735 0.0546731
0.0940871 0.0736858 0.0559701
0.106188 0.0766766 0.0584268
0.118807 0.080354 0.0609445
0.131655 0.084535 0.0643626
0.145296 0.0888991 0.068101
0.160113 0.0935836 0.072282
0.175525 0.0988174 0.0770275
0.191974 0.104814 0.0815137
0.208347 0.110155 0.0864729
0.225055 0.116213 0.0923934
0.243107 0.123064 0.0982528
0.263249 0.131151 0.104524
0.284672 0.139483 0.111345
0.305028 0.147372 0.118044
0.32488 0.154589 0.123827
0.345815 0.161151 0.130327
0.367712 0.168139 0.136965
0.389349 0.175631 0.14255
0.410742 0.183276 0.148852
0.431922 0.190906 0.154696
0.453483 0.198779 0.161822
0.474052 0.206378 0.168307
0.495827 0.213977 0.173999
0.515023 0.221744 0.181094
0.534234 0.229328 0.187732
0.552453 0.236744 0.193286
0.567971 0.244434 0.199329
0.578592 0.249821 0.202609
0.578378 0.249592 0.202396
0.0627604 0.0789654 0.0539864
0.0703746 0.0794385 0.0549172
0.0775311 0.079881 0.0555734
0.0856641 0.0810407 0.0559701
0.095491 0.0821393 0.0572671
0.107881 0.0840314 0.0599527
0.120256 0.0873121 0.0622416
0.132784 0.0915999 0.0652628
0.146792 0.0965591 0.0692149
0.162997 0.102785 0.0741131
0.17911 0.108385 0.079881
0.196292 0.115434 0.0850233
0.214786 0.122423 0.0905013
0.232792 0.129549 0.0971237
0.25272 0.13637 0.104021
0.27335 0.144701 0.110643
0.295125 0.154223 0.117968
0.31664 0.162799 0.124834
0.339101 0.170703 0.130999
0.362051 0.178744 0.137713
0.385397 0.18703 0.14522
0.408194 0.194659 0.152087
0.429847 0.202457 0.157717
0.452232 0.210178 0.164858
0.473884 0.217868 0.171649
0.494316 0.22562 0.177356
0.515297 0.233433 0.184573
0.532906 0.241215 0.191241
0.550622 0.248508 0.19675
0.566522 0.256016 0.20267
0.580774 0.263691 0.208087
0.590051 0.269215 0.213382
0.589899 0.269047 0.21326
0.0642252 0.0874037 0.0553597
0.0727245 0.0894179 0.0563516
0.0806744 0.0896925 0.057435
0.0889601 0.0908675 0.0584878
0.0988174 0.0923781 0.0598611
0.11107 0.0940414 0.0618601
0.122957 0.0975357 0.0646525
0.136172 0.102281 0.068513
0.149722 0.107408 0.0726482
0.16614 0.113985 0.0776379
0.182895 0.120073 0.0834821
0.201389 0.127504 0.089189
0.221195 0.135393 0.0956893
0.240986 0.143526 0.102266
0.261631 0.15172 0.109606
0.283894 0.160632 0.117403
0.307866 0.171084 0.125261
0.330022 0.179538 0.131167
0.352972 0.187411 0.137407
0.376318 0.196201 0.145052
0.400031 0.206256 0.152728
0.424079 0.214237 0.160494
0.446525 0.222293 0.167514
0.468879 0.230259 0.173693
0.488624 0.237934 0.18056
0.508858 0.246235 0.187808
0.528756 0.255772 0.194781
0.546593 0.263157 0.199878
0.562173 0.26865 0.206485
0.576959 0.275944 0.211643
0.589731 0.283803 0.219165
0.601831 0.289754 0.224598
0.601678 0.28954 0.22446
0.0659648 0.0961318 0.0568551
0.0748913 0.0993973 0.0581064
0.0831922 0.100084 0.0588846
0.0921035 0.101137 0.06009
0.101793 0.102647 0.0619974
0.113985 0.105119 0.064332
0.125505 0.107485 0.0681163
0.13901 0.113161 0.0719005
0.152316 0.118608 0.0759594
0.168902 0.124941 0.0811475
0.186648 0.131868 0.0877241
0.206683 0.13994 0.0936141
0.226917 0.147784 0.100496
0.247883 0.156497 0.107713
0.270329 0.166415 0.114015
0.293507 0.175463 0.122194
0.319539 0.186648 0.131182
0.342596 0.19736 0.137224
0.366247 0.205417 0.144625
0.390219 0.214923 0.152377
0.41445 0.224689 0.160006
0.43949 0.233585 0.167681
0.461295 0.243259 0.17528
0.483467 0.251591 0.183108
0.503548 0.259815 0.190829
0.523415 0.268101 0.198505
0.544106 0.277668 0.205615
0.5608 0.285313 0.210773
0.575952 0.290852 0.217548
0.590936 0.298161 0.222797
0.602792 0.306371 0.230228
0.613306 0.315999 0.235996
0.613153 0.315679 0.235859
0.0667887 0.105104 0.0580453
0.0758984 0.107866 0.0594949
0.0846265 0.109819 0.061326
0.0949111 0.112001 0.0628214
0.105074 0.113924 0.0640116
0.117876 0.117144 0.0677501
0.129961 0.119203 0.071519
0.142229 0.122927 0.0752575
0.155459 0.12903 0.0793774
0.172305 0.135363 0.0847028
0.190448 0.143603 0.0917372
0.21207 0.153628 0.0987259
0.23238 0.16202 0.104662
0.254841 0.170718 0.112337
0.277882 0.18027 0.120058
0.302144 0.190204 0.127947
0.328649 0.201694 0.136294
0.352834 0.213016 0.144198
0.376913 0.222873 0.151827
0.401068 0.232853 0.159533
0.426703 0.24213 0.167269
0.450858 0.251698 0.175036
0.474449 0.260212 0.18294
0.496452 0.270329 0.190433
0.515862 0.279149 0.198093
0.535363 0.289372 0.205798
0.554864 0.297993 0.214298
0.571679 0.305592 0.221317
0.586633 0.313268 0.228748
0.601862 0.320775 0.233982
0.613626 0.32845 0.241428
0.624048 0.335378 0.247623
0.623972 0.335225 0.247532
0.0688945 0.114107 0.0603799
0.0784619 0.117098 0.0619364
0.0873426 0.119524 0.0634623
0.0975052 0.121767 0.0661326
0.108507 0.125185 0.0676738
0.121782 0.129168 0.0718853
0.134829 0.132662 0.0757458
0.147311 0.134936 0.0794842
0.159777 0.139406 0.0830701
0.175586 0.146838 0.0884718
0.193713 0.155154 0.0952468
0.2159 0.165606 0.103029
0.237339 0.175341 0.110124
0.260838 0.185367 0.116411
0.284382 0.194873 0.124025
0.309392 0.20531 0.132326
0.336797 0.21767 0.143175
0.362661 0.228946 0.150973
0.387198 0.239261 0.158679
0.413153 0.249348 0.166567
0.43772 0.259709 0.175509
0.461463 0.270726 0.184756
0.484565 0.278721 0.193027
0.506813 0.289006 0.198642
0.527108 0.298054 0.208286
0.546242 0.309545 0.216907
0.565454 0.319234 0.224659
0.581735 0.328313 0.232441
0.597375 0.335912 0.239857
0.613001 0.343923 0.245212
0.624735 0.352499 0.252857
0.635508 0.361959 0.259022
0.63537 0.361624 0.258885
0.0696422 0.122103 0.0615244
0.0805676 0.126436 0.0643931
0.0903182 0.128939 0.0661936
0.101671 0.133211 0.0695811
0.112398 0.136873 0.0717021
0.12639 0.141665 0.0776837
0.140963 0.146105 0.0819715
0.153872 0.149676 0.0857404
0.166674 0.153887 0.0882582
0.182055 0.160708 0.0941482
0.199496 0.168841 0.0999161
0.221469 0.177478 0.107271
0.243198 0.188586 0.114855
0.266712 0.199908 0.122866
0.29131 0.210208 0.130983
0.318135 0.223392 0.139254
0.346303 0.235035 0.150164
0.372351 0.246174 0.157916
0.397543 0.256672 0.165835
0.423316 0.267857 0.1738
0.448157 0.27834 0.185061
0.472999 0.289647 0.192905
0.495094 0.299016 0.200748
0.517464 0.309194 0.208682
0.537255 0.319585 0.217594
0.556664 0.32845 0.225467
0.574319 0.339605 0.235111
0.592447 0.347585 0.24097
0.606119 0.358877 0.248875
0.621347 0.366674 0.256397
0.633234 0.377813 0.264195
0.644434 0.38616 0.271427
0.644434 0.38616 0.271427
0.0706188 0.130724 0.0639048
0.0814832 0.135302 0.0661631
0.0927443 0.138994 0.0690318
0.104189 0.144427 0.0728923
0.116655 0.148882 0.0755016
0.132143 0.15378 0.0815137
0.147555 0.160647 0.0868086
0.161028 0.164508 0.0908217
0.175982 0.169039 0.0949264
0.188968 0.175097 0.0992142
0.204822 0.180743 0.10518
0.225498 0.191257 0.110658
0.249149 0.200992 0.118624
0.272786 0.21268 0.126665
0.296635 0.224552 0.136614
0.32398 0.237903 0.145708
0.353231 0.251377 0.157046
0.380987 0.263371 0.165133
0.407553 0.274983 0.173037
0.433661 0.285512 0.182147
0.458656 0.297047 0.192401
0.484947 0.308904 0.200488
0.50692 0.320211 0.209537
0.528069 0.329534 0.219806
0.547662 0.339498 0.227527
0.565728 0.350912 0.235447
0.584039 0.361837 0.244511
0.601053 0.370123 0.252155
0.615396 0.381552 0.259907
0.630991 0.39237 0.267674
0.642954 0.401984 0.275547
0.654765 0.412039 0.283299
0.654643 0.411734 0.283146
0.0729534 0.141253 0.0646525
0.0840772 0.145693 0.068574
0.094316 0.149844 0.0722057
0.109133 0.156268 0.0766461
0.121447 0.162432 0.080827
0.135592 0.16817 0.0862135
0.15198 0.175189 0.092607
0.169467 0.179904 0.0971389
0.183276 0.18613 0.102022
0.198779 0.191226 0.105974
0.214237 0.198337 0.109957
0.231968 0.20415 0.116579
0.253758 0.214038 0.124132
0.278737 0.225605 0.133089
0.302571 0.238849 0.141115
0.330465 0.25098 0.149691
0.359899 0.266514 0.160952
0.387564 0.281224 0.172473
0.415137 0.29366 0.180346
0.442847 0.305348 0.191928
0.469337 0.317113 0.199969
0.493065 0.327611 0.210239
0.515267 0.339193 0.219318
0.53727 0.3505 0.227222
0.557122 0.361364 0.237934
0.575189 0.37351 0.246509
0.594141 0.384451 0.257252
0.610529 0.39556 0.265614
0.626215 0.405539 0.273426
0.639811 0.415869 0.282383
0.651698 0.426795 0.290013
0.665507 0.438163 0.297749
0.665919 0.4383 0.297887
0.0759289 0.150561 0.0681468
0.0855268 0.154681 0.0714427
0.0966812 0.159014 0.0739147
0.112276 0.167391 0.0802472
0.126513 0.175326 0.0855268
0.142397 0.183001 0.0902113
0.15877 0.190448 0.0977188
0.175418 0.195727 0.101854
0.193286 0.202136 0.109285
0.209094 0.209628 0.113313
0.222721 0.214893 0.117571
0.241856 0.222522 0.12488
0.25803 0.23035 0.128878
0.285496 0.242039 0.136904
0.309209 0.253819 0.148516
0.334783 0.267018 0.156313
0.366308 0.282689 0.168017
0.393866 0.296742 0.177981
0.424872 0.311757 0.189105
0.452232 0.324041 0.199374
0.478447 0.337224 0.209552
0.50338 0.34873 0.218845
0.525765 0.36054 0.228244
0.547082 0.371054 0.238087
0.566217 0.383642 0.247532
0.585046 0.395407 0.257496
0.603159 0.406943 0.268421
0.619226 0.419226 0.278294
0.633753 0.43035 0.286152
0.649088 0.441474 0.294194
0.66215 0.452842 0.301915
0.674617 0.462852 0.309743
0.675517 0.463447 0.310262
0.0791333 0.160449 0.0711986
0.0888228 0.164538 0.0730297
0.0995499 0.168917 0.0773022
0.115908 0.180789 0.0851453
0.132952 0.189853 0.0894636
0.14902 0.197574 0.0971847
0.165652 0.205173 0.104967
0.184604 0.213214 0.111147
0.201328 0.220844 0.116732
0.219791 0.228458 0.123415
0.235447 0.233799 0.128435
0.25275 0.241581 0.132387
0.26865 0.249226 0.136477
0.292271 0.25713 0.144183
0.31577 0.272267 0.153735
0.343145 0.285679 0.163577
0.374655 0.301442 0.175341
0.403662 0.315404 0.186892
0.432013 0.33022 0.197116
0.459678 0.342565 0.207965
0.487511 0.357351 0.218341
0.512734 0.371313 0.229725
0.536202 0.383062 0.24007
0.556359 0.395315 0.250553
0.575952 0.406287 0.258625
0.594553 0.418753 0.269932
0.612482 0.432654 0.279652
0.628367 0.444602 0.289647
0.643854 0.456107 0.297597
0.658152 0.467674 0.305409
0.672007 0.479454 0.313329
0.685145 0.490532 0.321096
0.686625 0.491569 0.32192
0.0807965 0.171374 0.0729076
0.0924849 0.175662 0.0768749
0.10309 0.179782 0.0808728
0.120165 0.192767 0.088716
0.136721 0.204456 0.0966049
0.156603 0.214282 0.104585
0.175738 0.222324 0.112398
0.193194 0.231952 0.117342
0.211902 0.240528 0.124163
0.228397 0.248844 0.131823
0.246372 0.255619 0.136553
0.263798 0.260761 0.140352
0.280995 0.269627 0.147463
0.302617 0.279454 0.155108
0.32282 0.287785 0.161257
0.350011 0.30277 0.170962
0.38262 0.319844 0.18407
0.410971 0.333974 0.194369
0.438727 0.34931 0.205783
0.469093 0.362951 0.21619
0.495644 0.376822 0.227756
0.521706 0.390387 0.239521
0.544442 0.405249 0.25037
0.56672 0.417578 0.260594
0.585763 0.431022 0.270802
0.603708 0.443732 0.2813
0.622339 0.456123 0.291203
0.63888 0.468177 0.301961
0.653391 0.481163 0.310613
0.667277 0.492775 0.318425
0.682307 0.505592 0.326131
0.694972 0.517296 0.333898
0.697017 0.519265 0.33521
0.0845655 0.181094 0.0766766
0.0958724 0.186816 0.082475
0.107988 0.192706 0.0865644
0.123735 0.204486 0.0943313
0.143252 0.216373 0.102678
0.163561 0.231785 0.111864
0.184298 0.242924 0.119738
0.20296 0.251575 0.12752
0.222766 0.260395 0.135317
0.242359 0.271031 0.140368
0.258946 0.277714 0.14696
0.274815 0.283345 0.151141
0.293828 0.290837 0.156786
0.315206 0.301946 0.164569
0.334997 0.310094 0.170626
0.357046 0.318502 0.17847
0.389151 0.3364 0.19147
0.417731 0.352499 0.203387
0.448325 0.369421 0.215137
0.476707 0.384878 0.226642
0.503761 0.397269 0.237964
0.529778 0.412085 0.249653
0.553689 0.426474 0.261311
0.574365 0.439734 0.271366
0.594507 0.454551 0.281941
0.613352 0.467048 0.292515
0.632029 0.481392 0.302129
0.648325 0.493584 0.312428
0.662455 0.50547 0.321752
0.677424 0.517052 0.330022
0.690822 0.52932 0.337926
0.705165 0.542275 0.345769
0.707988 0.54464 0.347219
0.0884108 0.19263 0.0806134
0.0995193 0.199863 0.0860609
0.113466 0.208042 0.0920882
0.130617 0.219425 0.0996872
0.150469 0.234607 0.108003
0.172137 0.250217 0.119463
0.195026 0.264256 0.130694
0.214847 0.275166 0.13875
0.23444 0.28394 0.144884
0.254795 0.294163 0.152239
0.273426 0.303761 0.158938
0.291142 0.310491 0.164233
0.308766 0.31725 0.169848
0.329412 0.326253 0.175769
0.34934 0.335851 0.183154
0.370916 0.345342 0.190997
0.396826 0.356115 0.199496
0.425513 0.372335 0.210773
0.455406 0.391073 0.225086
0.48603 0.407156 0.237537
0.514046 0.422339 0.249424
0.539117 0.435966 0.260761
0.561212 0.449973 0.272358
0.583673 0.464759 0.282399
0.604166 0.477882 0.293004
0.62385 0.492134 0.303761
0.641321 0.507378 0.314595
0.658381 0.519738 0.324315
0.672862 0.531334 0.33312
0.686397 0.54316 0.341344
0.700404 0.554772 0.349111
0.713741 0.566735 0.356832
0.716884 0.569497 0.358618
0.0922866 0.204257 0.0844892
0.10631 0.212909 0.0915236
0.118685 0.222797 0.0974594
0.137255 0.23418 0.106752
0.154177 0.24947 0.114946
0.178958 0.265751 0.126772
0.203967 0.283925 0.138018
0.226123 0.297414 0.146944
0.245975 0.308766 0.155596
0.268177 0.319066 0.163684
0.287953 0.328466 0.170352
0.306676 0.336172 0.176989
0.324559 0.343618 0.181964
0.343114 0.351446 0.18851
0.363821 0.360754 0.194995
0.385138 0.370413 0.202518
0.409903 0.379995 0.210178
0.432425 0.392065 0.218677
0.461875 0.408026 0.233036
0.493339 0.4262 0.246601
0.522484 0.442557 0.2598
0.548684 0.459785 0.271839
0.570962 0.47332 0.283482
0.592004 0.488319 0.293095
0.612436 0.500725 0.303929
0.632212 0.515312 0.314855
0.650767 0.530739 0.325093
0.668086 0.543725 0.335103
0.681682 0.555276 0.342458
0.694865 0.565103 0.349889
0.708766 0.576089 0.357687
0.721218 0.587701 0.365469
0.724605 0.591028 0.367712
0.0977798 0.215839 0.0899825
0.109865 0.225788 0.0953078
0.125383 0.237354 0.102831
0.14435 0.252399 0.112612
0.16286 0.267002 0.122103
0.187427 0.285466 0.133928
0.213947 0.304356 0.146853
0.236866 0.320272 0.156893
0.259861 0.332769 0.16672
0.280446 0.344823 0.174868
0.30193 0.354665 0.182513
0.321782 0.362493 0.189166
0.339864 0.371847 0.194705
0.358724 0.37969 0.201755
0.378485 0.387549 0.208118
0.398413 0.395483 0.215122
0.423972 0.405966 0.22417
0.445487 0.416083 0.232364
0.469612 0.427008 0.241611
0.499596 0.444419 0.255314
0.529397 0.463172 0.268376
0.557183 0.4804 0.282368
0.580941 0.495399 0.293538
0.601633 0.509102 0.303487
0.620188 0.521614 0.313298
0.639414 0.536324 0.324331
0.658656 0.551171 0.333639
0.675746 0.563851 0.343923
0.689174 0.574594 0.351186
0.70222 0.584665 0.357549
0.715145 0.595438 0.365133
0.728069 0.605737 0.372946
0.73225 0.608896 0.375418
0.103929 0.227405 0.096025
0.116655 0.240055 0.102373
0.132555 0.252476 0.110109
0.151476 0.270008 0.119448
0.17142 0.285466 0.129549
0.197421 0.305653 0.141192
0.224537 0.326299 0.155383
0.2486 0.342855 0.167468
0.271077 0.357839 0.176944
0.293828 0.37116 0.186847
0.316442 0.382849 0.195254
0.33666 0.391211 0.201907
0.35491 0.399039 0.20882
0.373632 0.40676 0.215488
0.393042 0.414267 0.221286
0.413245 0.422095 0.228565
0.437232 0.43238 0.236591
0.459602 0.443259 0.245319
0.482399 0.452216 0.254566
0.507713 0.464637 0.264485
0.536049 0.482612 0.27779
0.56405 0.501167 0.291218
0.588724 0.516289 0.302815
0.609751 0.530434 0.313832
0.628977 0.543236 0.323293
0.646967 0.556161 0.332677
0.665492 0.569924 0.341146
0.682734 0.58175 0.350393
0.696361 0.592462 0.358053
0.708736 0.603189 0.36492
0.720745 0.613214 0.372473
0.733181 0.623468 0.378927
0.737835 0.627176 0.380987
0.111467 0.242618 0.103655
0.123583 0.256229 0.109621
0.139483 0.270466 0.117601
0.1608 0.288991 0.128008
0.181903 0.307012 0.138964
0.206912 0.329168 0.151446
0.235966 0.35169 0.165408
0.26125 0.370047 0.177356
0.284825 0.38613 0.188586
0.308202 0.399802 0.19913
0.331502 0.412345 0.208286
0.352132 0.421271 0.216098
0.371466 0.428717 0.223697
0.39118 0.4365 0.229267
0.409827 0.444007 0.235584
0.428916 0.451377 0.24303
0.451423 0.459663 0.250721
0.474022 0.470237 0.258869
0.496941 0.47921 0.267292
0.5205 0.489494 0.277012
0.544198 0.502724 0.287373
0.570489 0.519356 0.298817
0.595758 0.535439 0.311315
0.617258 0.550484 0.322744
0.63711 0.56347 0.332204
0.654414 0.575204 0.34052
0.671473 0.587625 0.348486
0.688075 0.599405 0.356664
0.701793 0.60943 0.364355
0.714778 0.618982 0.37113
0.72636 0.628763 0.378073
0.737758 0.639048 0.384604
0.742504 0.643168 0.386954
0.119173 0.261311 0.109056
0.130678 0.272908 0.11635
0.148974 0.290044 0.124987
0.171298 0.3093 0.137133
0.193729 0.328984 0.149233
0.218631 0.353628 0.162097
0.246921 0.377569 0.176242
0.274601 0.398001 0.189532
0.299077 0.415488 0.201511
0.323888 0.430838 0.211719
0.347417 0.44303 0.222248
0.368704 0.453758 0.231159
0.388632 0.462257 0.238941
0.408209 0.469657 0.244053
0.426841 0.475761 0.250385
0.445792 0.482155 0.257267
0.46775 0.489616 0.264622
0.488975 0.497795 0.272007
0.511269 0.505913 0.280552
0.534768 0.515862 0.289784
0.556542 0.526604 0.298344
0.577264 0.537255 0.307073
0.600366 0.551186 0.318212
0.623178 0.566751 0.329931
0.643793 0.581308 0.339834
0.661524 0.594079 0.34902
0.677668 0.605646 0.356542
0.693431 0.616098 0.363668
0.707088 0.625101 0.370428
0.719982 0.633524 0.376791
0.730922 0.642573 0.382925
0.74165 0.652262 0.389517
0.74699 0.656626 0.392737
0.126925 0.282902 0.118578
0.139956 0.295171 0.124331
0.158831 0.31249 0.13463
0.18085 0.333272 0.147738
0.204456 0.355215 0.160372
0.231235 0.379538 0.173678
0.260273 0.404791 0.188098
0.288487 0.426398 0.20206
0.313787 0.444907 0.214328
0.339422 0.461311 0.225559
0.3635 0.474434 0.235355
0.384802 0.485084 0.243977
0.404822 0.493645 0.251987
0.424949 0.501198 0.258503
0.444755 0.506691 0.265538
0.462974 0.511894 0.271778
0.483146 0.517937 0.278019
0.503731 0.525017 0.285313
0.524254 0.531777 0.292668
0.547066 0.541085 0.301213
0.56788 0.550408 0.309575
0.586252 0.558282 0.317342
0.605417 0.567788 0.325154
0.627192 0.581704 0.335485
0.648432 0.596246 0.345388
0.666773 0.609125 0.355245
0.682979 0.620676 0.363806
0.698665 0.630488 0.370321
0.712276 0.638895 0.376349
0.724056 0.646891 0.382055
0.734401 0.654902 0.387503
0.74493 0.664363 0.393637
0.750774 0.669535 0.397162
0.137743 0.308843 0.129046
0.149828 0.319249 0.1346
0.167773 0.336599 0.144747
0.191363 0.359167 0.157305
0.217517 0.383856 0.171008
0.244862 0.408209 0.185733
0.274235 0.433768 0.201083
0.30277 0.456062 0.215106
0.329839 0.475135 0.228229
0.355047 0.49163 0.2392
0.378698 0.504799 0.248829
0.400015 0.515557 0.257527
0.421073 0.524422 0.265599
0.442069 0.531167 0.27306
0.461631 0.536645 0.279576
0.479683 0.54139 0.285542
0.499199 0.546349 0.291569
0.519234 0.551614 0.29807
0.538308 0.557382 0.304799
0.558602 0.565057 0.311711
0.578378 0.573388 0.319249
0.596826 0.581033 0.327062
0.614511 0.588022 0.334249
0.632074 0.596597 0.341314
0.650889 0.608438 0.350164
0.669474 0.620706 0.359899
0.686641 0.632624 0.368765
0.702312 0.643214 0.375906
0.715908 0.652125 0.381933
0.727611 0.659922 0.386755
0.738018 0.66714 0.391867
0.748104 0.675013 0.398169
0.754147 0.679942 0.401633
0.151492 0.337942 0.140398
0.163043 0.348486 0.146929
0.18085 0.366201 0.156695
0.203784 0.388449 0.16907
0.231235 0.413611 0.184222
0.259037 0.437888 0.198749
0.288609 0.463691 0.213611
0.317143 0.486183 0.227878
0.344488 0.504967 0.240665
0.369772 0.520638 0.252094
0.393378 0.533776 0.262043
0.415808 0.54464 0.271046
0.43711 0.552819 0.27921
0.457893 0.559747 0.286519
0.477424 0.565194 0.292927
0.496132 0.570245 0.298848
0.515099 0.574456 0.304753
0.534615 0.578286 0.31078
0.552605 0.582528 0.317006
0.571054 0.588678 0.32285
0.589487 0.595575 0.329259
0.607355 0.602457 0.336797
0.624216 0.608362 0.343587
0.639277 0.614054 0.348989
0.65449 0.621851 0.355154
0.670832 0.631907 0.363745
0.688594 0.64361 0.372335
0.704555 0.654566 0.379599
0.717845 0.663676 0.385794
0.729915 0.671626 0.390799
0.740795 0.678584 0.396307
0.750652 0.685252 0.402609
0.756283 0.689433 0.405371
0.166659 0.368643 0.154925
0.177661 0.379324 0.161395
0.196719 0.398154 0.170962
0.220172 0.419989 0.183169
0.247715 0.445457 0.198871
0.275456 0.470008 0.212772
0.303731 0.494057 0.226719
0.331487 0.515984 0.240787
0.358679 0.5346 0.253849
0.384375 0.549538 0.265019
0.407904 0.561532 0.274311
0.430655 0.572091 0.28365
0.452277 0.580468 0.292241
0.473274 0.58764 0.299351
0.493599 0.593317 0.305745
0.512337 0.59765 0.311955
0.531167 0.601495 0.318044
0.550179 0.605005 0.323995
0.567254 0.608835 0.329686
0.583703 0.612848 0.33463
0.600671 0.617807 0.340581
0.617411 0.623026 0.347082
0.63357 0.627878 0.352361
0.647654 0.632578 0.357031
0.660716 0.637613 0.361776
0.673716 0.643336 0.368032
0.689708 0.652934 0.375387
0.705486 0.663432 0.381811
0.718471 0.671702 0.387884
0.731197 0.679515 0.39379
0.742443 0.687312 0.399527
0.752575 0.694972 0.405509
0.758251 0.69929 0.408911
0.184344 0.406653 0.17258
0.194491 0.416495 0.177386
0.214328 0.436072 0.187274
0.238132 0.457588 0.200214
0.265476 0.481285 0.21471
0.292103 0.503182 0.227359
0.31957 0.525246 0.240726
0.347982 0.546792 0.254826
0.374166 0.564172 0.267033
0.398703 0.578225 0.277501
0.422171 0.588586 0.286687
0.445411 0.598321 0.295933
0.467414 0.60734 0.304295
0.488777 0.614801 0.311772
0.509468 0.620172 0.318273
0.528161 0.624781 0.324468
0.547448 0.628473 0.330648
0.565896 0.631815 0.336446
0.581842 0.634409 0.341726
0.597452 0.636927 0.346151
0.61268 0.639841 0.35111
0.628046 0.643534 0.356329
0.642954 0.647089 0.360525
0.656031 0.650752 0.364904
0.667842 0.654505 0.369375
0.679377 0.657893 0.374441
0.691524 0.662318 0.378546
