public/LUTS/Cinematic/Cinematic_19.cube
TITLE "Generated by Resolve"
LUT_3D_SIZE 33
0.0967727 0.118273 0.118654
0.118898 0.121645 0.116625
0.146166 0.128923 0.116564
0.177401 0.135225 0.113161
0.211887 0.13817 0.102693
0.247852 0.140902 0.0881971
0.284535 0.146181 0.0744335
0.325246 0.154101 0.0639353
0.370001 0.162753 0.0597543
0.419501 0.170062 0.0644999
0.469978 0.176501 0.0722057
0.519539 0.182254 0.0799573
0.566796 0.187182 0.087602
0.611078 0.191485 0.0948806
0.651514 0.19527 0.10164
0.687175 0.199802 0.10782
0.718715 0.2056 0.113527
0.746319 0.212009 0.118669
0.771237 0.218509 0.12343
0.793256 0.224613 0.127749
0.813169 0.234623 0.132021
0.8318 0.247715 0.136324
0.849805 0.26215 0.140688
0.867903 0.277623 0.145129
0.886122 0.294697 0.149722
0.904036 0.313497 0.154482
0.910338 0.332494 0.157336
0.910597 0.351751 0.159319
0.910872 0.371771 0.161532
0.911162 0.392081 0.163897
0.911482 0.412329 0.166308
0.911635 0.421012 0.167391
0.911635 0.421454 0.167468
0.0963149 0.132753 0.122759
0.119478 0.131899 0.119356
0.146685 0.136339 0.118929
0.176852 0.143435 0.118257
0.209949 0.148608 0.111345
0.246799 0.151385 0.0979019
0.285679 0.155261 0.0832532
0.328161 0.162829 0.0724804
0.374166 0.172473 0.0652781
0.423331 0.181369 0.0663462
0.474998 0.188739 0.0740978
0.525322 0.195636 0.0821393
0.572915 0.202045 0.0899062
0.617441 0.208225 0.0973526
0.656916 0.213413 0.104036
0.691905 0.21854 0.110155
0.722942 0.223423 0.115663
0.75021 0.228733 0.120638
0.774227 0.234821 0.125261
0.795621 0.242496 0.129595
0.815106 0.251652 0.133776
0.833616 0.262089 0.137835
0.851591 0.273686 0.14197
0.869657 0.286763 0.146242
0.88806 0.301152 0.150652
0.905516 0.316564 0.154986
0.910323 0.330816 0.157183
0.910536 0.34551 0.158663
0.910735 0.362936 0.160555
0.91104 0.382895 0.162799
0.91133 0.40267 0.165133
0.911452 0.410834 0.166125
0.911452 0.411231 0.166155
0.0967269 0.148943 0.126665
0.115831 0.151553 0.127413
0.14725 0.147906 0.11931
0.178012 0.151202 0.120821
0.211124 0.157382 0.115267
0.247974 0.16141 0.101946
0.287388 0.166796 0.0874952
0.330877 0.175723 0.0768292
0.377584 0.186648 0.0697642
0.427314 0.197391 0.0689097
0.478904 0.206516 0.0765698
0.529641 0.214969 0.0847028
0.57789 0.222599 0.0926833
0.62237 0.229419 0.100145
0.662089 0.235782 0.10695
0.696544 0.242374 0.113069
0.72697 0.248524 0.118578
0.753613 0.255344 0.123583
0.777111 0.262425 0.128161
0.797879 0.269795 0.132372
0.816922 0.277897 0.136385
0.835019 0.287129 0.140307
0.852796 0.297841 0.144381
0.870848 0.30988 0.148623
0.889036 0.322911 0.152895
0.906126 0.337041 0.157092
0.910582 0.350164 0.159121
0.91075 0.363851 0.160647
0.910933 0.378042 0.162264
0.911162 0.392645 0.163958
0.911391 0.407477 0.165728
0.911467 0.412436 0.166293
0.911467 0.411887 0.166262
0.0962997 0.165454 0.13019
0.113252 0.167956 0.131426
0.142519 0.175158 0.129351
0.179751 0.166567 0.120027
0.213397 0.166232 0.118257
0.251499 0.170611 0.104906
0.291783 0.176486 0.0906539
0.33608 0.186542 0.0808728
0.382971 0.199054 0.0730907
0.432731 0.211963 0.0713817
0.485939 0.22443 0.0796063
0.53782 0.236225 0.0882277
0.584848 0.24715 0.0963455
0.628031 0.257496 0.103914
0.666575 0.26627 0.110765
0.700298 0.274434 0.116899
0.730358 0.282155 0.122408
0.756741 0.288884 0.127398
0.779889 0.295537 0.131838
0.800183 0.302358 0.135927
0.818998 0.309728 0.139849
0.836866 0.317937 0.143694
0.854551 0.327581 0.147646
0.872084 0.338308 0.151659
0.890303 0.350011 0.155886
0.906996 0.36289 0.159945
0.910903 0.374823 0.161883
0.911086 0.387213 0.163302
0.911299 0.400458 0.164874
0.911482 0.414145 0.166567
0.911727 0.427283 0.1682
0.911772 0.430426 0.168582
0.911772 0.429587 0.168505
0.0952926 0.182086 0.13344
0.111284 0.184756 0.134295
0.13341 0.192798 0.133455
0.175784 0.199329 0.128893
0.21442 0.181094 0.117128
0.254307 0.181491 0.108156
0.295888 0.186862 0.0946975
0.341833 0.196933 0.0852827
0.390295 0.209644 0.0771038
0.44126 0.223545 0.0739452
0.494865 0.237079 0.0823529
0.547051 0.250874 0.0912795
0.594491 0.264286 0.0997177
0.638575 0.277668 0.107805
0.676707 0.290639 0.115053
0.709941 0.302724 0.121492
0.738659 0.312596 0.127031
0.762844 0.321584 0.131899
0.783886 0.330983 0.136324
0.803006 0.339452 0.140383
0.821241 0.347021 0.144259
0.838926 0.354803 0.148013
0.856306 0.362814 0.151736
0.873899 0.37232 0.155673
0.891966 0.38291 0.159792
0.908202 0.394049 0.163638
0.911315 0.404898 0.165377
0.911543 0.415808 0.166751
0.911742 0.427955 0.168276
0.911894 0.439765 0.169818
0.912123 0.451545 0.171359
0.912123 0.452949 0.171588
0.912123 0.452125 0.171405
0.0941482 0.198886 0.136843
0.109483 0.201709 0.137148
0.128527 0.209842 0.135073
0.163409 0.220996 0.133944
0.215946 0.225757 0.122286
0.256199 0.204044 0.109468
0.299184 0.200473 0.0994736
0.347387 0.209033 0.0899519
0.398001 0.221897 0.0817731
0.448981 0.235889 0.0774701
0.504189 0.25005 0.0852369
0.557076 0.264118 0.0943465
0.605341 0.278492 0.102998
0.649775 0.293034 0.111284
0.687587 0.307042 0.118608
0.720088 0.320821 0.125109
0.748547 0.333791 0.13106
0.772366 0.347005 0.136385
0.793805 0.358862 0.141238
0.811795 0.37055 0.145495
0.828656 0.381155 0.149462
0.844617 0.390799 0.153185
0.860655 0.40061 0.156954
0.876936 0.411048 0.1608
0.894209 0.421515 0.164797
0.909941 0.432151 0.168566
0.911955 0.441093 0.170016
0.912108 0.450645 0.171267
0.912261 0.461006 0.172671
0.912505 0.472313 0.174228
0.912657 0.481376 0.175479
0.912657 0.480629 0.175387
0.912612 0.479591 0.175265
0.0926223 0.216953 0.140383
0.107286 0.220615 0.139559
0.123644 0.228656 0.136309
0.154009 0.240726 0.133379
0.199557 0.253605 0.135195
0.258457 0.248844 0.116442
0.300435 0.224002 0.106081
0.352071 0.22472 0.0958877
0.404196 0.235157 0.0871443
0.457023 0.249409 0.0814832
0.512261 0.26389 0.0881361
0.565911 0.278889 0.0973983
0.614908 0.29369 0.106264
0.659648 0.308812 0.114687
0.697826 0.323293 0.122057
0.730419 0.337621 0.128786
0.758343 0.352087 0.134813
0.781903 0.36585 0.140215
0.802548 0.379538 0.145144
0.821073 0.392981 0.149767
0.837812 0.406302 0.15407
0.854047 0.420539 0.15845
0.869535 0.432853 0.162463
0.885588 0.444236 0.166415
0.902205 0.456123 0.17052
0.912428 0.468147 0.173648
0.912612 0.479026 0.175174
0.912825 0.489311 0.176638
0.913039 0.499031 0.178058
0.913207 0.509255 0.179568
0.913314 0.514351 0.180285
0.913314 0.513176 0.180148
0.913222 0.511421 0.179873
0.089662 0.238407 0.143221
0.103899 0.242145 0.141497
0.119417 0.24947 0.138018
0.146792 0.262348 0.133089
0.190631 0.275715 0.135668
0.246891 0.289113 0.13785
0.309133 0.279637 0.117632
0.353643 0.251652 0.104204
0.409262 0.25359 0.0936751
0.464714 0.264332 0.0853895
0.520409 0.279103 0.091249
0.574334 0.294652 0.100603
0.623911 0.310094 0.109667
0.66833 0.32549 0.118044
0.70602 0.340719 0.125475
0.738613 0.355566 0.13225
0.766613 0.370428 0.138369
0.790265 0.384741 0.143908
0.810834 0.399374 0.148989
0.829343 0.413336 0.153643
0.846464 0.427161 0.158145
0.862684 0.441459 0.162585
0.879454 0.455634 0.167025
0.895903 0.469871 0.171435
0.91014 0.484154 0.175494
0.912963 0.4963 0.177646
0.913191 0.507713 0.179324
0.913436 0.519768 0.181125
0.91371 0.532021 0.183017
0.913954 0.543938 0.184863
0.914031 0.54641 0.185245
0.914015 0.545769 0.185122
0.913985 0.544381 0.184909
0.0880903 0.261357 0.147372
0.102113 0.265492 0.144961
0.117464 0.271977 0.141527
0.143084 0.285252 0.136355
0.186023 0.300237 0.13991
0.239109 0.316396 0.146151
0.300893 0.329107 0.146456
0.361975 0.307042 0.11957
0.411139 0.281804 0.102373
0.469139 0.285451 0.091722
0.52784 0.296666 0.0946822
0.582895 0.311452 0.104036
0.631983 0.327184 0.113069
0.675654 0.34284 0.121324
0.713634 0.358465 0.128923
0.746319 0.373968 0.135821
0.773358 0.389334 0.141939
0.79678 0.404288 0.147463
0.817609 0.419272 0.152682
0.836118 0.433951 0.157473
0.854322 0.448539 0.162249
0.871763 0.462882 0.166827
0.888579 0.477577 0.17142
0.905226 0.492302 0.175967
0.912963 0.505455 0.178973
0.91342 0.518517 0.180941
0.913695 0.531594 0.18294
0.91397 0.544686 0.184955
0.914244 0.557382 0.186954
0.914473 0.566873 0.188495
0.914519 0.569055 0.188815
0.914534 0.56968 0.188952
0.914534 0.568978 0.188815
0.0898604 0.286229 0.153216
0.103899 0.290669 0.150439
0.1196 0.296986 0.147372
0.143954 0.310857 0.142611
0.184085 0.326345 0.145556
0.234684 0.343374 0.151827
0.294026 0.361746 0.15874
0.360922 0.370779 0.152377
0.422812 0.3393 0.117311
0.471824 0.313817 0.0987564
0.531472 0.320333 0.0986038
0.590112 0.330205 0.107683
0.640116 0.345327 0.11667
0.683375 0.361303 0.12491
0.721523 0.377218 0.132631
0.752438 0.393027 0.139284
0.779904 0.408591 0.14551
0.802808 0.423774 0.151003
0.823484 0.439017 0.156252
0.842496 0.454292 0.161257
0.860563 0.469703 0.166155
0.878523 0.48481 0.170932
0.896513 0.499535 0.175723
0.912566 0.513954 0.180148
0.913573 0.526436 0.182101
0.913832 0.538872 0.184009
0.914153 0.552331 0.186145
0.914443 0.566003 0.188373
0.914809 0.579629 0.190585
0.914885 0.585077 0.19147
0.9149 0.58616 0.191623
0.914977 0.587198 0.191836
0.914977 0.587488 0.191867
0.0948501 0.313817 0.160861
0.108904 0.318975 0.158038
0.124346 0.324971 0.154864
0.146548 0.337926 0.149737
0.184695 0.354513 0.151751
0.232944 0.372473 0.15787
0.289815 0.391409 0.16492
0.355901 0.410285 0.17258
0.423819 0.411551 0.158373
0.480873 0.371756 0.115251
0.533654 0.351644 0.104082
0.59382 0.357702 0.112245
0.645701 0.367544 0.120592
0.690608 0.380835 0.12874
0.727474 0.396689 0.136187
0.758923 0.412299 0.142931
0.784985 0.427817 0.148928
0.808118 0.443473 0.154604
0.828626 0.4589 0.159869
0.847822 0.474754 0.164996
0.866514 0.489982 0.169955
0.885283 0.505013 0.174929
0.904112 0.520516 0.179904
0.913725 0.534371 0.183322
0.914 0.547005 0.185336
0.914321 0.559579 0.18732
0.914595 0.572015 0.189319
0.914885 0.58468 0.191379
0.915206 0.596857 0.193423
0.915206 0.598138 0.193637
0.915236 0.598871 0.193774
0.915297 0.599283 0.193835
0.915297 0.599802 0.193942
0.100786 0.343359 0.169039
0.114672 0.348424 0.165637
0.129671 0.354498 0.162371
0.150134 0.366384 0.157122
0.18677 0.383795 0.158175
0.233616 0.402274 0.164279
0.288319 0.422354 0.171435
0.352819 0.442557 0.179171
0.421103 0.459159 0.186038
0.491539 0.459709 0.164736
0.541054 0.407446 0.116915
0.597284 0.388952 0.11751
0.650233 0.396475 0.125536
0.696452 0.405356 0.133089
0.73402 0.417075 0.140078
0.764263 0.431815 0.146502
0.790356 0.447211 0.152529
0.81297 0.463188 0.158221
0.833371 0.478782 0.1635
0.853056 0.494255 0.168643
0.871794 0.509468 0.173632
0.890227 0.525139 0.178668
0.909285 0.540291 0.183612
0.914153 0.553765 0.186389
0.914473 0.565835 0.188327
0.914778 0.57821 0.190311
0.915038 0.590951 0.192416
0.915389 0.603967 0.194644
0.915587 0.611154 0.19585
0.915602 0.611978 0.196002
0.915618 0.613031 0.196155
0.915618 0.61413 0.196384
0.915618 0.614679 0.196414
0.107073 0.373968 0.176944
0.120851 0.379248 0.173465
0.135668 0.385351 0.169787
0.155016 0.396017 0.164401
0.190143 0.413748 0.164904
0.235904 0.432807 0.170962
0.288685 0.45301 0.177829
0.350545 0.473701 0.185534
0.420798 0.493996 0.193561
0.484932 0.505806 0.197818
0.550683 0.490852 0.160967
0.599954 0.443748 0.127001
0.652903 0.429358 0.131121
0.699611 0.435248 0.138125
0.737621 0.443641 0.144549
0.769146 0.453422 0.150439
0.795224 0.467063 0.156222
0.817304 0.482475 0.161685
0.83772 0.49781 0.166949
0.857114 0.512993 0.172076
0.875898 0.528267 0.177096
0.89546 0.543603 0.182177
0.911925 0.558541 0.186816
0.914565 0.571283 0.189227
0.91487 0.583871 0.191272
0.91516 0.596048 0.193271
0.91548 0.607675 0.19527
0.915801 0.619852 0.19733
0.915923 0.624582 0.198123
0.915938 0.625132 0.198215
0.915938 0.625605 0.198306
0.915938 0.626734 0.198489
0.915938 0.627085 0.19852
0.113756 0.405798 0.185046
0.12723 0.411139 0.181338
0.142306 0.417273 0.177234
0.161089 0.427192 0.171771
0.194705 0.444602 0.171695
0.239811 0.463645 0.177676
0.291051 0.483955 0.184466
0.350652 0.504509 0.191974
0.41825 0.525429 0.199985
0.490806 0.544732 0.207858
0.549798 0.551232 0.206165
0.609064 0.526894 0.157168
0.653819 0.481285 0.140032
0.702358 0.467918 0.143786
0.741436 0.473594 0.149767
0.772747 0.481331 0.155245
0.799054 0.489952 0.16025
0.821637 0.501839 0.165286
0.841382 0.516548 0.170428
0.860975 0.531456 0.175494
0.880491 0.5467 0.180606
0.900084 0.561715 0.185702
0.913878 0.575753 0.189807
0.914992 0.588159 0.191959
0.915297 0.599832 0.193927
0.915587 0.611749 0.195926
0.915862 0.623682 0.197986
0.916167 0.634989 0.199924
0.916259 0.637522 0.200381
0.916259 0.63798 0.200458
0.916259 0.63856 0.20058
0.916335 0.639445 0.200732
0.91635 0.639735 0.200793
0.120729 0.438087 0.192935
0.134203 0.443427 0.188983
0.149233 0.449714 0.184726
0.16762 0.458457 0.17879
0.200153 0.475212 0.1785
0.244663 0.494163 0.184375
0.294591 0.513909 0.190997
0.352682 0.53489 0.198444
0.418021 0.555825 0.206439
0.489189 0.575998 0.21442
0.554253 0.589487 0.22092
0.607095 0.592538 0.217502
0.661189 0.557366 0.163134
0.70013 0.515953 0.151659
0.744671 0.505272 0.155398
0.775952 0.510521 0.160388
0.801984 0.517739 0.165042
0.82475 0.525719 0.169512
0.845167 0.535256 0.173892
0.865202 0.54995 0.179004
0.884276 0.564553 0.183978
0.90396 0.578637 0.188937
0.915053 0.592035 0.19263
0.915389 0.603677 0.194537
0.915694 0.615671 0.196612
0.915969 0.627024 0.19855
0.916243 0.637858 0.200473
0.916564 0.648463 0.202365
0.916564 0.64947 0.202487
0.916609 0.649729 0.202548
0.916625 0.650294 0.202655
0.916655 0.65127 0.202853
0.916671 0.651179 0.202838
0.127779 0.470161 0.200656
0.141176 0.475639 0.196597
0.156283 0.481819 0.191943
0.174197 0.489525 0.185763
0.206104 0.504753 0.185153
0.249912 0.523705 0.190829
0.299672 0.54374 0.197391
0.355795 0.564279 0.204761
0.41886 0.584619 0.212497
0.487388 0.604395 0.220462
0.556954 0.622049 0.228
0.611109 0.629664 0.232853
0.661067 0.626566 0.212863
0.705257 0.586374 0.167193
0.740185 0.551522 0.162844
0.77731 0.542504 0.165972
0.804425 0.545968 0.170062
0.8271 0.552377 0.174182
0.848234 0.560113 0.178378
0.868315 0.568933 0.182544
0.887968 0.581277 0.187228
0.907698 0.595209 0.192142
0.91548 0.607752 0.19527
0.915755 0.619242 0.197223
0.91606 0.630243 0.199115
0.91635 0.641077 0.200992
0.916671 0.652445 0.203052
0.916915 0.661158 0.204593
0.916915 0.661418 0.204654
0.916915 0.661906 0.204761
0.916976 0.662318 0.204837
0.916991 0.662821 0.204883
0.916991 0.662913 0.204898
0.135103 0.502312 0.208133
0.148363 0.507774 0.203937
0.163424 0.513619 0.19881
0.181262 0.520592 0.19237
0.212726 0.534585 0.191699
0.256275 0.553017 0.19733
0.304234 0.572396 0.203601
0.359548 0.592309 0.210803
0.420584 0.612238 0.218387
0.486824 0.631739 0.226276
0.555657 0.649866 0.23415
0.618265 0.663813 0.240894
0.662287 0.667536 0.245075
0.706569 0.661143 0.215824
0.744793 0.616236 0.175174
0.771923 0.58471 0.172702
0.805676 0.576165 0.175402
0.829755 0.580148 0.179263
0.850645 0.58587 0.182986
0.870695 0.592584 0.186831
0.89134 0.599924 0.190768
0.911665 0.611765 0.195392
0.915877 0.623133 0.197864
0.916136 0.634043 0.199741
0.916457 0.644434 0.201587
0.916762 0.654871 0.20351
0.917082 0.666224 0.20557
0.917266 0.672541 0.206714
0.917266 0.672633 0.206729
0.917266 0.672984 0.206775
0.917266 0.673289 0.206836
0.917296 0.673884 0.206943
0.917311 0.674022 0.206958
0.14226 0.534005 0.215396
0.155581 0.539528 0.211017
0.170733 0.54522 0.205585
0.188586 0.551827 0.198779
0.219242 0.56347 0.198245
0.262516 0.581628 0.203555
0.31043 0.600427 0.209751
0.36379 0.619562 0.216678
0.423209 0.638773 0.224186
0.487282 0.657633 0.231968
0.553796 0.675532 0.239887
0.619028 0.691615 0.247456
0.667887 0.698802 0.252522
0.707149 0.701717 0.254261
0.741207 0.686 0.213977
0.773159 0.647349 0.184405
0.799481 0.619043 0.182284
0.828763 0.611826 0.18468
0.852918 0.61265 0.187945
0.872908 0.618006 0.19147
0.893645 0.623758 0.195132
0.914672 0.630457 0.198947
0.916289 0.638483 0.200549
0.916579 0.648676 0.202365
0.916838 0.658701 0.204181
0.917098 0.668406 0.205936
0.917464 0.680247 0.208072
0.917586 0.684398 0.20882
0.917586 0.684459 0.208835
0.917601 0.684779 0.208896
0.917617 0.6851 0.208972
0.917617 0.68545 0.209033
0.917617 0.685542 0.209033
0.149371 0.56556 0.222461
0.162814 0.570794 0.217807
0.177996 0.576425 0.212177
0.196017 0.582712 0.205112
0.226322 0.592096 0.204562
0.269047 0.60943 0.20972
0.31606 0.627604 0.215747
0.36846 0.646082 0.222492
0.42623 0.66482 0.229953
0.488289 0.683009 0.237736
0.552224 0.699886 0.245518
0.614862 0.715297 0.253071
0.671031 0.727291 0.259831
0.710887 0.731319 0.264225
0.745007 0.735103 0.269947
0.771313 0.714092 0.220493
0.800427 0.677791 0.193317
0.823484 0.652689 0.191379
0.850507 0.643763 0.193179
0.874601 0.644129 0.196246
0.895933 0.648386 0.199725
0.916045 0.653284 0.203128
0.916777 0.656107 0.203723
0.91696 0.662898 0.204913
0.91722 0.672221 0.206607
0.917494 0.681605 0.208316
0.91783 0.693538 0.210513
0.917906 0.695537 0.210895
0.917906 0.695537 0.210895
0.917937 0.695827 0.210941
0.917937 0.69633 0.210986
0.917937 0.696712 0.211093
0.917952 0.696773 0.211109
0.156603 0.596551 0.229435
0.170092 0.601831 0.22446
0.185519 0.607401 0.21854
0.203449 0.613092 0.211246
0.23331 0.620417 0.21091
0.275578 0.636683 0.215839
0.321492 0.653941 0.2215
0.373602 0.671992 0.228229
0.429953 0.689815 0.235538
0.489143 0.706645 0.243061
0.551293 0.72285 0.251011
0.611994 0.737591 0.258701
0.669123 0.75053 0.266239
0.715755 0.758755 0.27245
0.747494 0.760845 0.276387
0.775784 0.761883 0.276722
0.795285 0.740581 0.224033
0.820294 0.70721 0.201282
0.844205 0.682445 0.19942
0.871046 0.674891 0.201343
0.896651 0.673777 0.204364
0.91693 0.67628 0.207309
0.917403 0.677913 0.207645
0.917433 0.680156 0.208087
0.917662 0.686137 0.209155
0.917891 0.694957 0.210773
0.918227 0.705943 0.212802
0.918257 0.707027 0.213016
0.918257 0.707362 0.213046
0.918257 0.707454 0.213062
0.918273 0.707652 0.213092
0.918303 0.707912 0.213169
0.918318 0.708034 0.213184
0.16379 0.627131 0.236088
0.177432 0.632197 0.230793
0.192752 0.6374 0.224628
0.211078 0.642741 0.217365
0.240589 0.647944 0.217105
0.282109 0.663371 0.221836
0.32784 0.679866 0.227375
0.378317 0.696712 0.233814
0.432944 0.713329 0.240879
0.491173 0.729519 0.248554
0.551003 0.744625 0.256519
0.610147 0.75877 0.264576
0.665202 0.770703 0.272221
0.715053 0.781109 0.279744
0.750744 0.785565 0.28513
0.777752 0.787305 0.289479
0.801862 0.788937 0.293935
0.816983 0.765286 0.23682
0.839429 0.734493 0.20882
0.864424 0.712093 0.207446
0.891508 0.70338 0.209079
0.917067 0.700557 0.211673
0.918044 0.69984 0.211673
0.918059 0.700755 0.211826
0.918135 0.702373 0.212131
0.918334 0.70869 0.213275
0.918578 0.717433 0.214923
0.918593 0.718151 0.215061
0.918593 0.718288 0.215091
0.918608 0.718593 0.215152
0.918654 0.719066 0.215244
0.918654 0.719432 0.21532
0.918654 0.71957 0.215335
0.170947 0.657038 0.242588
0.184497 0.661967 0.237095
0.199985 0.666941 0.230564
0.218524 0.671855 0.223423
0.248524 0.676371 0.223453
0.288792 0.689387 0.227878
0.333959 0.705104 0.233204
0.383352 0.720623 0.239445
0.436896 0.736309 0.246479
0.492805 0.751369 0.254063
0.551293 0.765438 0.262211
0.608072 0.778363 0.270405
0.661112 0.789715 0.278416
0.710185 0.799207 0.286336
0.752468 0.807736 0.293996
0.780133 0.809873 0.298817
0.803082 0.811139 0.303304
0.823468 0.810834 0.307027
0.835554 0.788968 0.243183
0.857221 0.759396 0.215686
0.884062 0.73695 0.214481
0.912902 0.728588 0.216297
0.918807 0.723522 0.216052
0.918685 0.721569 0.215732
0.91873 0.72192 0.215793
0.918807 0.725124 0.216388
0.918944 0.728862 0.217105
0.918959 0.729473 0.217197
0.91899 0.72987 0.217258
0.91899 0.730053 0.217304
0.91899 0.730449 0.21738
0.91899 0.730709 0.217411
0.91899 0.730816 0.217426
0.178134 0.686473 0.249027
0.191959 0.691218 0.243168
0.207462 0.696071 0.236439
0.22678 0.700984 0.229389
0.256733 0.704158 0.229831
0.295903 0.714992 0.233997
0.33994 0.729442 0.23917
0.388251 0.743938 0.245258
0.440742 0.758373 0.252277
0.495903 0.772335 0.26006
0.551553 0.785229 0.268254
0.606332 0.796826 0.276631
0.657588 0.80734 0.285023
0.70518 0.816602 0.293248
0.747173 0.825055 0.301595
0.780941 0.830915 0.308949
0.804532 0.832563 0.313939
0.82501 0.833356 0.318669
0.843122 0.831128 0.318013
0.853986 0.809903 0.259403
0.873976 0.781521 0.222004
0.90454 0.76054 0.221363
0.919692 0.751186 0.221363
0.919463 0.744717 0.220111
0.919417 0.74229 0.219623
0.919448 0.74432 0.22005
0.919463 0.745007 0.220142
0.919356 0.741634 0.219501
0.919341 0.74136 0.219486
0.919356 0.741665 0.219501
0.919371 0.74197 0.219547
0.919387 0.742321 0.219623
0.919417 0.742992 0.219745
0.18555 0.715114 0.255207
0.199573 0.719829 0.249119
0.215198 0.724804 0.242496
0.23476 0.728969 0.23537
0.26511 0.731548 0.236378
0.302953 0.739925 0.24033
0.346761 0.752834 0.245319
0.394537 0.766567 0.251545
0.445106 0.779553 0.258503
0.498222 0.792264 0.26627
0.55259 0.803937 0.2748
0.605219 0.814954 0.283482
0.654521 0.824628 0.292149
0.700465 0.833677 0.300816
0.740826 0.841382 0.309133
0.776211 0.848463 0.317586
0.804868 0.853361 0.325154
0.825422 0.854002 0.329793
0.844602 0.854185 0.334386
0.862135 0.851881 0.337652
0.87158 0.829664 0.271092
0.891783 0.801038 0.228031
0.91812 0.78056 0.226764
0.920348 0.770138 0.224994
0.920119 0.76466 0.223926
0.920104 0.763577 0.223728
0.920058 0.763256 0.223667
0.919905 0.757824 0.222644
0.919753 0.753231 0.221729
0.919738 0.753216 0.221744
0.919738 0.753582 0.221805
0.919738 0.753872 0.221866
0.919829 0.754681 0.221988
0.193256 0.742794 0.261494
0.20737 0.747326 0.255238
0.223133 0.751644 0.248188
0.243183 0.755596 0.241535
0.274159 0.757977 0.243076
0.310887 0.763806 0.24686
0.354101 0.775525 0.251926
0.400961 0.787732 0.258045
0.450462 0.799695 0.265232
0.501762 0.811032 0.273182
0.55375 0.821897 0.281819
0.604562 0.832227 0.290883
0.651926 0.841611 0.299916
0.695689 0.850019 0.308736
0.734508 0.85774 0.317296
0.768673 0.864378 0.325612
0.79939 0.870756 0.334142
0.82443 0.874846 0.341421
0.844175 0.875151 0.346288
0.863249 0.874708 0.350744
0.880262 0.869886 0.347311
0.88954 0.847578 0.283467
0.909865 0.817777 0.233173
0.921279 0.79733 0.230365
0.920974 0.788327 0.22858
0.920836 0.784955 0.227924
0.920699 0.781476 0.227207
0.920546 0.775982 0.226169
0.920348 0.770397 0.225071
0.920165 0.765637 0.224094
0.92015 0.765179 0.224018
0.92018 0.765408 0.224094
0.920211 0.766155 0.224247
0.20145 0.769162 0.267811
0.215366 0.77319 0.261509
0.231281 0.777127 0.254246
0.252308 0.780743 0.248035
0.284245 0.782895 0.250263
0.319966 0.787182 0.254124
0.361456 0.796933 0.259083
0.407126 0.80795 0.265324
0.455924 0.818906 0.272663
0.505943 0.829435 0.280888
0.555932 0.839902 0.289799
0.604181 0.849928 0.299046
0.649134 0.858717 0.308202
0.691127 0.866987 0.317372
0.72842 0.874327 0.325917
0.761547 0.880919 0.33431
0.791196 0.887053 0.342535
0.818769 0.893095 0.35108
0.842664 0.896605 0.358221
0.86186 0.896101 0.362722
0.881956 0.895445 0.367163
0.899672 0.890059 0.367544
0.908598 0.863783 0.291249
0.922011 0.833677 0.237659
0.921904 0.814084 0.233707
0.921614 0.806577 0.232181
0.921462 0.802579 0.231403
0.921263 0.796475 0.230152
0.921035 0.789807 0.228901
0.92079 0.783551 0.227665
0.920607 0.778119 0.226551
0.920562 0.776776 0.226322
0.920592 0.778058 0.226551
0.210422 0.794003 0.274449
0.224186 0.797498 0.267872
0.240314 0.801099 0.26067
0.262104 0.804364 0.255451
0.294804 0.806394 0.258198
0.329397 0.808896 0.261921
0.370199 0.817502 0.267124
0.414939 0.827558 0.273518
0.461219 0.83769 0.280964
0.510155 0.847898 0.289525
0.557595 0.857939 0.298558
0.604242 0.867567 0.307973
0.646662 0.876127 0.317174
0.686717 0.884321 0.326375
0.722332 0.8916 0.334981
0.754498 0.89839 0.34345
0.783368 0.904555 0.3514
0.810193 0.910292 0.359625
0.83624 0.916472 0.368048
0.859785 0.919463 0.374838
0.880034 0.918776 0.379263
0.901686 0.917662 0.383627
0.920027 0.909361 0.379217
0.927977 0.88217 0.304677
0.923262 0.849226 0.240894
0.922515 0.830488 0.237064
0.922255 0.823529 0.235584
0.922011 0.817502 0.234394
0.921752 0.811139 0.233082
0.921584 0.804807 0.231876
0.921309 0.798108 0.230518
0.921157 0.794247 0.22974
0.921248 0.796368 0.230137
0.220478 0.817273 0.281453
0.233967 0.8206 0.275334
0.250401 0.824247 0.268406
0.273487 0.827039 0.263798
