public/LUTS/Cinematic/Cinematic_16.cube
TITLE "Generated by Resolve"
LUT_3D_SIZE 5
0.0747234 0.0578775 0.0578775
0.210575 0.0648356 0.0610971
0.37145 0.0903487 0.079942
0.546426 0.130541 0.11281
0.698512 0.172702 0.144976
0.0574502 0.142443 0.035935
0.218769 0.171664 0.0518959
0.453239 0.23711 0.0970932
0.663005 0.302785 0.148165
0.771618 0.363531 0.191546
0.0451057 0.244862 0.0293736
0.252049 0.348806 0.0745403
0.473335 0.404685 0.120165
0.693919 0.505547 0.190845
0.803342 0.58677 0.238956
0.082063 0.414939 0.0584878
0.312367 0.577447 0.124468
0.531258 0.617517 0.171984
0.695689 0.645624 0.214618
0.800687 0.702892 0.257801
0.17293 0.686107 0.135286
0.387594 0.748257 0.175647
0.583413 0.759258 0.210788
0.710658 0.752453 0.238865
0.786587 0.757153 0.260624
0.0904402 0.0709697 0.180087
0.202701 0.0632792 0.148669
0.33666 0.0790112 0.151141
0.492607 0.10573 0.166949
0.641382 0.133715 0.191974
0.0504311 0.154864 0.151034
0.248692 0.230747 0.199161
0.553155 0.245655 0.176623
0.755596 0.281025 0.204883
0.851072 0.336751 0.248951
0.0532845 0.306691 0.15494
0.179232 0.477104 0.182193
0.570306 0.523171 0.232593
0.776745 0.571023 0.276524
0.846357 0.638407 0.361471
0.089189 0.522271 0.186572
0.314031 0.717693 0.250492
0.606607 0.726574 0.341283
0.766659 0.734539 0.372915
0.838315 0.766781 0.443381
0.145785 0.716701 0.224186
0.446052 0.804257 0.29247
0.652613 0.805966 0.365545
0.768887 0.809384 0.424399
0.826688 0.809659 0.442573
0.0994278 0.0882887 0.321508
0.246265 0.101717 0.348608
0.395148 0.0954757 0.2663
0.540749 0.111727 0.263249
0.652308 0.132311 0.273045
0.076112 0.191775 0.305638
0.183337 0.240528 0.411627
0.499916 0.216861 0.359869
0.72105 0.22948 0.317662
0.837613 0.276341 0.350378
0.06981 0.345281 0.316594
0.11725 0.408042 0.351873
0.542397 0.592096 0.51751
0.747585 0.595239 0.510033
0.820371 0.652293 0.573922
0.104738 0.554025 0.350683
0.172747 0.657603 0.372122
0.58468 0.756771 0.591608
0.755047 0.759121 0.610269
0.825757 0.783093 0.651499
0.138628 0.684169 0.359075
0.281819 0.801785 0.446036
0.695109 0.823926 0.628809
0.776577 0.826596 0.656489
0.822568 0.823972 0.657328
0.121065 0.114473 0.46894
0.256077 0.132296 0.511589
0.392416 0.118669 0.438651
0.550851 0.118776 0.374975
0.65069 0.133471 0.376471
0.101564 0.227756 0.464302
0.184802 0.242664 0.594919
0.480613 0.260914 0.631342
0.692836 0.246799 0.511513
0.799313 0.271824 0.507454
0.0997482 0.390631 0.486625
0.157534 0.41323 0.542596
0.438056 0.560601 0.665492
0.718807 0.564279 0.658732
0.802441 0.612467 0.680644
0.112764 0.540795 0.477516
0.177218 0.603204 0.525216
0.376181 0.709407 0.624598
0.766354 0.784924 0.753002
0.823117 0.802472 0.773693
0.166888 0.693217 0.522545
0.233204 0.77026 0.586053
0.574243 0.820752 0.711238
0.791302 0.836927 0.778592
0.82974 0.837964 0.778561
0.149599 0.143679 0.613581
0.271565 0.154543 0.634928
0.39408 0.140856 0.580453
0.54963 0.13576 0.50985
0.636255 0.13817 0.474495
0.124605 0.255451 0.604562
0.209537 0.264439 0.737179
0.474876 0.284566 0.770611
0.706172 0.302663 0.705791
0.764462 0.285237 0.645457
0.128862 0.401251 0.620096
0.195438 0.423957 0.683635
0.475502 0.574823 0.782391
0.734051 0.604822 0.770611
0.805844 0.598932 0.766644
0.14847 0.55848 0.619226
0.214343 0.61239 0.668116
0.384115 0.701869 0.742153
0.762448 0.788632 0.804059
0.819348 0.795087 0.812329
0.181888 0.677867 0.626291
0.237095 0.73521 0.679835
0.440589 0.802548 0.749966
0.763928 0.831785 0.816068
0.837171 0.844221 0.830121
