public/LUTS/Cinematic/Cinematic_19.cube
TITLE "Generated by Resolve"
LUT_3D_SIZE 9
0.0967727 0.118273 0.118654
0.211887 0.13817 0.102693
0.370001 0.162753 0.0597543
0.566796 0.187182 0.087602
0.718715 0.2056 0.113527
0.813169 0.234623 0.132021
0.886122 0.294697 0.149722
0.910872 0.371771 0.161532
0.911635 0.421454 0.167468
0.0952926 0.182086 0.13344
0.21442 0.181094 0.117128
0.390295 0.209644 0.0771038
0.594491 0.264286 0.0997177
0.738659 0.312596 0.127031
0.821241 0.347021 0.144259
0.891966 0.38291 0.159792
0.911742 0.427955 0.168276
0.912123 0.452125 0.171405
0.0880903 0.261357 0.147372
0.186023 0.300237 0.13991
0.411139 0.281804 0.102373
0.631983 0.327184 0.113069
0.773358 0.389334 0.141939
0.854322 0.448539 0.162249
0.912963 0.505455 0.178973
0.914244 0.557382 0.186954
0.914534 0.568978 0.188815
0.107073 0.373968 0.176944
0.190143 0.413748 0.164904
0.420798 0.493996 0.193561
0.652903 0.429358 0.131121
0.795224 0.467063 0.156222
0.875898 0.528267 0.177096
0.91487 0.583871 0.191272
0.915923 0.624582 0.198123
0.915938 0.627085 0.19852
0.135103 0.502312 0.208133
0.212726 0.534585 0.191699
0.420584 0.612238 0.218387
0.662287 0.667536 0.245075
0.805676 0.576165 0.175402
0.89134 0.599924 0.190768
0.916457 0.644434 0.201587
0.917266 0.672633 0.206729
0.917311 0.674022 0.206958
0.16379 0.627131 0.236088
0.240589 0.647944 0.217105
0.432944 0.713329 0.240879
0.665202 0.770703 0.272221
0.801862 0.788937 0.293935
0.891508 0.70338 0.209079
0.918135 0.702373 0.212131
0.918593 0.718288 0.215091
0.918654 0.71957 0.215335
0.193256 0.742794 0.261494
0.274159 0.757977 0.243076
0.450462 0.799695 0.265232
0.651926 0.841611 0.299916
0.79939 0.870756 0.334142
0.880262 0.869886 0.347311
0.920974 0.788327 0.22858
0.920348 0.770397 0.225071
0.920211 0.766155 0.224247
0.231312 0.839994 0.289342
0.318318 0.850721 0.277012
0.475257 0.876799 0.30103
0.641901 0.914061 0.337545
0.767971 0.943252 0.369924
0.871977 0.950332 0.39379
0.952499 0.949813 0.406958
0.923629 0.859876 0.243153
0.92285 0.839261 0.238865
0.280766 0.930892 0.327855
0.366934 0.939605 0.321935
0.498192 0.941939 0.338659
0.631052 0.944839 0.359625
0.745205 0.947219 0.373892
0.843595 0.94966 0.388724
0.952575 0.952575 0.406882
0.95256 0.95256 0.406271
0.952468 0.952468 0.405707
0.0482338 0.17145 0.205859
0.136233 0.170062 0.178027
0.277516 0.202823 0.178134
0.499443 0.240375 0.169116
0.692775 0.283467 0.151217
0.802533 0.315084 0.137652
0.879667 0.350851 0.154208
0.911299 0.403021 0.165164
0.911894 0.438376 0.169589
0.0466773 0.185046 0.192004
0.152087 0.201373 0.205722
0.363378 0.212253 0.163012
0.579873 0.241825 0.121035
0.732174 0.267597 0.121202
0.820172 0.294255 0.138491
0.886625 0.335348 0.153704
0.911116 0.389197 0.163577
0.911696 0.428992 0.168383
0.0593576 0.30959 0.238132
0.132052 0.294194 0.20145
0.372183 0.303746 0.171221
0.593881 0.339681 0.148547
0.744381 0.402014 0.139361
0.83418 0.455756 0.16022
0.900374 0.498695 0.176165
0.91368 0.531594 0.18294
0.914031 0.548241 0.185534
0.0856184 0.416251 0.263539
0.152544 0.411902 0.21912
0.336172 0.472129 0.215335
0.611826 0.447181 0.154498
0.766812 0.476646 0.153674
0.856168 0.536126 0.175555
0.915053 0.591028 0.192462
0.916014 0.629679 0.199023
0.916136 0.632685 0.199512
0.115831 0.534127 0.29192
0.184253 0.538003 0.240848
0.350744 0.589227 0.239765
0.61059 0.65771 0.263264
0.775204 0.586313 0.173342
0.870054 0.605035 0.188846
0.916655 0.652232 0.203006
0.917601 0.684535 0.208835
0.91751 0.682673 0.20853
0.145525 0.647272 0.317632
0.217563 0.658259 0.261845
0.378851 0.693751 0.262333
0.597391 0.750881 0.287495
0.774258 0.782269 0.311177
0.869459 0.708492 0.20737
0.918288 0.70692 0.213001
0.918959 0.727932 0.216907
0.918868 0.726345 0.216587
0.173754 0.752956 0.343557
0.250965 0.767178 0.283314
0.405844 0.785458 0.286473
0.59675 0.826062 0.312947
0.761318 0.85774 0.344457
0.86482 0.869352 0.369894
0.921141 0.793423 0.229603
0.920409 0.772351 0.225467
0.920348 0.770504 0.22504
0.197726 0.840909 0.3794
0.290883 0.856428 0.312551
0.435355 0.864088 0.320546
0.600031 0.897063 0.348363
0.737209 0.928176 0.382712
0.844053 0.951095 0.407935
0.94934 0.954208 0.425834
0.923537 0.857557 0.242664
0.922744 0.835721 0.238163
0.229572 0.922896 0.423468
0.337148 0.941192 0.352483
0.469368 0.944244 0.36289
0.600732 0.946807 0.382406
0.717037 0.94931 0.399573
0.817472 0.951125 0.408835
0.936614 0.953567 0.419944
0.953704 0.953704 0.419074
0.953597 0.953597 0.417212
0.0462806 0.246036 0.322927
0.0483864 0.243336 0.28159
0.160281 0.252705 0.240848
0.375875 0.274327 0.223499
0.579873 0.345541 0.254231
0.753597 0.394949 0.259739
0.862898 0.43328 0.251835
0.926421 0.477134 0.253605
0.922515 0.489067 0.22356
0.0489815 0.260563 0.3122
0.051545 0.270268 0.337972
0.196796 0.275532 0.281453
0.442878 0.311681 0.272236
0.650584 0.362371 0.281483
0.795422 0.393271 0.259174
0.883513 0.434134 0.25037
0.922957 0.464958 0.226917
0.918669 0.478767 0.200183
0.053193 0.281865 0.302205
0.0581521 0.303181 0.318975
0.24239 0.339513 0.34165
0.543969 0.357565 0.305791
0.726543 0.385657 0.278309
0.827314 0.412284 0.244877
0.898634 0.443839 0.217975
0.917754 0.481224 0.195651
0.91371 0.505028 0.181186
0.102449 0.482475 0.419211
0.100862 0.476341 0.384482
0.231937 0.472313 0.333928
0.559335 0.487724 0.291752
0.741497 0.511376 0.290089
0.840513 0.563561 0.263401
0.916518 0.610666 0.237705
0.920027 0.635889 0.215259
0.916655 0.633936 0.201282
0.133272 0.601053 0.45771
0.128161 0.581674 0.402884
0.268742 0.590448 0.33637
0.522164 0.643793 0.336263
0.750942 0.615625 0.259205
0.853651 0.628443 0.251392
0.922774 0.670619 0.228336
0.918029 0.699657 0.211658
0.917906 0.695125 0.210773
0.158511 0.696239 0.481773
0.154437 0.680903 0.421897
0.315862 0.698497 0.337911
0.527245 0.73579 0.351492
0.735973 0.777584 0.368322
0.849012 0.720012 0.227588
0.918883 0.718486 0.215839
0.919402 0.742138 0.219593
0.919295 0.738796 0.218967
0.181567 0.781964 0.504967
0.17908 0.772717 0.441764
0.354467 0.793057 0.35169
0.53814 0.813184 0.368551
0.708782 0.844511 0.394507
0.843946 0.865217 0.414649
0.919554 0.798749 0.230426
0.920745 0.78175 0.227283
0.920684 0.780148 0.226963
0.202197 0.85742 0.532891
0.200732 0.851942 0.471458
0.393454 0.873198 0.380774
0.552102 0.883192 0.398581
0.69543 0.913344 0.4262
0.814206 0.938964 0.445792
0.924971 0.948211 0.455299
0.92343 0.855161 0.24213
0.922637 0.833066 0.237537
0.219104 0.919295 0.561807
0.2533 0.928923 0.500771
0.43061 0.94844 0.416617
0.567803 0.950744 0.433402
0.686625 0.952895 0.448875
0.79263 0.954543 0.455421
0.901411 0.955581 0.451774
0.956069 0.956069 0.448493
0.955673 0.953033 0.444358
0.0698711 0.343664 0.46331
0.0679484 0.339773 0.40885
0.073518 0.334096 0.345327
0.23241 0.353155 0.270588
0.50547 0.349844 0.242512
0.686717 0.411994 0.261418
0.82005 0.49456 0.353918
0.928069 0.549783 0.438346
0.942992 0.569818 0.439353
0.0733959 0.360159 0.455009
0.0754406 0.366537 0.488609
0.0987869 0.361013 0.413169
0.305501 0.370886 0.312917
0.549157 0.381582 0.305974
0.720378 0.446464 0.326467
0.841627 0.515831 0.41384
0.941238 0.548272 0.426322
0.940108 0.559136 0.405066
0.074403 0.365698 0.44509
0.0810712 0.392889 0.471031
0.123033 0.414801 0.506493
0.386114 0.422965 0.423514
0.622187 0.456779 0.417426
0.777584 0.506004 0.443137
0.882063 0.527718 0.425162
0.940383 0.551812 0.412055
0.936278 0.543725 0.355169
0.0814221 0.396826 0.439597
0.0888533 0.426917 0.460883
0.11635 0.463371 0.48806
0.436332 0.52134 0.52639
0.692027 0.550912 0.518578
0.822614 0.571191 0.500816
0.907057 0.585199 0.465843
0.941527 0.597574 0.416205
0.938125 0.602213 0.36585
0.129244 0.585595 0.566293
0.140841 0.629786 0.580652
0.140536 0.628519 0.551324
0.427924 0.644068 0.504814
0.715343 0.645914 0.451041
0.834928 0.670268 0.484443
0.921019 0.702312 0.445609
0.94226 0.719799 0.38941
0.937957 0.709361 0.328328
0.168734 0.734401 0.658015
0.166598 0.726528 0.609201
0.164797 0.713588 0.554696
0.459312 0.737194 0.484657
0.673991 0.77026 0.489372
0.838926 0.745983 0.39675
0.935027 0.744579 0.39501
0.940673 0.763104 0.349828
0.937423 0.759258 0.314595
0.188006 0.805432 0.676188
0.186755 0.80087 0.62417
0.195987 0.793744 0.561746
0.488716 0.815717 0.476051
0.659342 0.835248 0.490837
0.814801 0.8607 0.497612
0.924559 0.812207 0.328435
0.935897 0.799817 0.293873
0.933059 0.797757 0.275914
0.206577 0.873335 0.693324
0.205615 0.869932 0.64065
0.253986 0.872892 0.574624
0.515343 0.889357 0.489509
0.656901 0.900725 0.506722
0.781552 0.92578 0.513771
0.902113 0.943038 0.50808
0.928801 0.858976 0.258091
0.923659 0.83537 0.238132
0.219104 0.919295 0.703456
0.219104 0.919295 0.653025
0.31841 0.938872 0.585245
0.545403 0.95552 0.50312
0.662821 0.957671 0.520745
0.766979 0.958999 0.523919
0.87274 0.959258 0.50869
0.959686 0.959686 0.497063
0.958938 0.954635 0.489189
0.096849 0.450675 0.599985
0.0932937 0.440513 0.533684
0.0900282 0.432227 0.456809
0.161257 0.439612 0.383627
0.400778 0.44239 0.264927
0.643229 0.432776 0.25362
0.787991 0.497276 0.350378
0.903548 0.58294 0.525963
0.957473 0.656367 0.669978
0.098909 0.460197 0.590433
0.0991684 0.459251 0.614878
0.0954757 0.449668 0.536767
0.198871 0.454719 0.454566
0.482567 0.43978 0.311925
0.667338 0.457542 0.343313
0.811124 0.523018 0.436393
0.918685 0.60679 0.58471
0.957229 0.653498 0.657435
0.100252 0.466484 0.583444
0.105486 0.486931 0.604196
0.108156 0.495537 0.635584
0.254932 0.490425 0.570642
0.537194 0.499184 0.484215
0.720348 0.516518 0.479942
0.842618 0.584588 0.570947
0.945891 0.638437 0.637644
0.953948 0.638437 0.607355
0.101854 0.473823 0.577142
0.108095 0.498482 0.596292
0.117205 0.534157 0.62443
0.313085 0.564065 0.67158
0.60528 0.570642 0.605676
0.76994 0.618418 0.630915
0.880446 0.657084 0.659846
0.95584 0.660456 0.628626
0.952422 0.643366 0.578149
0.109926 0.50753 0.572885
0.117418 0.537118 0.590372
0.125841 0.570153 0.614679
0.316503 0.624338 0.663813
0.658015 0.673365 0.67631
0.809827 0.696101 0.673777
0.904509 0.710582 0.660517
0.956786 0.711543 0.623178
0.953841 0.702037 0.576913
0.152438 0.672114 0.694865
0.160662 0.704097 0.704692
0.170657 0.74165 0.720043
0.261982 0.756588 0.701274
0.644907 0.766644 0.644022
0.823667 0.767529 0.599268
0.91725 0.776928 0.611246
0.955261 0.787289 0.561425
0.952422 0.778973 0.51754
0.190036 0.812924 0.797894
0.192386 0.821729 0.77554
0.190875 0.816052 0.732647
0.29955 0.824537 0.68719
0.638712 0.83473 0.612802
0.782177 0.853544 0.609369
0.91368 0.825116 0.498161
0.951934 0.814038 0.475975
0.95024 0.812833 0.449699
0.210575 0.887907 0.817884
0.209659 0.88484 0.780545
0.208606 0.880735 0.734874
0.371191 0.895796 0.672602
0.64477 0.903197 0.598367
0.757534 0.91368 0.606668
0.875456 0.935302 0.590692
0.948028 0.870008 0.383536
0.945541 0.853773 0.362509
0.219104 0.919295 0.815518
0.219104 0.919295 0.778698
0.219104 0.919295 0.733303
0.440391 0.950439 0.658106
0.653452 0.962356 0.598993
0.748867 0.96437 0.616022
0.845365 0.964446 0.59733
0.96434 0.96434 0.568139
0.963729 0.960723 0.559564
0.123568 0.55407 0.71191
0.119799 0.542336 0.660334
0.116548 0.533074 0.601129
0.111528 0.516762 0.534066
0.314153 0.538476 0.505135
0.59501 0.519081 0.43743
0.760464 0.547143 0.466453
0.879988 0.588449 0.535225
0.958389 0.665476 0.694957
0.123461 0.554223 0.704402
0.122515 0.549065 0.718791
0.119677 0.54078 0.673289
0.130114 0.530968 0.603464
0.356832 0.53991 0.567605
0.613825 0.540932 0.516167
0.780529 0.557183 0.517586
0.893889 0.611749 0.60145
0.95903 0.671244 0.714046
0.124651 0.559518 0.700175
0.127443 0.56994 0.712932
0.128222 0.571252 0.735164
0.179995 0.568002 0.700847
0.422934 0.556252 0.65597
0.666575 0.563958 0.597345
0.811276 0.589258 0.597513
0.914885 0.646647 0.682612
0.960647 0.687907 0.745418
0.125475 0.563119 0.696117
0.130343 0.582101 0.708888
0.137392 0.609216 0.731182
0.227268 0.625422 0.76643
0.496193 0.612802 0.740108
0.721019 0.617411 0.688701
0.842649 0.657099 0.701488
0.940368 0.702403 0.758053
0.963027 0.713314 0.759655
0.128115 0.574197 0.693782
0.133196 0.594064 0.705104
0.140948 0.623957 0.726604
0.228183 0.665644 0.760143
0.559335 0.690379 0.786877
0.762707 0.699825 0.749554
0.869505 0.738308 0.772824
0.966506 0.753597 0.775982
0.965789 0.7449 0.748669
0.137972 0.613947 0.699092
0.143999 0.6374 0.70956
0.150988 0.664302 0.727428
0.229313 0.701656 0.75668
0.554269 0.745037 0.781903
0.787488 0.781353 0.777768
0.889799 0.798291 0.781552
0.968719 0.796353 0.76347
0.966491 0.787259 0.737728
0.172885 0.746426 0.797223
0.178653 0.768826 0.802747
0.185031 0.793591 0.809125
0.19147 0.818235 0.809476
0.462486 0.846922 0.796078
0.768109 0.848508 0.749416
0.897734 0.843107 0.70222
0.965713 0.843931 0.701106
0.964248 0.843687 0.676783
0.20177 0.854795 0.871244
0.209751 0.884962 0.872938
0.212665 0.89575 0.852064
0.210941 0.889464 0.812909
0.512688 0.911803 0.764874
0.75317 0.911986 0.71548
0.850553 0.925475 0.702129
0.961349 0.880949 0.571038
0.960235 0.870237 0.563027
0.219104 0.919295 0.915251
0.219104 0.919295 0.881819
0.219104 0.919295 0.844892
0.230198 0.922713 0.803754
0.563684 0.959381 0.741146
0.74725 0.969619 0.700038
0.827573 0.970642 0.698772
0.967819 0.970199 0.661143
0.969696 0.967788 0.653407
0.149874 0.654215 0.797131
0.147326 0.64596 0.773373
0.144198 0.635843 0.740719
0.141207 0.626444 0.706569
0.252964 0.629938 0.697597
0.513313 0.620798 0.684001
0.74168 0.619883 0.653666
0.867597 0.647105 0.677134
0.959014 0.671382 0.709468
0.147753 0.645823 0.794064
0.146578 0.640497 0.801236
0.144106 0.632136 0.782116
0.141421 0.624369 0.745144
0.283864 0.628962 0.73434
0.547509 0.614527 0.71606
0.757626 0.616022 0.681224
0.874968 0.644785 0.695125
0.959777 0.678645 0.738506
0.147982 0.646922 0.792004
0.148775 0.649607 0.798352
0.14786 0.6448 0.808377
0.145785 0.637949 0.793286
0.332357 0.641855 0.785809
0.596628 0.6262 0.763195
0.781384 0.625284 0.725216
0.888823 0.655375 0.726635
0.9617 0.697398 0.777874
0.148425 0.64892 0.790051
0.151461 0.660548 0.797177
0.155123 0.674357 0.808545
0.155459 0.674647 0.821057
0.392203 0.67689 0.829892
0.654261 0.671153 0.811917
0.811032 0.664698 0.778073
0.907942 0.693797 0.771023
0.964691 0.726711 0.810117
0.149355 0.652873 0.788281
0.153017 0.667247 0.795361
0.158572 0.688396 0.807416
0.164324 0.710384 0.82063
0.432135 0.726223 0.854124
0.698299 0.728283 0.842634
0.837812 0.725978 0.815457
0.930907 0.752071 0.816617
0.968917 0.767605 0.837461
0.152529 0.665705 0.789105
0.156527 0.681178 0.795209
0.161608 0.70071 0.80618
0.167346 0.722683 0.817456
0.426001 0.761959 0.849149
0.72401 0.787152 0.857343
0.855787 0.790921 0.837171
0.952239 0.81001 0.851148
0.973953 0.812787 0.854109
0.161624 0.701595 0.796613
0.166064 0.718883 0.802335
0.171008 0.737804 0.811322
0.175616 0.755535 0.817945
0.419425 0.793301 0.845777
0.715145 0.825589 0.851606
0.862623 0.852064 0.84387
0.963775 0.861967 0.847166
0.977432 0.858259 0.838346
0.188647 0.802853 0.872023
0.192874 0.819379 0.875471
0.197711 0.838193 0.878828
0.20296 0.858808 0.877958
0.292317 0.896422 0.882918
0.651057 0.918471 0.855604
0.844022 0.917281 0.819226
0.969635 0.903166 0.776242
0.9738 0.901442 0.772869
0.210956 0.887633 0.917983
0.217319 0.912566 0.919005
0.219104 0.919295 0.919295
0.219104 0.919295 0.909514
0.325414 0.939834 0.877028
0.668833 0.966812 0.826627
0.828367 0.977523 0.794278
0.9281 0.977157 0.772503
0.976989 0.976562 0.760723
0.17438 0.746975 0.86157
0.172992 0.742321 0.852399
0.17055 0.7337 0.837552
0.168353 0.726009 0.825299
0.16669 0.718517 0.817319
0.460319 0.719814 0.836576
0.714458 0.707179 0.82974
0.859373 0.693797 0.813626
0.963989 0.718059 0.821057
0.170794 0.73257 0.863035
0.169757 0.727993 0.867201
0.168078 0.721996 0.859617
0.165957 0.715084 0.842512
0.179324 0.71397 0.833677
0.489372 0.71252 0.849485
0.730709 0.701869 0.839841
0.866056 0.690288 0.822644
0.963851 0.715572 0.827848
0.16968 0.72813 0.862608
0.169177 0.725856 0.866423
0.167773 0.719478 0.872068
0.165972 0.712734 0.866911
0.2009 0.715831 0.857984
0.518761 0.711254 0.867109
0.747906 0.703456 0.854551
0.874678 0.694133 0.836698
0.964157 0.718608 0.836484
0.169467 0.727169 0.861402
0.170535 0.731228 0.865751
0.171618 0.735058 0.87216
0.170642 0.730465 0.879423
0.23653 0.732387 0.886259
0.554635 0.728145 0.890898
0.771893 0.724392 0.875227
0.886244 0.714961 0.855283
0.965957 0.73669 0.85005
0.169436 0.727291 0.859846
0.171466 0.735103 0.864271
0.174563 0.746868 0.872084
0.177493 0.757794 0.881788
0.260945 0.762798 0.901396
0.595254 0.757351 0.911177
0.800565 0.76109 0.897368
0.904173 0.752834 0.875471
0.969238 0.768185 0.865415
0.170291 0.730861 0.859388
0.172763 0.740154 0.863462
0.17612 0.75314 0.871138
0.180331 0.769085 0.88101
0.264622 0.791089 0.900832
0.635584 0.796475 0.921096
0.823651 0.80412 0.911727
0.923827 0.798444 0.891646
0.973938 0.809232 0.886763
0.173281 0.74258 0.861784
0.175921 0.752911 0.865461
0.179156 0.765133 0.8719
0.182757 0.779004 0.879744
0.28452 0.801816 0.89897
0.633478 0.82707 0.915557
0.835447 0.854871 0.914549
0.932891 0.853468 0.900786
0.980087 0.86099 0.908156
0.180072 0.769146 0.868818
0.183093 0.780789 0.872267
0.186511 0.793988 0.877729
0.189822 0.806775 0.881636
0.296757 0.829847 0.897292
0.632319 0.856535 0.908385
0.828473 0.887373 0.903807
0.926497 0.915145 0.895659
0.985321 0.921874 0.900023
0.198657 0.83949 0.916045
0.20235 0.854017 0.916671
0.206455 0.869932 0.917372
0.210727 0.886687 0.917952
0.244541 0.912993 0.924865
0.552926 0.95819 0.940398
0.791959 0.976822 0.917281
0.91574 0.985916 0.880522
0.985 0.981735 0.858793
0.192462 0.81503 0.914107
0.19173 0.81239 0.910948
0.18999 0.805966 0.904799
0.18819 0.79884 0.900954
0.18677 0.793271 0.901991
0.378302 0.790982 0.925505
0.685283 0.780316 0.932754
0.848707 0.768627 0.926436
0.968292 0.75494 0.917494
0.188083 0.79736 0.914504
0.187411 0.794644 0.914397
0.18645 0.791058 0.914199
0.185138 0.785931 0.91281
0.1841 0.782025 0.909072
0.402594 0.780514 0.933791
0.700999 0.773129 0.939132
0.851606 0.762341 0.930922
0.969604 0.750103 0.921187
0.186007 0.789197 0.914199
0.184939 0.78497 0.914
0.183749 0.780301 0.913848
0.182437 0.775097 0.91368
0.181872 0.772961 0.913603
0.41593 0.771603 0.942885
0.715404 0.768215 0.947753
0.857206 0.758511 0.937301
0.968032 0.749767 0.928344
0.185138 0.785824 0.914107
0.184863 0.78471 0.914
0.184634 0.783871 0.913985
0.183291 0.778531 0.913771
0.182177 0.774014 0.913664
0.427802 0.774319 0.944106
0.73106 0.773297 0.958755
0.866087 0.764965 0.945922
0.9691 0.758602 0.938888
0.184695 0.784085 0.914
0.185199 0.785992 0.914107
0.186206 0.790219 0.914199
0.187289 0.794263 0.914397
0.186313 0.790463 0.914199
0.47425 0.786587 0.947753
0.761227 0.789441 0.966354
0.881971 0.782666 0.954864
0.971313 0.777905 0.948608
0.18468 0.783932 0.914
0.185626 0.787625 0.914107
0.187335 0.794568 0.914351
0.1897 0.804105 0.914733
0.191455 0.810697 0.914961
0.556039 0.809476 0.953841
0.796857 0.817014 0.968246
0.90518 0.809796 0.956725
0.974533 0.807736 0.95346
0.185275 0.786404 0.914107
0.186618 0.791623 0.914275
0.188571 0.799542 0.914519
0.191089 0.809644 0.9149
0.194491 0.819883 0.915511
0.569818 0.839048 0.955657
0.813733 0.85713 0.965972
0.917647 0.854627 0.95845
0.979629 0.85304 0.956985
0.187671 0.795727 0.914412
0.189242 0.802197 0.914611
0.191379 0.810575 0.914946
0.19382 0.820035 0.915312
0.197894 0.829328 0.916136
0.579324 0.852399 0.956741
0.802502 0.887404 0.960235
0.920684 0.919799 0.95761
0.987305 0.92015 0.959106
0.192203 0.813901 0.915068
0.194491 0.822889 0.915404
0.197147 0.833295 0.915831
0.19971 0.843656 0.916197
0.237552 0.859449 0.925963
0.57789 0.884794 0.954742
0.79736 0.918196 0.95465
0.912749 0.952941 0.950317
0.988602 0.986999 0.946807
