public/LUTS/Cinematic/Cinematic_24.cube
TITLE "Generated by Resolve"
LUT_3D_SIZE 33
0.049958 0.0725261 0.0788739
0.0556344 0.0715953 0.0767987
0.0625162 0.0708782 0.074342
0.0722972 0.0723735 0.0735027
0.0859846 0.078645 0.0775158
0.101472 0.0860761 0.0827649
0.120546 0.0918898 0.0843824
0.141146 0.0968643 0.0844434
0.163043 0.100328 0.0816815
0.186877 0.102022 0.0750744
0.215045 0.100893 0.0594644
0.247776 0.095613 0.0376593
0.280568 0.0990616 0.0401617
0.317281 0.104814 0.0450141
0.364462 0.112642 0.0516976
0.418479 0.119646 0.0598459
0.475792 0.125689 0.0686809
0.533486 0.131472 0.0778668
0.588968 0.135882 0.087129
0.637018 0.153384 0.0961471
0.680064 0.175235 0.104768
0.717769 0.19826 0.11284
0.752972 0.217166 0.120195
0.783383 0.235767 0.126894
0.81033 0.254414 0.13315
0.834775 0.274372 0.139147
0.858167 0.295155 0.145022
0.882414 0.318837 0.151339
0.906996 0.343313 0.157839
0.910826 0.367086 0.160998
0.911131 0.391379 0.163821
0.911513 0.416175 0.166766
0.911803 0.433768 0.169055
0.0500191 0.0732128 0.0773022
0.0561532 0.073167 0.0769513
0.0632334 0.0726635 0.0750591
0.0733654 0.0745861 0.0746014
0.0879072 0.0807507 0.0783856
0.105806 0.0865187 0.0804608
0.125826 0.0910353 0.0798505
0.147448 0.0940566 0.0761273
0.168399 0.0980697 0.0722972
0.19234 0.0994278 0.0616007
0.218509 0.102434 0.0498512
0.244175 0.109758 0.0419776
0.275578 0.1149 0.0410773
0.314061 0.119387 0.0458534
0.362249 0.126467 0.0525978
0.416938 0.133654 0.0607004
0.475242 0.140124 0.069749
0.532952 0.145892 0.0788739
0.588678 0.150988 0.0881208
0.640558 0.156161 0.0968948
0.686854 0.165042 0.10515
0.725978 0.179767 0.112871
0.757824 0.203876 0.119997
0.785641 0.227253 0.12665
0.811154 0.250248 0.132967
0.834943 0.273732 0.139116
0.85864 0.295323 0.145129
0.882338 0.320592 0.151492
0.907103 0.343603 0.157916
0.910842 0.366461 0.160891
0.911131 0.391012 0.163745
0.911528 0.414954 0.166629
0.911803 0.43418 0.1691
0.0501411 0.0750134 0.0763409
0.0564431 0.0750591 0.0760357
0.0635996 0.0751049 0.0757
0.0752575 0.0766461 0.0744945
0.0903487 0.0825055 0.0761273
0.107668 0.0886702 0.0773785
0.126101 0.0945907 0.0774395
0.146288 0.0995193 0.0755779
0.166659 0.104723 0.0729229
0.189014 0.109545 0.0679332
0.214496 0.114153 0.0594034
0.241749 0.118654 0.049012
0.272786 0.123705 0.0426795
0.311437 0.129274 0.046479
0.360342 0.137911 0.053315
0.414939 0.147173 0.0616465
0.473365 0.154376 0.0706645
0.53164 0.160723 0.079881
0.587366 0.166583 0.0890822
0.640284 0.172091 0.0980087
0.687648 0.177539 0.106188
0.727977 0.183658 0.113497
0.76231 0.193332 0.119997
0.790112 0.212558 0.126299
0.814481 0.23827 0.132525
0.837064 0.26389 0.138628
0.859724 0.289326 0.144778
0.883238 0.314153 0.15108
0.907164 0.339712 0.157549
0.91075 0.363516 0.160616
0.911131 0.387839 0.163378
0.911437 0.412695 0.166354
0.911772 0.4327 0.168887
0.050309 0.0869917 0.0821698
0.0569467 0.0865492 0.0808576
0.0651865 0.0843671 0.0787366
0.0748302 0.0853742 0.0791638
0.0896468 0.0867933 0.0768292
0.106233 0.0923323 0.0783093
0.124651 0.0980697 0.0793469
0.144411 0.103471 0.0787366
0.165637 0.108583 0.0764782
0.188434 0.112871 0.071519
0.214725 0.116915 0.0625315
0.242695 0.121004 0.0514839
0.274479 0.126329 0.0437781
0.314275 0.132189 0.0471046
0.364034 0.140963 0.0541085
0.420066 0.149432 0.062501
0.478569 0.156832 0.0716259
0.536568 0.163821 0.0808576
0.592569 0.171084 0.0902571
0.644175 0.177127 0.09897
0.690822 0.182895 0.107073
0.730373 0.189166 0.114305
0.764675 0.196674 0.120623
0.793393 0.209522 0.126619
0.817166 0.234318 0.132708
0.83975 0.258991 0.138643
0.862211 0.282841 0.14464
0.885695 0.308141 0.150881
0.907912 0.334554 0.157153
0.910719 0.358892 0.160098
0.91104 0.383658 0.162921
0.911406 0.408591 0.165835
0.911742 0.428794 0.168383
0.0518654 0.0997177 0.0870527
0.0591135 0.0976577 0.0844129
0.0674296 0.0955062 0.0824598
0.075349 0.0963149 0.0833906
0.0890974 0.0971695 0.0813306
0.106218 0.0970474 0.078996
0.124239 0.102861 0.0805371
0.143908 0.108965 0.0802777
0.165057 0.113985 0.0779431
0.188479 0.11809 0.072755
0.215625 0.121248 0.0632029
0.244984 0.124376 0.0515297
0.278126 0.128878 0.0441291
0.318837 0.134401 0.0478676
0.370153 0.142535 0.0551156
0.427665 0.150851 0.0637064
0.486748 0.158785 0.0729686
0.545083 0.166751 0.0823987
0.599527 0.174655 0.0916152
0.649958 0.181369 0.100206
0.695323 0.188357 0.108248
0.734066 0.195438 0.115343
0.767468 0.2038 0.12166
0.79588 0.213931 0.127398
0.820493 0.23122 0.133074
0.843549 0.250828 0.138643
0.86566 0.275196 0.144533
0.888869 0.301564 0.150805
0.908568 0.32845 0.156649
0.910613 0.353353 0.159503
0.910979 0.378653 0.16231
0.911345 0.403998 0.165301
0.911681 0.424323 0.167803
0.0538949 0.111116 0.0906691
0.0609751 0.109133 0.0880903
0.0693828 0.10724 0.0862593
0.0766155 0.107515 0.0875105
0.0881514 0.111131 0.0889906
0.104875 0.108614 0.0833906
0.124422 0.107576 0.0814527
0.144549 0.11342 0.0821241
0.165652 0.118944 0.0800183
0.189166 0.124025 0.0750744
0.21648 0.128679 0.0658427
0.245701 0.13341 0.0545357
0.278843 0.139086 0.0461433
0.320851 0.145525 0.0493019
0.372808 0.154101 0.056611
0.432044 0.162387 0.0654307
0.492714 0.170382 0.0748913
0.551247 0.178622 0.0843824
0.605875 0.18674 0.0936141
0.656031 0.193866 0.102235
0.700236 0.201572 0.11014
0.738125 0.209613 0.117128
0.770199 0.218448 0.123247
0.797772 0.228992 0.128908
0.82269 0.24152 0.134249
0.846357 0.256214 0.139605
0.869123 0.274037 0.145037
0.892805 0.293751 0.15079
0.909499 0.320394 0.156024
0.910536 0.34641 0.15874
0.910842 0.372396 0.161624
0.911238 0.398352 0.16463
0.911574 0.418799 0.167102
0.0553445 0.122728 0.0943923
0.0625467 0.120821 0.0918898
0.0711986 0.119081 0.0901503
0.078172 0.119417 0.0914168
0.087953 0.122652 0.0932174
0.103258 0.127199 0.0961166
0.122759 0.120256 0.0857099
0.144289 0.119432 0.0840009
0.166735 0.124163 0.0826581
0.1906 0.129213 0.077821
0.218418 0.134066 0.068986
0.248173 0.139025 0.0571298
0.281849 0.146014 0.0483101
0.323461 0.155413 0.0506294
0.377142 0.167498 0.0585794
0.436072 0.1794 0.067689
0.496132 0.189868 0.0772259
0.555856 0.198383 0.0869306
0.611124 0.206119 0.0961471
0.66096 0.213748 0.104662
0.704707 0.221347 0.11252
0.741787 0.229328 0.119295
0.773266 0.237858 0.125307
0.800534 0.2477 0.130922
0.825162 0.259739 0.136187
0.84828 0.273167 0.14136
0.871138 0.288808 0.146654
0.895018 0.306706 0.152316
0.910185 0.32517 0.156634
0.910491 0.34342 0.158465
0.910811 0.366629 0.160922
0.911177 0.39176 0.163821
0.911437 0.410773 0.166094
0.0565499 0.134539 0.0983291
0.0639353 0.132815 0.0958724
0.0727855 0.13135 0.0941634
0.07953 0.131411 0.0953994
0.088426 0.133837 0.0971695
0.101946 0.138598 0.099321
0.122316 0.140963 0.0987259
0.144121 0.133181 0.0890974
0.166339 0.13138 0.0866255
0.191836 0.134966 0.0814679
0.220325 0.139818 0.0728618
0.251011 0.1449 0.0611887
0.286122 0.152239 0.0515297
0.329381 0.162692 0.0521706
0.384115 0.17586 0.0604257
0.444251 0.190341 0.0700389
0.505318 0.204318 0.0800793
0.563531 0.217151 0.0899825
0.617136 0.227497 0.0991073
0.665827 0.236103 0.107576
0.709316 0.243854 0.115236
0.745602 0.251789 0.121874
0.776913 0.260349 0.127932
0.803449 0.269688 0.133318
0.827817 0.28098 0.138491
0.850553 0.293507 0.143603
0.873411 0.308293 0.148867
0.897261 0.325826 0.154543
0.910491 0.34284 0.158389
0.910689 0.359548 0.160159
0.910964 0.377203 0.162142
0.911208 0.396002 0.16434
0.911437 0.409812 0.165988
0.0575418 0.146517 0.102388
0.0652018 0.144808 0.0999313
0.0738384 0.143526 0.0982071
0.0806592 0.143694 0.0992752
0.0890822 0.145418 0.100771
0.101122 0.149996 0.10251
0.119432 0.154818 0.105653
0.145068 0.155581 0.101793
0.165606 0.144244 0.0923934
0.191119 0.143023 0.0880903
0.222171 0.146181 0.0776837
0.254047 0.15111 0.0653697
0.290486 0.159182 0.0544442
0.334707 0.170352 0.0536812
0.391226 0.18407 0.0622568
0.454353 0.19913 0.0724041
0.516243 0.21503 0.082826
0.574197 0.230762 0.0929427
0.626947 0.245472 0.102449
0.672801 0.257435 0.110826
0.713588 0.268528 0.118303
0.74963 0.276692 0.124941
0.77998 0.28481 0.13077
0.80647 0.294102 0.136187
0.83035 0.304891 0.141238
0.853117 0.31725 0.146304
0.876005 0.331807 0.151598
0.899748 0.34786 0.157198
0.91075 0.3635 0.160586
0.910948 0.379461 0.162432
0.911238 0.395544 0.164279
0.911498 0.413611 0.166491
0.911681 0.422797 0.167605
0.058381 0.158785 0.106752
0.0661784 0.157443 0.104234
0.0748302 0.156283 0.102495
0.0817426 0.156435 0.103288
0.0897688 0.157916 0.104784
0.100526 0.16228 0.106096
0.116823 0.168017 0.1084
0.140169 0.17409 0.110414
0.170809 0.17351 0.102129
0.191287 0.158495 0.0940871
0.222538 0.156008 0.0844587
0.256947 0.159228 0.0696422
0.294667 0.167239 0.0582742
0.340002 0.178912 0.0556649
0.4 0.193271 0.0644541
0.463905 0.209003 0.0747692
0.527184 0.225269 0.0855116
0.586282 0.241688 0.0960098
0.638483 0.258534 0.105608
0.684596 0.274083 0.114397
0.723278 0.288243 0.12195
0.755566 0.30135 0.128511
0.783917 0.312795 0.134356
0.80943 0.322911 0.139651
0.833402 0.333791 0.144747
0.856184 0.345861 0.149844
0.879194 0.359442 0.155077
0.902937 0.374777 0.160632
0.911147 0.389136 0.163531
0.911345 0.404288 0.165362
0.911604 0.419593 0.167224
0.911849 0.435569 0.169284
0.911955 0.441184 0.170016
0.0593271 0.172595 0.111986
0.0671397 0.171389 0.109468
0.0757763 0.170459 0.10753
0.0825513 0.170993 0.10808
0.0902113 0.172122 0.109224
0.0999161 0.176287 0.110109
0.114244 0.182788 0.111177
0.135256 0.189639 0.114412
0.162966 0.196811 0.11545
0.197711 0.193668 0.101869
0.223713 0.176089 0.0915847
0.257801 0.171893 0.0775311
0.299596 0.177401 0.0631113
0.346502 0.189212 0.0591745
0.40676 0.204044 0.0666056
0.473579 0.220188 0.0773632
0.538613 0.237186 0.0885023
0.599237 0.254597 0.0992599
0.651774 0.271702 0.109087
0.69691 0.28867 0.117876
0.734615 0.305653 0.125628
0.766598 0.320424 0.132403
0.792752 0.335332 0.138277
0.815534 0.350713 0.14374
0.837903 0.365606 0.149111
0.859358 0.380529 0.154299
0.882322 0.394064 0.159579
0.906752 0.408789 0.165179
0.91162 0.422004 0.167529
0.911864 0.435508 0.169284
0.912077 0.449714 0.17116
0.912352 0.463676 0.172992
0.912322 0.465278 0.173266
0.0603647 0.187137 0.1178
0.0682536 0.186053 0.115236
0.0765393 0.185092 0.112902
0.0831159 0.185992 0.113283
0.0904555 0.187259 0.114107
0.0994736 0.19089 0.114473
0.1122 0.197833 0.114549
0.131411 0.205432 0.116228
0.156298 0.214084 0.118944
0.189563 0.22298 0.119478
0.230884 0.213062 0.0993973
0.258686 0.192248 0.0872358
0.301549 0.191852 0.0717327
0.352407 0.200565 0.0633402
0.413855 0.21561 0.0690013
0.482734 0.232471 0.0801251
0.549615 0.250065 0.0915541
0.610559 0.267964 0.10248
0.663325 0.285924 0.112474
0.708614 0.303273 0.121309
0.745937 0.320714 0.129122
0.77615 0.338994 0.135988
0.802029 0.355367 0.142061
0.824781 0.370855 0.147631
0.846174 0.387655 0.153033
0.866545 0.405722 0.15848
0.888106 0.425422 0.16434
0.90956 0.444114 0.170016
0.912261 0.45774 0.172244
0.912474 0.471229 0.17409
0.912749 0.484642 0.175952
0.912917 0.494926 0.177462
0.912902 0.494392 0.17734
0.0619516 0.202502 0.124376
0.0695048 0.201801 0.121736
0.0775006 0.201175 0.119249
0.0836042 0.202167 0.119112
0.0906996 0.204028 0.119432
0.098909 0.207095 0.119341
0.109758 0.214771 0.117952
0.126177 0.223728 0.117067
0.149981 0.233188 0.119005
0.181247 0.243793 0.121523
0.225208 0.252384 0.11722
0.272206 0.240391 0.0954147
0.303365 0.215045 0.0829938
0.355154 0.217472 0.0717021
0.420996 0.228748 0.0716411
0.491325 0.246296 0.0830243
0.559197 0.264652 0.0946822
0.62002 0.283177 0.105653
0.673762 0.301335 0.115801
0.718578 0.319768 0.124758
0.755184 0.337804 0.132601
0.785367 0.355444 0.139452
0.810864 0.373495 0.145678
0.833402 0.39173 0.151476
0.854673 0.410697 0.157275
0.876295 0.428779 0.162997
0.897658 0.447456 0.168688
0.912077 0.46685 0.173404
0.912718 0.485435 0.176089
0.913069 0.503258 0.178683
0.913451 0.520088 0.181155
0.913664 0.52903 0.182513
0.91368 0.529473 0.182574
0.0608377 0.222843 0.130495
0.0682383 0.222461 0.127459
0.0756542 0.222339 0.124804
0.0816052 0.223835 0.124193
0.088365 0.225727 0.123842
0.0962844 0.228321 0.123278
0.105898 0.23563 0.121157
0.120317 0.245563 0.118349
0.143557 0.255909 0.119265
0.174258 0.267048 0.122316
0.216052 0.280369 0.127184
0.266011 0.288853 0.123812
0.316808 0.267002 0.0986191
0.357839 0.242908 0.0824445
0.424643 0.249149 0.075288
0.49958 0.262577 0.0862593
0.568719 0.281209 0.0981308
0.630335 0.300359 0.109316
0.683986 0.319539 0.11957
0.727626 0.338277 0.128405
0.763867 0.356497 0.136217
0.793545 0.37467 0.14313
0.818357 0.39321 0.149355
0.841489 0.412345 0.155428
0.86389 0.432242 0.161517
0.885573 0.45272 0.167529
0.907408 0.472801 0.173526
0.912886 0.49099 0.176867
0.913191 0.508492 0.179461
0.913573 0.527001 0.182193
0.91397 0.544793 0.18497
0.914092 0.550225 0.18584
0.914153 0.552071 0.186114
0.0594339 0.248493 0.137575
0.0662547 0.248814 0.134539
0.0733959 0.24918 0.131456
0.0790417 0.250706 0.130434
0.0857252 0.252949 0.129641
0.0934462 0.255604 0.128405
0.102846 0.261448 0.12607
0.11606 0.272572 0.12195
0.13843 0.283619 0.122332
0.169604 0.295613 0.127016
0.210117 0.310155 0.133303
0.2589 0.326116 0.140764
0.316182 0.334554 0.137102
0.375814 0.308705 0.104891
0.427008 0.278965 0.0827955
0.505043 0.288426 0.0905623
0.578714 0.302388 0.102296
0.641566 0.321477 0.11368
0.693309 0.340749 0.123613
0.737591 0.359762 0.132616
0.772137 0.378637 0.140352
0.801007 0.397696 0.147265
0.826474 0.416632 0.153658
0.849943 0.435752 0.159884
0.872297 0.455314 0.165881
0.89424 0.475883 0.172
0.912062 0.496483 0.177523
0.913359 0.515969 0.180514
0.913756 0.534905 0.183413
0.914153 0.552956 0.186252
0.914473 0.566796 0.188449
0.914549 0.569757 0.188937
0.914595 0.572183 0.189364
0.0610819 0.278248 0.146456
0.0673228 0.278874 0.143359
0.0740368 0.279652 0.140291
0.0798199 0.281437 0.138949
0.0866865 0.283955 0.137789
0.0948348 0.287297 0.136263
0.104326 0.291691 0.134371
0.117861 0.302968 0.131319
0.138354 0.315389 0.130388
0.168551 0.328511 0.13489
0.20798 0.344625 0.141283
0.25452 0.361578 0.148333
0.313359 0.379797 0.156435
0.377279 0.38793 0.152117
0.446784 0.350591 0.105577
0.508141 0.322713 0.0960098
0.583947 0.333028 0.10724
0.650584 0.345586 0.118181
0.702876 0.363516 0.128054
0.745846 0.383154 0.13695
0.780377 0.402701 0.144732
0.80882 0.421714 0.151659
0.833677 0.440635 0.158038
0.856229 0.459892 0.164141
0.879393 0.479759 0.170397
0.903258 0.500359 0.176837
0.91342 0.519387 0.181033
0.913817 0.537728 0.183856
0.914244 0.557 0.186892
0.914702 0.576211 0.18999
0.914961 0.586923 0.191775
0.914977 0.589075 0.192096
0.915038 0.590387 0.192325
0.0673533 0.311681 0.157229
0.0734569 0.312642 0.154086
0.0798352 0.313634 0.151141
0.0858015 0.316121 0.150057
0.0927749 0.318944 0.148867
0.100862 0.322255 0.14725
0.110338 0.326452 0.145113
0.123018 0.336324 0.142382
0.140749 0.350256 0.139544
0.170092 0.364508 0.143389
0.208255 0.380911 0.149523
0.252995 0.398795 0.156435
0.309834 0.418631 0.164477
0.378943 0.43859 0.173693
0.45359 0.442573 0.161868
0.52192 0.390509 0.10869
0.588663 0.369497 0.113344
0.654749 0.37969 0.123598
0.710048 0.391608 0.133013
0.752911 0.407248 0.141329
0.787213 0.426429 0.149111
0.815305 0.445533 0.155947
0.839139 0.464515 0.162249
0.8636 0.484001 0.168688
0.886824 0.503914 0.17499
0.910628 0.523384 0.181231
0.913924 0.541634 0.184466
0.914321 0.559396 0.187304
0.914717 0.57734 0.190158
0.91519 0.595712 0.19324
0.915358 0.601511 0.194217
0.915373 0.603296 0.194522
0.915389 0.605188 0.194842
0.0749523 0.348287 0.168643
0.0809186 0.349462 0.165606
0.0871901 0.351232 0.162875
0.0929885 0.353475 0.161471
0.099855 0.35639 0.160067
0.107897 0.359838 0.158373
0.117327 0.364034 0.155993
0.129229 0.37232 0.153231
0.144961 0.387137 0.14905
0.173342 0.402029 0.152102
0.210819 0.419226 0.15819
0.25449 0.437446 0.164874
0.309422 0.457923 0.172915
0.37734 0.480125 0.182193
0.456535 0.499168 0.191531
0.536522 0.4981 0.169116
0.595453 0.433036 0.12462
0.659556 0.417731 0.130114
0.714061 0.42742 0.138827
0.758373 0.4383 0.146609
0.793225 0.451072 0.153475
0.820249 0.469261 0.160128
0.845685 0.488563 0.166705
0.869093 0.507195 0.1729
0.892989 0.527047 0.179324
0.912612 0.545724 0.184924
0.914366 0.562356 0.187778
0.914748 0.579217 0.190463
0.91519 0.596185 0.193271
0.915602 0.613428 0.196216
0.915724 0.617716 0.196979
0.915755 0.619135 0.197223
0.915785 0.62063 0.197467
0.0831769 0.38706 0.179904
0.0889296 0.388479 0.176883
0.0949416 0.390173 0.174243
0.100603 0.392569 0.172763
0.107576 0.39556 0.171237
0.115816 0.399527 0.169375
0.125078 0.403876 0.166949
0.136568 0.410788 0.163638
0.151583 0.424308 0.159548
0.177829 0.440375 0.160922
0.215534 0.457923 0.166934
0.258152 0.476799 0.173541
0.311315 0.497139 0.181262
0.376623 0.519219 0.190173
0.459754 0.543526 0.200992
0.535012 0.555703 0.207111
0.609186 0.53785 0.160708
0.659998 0.475654 0.139757
0.718608 0.46511 0.145434
0.762036 0.473869 0.152575
0.796796 0.484535 0.15906
0.825483 0.49543 0.164889
0.850813 0.511421 0.170932
0.874159 0.529793 0.177081
0.898283 0.549187 0.18349
0.914137 0.566735 0.188388
0.914839 0.582757 0.191073
0.915297 0.598932 0.193774
0.915633 0.614816 0.19646
0.91603 0.62945 0.198978
0.916136 0.632563 0.199496
0.916167 0.633875 0.199741
0.916182 0.635401 0.200015
0.0916152 0.426459 0.190723
0.0970626 0.427985 0.187808
0.102861 0.43003 0.18529
0.10869 0.432471 0.183658
0.115816 0.436027 0.18204
0.123903 0.439628 0.17998
0.133318 0.443946 0.177279
0.144396 0.449683 0.173709
0.158968 0.462333 0.169451
0.183917 0.479011 0.169726
0.221118 0.496345 0.175525
0.263371 0.515023 0.18201
0.315221 0.534951 0.189441
0.378042 0.557153 0.198077
0.458778 0.581918 0.208804
0.544991 0.602777 0.218921
0.608148 0.607614 0.221485
0.672694 0.574594 0.163592
0.717113 0.520119 0.154467
0.765972 0.511101 0.159182
0.800168 0.51899 0.165087
0.828733 0.528023 0.170443
0.854856 0.538277 0.175708
0.879042 0.552163 0.181262
0.90428 0.570428 0.187701
0.914946 0.587015 0.191791
0.915312 0.602075 0.194324
0.915724 0.61767 0.196963
0.916121 0.632166 0.199451
0.916457 0.645365 0.201755
0.916533 0.646983 0.202075
0.916564 0.648142 0.202258
0.916564 0.649592 0.202518
0.100099 0.465873 0.201038
0.105348 0.467613 0.19823
0.111055 0.469902 0.195834
0.116915 0.472923 0.194339
0.124071 0.476112 0.192401
0.132403 0.479912 0.190066
0.141741 0.48423 0.18706
0.152743 0.489113 0.183276
0.166964 0.500679 0.178866
0.190707 0.516091 0.178134
0.227863 0.534081 0.183886
0.269551 0.552331 0.190143
0.320226 0.572045 0.197452
0.382528 0.593759 0.205951
0.458915 0.617029 0.216007
0.544976 0.639887 0.226856
0.616754 0.651926 0.234119
0.672694 0.655665 0.232685
0.726848 0.611063 0.172137
0.762676 0.56379 0.167803
0.80264 0.555062 0.171389
0.8318 0.561502 0.176349
0.857237 0.569833 0.181201
0.882948 0.579873 0.186297
0.909041 0.591775 0.191745
0.915419 0.606073 0.194949
0.915816 0.620966 0.197513
0.916197 0.635187 0.2
0.916594 0.650172 0.202625
0.916884 0.660685 0.204532
0.916945 0.661891 0.204715
0.916945 0.662913 0.204944
0.916945 0.663859 0.205097
0.109163 0.50518 0.210758
0.113787 0.507073 0.20827
0.119127 0.509407 0.206104
0.125231 0.512474 0.204349
0.13257 0.515801 0.202121
0.140917 0.519738 0.199649
0.150652 0.524178 0.196521
0.1617 0.528984 0.192447
0.175189 0.537865 0.187518
0.199023 0.553368 0.186481
0.235325 0.570474 0.191989
0.27744 0.589029 0.19823
0.326772 0.607874 0.205234
0.386206 0.628122 0.213367
0.460472 0.650416 0.22298
0.543099 0.672679 0.233707
0.62504 0.692317 0.243915
0.677928 0.696361 0.248569
0.727352 0.696834 0.235645
0.769024 0.648112 0.183978
0.798428 0.605631 0.179736
0.833463 0.597147 0.182712
0.860075 0.602548 0.187091
0.885664 0.610147 0.191745
0.912413 0.618479 0.196674
0.915953 0.625681 0.198322
0.916304 0.639094 0.200641
0.916701 0.652735 0.203128
0.917113 0.667811 0.205829
0.917342 0.675349 0.207187
0.917342 0.676265 0.20737
0.917357 0.677546 0.207568
0.917449 0.678462 0.207736
0.118853 0.544793 0.219944
0.121996 0.54609 0.217929
0.127169 0.548531 0.215824
0.133379 0.551537 0.213855
0.141085 0.555398 0.211673
0.149508 0.559335 0.208942
0.159167 0.563394 0.205509
0.170382 0.568231 0.201068
0.183291 0.574853 0.195727
0.206699 0.589212 0.194461
0.243046 0.606043 0.199832
0.284276 0.623362 0.205768
0.332311 0.64152 0.212558
0.390448 0.660792 0.220432
0.462119 0.681895 0.229862
0.542229 0.703288 0.240497
0.621118 0.722225 0.250843
0.684672 0.733684 0.25861
0.72871 0.735851 0.262776
0.766125 0.729793 0.237842
0.800931 0.684627 0.194812
0.827344 0.646342 0.190723
0.860731 0.637278 0.193286
0.8878 0.640909 0.197391
0.914458 0.647303 0.201862
0.916671 0.652033 0.20296
0.916854 0.657862 0.204028
0.917128 0.669856 0.206195
0.917586 0.684565 0.208881
0.917739 0.689784 0.209827
0.917815 0.691218 0.210071
0.917845 0.692027 0.210254
0.917845 0.693065 0.210437
0.128786 0.583688 0.228229
0.130541 0.58439 0.22681
0.135256 0.587121 0.225162
0.141833 0.59057 0.223209
0.149706 0.594415 0.220706
0.158312 0.598154 0.217624
0.168078 0.602319 0.213901
0.17937 0.607019 0.209384
0.192309 0.612436 0.203662
0.215152 0.62472 0.202274
0.251072 0.640467 0.207492
0.2916 0.656519 0.213199
0.339101 0.673732 0.219821
0.395651 0.692409 0.227543
0.464591 0.712367 0.236744
0.541466 0.731975 0.247105
0.616861 0.749218 0.25745
0.686381 0.764187 0.267506
0.733883 0.769436 0.273503
0.769558 0.771389 0.277897
0.797314 0.760678 0.243839
0.82678 0.720195 0.204868
0.853132 0.684565 0.200885
0.886717 0.675608 0.203449
0.915557 0.677104 0.207309
0.917464 0.679515 0.207935
0.917556 0.682918 0.208576
0.917647 0.687434 0.209354
0.91809 0.701183 0.211933
0.918212 0.704341 0.212497
0.918242 0.705501 0.212711
0.918242 0.706783 0.21294
0.918303 0.707942 0.213199
0.138872 0.622141 0.236179
0.139727 0.622889 0.235294
0.143465 0.625238 0.234134
0.149981 0.628504 0.232059
0.158251 0.632242 0.229099
0.166857 0.636118 0.226017
0.177066 0.640436 0.222095
0.188327 0.644846 0.217273
0.201038 0.649454 0.211444
0.224033 0.658549 0.210071
0.259327 0.673808 0.215045
0.299031 0.689448 0.220478
0.345617 0.705501 0.227054
0.399832 0.722286 0.234455
0.467369 0.741024 0.243702
0.54136 0.758618 0.253742
0.613718 0.774624 0.264347
0.680018 0.78793 0.274662
0.738094 0.7991 0.284672
0.7729 0.801099 0.289586
0.802518 0.802487 0.294759
0.82356 0.789517 0.256474
0.848783 0.752865 0.213993
0.877775 0.719936 0.210483
0.912917 0.710811 0.213016
0.918273 0.707668 0.213077
0.918349 0.708782 0.213352
0.918456 0.712428 0.214023
0.918639 0.718196 0.215091
0.918639 0.718547 0.215167
0.918654 0.719905 0.215381
0.9187 0.721065 0.21561
0.918746 0.722332 0.215839
0.148928 0.660182 0.243946
0.149035 0.660487 0.243366
0.151736 0.662074 0.242588
0.158221 0.665492 0.240574
0.166766 0.669551 0.237537
0.175967 0.673701 0.234089
0.186023 0.677791 0.229953
0.197498 0.681987 0.224811
0.21059 0.686458 0.218631
0.232517 0.692576 0.217777
0.267903 0.706279 0.222553
0.307408 0.720439 0.227955
0.352956 0.735439 0.234257
0.405982 0.751064 0.241672
0.470634 0.767575 0.250767
0.541482 0.783703 0.261143
0.611994 0.797971 0.271855
0.675212 0.810239 0.282399
0.731304 0.821027 0.293034
0.775525 0.828397 0.302358
0.804318 0.829709 0.307454
0.829847 0.830701 0.312825
0.847776 0.817655 0.2766
0.869627 0.782391 0.222385
0.9028 0.751598 0.21944
0.91928 0.741131 0.219409
0.919188 0.735897 0.218418
0.919249 0.737606 0.218708
0.919371 0.741222 0.219455
0.919203 0.735988 0.218433
0.919142 0.734462 0.218158
0.919142 0.735668 0.218372
0.919234 0.736675 0.21857
0.158663 0.696849 0.251438
0.158816 0.697292 0.251148
0.16051 0.698543 0.250874
0.166812 0.702098 0.249058
0.175677 0.706279 0.245808
0.18497 0.710231 0.241932
0.195239 0.713954 0.237598
0.206867 0.718135 0.232288
0.220096 0.722545 0.225986
0.242481 0.72636 0.225834
0.277073 0.737667 0.230228
0.315053 0.750668 0.235416
0.360235 0.763989 0.241688
0.412009 0.778042 0.249271
0.475486 0.792798 0.258671
0.543221 0.807157 0.269322
0.60943 0.82002 0.280156
0.670359 0.831434 0.29099
0.723537 0.841245 0.301457
0.769253 0.850278 0.312383
0.805142 0.856306 0.321813
0.829938 0.856672 0.327169
0.853849 0.857176 0.332403
0.870848 0.844358 0.301671
0.890364 0.80943 0.230625
0.919326 0.77995 0.22681
0.920287 0.768246 0.224613
