public/LUTS/Cinematic/Cinematic_18.cube
TITLE "Generated by Resolve"
LUT_3D_SIZE 33
0.0736858 0.0583658 0.0583658
0.087953 0.0587778 0.0589761
0.103319 0.0605783 0.0606851
0.119844 0.0625315 0.0622721
0.137575 0.0655833 0.0644388
0.156435 0.0696727 0.0672313
0.176226 0.0742199 0.0704814
0.197009 0.0790417 0.0754101
0.218418 0.0846113 0.081178
0.240681 0.0919356 0.0872969
0.265003 0.100282 0.0953536
0.289708 0.109804 0.103716
0.316915 0.120668 0.113787
0.344686 0.133165 0.124758
0.375158 0.146563 0.137743
0.40943 0.162387 0.153002
0.439139 0.176745 0.167025
0.469001 0.193118 0.18117
0.501625 0.209445 0.198245
0.536309 0.228611 0.214679
0.571145 0.24828 0.234073
0.609476 0.268925 0.252293
0.648676 0.289876 0.272297
0.688731 0.311299 0.294072
0.728054 0.331731 0.314839
0.772732 0.356252 0.336324
0.814923 0.378637 0.357687
0.852415 0.398566 0.376669
0.889723 0.418128 0.394934
0.923827 0.435065 0.411017
0.952789 0.449943 0.424201
0.969192 0.458701 0.431754
0.968811 0.458396 0.431479
0.0733043 0.0660716 0.0563973
0.0856489 0.0670329 0.0562448
0.100572 0.068513 0.0578622
0.117678 0.0704051 0.059144
0.136706 0.0737011 0.0613718
0.158114 0.0785534 0.0655528
0.179049 0.0839704 0.0700084
0.201282 0.0905776 0.0755779
0.226139 0.0978103 0.082063
0.249226 0.10544 0.0885481
0.275242 0.115053 0.0974441
0.302327 0.125109 0.10782
0.331594 0.137301 0.1196
0.361868 0.15111 0.132631
0.396536 0.168292 0.147539
0.436454 0.187778 0.166918
0.470039 0.205249 0.182422
0.504448 0.224582 0.199741
0.541817 0.243503 0.218769
0.578119 0.264088 0.237247
0.616953 0.285893 0.258152
0.65716 0.3084 0.277943
0.699672 0.331731 0.300832
0.741146 0.354223 0.323568
0.78175 0.376562 0.344381
0.824613 0.400534 0.365682
0.865812 0.422934 0.386343
0.902144 0.442664 0.404334
0.935271 0.459251 0.420554
0.965286 0.473671 0.434806
0.993606 0.489326 0.448295
1 0.497871 0.455482
1 0.497871 0.455482
0.0734417 0.0745251 0.0555428
0.0852979 0.0755474 0.0552682
0.0982986 0.0762951 0.0555123
0.114366 0.0779736 0.0562448
0.134554 0.0815442 0.058381
0.15671 0.0870069 0.0625162
0.178836 0.0937972 0.0677653
0.203098 0.101778 0.0741283
0.230747 0.111055 0.0817121
0.255589 0.120104 0.089601
0.283131 0.131014 0.0996872
0.313451 0.14226 0.112062
0.344015 0.156481 0.124865
0.377554 0.171695 0.1402
0.413764 0.190494 0.15668
0.455909 0.212497 0.17734
0.49514 0.234195 0.196719
0.5355 0.256809 0.217502
0.57528 0.278462 0.237934
0.616434 0.300908 0.259785
0.659663 0.324727 0.282338
0.703273 0.349722 0.305318
0.746715 0.373907 0.328649
0.788067 0.397772 0.350164
0.826505 0.419974 0.370428
0.865309 0.441382 0.391424
0.903548 0.46247 0.41091
0.937209 0.480949 0.427543
0.968475 0.497536 0.442741
0.996857 0.513176 0.456214
1 0.528038 0.469017
1 0.537362 0.477638
1 0.536919 0.477272
0.0732128 0.0856489 0.0537881
0.0855726 0.0866255 0.0534981
0.0977493 0.0869459 0.0538643
0.114244 0.0879225 0.0546426
0.134752 0.0914473 0.0566415
0.15613 0.09691 0.0607309
0.17966 0.104402 0.0662394
0.205539 0.113252 0.0729839
0.233616 0.123384 0.0810712
0.261631 0.135225 0.090547
0.29189 0.147753 0.102815
0.324941 0.160922 0.116762
0.356283 0.177447 0.13048
0.393225 0.194903 0.147463
0.43061 0.214313 0.166339
0.475349 0.238666 0.188342
0.519783 0.262592 0.210727
0.562936 0.287129 0.233295
0.606531 0.312398 0.256687
0.652567 0.33814 0.281178
0.701274 0.365515 0.306859
0.743923 0.389944 0.330465
0.789395 0.415396 0.35407
0.831617 0.439368 0.376043
0.870329 0.461295 0.397192
0.908568 0.482414 0.418112
0.942412 0.501106 0.435569
0.972793 0.518257 0.45066
1 0.5346 0.464744
1 0.550347 0.477791
1 0.565469 0.490715
1 0.575006 0.498421
1 0.574701 0.498131
0.0730449 0.0992447 0.0518502
0.0858015 0.0998398 0.0516976
0.0982681 0.100587 0.0522927
0.115343 0.102144 0.0533303
0.13753 0.105303 0.0557259
0.158389 0.110155 0.0599985
0.182254 0.117525 0.0656291
0.207645 0.126665 0.0727092
0.236851 0.13753 0.0816205
0.268132 0.151522 0.0928206
0.301488 0.166415 0.106798
0.3346 0.181582 0.120897
0.370672 0.20061 0.138231
0.410163 0.219944 0.15729
0.450217 0.242878 0.177295
0.498268 0.268284 0.202716
0.546685 0.295277 0.227573
0.590677 0.321752 0.250416
0.639872 0.351781 0.276707
0.688121 0.379446 0.302739
0.737667 0.407248 0.330144
0.782727 0.433188 0.354376
0.828885 0.45951 0.379034
0.871061 0.483497 0.40206
0.909148 0.505165 0.422187
0.9449 0.525673 0.441047
0.978439 0.54406 0.45864
1 0.560937 0.474662
1 0.576303 0.488304
1 0.591959 0.50132
1 0.605539 0.513878
1 0.61268 0.521965
1 0.612467 0.521813
0.0721141 0.112062 0.0509499
0.0854047 0.113848 0.0509804
0.0995346 0.115236 0.0512551
0.11667 0.117754 0.05243
0.13933 0.120775 0.0553597
0.161334 0.125399 0.0595102
0.184405 0.132937 0.0654765
0.20882 0.142229 0.0725567
0.239368 0.153719 0.0827497
0.270588 0.166537 0.0953536
0.305379 0.183276 0.109468
0.343435 0.202548 0.125917
0.382345 0.221668 0.144579
0.424353 0.24419 0.166003
0.468147 0.26952 0.18674
0.520409 0.298314 0.215869
0.569802 0.327565 0.242847
0.618631 0.355993 0.268635
0.669337 0.387533 0.295094
0.719097 0.416495 0.322255
0.769131 0.444846 0.350118
0.819913 0.473594 0.378515
0.866514 0.501564 0.404425
0.907744 0.526467 0.427192
0.945708 0.54847 0.447288
0.980499 0.568627 0.465843
1 0.58706 0.483497
1 0.603418 0.498039
1 0.618631 0.510521
1 0.633402 0.524575
1 0.649088 0.537926
1 0.660395 0.54638
1 0.659846 0.545937
0.0710002 0.124498 0.0505226
0.0855573 0.128847 0.0505074
0.101534 0.131289 0.0512703
0.119326 0.133349 0.0525368
0.141741 0.137606 0.0560616
0.163745 0.142794 0.0607156
0.187106 0.148623 0.0677043
0.210986 0.157595 0.0746471
0.240177 0.170367 0.084184
0.271977 0.183688 0.0972152
0.311513 0.203281 0.113634
0.351385 0.223133 0.129732
0.395804 0.243931 0.150988
0.436118 0.268727 0.171298
0.483986 0.295201 0.195773
0.539956 0.326818 0.227283
0.591455 0.357977 0.255833
0.641642 0.387915 0.283986
0.694392 0.420325 0.313329
0.747173 0.450919 0.343145
0.799527 0.480766 0.372335
0.850065 0.511666 0.400183
0.89546 0.539559 0.425818
0.936568 0.565148 0.448478
0.974594 0.58883 0.469017
1 0.610254 0.488685
1 0.629419 0.506523
1 0.646006 0.522103
1 0.661799 0.536217
1 0.676814 0.548363
1 0.691676 0.561364
1 0.702586 0.569848
1 0.70222 0.569558
0.0714885 0.137514 0.0513466
0.0866255 0.141436 0.0518807
0.103746 0.14612 0.052491
0.121065 0.150103 0.0541085
0.144442 0.155169 0.0581979
0.168292 0.160082 0.0633707
0.192325 0.165682 0.0699474
0.215167 0.173434 0.0771954
0.243549 0.186358 0.087068
0.27718 0.201389 0.100511
0.313283 0.219684 0.116304
0.357107 0.242405 0.135561
0.402975 0.264912 0.157549
0.451392 0.292897 0.18146
0.500755 0.320058 0.207065
0.554299 0.352407 0.235904
0.61001 0.386572 0.267033
0.665064 0.4215 0.298528
0.718669 0.453681 0.329198
0.771374 0.48632 0.359121
0.826429 0.517891 0.389776
0.877287 0.548669 0.418402
0.923369 0.576745 0.444678
0.964431 0.60032 0.468132
1 0.624323 0.489662
1 0.648875 0.509896
1 0.671016 0.528984
1 0.688563 0.544259
1 0.704631 0.557244
1 0.719753 0.571786
1 0.734554 0.585092
1 0.747387 0.593881
1 0.746731 0.593408
0.0718242 0.150668 0.0518654
0.0872511 0.156832 0.0535897
0.1066 0.162951 0.0551308
0.125719 0.167193 0.0568856
0.148669 0.174701 0.0609903
0.172793 0.17998 0.0667735
0.199054 0.186389 0.0749828
0.222065 0.19443 0.0826276
0.249912 0.20531 0.0918898
0.279454 0.219516 0.104692
0.319997 0.238575 0.121706
0.365286 0.263767 0.14078
0.412161 0.290181 0.164858
0.45951 0.316945 0.188815
0.511864 0.34696 0.216068
0.571344 0.38265 0.24744
0.629343 0.417899 0.280934
0.685283 0.453529 0.313024
0.74316 0.489952 0.345769
0.798154 0.523827 0.376989
0.853361 0.558038 0.408713
0.902647 0.587152 0.43714
0.947692 0.614862 0.463035
0.989303 0.640696 0.486809
1 0.664073 0.5084
1 0.689754 0.530327
1 0.712291 0.550942
1 0.731151 0.567529
1 0.750896 0.583032
1 0.767727 0.598062
1 0.786542 0.610437
1 0.799725 0.622599
1 0.799237 0.622248
0.0722362 0.165942 0.0542916
0.0889448 0.171298 0.0549172
0.109163 0.178805 0.0574655
0.129168 0.18439 0.0603952
0.153872 0.193057 0.0652171
0.178607 0.201907 0.0720836
0.207141 0.209094 0.0801404
0.232303 0.217121 0.0876936
0.258228 0.227756 0.0988479
0.287922 0.239109 0.109636
0.328664 0.260212 0.127016
0.369711 0.282124 0.146304
0.419654 0.313054 0.170077
0.471687 0.344686 0.196841
0.52578 0.374609 0.226719
0.588663 0.413611 0.260548
0.648096 0.450523 0.294545
0.704784 0.485756 0.327688
0.767254 0.525368 0.363088
0.824628 0.560967 0.396201
0.877134 0.592691 0.427375
0.926436 0.624353 0.456489
0.971298 0.653254 0.482704
1 0.680858 0.507637
1 0.706569 0.529519
1 0.730816 0.551156
1 0.754757 0.572702
1 0.77435 0.590173
1 0.794079 0.606378
1 0.811887 0.621164
1 0.833478 0.633753
1 0.85008 0.647425
1 0.849821 0.647257
0.0746777 0.179187 0.0555428
0.0910506 0.186465 0.0580301
0.112871 0.198093 0.0619974
0.133043 0.205905 0.0655375
0.157961 0.215976 0.0717327
0.186542 0.226078 0.0786297
0.21619 0.235126 0.087892
0.240436 0.242466 0.0957504
0.270863 0.25568 0.107851
0.301076 0.266651 0.118791
0.337087 0.283268 0.13434
0.376623 0.305226 0.153643
0.429191 0.335912 0.178805
0.482353 0.368978 0.205722
0.536995 0.403342 0.236194
0.601709 0.443061 0.272831
0.667262 0.485481 0.309392
0.728191 0.524102 0.34551
0.789136 0.561425 0.381048
0.846891 0.597498 0.413977
0.900725 0.631662 0.446006
0.951949 0.665232 0.477134
0.997803 0.695354 0.504372
1 0.722271 0.52871
1 0.749691 0.55227
1 0.776242 0.574929
1 0.801175 0.595804
1 0.820386 0.613993
1 0.841367 0.630198
1 0.86128 0.645441
1 0.881148 0.660471
1 0.899596 0.674861
1 0.899046 0.674495
0.0768902 0.196475 0.0605783
0.093843 0.204425 0.0634165
0.118471 0.217792 0.0671244
0.139101 0.225818 0.0718395
0.166293 0.238407 0.0791028
0.192645 0.249363 0.0874495
0.223865 0.260578 0.0969558
0.254322 0.27187 0.106233
0.284642 0.281636 0.118578
0.31664 0.296986 0.130419
0.352224 0.313527 0.145998
0.38851 0.332692 0.162768
0.437613 0.360052 0.18735
0.491722 0.392645 0.214847
0.546563 0.428748 0.24564
0.614435 0.471687 0.28368
0.680995 0.514687 0.321828
0.743999 0.555825 0.359075
0.807309 0.595712 0.396658
0.868086 0.634836 0.43299
0.924041 0.67126 0.466316
0.975265 0.704906 0.496376
1 0.735393 0.52372
1 0.763241 0.549752
1 0.791684 0.574029
1 0.818814 0.596567
1 0.845411 0.618891
1 0.86717 0.636637
1 0.889296 0.653269
1 0.908858 0.670832
1 0.929381 0.684352
1 0.949889 0.699641
1 0.948989 0.699153
0.0820172 0.214954 0.0644846
0.0983444 0.222324 0.0679026
0.120729 0.236072 0.0762646
0.144732 0.247639 0.0813001
0.176196 0.263401 0.0901961
0.203815 0.277867 0.0993515
0.235279 0.287633 0.109133
0.266133 0.301411 0.117952
0.302068 0.315938 0.131533
0.332921 0.330007 0.144945
0.370184 0.348363 0.160052
0.40502 0.367254 0.176699
0.448524 0.389502 0.19826
0.502724 0.421653 0.225666
0.560357 0.459129 0.257801
0.626978 0.50106 0.295689
0.694469 0.544335 0.334585
0.759441 0.588403 0.373358
0.825406 0.632624 0.413413
0.887037 0.673228 0.450813
0.94519 0.711528 0.48574
0.997772 0.745876 0.517052
1 0.777478 0.545632
1 0.807202 0.572427
1 0.834134 0.595468
1 0.862272 0.618784
1 0.891234 0.641581
1 0.915175 0.660822
1 0.937575 0.677409
1 0.957702 0.694286
1 0.979355 0.70811
1 1 0.72369
1 1 0.72398
0.0878157 0.234333 0.0706951
0.102327 0.241001 0.0745861
0.127443 0.257572 0.0842145
0.154665 0.273777 0.0910964
0.188449 0.293324 0.102846
0.218814 0.30724 0.112535
0.250507 0.321279 0.123125
0.282002 0.336156 0.134432
0.317678 0.351934 0.147021
0.351278 0.36669 0.161257
0.38851 0.38439 0.176776
0.427161 0.404791 0.194415
0.468208 0.427482 0.214862
0.515084 0.454643 0.238987
0.571847 0.488792 0.269795
0.640864 0.533776 0.309346
0.712657 0.580301 0.350881
0.779644 0.625177 0.390799
0.845899 0.671183 0.431067
0.908934 0.713573 0.469245
0.966674 0.751476 0.505074
1 0.787472 0.538155
1 0.821576 0.567529
1 0.851301 0.594278
1 0.879942 0.618341
1 0.908385 0.642725
1 0.937316 0.664912
1 0.96141 0.685008
1 0.984527 0.700191
1 1 0.717159
1 1 0.731975
1 1 0.747112
1 1 0.748226
0.0949416 0.254734 0.0782483
0.109957 0.26421 0.082948
0.136309 0.283299 0.0935225
0.164416 0.299718 0.102159
0.203159 0.325643 0.117617
0.234913 0.342794 0.128496
0.270512 0.3608 0.141024
0.302876 0.37525 0.152499
0.341039 0.393561 0.16701
0.375387 0.410346 0.18172
0.412695 0.428046 0.198169
0.451728 0.447822 0.215625
0.494102 0.470069 0.23566
0.539467 0.496803 0.259617
0.59057 0.526162 0.287358
0.658091 0.569467 0.325429
0.731945 0.619089 0.36849
0.799084 0.664195 0.408743
0.866606 0.710445 0.44979
0.93283 0.754971 0.490181
0.988357 0.792081 0.525277
1 0.828351 0.55848
1 0.8645 0.588296
1 0.897688 0.616953
1 0.928512 0.641627
1 0.955047 0.665217
1 0.985138 0.68777
1 1 0.706874
1 1 0.722454
1 1 0.740185
1 1 0.753689
1 1 0.768978
1 1 0.77084
0.106264 0.281758 0.0896925
0.121508 0.28983 0.0945907
0.150393 0.313298 0.105715
0.179736 0.33341 0.116442
0.221057 0.36376 0.135729
0.256748 0.385946 0.150378
0.294499 0.405905 0.164324
0.328786 0.423102 0.177081
0.367864 0.441352 0.192081
0.405219 0.461784 0.208392
0.444205 0.47985 0.22536
0.482292 0.499321 0.242039
0.525277 0.521355 0.26215
0.572213 0.548043 0.286595
0.620722 0.575662 0.313085
0.679072 0.6112 0.345937
0.747829 0.656443 0.38584
0.820844 0.706386 0.429679
0.890364 0.753399 0.471809
0.955306 0.797787 0.511803
1 0.836942 0.547463
1 0.872587 0.580118
1 0.910231 0.610956
1 0.943313 0.638956
1 0.975845 0.66389
1 1 0.6878
1 1 0.709926
1 1 0.727886
1 1 0.743725
1 1 0.760845
1 1 0.774762
1 1 0.790387
1 1 0.792691
0.116701 0.306493 0.101747
0.134707 0.317281 0.106859
0.166461 0.3449 0.121218
0.196246 0.36495 0.132052
0.2392 0.399634 0.154284
0.280385 0.426932 0.172381
0.322347 0.453681 0.190219
0.358785 0.473808 0.204974
0.396902 0.493095 0.220432
0.437797 0.515267 0.237888
0.479835 0.536492 0.256855
0.518441 0.556435 0.27393
0.558648 0.576562 0.292622
0.605234 0.601663 0.316136
0.655009 0.628809 0.342336
0.709255 0.660853 0.372915
0.769329 0.699001 0.407568
0.839231 0.745007 0.448386
0.912947 0.795865 0.493233
0.979156 0.842618 0.534722
1 0.884962 0.571679
1 0.921462 0.604288
1 0.956039 0.633433
1 0.988739 0.661082
1 1 0.686366
1 1 0.710353
1 1 0.730846
1 1 0.749035
1 1 0.764019
1 1 0.779965
1 1 0.793973
1 1 0.809522
1 1 0.812421
0.130419 0.333059 0.11397
0.150927 0.349126 0.122011
0.18497 0.377386 0.138338
0.214481 0.399847 0.151614
0.260578 0.437613 0.174731
0.305974 0.47039 0.196262
0.35137 0.502556 0.217746
0.391257 0.526741 0.235203
0.431113 0.549004 0.252003
0.475837 0.574395 0.271687
0.518227 0.596628 0.291279
0.557809 0.616327 0.308721
0.597696 0.636118 0.327214
0.641932 0.659464 0.349493
0.691691 0.685618 0.374975
0.7449 0.715373 0.403586
0.799817 0.748592 0.434501
0.859251 0.785641 0.468788
0.93077 0.834867 0.512169
1 0.884657 0.556207
1 0.927657 0.593469
1 0.968307 0.627451
1 1 0.656321
1 1 0.682338
1 1 0.706447
1 1 0.730465
1 1 0.749157
1 1 0.768139
1 1 0.781552
1 1 0.797223
1 1 0.808896
1 1 0.823575
1 1 0.827543
0.145708 0.362066 0.128313
0.169253 0.380392 0.138857
0.206622 0.413428 0.157382
0.238514 0.441459 0.175326
0.287572 0.483772 0.199786
0.335256 0.519371 0.223835
0.383841 0.556405 0.248844
0.428275 0.585977 0.269795
0.47187 0.611673 0.289219
0.516091 0.637125 0.309163
0.559411 0.659922 0.328649
0.601572 0.68127 0.347463
0.642466 0.701808 0.366751
0.684092 0.722957 0.387655
0.728786 0.744579 0.409918
0.781033 0.773175 0.437232
0.837522 0.807477 0.468482
0.891066 0.838087 0.498833
0.950271 0.876188 0.533608
1 0.923858 0.57499
1 0.96669 0.612467
1 1 0.648844
1 1 0.677607
1 1 0.702937
1 1 0.723354
1 1 0.747189
1 1 0.765332
1 1 0.782528
1 1 0.79707
1 1 0.811276
1 1 0.823285
1 1 0.837339
1 1 0.841184
0.16289 0.393393 0.145892
0.18996 0.415503 0.158175
0.231708 0.455055 0.181125
0.265766 0.48484 0.200412
0.317067 0.531762 0.228199
0.370077 0.573632 0.255451
0.422522 0.615457 0.28365
0.469825 0.649805 0.307713
0.513405 0.675441 0.328298
0.558709 0.702922 0.350057
0.604944 0.728985 0.371328
0.644205 0.746563 0.388418
0.683513 0.765087 0.406577
0.725887 0.785199 0.426276
0.770321 0.8065 0.448051
0.819242 0.832639 0.473564
0.87454 0.865568 0.503227
0.928695 0.897108 0.532967
0.981216 0.927184 0.562402
1 0.963439 0.596124
1 1 0.632685
1 1 0.668788
1 1 0.696742
1 1 0.722133
1 1 0.742702
1 1 0.761624
1 1 0.779049
1 1 0.795254
1 1 0.810285
1 1 0.824933
1 1 0.836896
1 1 0.849424
1 1 0.853544
0.184421 0.428305 0.165316
0.213077 0.457496 0.181323
0.258564 0.498589 0.206867
0.298009 0.534874 0.229511
0.350927 0.583841 0.261082
0.409949 0.635218 0.293385
0.464195 0.678416 0.322515
0.512139 0.714961 0.348486
0.559792 0.746487 0.372457
0.607843 0.777295 0.396399
0.65124 0.801328 0.416785
0.69073 0.819013 0.434134
0.73077 0.835676 0.450385
0.776974 0.858412 0.470787
0.818906 0.878828 0.49102
0.862699 0.899825 0.512932
0.913558 0.924971 0.538735
0.965362 0.953887 0.566979
1 0.981079 0.594049
1 1 0.624323
1 1 0.651728
1 1 0.685496
1 1 0.713527
1 1 0.740185
1 1 0.759243
1 1 0.776455
1 1 0.791959
1 1 0.808225
1 1 0.822858
1 1 0.834409
1 1 0.847059
1 1 0.861494
1 1 0.866499
0.20827 0.47042 0.189578
0.239673 0.50161 0.206928
0.290394 0.548287 0.235752
0.335973 0.590677 0.26244
0.389929 0.643091 0.297078
0.449149 0.697749 0.333181
0.508278 0.746792 0.365988
0.560693 0.787427 0.394751
0.610391 0.822995 0.420752
0.6589 0.853941 0.444327
0.702876 0.877928 0.46508
0.744488 0.898543 0.483986
0.785992 0.917784 0.500999
0.827268 0.935271 0.51809
0.865461 0.949462 0.535073
0.908064 0.967803 0.555108
0.955718 0.988861 0.578195
1 1 0.60119
1 1 0.626673
1 1 0.654734
1 1 0.679316
1 1 0.701274
1 1 0.728527
1 1 0.753689
1 1 0.773785
1 1 0.79202
1 1 0.806195
1 1 0.820935
1 1 0.832151
1 1 0.845075
1 1 0.856748
1 1 0.869062
1 1 0.874311
0.241077 0.525414 0.221866
0.275715 0.557961 0.240894
0.326787 0.605051 0.271977
0.37763 0.654856 0.303181
0.434348 0.710079 0.338888
0.497566 0.769696 0.378073
0.558831 0.821881 0.413611
0.610666 0.861479 0.442191
0.65861 0.893858 0.466484
0.707301 0.924346 0.48983
0.753902 0.950607 0.511131
0.796201 0.971725 0.529732
0.835554 0.989929 0.546502
0.874342 1 0.56173
0.913451 1 0.577661
0.950423 1 0.593622
0.995361 1 0.613993
1 1 0.634028
1 1 0.653788
1 1 0.679866
1 1 0.701579
1 1 0.723171
1 1 0.740414
1 1 0.763836
1 1 0.782605
1 1 0.802304
1 1 0.818433
1 1 0.830823
1 1 0.843137
1 1 0.854032
1 1 0.863645
1 1 0.876204
1 1 0.882841
0.278386 0.584131 0.257923
0.315099 0.622019 0.28014
0.367056 0.670573 0.311986
0.423789 0.727596 0.348394
0.481376 0.780591 0.383719
0.545159 0.840558 0.424277
0.606912 0.894316 0.46038
0.661128 0.937163 0.491112
0.710628 0.971466 0.516167
0.758633 0.999268 0.537179
0.803342 1 0.557046
0.844327 1 0.574639
0.885283 1 0.591577
0.925322 1 0.60705
0.960571 1 0.620295
0.996262 1 0.634684
1 1 0.65185
1 1 0.668742
1 1 0.686595
1 1 0.70547
1 1 0.725673
1 1 0.744213
1 1 0.759899
1 1 0.772534
1 1 0.792248
1 1 0.809796
1 1 0.826108
1 1 0.840986
1 1 0.852247
1 1 0.861677
1 1 0.872679
1 1 0.884306
1 1 0.889799
0.327581 0.658366 0.304158
0.364706 0.698161 0.327718
0.419287 0.750774 0.360922
0.476143 0.80502 0.39704
0.531044 0.853681 0.430655
0.591134 0.907301 0.466911
0.653452 0.9626 0.5037
0.706355 1 0.532952
0.754131 1 0.556039
0.801068 1 0.57702
0.845502 1 0.596826
0.887221 1 0.613169
0.927214 1 0.629191
0.964767 1 0.644007
1 1 0.65713
1 1 0.670405
1 1 0.686
1 1 0.70016
1 1 0.714351
1 1 0.730495
1 1 0.747478
1 1 0.764614
1 1 0.776272
1 1 0.787167
1 1 0.798184
1 1 0.815503
1 1 0.832288
1 1 0.846464
1 1 0.858457
1 1 0.868879
1 1 0.87985
1 1 0.890974
1 1 0.895949
0.377081 0.735576 0.353979
0.419867 0.778363 0.378531
0.471077 0.828305 0.410651
0.526864 0.881727 0.44686
0.583535 0.931182 0.480552
0.64303 0.983627 0.515007
0.699641 1 0.546578
0.751949 1 0.574899
0.800031 1 0.597894
0.845823 1 0.616785
0.888228 1 0.635203
0.928771 1 0.651438
0.968597 1 0.666941
1 1 0.681239
1 1 0.694057
1 1 0.706355
1 1 0.7196
1 1 0.732891
1 1 0.744854
1 1 0.756252
1 1 0.770825
1 1 0.782834
1 1 0.793393
1 1 0.803525
1 1 0.812787
1 1 0.82356
1 1 0.836988
1 1 0.850309
1 1 0.862531
1 1 0.873716
1 1 0.884794
1 1 0.896132
1 1 0.902327
0.435142 0.824598 0.411414
0.479744 0.871077 0.438285
0.529198 0.917708 0.468833
0.584253 0.967971 0.50135
0.636866 1 0.529137
0.690791 1 0.558114
0.745663 1 0.587579
0.79556 1 0.61323
0.840528 1 0.63473
0.883268 1 0.651576
0.926055 1 0.668513
0.9664 1 0.683894
1 1 0.699794
1 1 0.713268
1 1 0.72546
1 1 0.736233
1 1 0.749264
1 1 0.760647
1 1 0.771145
1 1 0.780713
1 1 0.790249
1 1 0.799786
1 1 0.80856
1 1 0.818036
1 1 0.825711
1 1 0.833234
1 1 0.842191
1 1 0.854536
1 1 0.866148
1 1 0.87689
1 1 0.888365
1 1 0.900389
1 1 0.908049
0.492622 0.91313 0.465354
0.537377 0.957473 0.490791
0.585016 1 0.519966
0.636942 1 0.551812
0.686534 1 0.576379
0.736782 1 0.600015
0.786786 1 0.625101
0.833402 1 0.647135
0.875608 1 0.666758
