public/LUTS/Cinematic/Cinematic_09.cube
TITLE "Generated by Resolve"
LUT_3D_SIZE 33
0 0.000411994 0.0439612
0 0 0.0433051
0.027512 0 0.042649
0.0612345 0 0.0419928
0.0949569 0 0.0413367
0.128664 0 0.0406806
0.162387 0 0.0400244
0.196109 0 0.0393683
0.229831 0 0.0387121
0.263554 0 0.038056
0.297261 0 0.0373999
0.330983 0 0.0367437
0.364706 0 0.0360876
0.398428 0 0.0354314
0.432151 0 0.0347753
0.465858 0 0.0341192
0.49958 0 0.033463
0.533303 0 0.0328069
0.567025 0 0.0321508
0.600748 0 0.0314946
0.634455 0 0.0308385
0.668177 0 0.0301823
0.7019 0 0.0295262
0.735622 0 0.0288701
0.769329 0 0.0282139
0.803052 0 0.0275578
0.836774 0 0.0269017
0.870497 0 0.0262455
0.904219 0 0.0255894
0.937926 0 0.0249332
0.971649 0 0.0242771
1 0 0.023621
1 0 0.0229648
0 0.0325933 0.0417792
0 0.0319371 0.0411231
0.02533 0.031281 0.0404669
0.0590524 0.0306096 0.0398108
0.0927596 0.0299535 0.0391546
0.126482 0.0292973 0.0384985
0.160204 0.0286412 0.0378424
0.193927 0.027985 0.0371862
0.227649 0.0273289 0.0365301
0.261357 0.0266728 0.035874
0.295079 0.0260166 0.0352178
0.328801 0.0253605 0.0345617
0.362524 0.0247044 0.0339055
0.396231 0.0240482 0.0332494
0.429953 0.0233921 0.0325933
0.463676 0.0227359 0.0319371
0.497398 0.0220798 0.031281
0.531121 0.0214237 0.0306249
0.564828 0.0207675 0.0299687
0.59855 0.0201114 0.0293126
0.632273 0.0194553 0.0286564
0.665995 0.0187991 0.0280003
0.699718 0.018143 0.0273442
0.733425 0.0174868 0.026688
0.767147 0.0168307 0.0260319
0.80087 0.0161746 0.0253758
0.834592 0.0155184 0.0247196
0.868315 0.0148623 0.0240635
0.902022 0.0142061 0.0234073
0.935744 0.01355 0.0227359
0.969467 0.0128939 0.0220798
1 0.0122377 0.0214237
1 0.0115816 0.0207675
0 0.0647746 0.0395819
0 0.0641184 0.0389258
0.0231327 0.0634623 0.0382696
0.0568551 0.0628061 0.0376135
0.0905776 0.06215 0.0369573
0.1243 0.0614939 0.0363012
0.158022 0.0608377 0.0356451
0.19173 0.0601816 0.0349889
0.225452 0.0595254 0.0343328
0.259174 0.0588693 0.0336767
0.292897 0.0582132 0.0330205
0.326619 0.057557 0.0323644
0.360327 0.0569009 0.0317082
0.394049 0.0562448 0.0310521
0.427771 0.0555886 0.030396
0.461494 0.0549325 0.0297398
0.495216 0.0542763 0.0290837
0.528923 0.0536202 0.0284276
0.562646 0.0529641 0.0277714
0.596368 0.0523079 0.0271153
0.630091 0.0516518 0.0264591
0.663798 0.0509957 0.025803
0.69752 0.0503395 0.0251469
0.731243 0.0496834 0.0244907
0.764965 0.0490272 0.0238346
0.798688 0.0483711 0.0231785
0.832395 0.047715 0.0225223
0.866117 0.0470588 0.0218662
0.89984 0.0464027 0.02121
0.933562 0.0457313 0.0205539
0.967285 0.0450752 0.0198978
1 0.044419 0.0192416
1 0.0437629 0.0185855
0 0.0969558 0.0373999
0 0.0962997 0.0367437
0.0209506 0.0956436 0.0360876
0.0546731 0.0949874 0.0354314
0.0883955 0.0943313 0.0347753
0.122103 0.0936751 0.0341192
0.155825 0.093019 0.033463
0.189548 0.0923629 0.0328069
0.22327 0.0917067 0.0321508
0.256992 0.0910506 0.0314946
0.2907 0.0903944 0.0308385
0.324422 0.0897383 0.0301823
0.358144 0.0890822 0.0295262
0.391867 0.088426 0.0288701
0.425589 0.0877699 0.0282139
0.459297 0.0871138 0.0275578
0.493019 0.0864576 0.0269017
0.526741 0.0858015 0.0262455
0.560464 0.0851453 0.0255894
0.594186 0.0844892 0.0249332
0.627894 0.0838331 0.0242771
0.661616 0.0831769 0.023621
0.695338 0.0825208 0.0229648
0.729061 0.0818647 0.0223087
0.762768 0.0812085 0.0216526
0.79649 0.0805524 0.0209964
0.830213 0.0798962 0.0203403
0.863935 0.0792401 0.0196841
0.897658 0.078584 0.019028
0.931365 0.0779278 0.0183719
0.965087 0.0772717 0.0177157
0.99881 0.0766155 0.0170596
1 0.0759594 0.0164034
0 0.129152 0.0352178
0 0.128496 0.0345617
0.0187686 0.12784 0.0339055
0.0524758 0.127184 0.0332494
0.0861982 0.126528 0.0325933
0.119921 0.125872 0.0319371
0.153643 0.125216 0.031281
0.187366 0.124559 0.0306249
0.221073 0.123903 0.0299687
0.254795 0.123247 0.0293126
0.288518 0.122591 0.0286564
0.32224 0.121935 0.0280003
0.355962 0.121279 0.0273442
0.38967 0.120623 0.026688
0.423392 0.119966 0.0260319
0.457115 0.11931 0.0253758
0.490837 0.118654 0.0247196
0.524559 0.117998 0.0240635
0.558267 0.117342 0.0234073
0.591989 0.116686 0.0227359
0.625711 0.11603 0.0220798
0.659434 0.115373 0.0214237
0.693156 0.114702 0.0207675
0.726864 0.114046 0.0201114
0.760586 0.11339 0.0194553
0.794308 0.112734 0.0187991
0.828031 0.112078 0.018143
0.861738 0.111421 0.0174868
0.89546 0.110765 0.0168307
0.929183 0.110109 0.0161746
0.962905 0.109453 0.0155184
0.996628 0.108797 0.0148623
1 0.108141 0.0142061
0 0.161334 0.0330205
0 0.160678 0.0323644
0.0165713 0.160021 0.0317082
0.0502937 0.159365 0.0310521
0.0840162 0.158709 0.030396
0.117739 0.158053 0.0297398
0.151461 0.157397 0.0290837
0.185168 0.156741 0.0284276
0.218891 0.156085 0.0277714
0.252613 0.155428 0.0271153
0.286336 0.154772 0.0264591
0.320043 0.154116 0.025803
0.353765 0.15346 0.0251469
0.387488 0.152804 0.0244907
0.42121 0.152148 0.0238346
0.454932 0.151492 0.0231785
0.48864 0.150835 0.0225223
0.522362 0.150179 0.0218662
0.556085 0.149523 0.02121
0.589807 0.148867 0.0205539
0.623529 0.148211 0.0198978
0.657237 0.147555 0.0192416
0.690959 0.146899 0.0185855
0.724681 0.146242 0.0179294
0.758404 0.145586 0.0172732
0.792126 0.14493 0.0166171
0.825833 0.144274 0.0159609
0.859556 0.143618 0.0153048
0.893278 0.142962 0.0146487
0.927001 0.142306 0.0139925
0.960723 0.141649 0.0133364
0.99443 0.140993 0.0126802
1 0.140337 0.0120241
0 0.19353 0.0308385
0 0.192874 0.0301823
0.0143893 0.192218 0.0295262
0.0481117 0.191562 0.0288701
0.0818341 0.190906 0.0282139
0.115541 0.190249 0.0275578
0.149264 0.189593 0.0269017
0.182986 0.188937 0.0262455
0.216709 0.188281 0.0255894
0.250431 0.187625 0.0249332
0.284138 0.186969 0.0242771
0.317861 0.186313 0.023621
0.351583 0.185657 0.0229648
0.385306 0.185 0.0223087
0.419013 0.184344 0.0216526
0.452735 0.183673 0.0209964
0.486458 0.183017 0.0203403
0.52018 0.182361 0.0196841
0.553903 0.181704 0.019028
0.58761 0.181048 0.0183719
0.621332 0.180392 0.0177157
0.655055 0.179736 0.0170596
0.688777 0.17908 0.0164034
0.722499 0.178424 0.0157473
0.756207 0.177768 0.0150912
0.789929 0.177111 0.014435
0.823651 0.176455 0.0137789
0.857374 0.175799 0.0131228
0.891096 0.175143 0.0124666
0.924804 0.174487 0.0118105
0.958526 0.173831 0.0111543
0.992248 0.173175 0.0104982
1 0.172519 0.00984207
0 0.225711 0.0286564
0 0.225055 0.0280003
0.0122072 0.224399 0.0273442
0.0459144 0.223743 0.026688
0.0796368 0.223087 0.0260319
0.113359 0.222431 0.0253758
0.147082 0.221775 0.0247196
0.180804 0.221118 0.0240635
0.214511 0.220462 0.0234073
0.248234 0.219806 0.0227359
0.281956 0.21915 0.0220798
0.315679 0.218494 0.0214237
0.349401 0.217838 0.0207675
0.383108 0.217182 0.0201114
0.416831 0.216526 0.0194553
0.450553 0.215869 0.0187991
0.484276 0.215213 0.018143
0.517983 0.214557 0.0174868
0.551705 0.213901 0.0168307
0.585428 0.213245 0.0161746
0.61915 0.212589 0.0155184
0.652873 0.211933 0.0148623
0.68658 0.211276 0.0142061
0.720302 0.21062 0.01355
0.754025 0.209964 0.0128939
0.787747 0.209308 0.0122377
0.821469 0.208652 0.0115816
0.855177 0.207996 0.0109255
0.888899 0.20734 0.0102693
0.922621 0.206683 0.00961318
0.956344 0.206027 0.00895705
0.990066 0.205371 0.00830091
1 0.204715 0.00764477
0 0.257908 0.0264591
0 0.257252 0.025803
0.0100099 0.256596 0.0251469
0.0437324 0.25594 0.0244907
0.0774548 0.255283 0.0238346
0.111177 0.254627 0.0231785
0.144884 0.253971 0.0225223
0.178607 0.253315 0.0218662
0.212329 0.252659 0.02121
0.246052 0.251987 0.0205539
0.279774 0.251331 0.0198978
0.313481 0.250675 0.0192416
0.347204 0.250019 0.0185855
0.380926 0.249363 0.0179294
0.414649 0.248707 0.0172732
0.448371 0.248051 0.0166171
0.482078 0.247395 0.0159609
0.515801 0.246738 0.0153048
0.549523 0.246082 0.0146487
0.583246 0.245426 0.0139925
0.616968 0.24477 0.0133364
0.650675 0.244114 0.0126802
0.684398 0.243458 0.0120241
0.71812 0.242802 0.011368
0.751842 0.242145 0.0107118
0.78555 0.241489 0.0100557
0.819272 0.240833 0.00939956
0.852995 0.240177 0.00874342
0.886717 0.239521 0.00808728
0.920439 0.238865 0.00743114
0.954147 0.238209 0.00677501
0.987869 0.237552 0.00611887
1 0.236896 0.00546273
0 0.290089 0.0242771
0 0.289433 0.023621
0.00782788 0.288777 0.0229648
0.0415503 0.288121 0.0223087
0.0752575 0.287465 0.0216526
0.10898 0.286809 0.0209964
0.142702 0.286152 0.0203403
0.176425 0.285496 0.0196841
0.210147 0.28484 0.019028
0.243854 0.284184 0.0183719
0.277577 0.283528 0.0177157
0.311299 0.282872 0.0170596
0.345022 0.282216 0.0164034
0.378744 0.281559 0.0157473
0.412451 0.280903 0.0150912
0.446174 0.280247 0.014435
0.479896 0.279591 0.0137789
0.513619 0.278935 0.0131228
0.547341 0.278279 0.0124666
0.581048 0.277623 0.0118105
0.614771 0.276967 0.0111543
0.648493 0.27631 0.0104982
0.682216 0.275654 0.00984207
0.715938 0.274998 0.00918593
0.749645 0.274342 0.00852979
0.783368 0.273686 0.00787366
0.81709 0.27303 0.00721752
0.850813 0.272374 0.00656138
0.88452 0.271717 0.00590524
0.918242 0.271061 0.0052491
0.951965 0.270405 0.00459297
0.985687 0.269749 0.00393683
1 0.269093 0.00328069
0 0.322286 0.0220798
0 0.32163 0.0214237
0.00564584 0.320958 0.0207675
0.039353 0.320302 0.0201114
0.0730755 0.319646 0.0194553
0.106798 0.31899 0.0187991
0.14052 0.318334 0.018143
0.174228 0.317678 0.0174868
0.20795 0.317021 0.0168307
0.241672 0.316365 0.0161746
0.275395 0.315709 0.0155184
0.309117 0.315053 0.0148623
0.342824 0.314397 0.0142061
0.376547 0.313741 0.01355
0.410269 0.313085 0.0128939
0.443992 0.312428 0.0122377
0.477714 0.311772 0.0115816
0.511421 0.311116 0.0109255
0.545144 0.31046 0.0102693
0.578866 0.309804 0.00961318
0.612589 0.309148 0.00895705
0.646311 0.308492 0.00830091
0.680018 0.307836 0.00764477
0.713741 0.307179 0.00698863
0.747463 0.306523 0.00633249
0.781186 0.305867 0.00567636
0.814908 0.305211 0.00502022
0.848615 0.304555 0.00436408
0.882338 0.303899 0.00370794
0.91606 0.303243 0.0030518
0.949783 0.302586 0.00239567
0.983505 0.30193 0.00173953
1 0.301274 0.00108339
0 0.354467 0.0198978
0 0.353811 0.0192416
0.00344854 0.353155 0.0185855
0.037171 0.352499 0.0179294
0.0708934 0.351843 0.0172732
0.104616 0.351186 0.0166171
0.138323 0.35053 0.0159609
0.172045 0.349874 0.0153048
0.205768 0.349218 0.0146487
0.23949 0.348562 0.0139925
0.273213 0.347906 0.0133364
0.30692 0.34725 0.0126802
0.340642 0.346593 0.0120241
0.374365 0.345937 0.011368
0.408087 0.345281 0.0107118
0.441794 0.344625 0.0100557
0.475517 0.343969 0.00939956
0.509239 0.343313 0.00874342
0.542962 0.342657 0.00808728
0.576684 0.342 0.00743114
0.610391 0.341344 0.00677501
0.644114 0.340688 0.00611887
0.677836 0.340032 0.00546273
0.711559 0.339376 0.00480659
0.745281 0.33872 0.00415045
0.778988 0.338064 0.00349432
0.812711 0.337407 0.00283818
0.846433 0.336736 0.00218204
0.880156 0.33608 0.0015259
0.913878 0.335424 0.000869764
0.947585 0.334768 0.000213626
0.981308 0.334112 0
1 0.333455 0
0 0.386648 0.0177157
0 0.385992 0.0170596
0.0012665 0.385336 0.0164034
0.0349889 0.38468 0.0157473
0.0686961 0.384024 0.0150912
0.102419 0.383368 0.014435
0.136141 0.382712 0.0137789
0.169863 0.382055 0.0131228
0.203586 0.381399 0.0124666
0.237293 0.380743 0.0118105
0.271015 0.380087 0.0111543
0.304738 0.379431 0.0104982
0.33846 0.378775 0.00984207
0.372183 0.378119 0.00918593
0.40589 0.377462 0.00852979
0.439612 0.376806 0.00787366
0.473335 0.37615 0.00721752
0.507057 0.375494 0.00656138
0.540764 0.374838 0.00590524
0.574487 0.374182 0.0052491
0.608209 0.373526 0.00459297
0.641932 0.372869 0.00393683
0.675654 0.372213 0.00328069
0.709361 0.371557 0.00262455
0.743084 0.370901 0.00196841
0.776806 0.370245 0.00131228
0.810529 0.369589 0.000656138
0.844251 0.368933 0
0.877958 0.368277 0
0.911681 0.36762 0
0.945403 0.366964 0
0.979126 0.366308 0
1 0.365652 0
0 0.418845 0.0155184
0 0.418189 0.0148623
0 0.417533 0.0142061
0.0327916 0.416876 0.01355
0.0665141 0.41622 0.0128939
0.100237 0.415564 0.0122377
0.133959 0.414908 0.0115816
0.167666 0.414252 0.0109255
0.201389 0.413596 0.0102693
0.235111 0.41294 0.00961318
0.268833 0.412284 0.00895705
0.302556 0.411627 0.00830091
0.336263 0.410971 0.00764477
0.369985 0.410315 0.00698863
0.403708 0.409659 0.00633249
0.43743 0.409003 0.00567636
0.471153 0.408347 0.00502022
0.50486 0.407691 0.00436408
0.538582 0.407034 0.00370794
0.572305 0.406378 0.0030518
0.606027 0.405707 0.00239567
0.63975 0.405051 0.00173953
0.673457 0.404395 0.00108339
0.707179 0.403738 0.000427253
0.740902 0.403082 0
0.774624 0.402426 0
0.808331 0.40177 0
0.842054 0.401114 0
0.875776 0.400458 0
0.909499 0.399802 0
0.943221 0.399145 0
0.976928 0.398489 0
1 0.397833 0
0 0.451026 0.0133364
0 0.45037 0.0126802
0 0.449714 0.0120241
0.0306096 0.449058 0.011368
0.064332 0.448402 0.0107118
0.0980392 0.447745 0.0100557
0.131762 0.447089 0.00939956
0.165484 0.446433 0.00874342
0.199207 0.445777 0.00808728
0.232929 0.445121 0.00743114
0.266636 0.444465 0.00677501
0.300359 0.443809 0.00611887
0.334081 0.443153 0.00546273
0.367803 0.442496 0.00480659
0.401526 0.44184 0.00415045
0.435233 0.441184 0.00349432
0.468956 0.440528 0.00283818
0.502678 0.439872 0.00218204
0.5364 0.439216 0.0015259
0.570123 0.43856 0.000869764
0.60383 0.437903 0.000213626
0.637552 0.437247 0
0.671275 0.436591 0
0.704997 0.435935 0
0.73872 0.435279 0
0.772427 0.434623 0
0.806149 0.433967 0
0.839872 0.43331 0
0.873594 0.432654 0
0.907301 0.431998 0
0.941024 0.431342 0
0.974746 0.430686 0
1 0.43003 0
0 0.483223 0.0111543
0 0.482567 0.0104982
0 0.48191 0.00984207
0.0284276 0.481254 0.00918593
0.0621347 0.480598 0.00852979
0.0958572 0.479942 0.00787366
0.12958 0.479286 0.00721752
0.163302 0.47863 0.00656138
0.197009 0.477974 0.00590524
0.230732 0.477317 0.0052491
0.264454 0.476661 0.00459297
0.298177 0.476005 0.00393683
0.331899 0.475349 0.00328069
0.365606 0.474693 0.00262455
0.399329 0.474022 0.00196841
0.433051 0.473365 0.00131228
0.466773 0.472709 0.000656138
0.500496 0.472053 0
0.534203 0.471397 0
0.567926 0.470741 0
0.601648 0.470085 0
0.63537 0.469429 0
0.669093 0.468772 0
0.7028 0.468116 0
0.736522 0.46746 0
0.770245 0.466804 0
0.803967 0.466148 0
0.83769 0.465492 0
0.871397 0.464836 0
0.905119 0.464179 0
0.938842 0.463523 0
0.972564 0.462867 0
1 0.462211 0
0 0.515404 0.00895705
0 0.514748 0.00830091
0 0.514092 0.00764477
0.0262303 0.513436 0.00698863
0.0599527 0.512779 0.00633249
0.0936751 0.512123 0.00567636
0.127398 0.511467 0.00502022
0.161105 0.510811 0.00436408
0.194827 0.510155 0.00370794
0.22855 0.509499 0.0030518
0.262272 0.508843 0.00239567
0.295995 0.508186 0.00173953
0.329702 0.50753 0.00108339
0.363424 0.506874 0.000427253
0.397147 0.506218 0
0.430869 0.505562 0
0.464576 0.504906 0
0.498299 0.50425 0
0.532021 0.503594 0
0.565744 0.502937 0
0.599466 0.502281 0
0.633173 0.501625 0
0.666896 0.500969 0
0.700618 0.500313 0
0.73434 0.499657 0
0.768063 0.499001 0
0.80177 0.498344 0
0.835492 0.497688 0
0.869215 0.497032 0
0.902937 0.496376 0
0.93666 0.49572 0
0.970367 0.495064 0
1 0.494408 0
0 0.547601 0.00677501
0 0.546944 0.00611887
0 0.546288 0.00546273
0.0240482 0.545632 0.00480659
0.0577707 0.544976 0.00415045
0.0914778 0.54432 0.00349432
0.1252 0.543664 0.00283818
0.158923 0.542992 0.00218204
0.192645 0.542336 0.0015259
0.226368 0.54168 0.000869764
0.260075 0.541024 0.000213626
0.293797 0.540368 0
0.32752 0.539712 0
0.361242 0.539055 0
0.394965 0.538399 0
0.428672 0.537743 0
0.462394 0.537087 0
0.496117 0.536431 0
0.529839 0.535775 0
0.563546 0.535119 0
0.597269 0.534463 0
0.630991 0.533806 0
0.664714 0.53315 0
0.698436 0.532494 0
0.732143 0.531838 0
0.765866 0.531182 0
0.799588 0.530526 0
0.83331 0.52987 0
0.867033 0.529213 0
0.90074 0.528557 0
0.934462 0.527901 0
0.968185 0.527245 0
1 0.526589 0
0 0.579782 0.00459297
0 0.579126 0.00393683
0 0.57847 0.00328069
0.0218509 0.577813 0.00262455
0.0555734 0.577157 0.00196841
0.0892958 0.576501 0.00131228
0.123018 0.575845 0.000656138
0.156741 0.575189 0
0.190448 0.574533 0
0.22417 0.573877 0
0.257893 0.57322 0
0.291615 0.572564 0
0.325338 0.571908 0
0.359045 0.571252 0
0.392767 0.570596 0
0.42649 0.56994 0
0.460212 0.569284 0
0.493935 0.568627 0
0.527642 0.567971 0
0.561364 0.567315 0
0.595087 0.566659 0
0.628809 0.566003 0
0.662516 0.565347 0
0.696239 0.564691 0
0.729961 0.564034 0
0.763684 0.563378 0
0.797406 0.562722 0
0.831113 0.562066 0
0.864836 0.56141 0
0.898558 0.560754 0
0.93228 0.560098 0
0.966003 0.559442 0
0.99971 0.55877 0
0 0.611963 0.00239567
0 0.611307 0.00173953
0 0.610651 0.00108339
0.0196689 0.609995 0.000427253
0.0533913 0.609339 0
0.0871138 0.608682 0
0.120821 0.608026 0
0.154543 0.60737 0
0.188266 0.606714 0
0.221988 0.606058 0
0.255711 0.605402 0
0.289418 0.604746 0
0.32314 0.604089 0
0.356863 0.603433 0
0.390585 0.602777 0
0.424308 0.602121 0
0.458015 0.601465 0
0.491737 0.600809 0
0.52546 0.600153 0
0.559182 0.599496 0
0.592905 0.59884 0
0.626612 0.598184 0
0.660334 0.597528 0
0.694057 0.596872 0
0.727779 0.596216 0
0.761501 0.59556 0
0.795209 0.594903 0
0.828931 0.594247 0
0.862654 0.593591 0
0.896376 0.592935 0
0.930083 0.592279 0
0.963806 0.591623 0
0.997528 0.590967 0
0 0.64416 0.000213626
0 0.643503 0
0 0.642847 0
0.0174868 0.642191 0
0.0512093 0.641535 0
0.0849165 0.640879 0
0.118639 0.640223 0
0.152361 0.639567 0
0.186084 0.638911 0
0.219791 0.638254 0
0.253513 0.637598 0
0.287236 0.636942 0
0.320958 0.636286 0
0.354681 0.63563 0
0.388388 0.634974 0
0.42211 0.634318 0
0.455833 0.633661 0
0.489555 0.633005 0
0.523278 0.632349 0
0.556985 0.631693 0
0.590707 0.631037 0
0.62443 0.630381 0
0.658152 0.629725 0
0.691875 0.629068 0
0.725582 0.628412 0
0.759304 0.627756 0
0.793027 0.627085 0
0.826749 0.626429 0
0.860471 0.625772 0
0.894179 0.625116 0
0.927901 0.62446 0
0.961624 0.623804 0
0.995346 0.623148 0
0 0.676341 0
0 0.675685 0
0 0.675029 0
0.0152895 0.674372 0
0.049012 0.673716 0
0.0827344 0.67306 0
0.116457 0.672404 0
0.150179 0.671748 0
0.183886 0.671092 0
0.217609 0.670436 0
0.251331 0.669779 0
0.285054 0.669123 0
0.318776 0.668467 0
0.352483 0.667811 0
0.386206 0.667155 0
0.419928 0.666499 0
0.453651 0.665843 0
0.487358 0.665187 0
0.52108 0.66453 0
0.554803 0.663874 0
0.588525 0.663218 0
0.622248 0.662562 0
0.655955 0.661906 0
0.689677 0.66125 0
0.7234 0.660594 0
0.757122 0.659937 0
0.790845 0.659281 0
0.824552 0.658625 0
0.858274 0.657969 0
0.891997 0.657313 0
0.925719 0.656657 0
0.959442 0.656001 0
0.993149 0.655344 0
0 0.708537 0
0 0.707881 0
0 0.707225 0
0.0131075 0.706569 0
0.0468299 0.705913 0
0.0805524 0.705257 0
0.11426 0.704601 0
0.147982 0.703944 0
0.181704 0.703288 0
0.215427 0.702632 0
0.249149 0.701976 0
0.282856 0.70132 0
0.316579 0.700664 0
0.350301 0.700008 0
0.384024 0.699351 0
0.417746 0.698695 0
0.451453 0.698039 0
0.485176 0.697383 0
0.518898 0.696727 0
0.552621 0.696056 0
0.586328 0.695399 0
0.62005 0.694743 0
0.653773 0.694087 0
0.687495 0.693431 0
0.721218 0.692775 0
0.754925 0.692119 0
0.788647 0.691463 0
0.82237 0.690806 0
0.856092 0.69015 0
0.889815 0.689494 0
0.923522 0.688838 0
0.957244 0.688182 0
0.990967 0.687526 0
0 0.740719 0
0 0.740063 0
0 0.739406 0
0.0109255 0.73875 0
0.0446326 0.738094 0
0.0783551 0.737438 0
0.112078 0.736782 0
0.1458 0.736126 0
0.179522 0.73547 0
0.21323 0.734813 0
0.246952 0.734157 0
0.280674 0.733501 0
0.314397 0.732845 0
0.348119 0.732189 0
0.381826 0.731533 0
0.415549 0.730877 0
0.449271 0.73022 0
0.482994 0.729564 0
0.516716 0.728908 0
0.550423 0.728252 0
0.584146 0.727596 0
0.617868 0.72694 0
0.651591 0.726284 0
0.685298 0.725628 0
0.71902 0.724971 0
0.752743 0.724315 0
0.786465 0.723659 0
0.820188 0.723003 0
0.853895 0.722347 0
0.887617 0.721691 0
0.92134 0.721035 0
0.955062 0.720378 0
0.988785 0.719722 0
0 0.772915 0
0 0.772259 0
0 0.771603 0
0.00872816 0.770947 0
0.0424506 0.770291 0
0.076173 0.769635 0
0.109895 0.768978 0
0.143603 0.768322 0
0.177325 0.767666 0
0.211048 0.76701 0
0.24477 0.766354 0
0.278492 0.765698 0
0.3122 0.765026 0
0.345922 0.76437 0
0.379644 0.763714 0
0.413367 0.763058 0
0.447089 0.762402 0
0.480797 0.761746 0
0.514519 0.76109 0
0.548241 0.760433 0
0.581964 0.759777 0
0.615686 0.759121 0
0.649393 0.758465 0
0.683116 0.757809 0
0.716838 0.757153 0
0.750561 0.756497 0
0.784268 0.75584 0
0.81799 0.755184 0
0.851713 0.754528 0
0.885435 0.753872 0
0.919158 0.753216 0
0.952865 0.75256 0
0.986587 0.751904 0
0 0.805097 0
0 0.80444 0
0 0.803784 0
0.00654612 0.803128 0
0.0402686 0.802472 0
0.073991 0.801816 0
0.107698 0.80116 0
0.141421 0.800504 0
0.175143 0.799847 0
0.208865 0.799191 0
0.242573 0.798535 0
0.276295 0.797879 0
0.310018 0.797223 0
0.34374 0.796567 0
0.377462 0.795911 0
0.41117 0.795254 0
0.444892 0.794598 0
0.478614 0.793942 0
0.512337 0.793286 0
0.546059 0.79263 0
0.579767 0.791974 0
0.613489 0.791318 0
0.647211 0.790661 0
0.680934 0.790005 0
0.714656 0.789349 0
0.748363 0.788693 0
0.782086 0.788037 0
0.815808 0.787381 0
0.849531 0.786725 0
0.883253 0.786068 0
0.91696 0.785412 0
0.950683 0.784756 0
0.984405 0.7841 0
0 0.837293 0
0 0.836637 0
0 0.835981 0
0.00436408 0.835325 0
0.0380713 0.834669 0
0.0717937 0.834012 0
0.105516 0.833341 0
0.139239 0.832685 0
0.172961 0.832029 0
0.206668 0.831373 0
0.240391 0.830716 0
0.274113 0.83006 0
0.307836 0.829404 0
0.341543 0.828748 0
0.375265 0.828092 0
0.408988 0.827436 0
0.44271 0.82678 0
0.476432 0.826123 0
0.51014 0.825467 0
0.543862 0.824811 0
0.577585 0.824155 0
0.611307 0.823499 0
0.645029 0.822843 0
0.678737 0.822187 0
0.712459 0.82153 0
0.746181 0.820874 0
0.779904 0.820218 0
0.813626 0.819562 0
0.847333 0.818906 0
0.881056 0.81825 0
0.914778 0.817594 0
0.948501 0.816938 0
0.982223 0.816281 0
0 0.869474 0
0 0.868818 0
0 0.868162 0
0.00216678 0.867506 0
0.0358892 0.86685 0
0.0696117 0.866194 0
0.103334 0.865538 0
0.137041 0.864881 0
0.170764 0.864225 0
