public/LUTS/Cinematic/Cinematic_11.cube
TITLE "Generated by Resolve"
LUT_3D_SIZE 9
0.141207 0.120073 0.112917
0.20853 0.138491 0.124895
0.281071 0.155169 0.137224
0.357031 0.175937 0.153735
0.430213 0.200259 0.175494
0.497704 0.223896 0.19762
0.561791 0.250355 0.22002
0.616297 0.275227 0.241764
0.642786 0.290608 0.2533
0.15877 0.186084 0.134142
0.244266 0.209476 0.14699
0.325734 0.231586 0.162921
0.410407 0.258564 0.186908
0.48719 0.283238 0.211368
0.553994 0.308705 0.235721
0.612207 0.335592 0.258137
0.659663 0.362753 0.27924
0.68455 0.380041 0.292226
0.161593 0.242725 0.144701
0.262898 0.28986 0.174166
0.355276 0.31284 0.19292
0.447684 0.342718 0.221408
0.534112 0.372702 0.250568
0.599664 0.402853 0.276783
0.656519 0.435645 0.303029
0.703685 0.473182 0.328862
0.728008 0.494545 0.343603
0.169619 0.309743 0.156817
0.286366 0.380728 0.203052
0.385702 0.4103 0.232807
0.479713 0.433356 0.25803
0.569772 0.469078 0.291936
0.64123 0.507027 0.321798
0.697993 0.545037 0.350835
0.739925 0.583169 0.382208
0.763882 0.604578 0.402167
0.206378 0.403067 0.18761
0.325109 0.486137 0.24361
0.428321 0.522759 0.282353
0.517159 0.535805 0.307973
0.599588 0.557 0.333181
0.672328 0.595575 0.364599
0.727062 0.630961 0.393347
0.763333 0.662165 0.42591
0.785489 0.682506 0.446952
0.258259 0.503243 0.224643
0.376593 0.581949 0.283131
0.476799 0.614542 0.326757
0.557107 0.622553 0.350393
0.629007 0.634821 0.372015
0.694087 0.658457 0.397208
0.744198 0.686976 0.424277
0.776349 0.709926 0.453452
0.795239 0.726818 0.474922
0.312566 0.598795 0.265324
0.421897 0.652888 0.316716
0.518898 0.679393 0.358236
0.59443 0.689052 0.385702
0.656672 0.696345 0.406897
0.708934 0.708461 0.426749
0.748989 0.722744 0.443137
0.780545 0.741131 0.469139
0.799756 0.753796 0.489494
0.365118 0.676051 0.303944
0.465904 0.705303 0.346502
0.553368 0.722332 0.381521
0.621256 0.732006 0.408637
0.678645 0.740124 0.433524
0.724605 0.748455 0.453635
0.757824 0.756405 0.465751
0.779217 0.761501 0.472251
0.801724 0.774395 0.494484
0.398459 0.72607 0.329183
0.495735 0.742504 0.36968
0.576226 0.751537 0.398138
0.637888 0.758709 0.422904
0.691493 0.765911 0.447013
0.734524 0.773541 0.466255
0.764462 0.779538 0.4795
0.785672 0.78352 0.486793
0.801755 0.787106 0.49424
0.146334 0.134218 0.162982
0.195605 0.128939 0.153216
0.259922 0.140475 0.158862
0.327703 0.154818 0.169055
0.397711 0.171725 0.18117
0.471015 0.190158 0.196979
0.542992 0.215686 0.219028
0.608133 0.239796 0.239002
0.64387 0.254871 0.252064
0.135454 0.177966 0.167102
0.234257 0.222354 0.204974
0.324208 0.241245 0.212894
0.418402 0.257023 0.218814
0.507546 0.27454 0.231449
0.578637 0.2934 0.248219
0.637552 0.317815 0.268421
0.683375 0.346334 0.292912
0.7093 0.365286 0.308522
0.139483 0.239078 0.179217
0.245335 0.312398 0.235279
0.364355 0.34583 0.255131
0.465858 0.358007 0.260075
0.555505 0.375235 0.274205
0.62266 0.394797 0.29218
0.674907 0.424659 0.315541
0.715831 0.459602 0.345418
0.738872 0.481666 0.364309
0.153628 0.311025 0.196048
0.249912 0.399115 0.250629
0.390143 0.459815 0.300313
0.496925 0.468666 0.312444
0.593439 0.488212 0.325978
0.66128 0.514855 0.349004
0.711238 0.548165 0.378286
0.748791 0.585901 0.415732
0.767865 0.609979 0.442329
0.188922 0.408377 0.226612
0.291264 0.514534 0.286412
0.433371 0.577081 0.351064
0.538659 0.585489 0.377737
0.621164 0.592309 0.388098
0.689586 0.617243 0.412161
0.739849 0.649241 0.444541
0.775296 0.679896 0.481239
0.791577 0.697078 0.510079
0.237766 0.517601 0.263523
0.364675 0.620493 0.341527
0.48864 0.6598 0.401938
0.583658 0.667338 0.433219
0.64773 0.667811 0.445045
0.70695 0.683101 0.461982
0.756802 0.709041 0.491188
0.787762 0.731456 0.523339
0.803296 0.744305 0.549065
0.286351 0.620874 0.29778
0.436744 0.692653 0.38677
0.543603 0.715068 0.439063
0.61825 0.721614 0.469902
0.67303 0.722271 0.485069
0.720455 0.729595 0.500725
0.76202 0.745144 0.517113
0.792721 0.759838 0.542306
0.807736 0.770001 0.564889
0.341299 0.694087 0.333013
0.496559 0.737804 0.416693
0.583871 0.749325 0.455451
0.648219 0.757153 0.486091
0.696025 0.760342 0.510369
0.736416 0.766781 0.527214
0.768902 0.774212 0.540398
0.792294 0.779843 0.548211
0.807828 0.787289 0.569696
0.379385 0.737377 0.355901
0.52987 0.761303 0.432471
0.609079 0.770504 0.466835
0.667842 0.7785 0.492775
0.712718 0.784497 0.522042
0.74931 0.790417 0.544427
0.777539 0.795239 0.558679
0.798444 0.799069 0.564355
0.810727 0.800656 0.570626
0.14844 0.144732 0.217182
0.211261 0.148806 0.225742
0.264149 0.141726 0.202274
0.323476 0.150576 0.201205
0.383169 0.165682 0.208362
0.447166 0.182513 0.220523
0.516457 0.205631 0.23856
0.580789 0.228031 0.258747
0.616297 0.240986 0.270314
0.136843 0.188434 0.221546
0.226261 0.236149 0.264149
0.299016 0.226856 0.252827
0.384863 0.235386 0.249378
0.471916 0.247013 0.252659
0.555581 0.262623 0.261082
0.629206 0.285557 0.279667
0.679835 0.314122 0.304494
0.707927 0.333318 0.320272
0.137453 0.243381 0.229603
0.198032 0.285023 0.260777
0.357763 0.36965 0.338323
0.449928 0.372793 0.332403
0.551583 0.383337 0.330266
0.62977 0.396078 0.337179
0.68127 0.423377 0.359823
0.721477 0.457511 0.387381
0.741238 0.485435 0.414832
0.159625 0.315496 0.250996
0.209934 0.373495 0.280308
0.355703 0.469963 0.364843
0.500923 0.505409 0.401389
0.593103 0.508598 0.394812
0.661784 0.521279 0.403342
0.707515 0.55079 0.429877
0.743816 0.585458 0.465827
0.763165 0.610315 0.496864
0.196399 0.408118 0.282353
0.242802 0.476677 0.308644
0.383261 0.572183 0.39675
0.544381 0.618448 0.466621
0.6262 0.618067 0.472694
0.689677 0.630701 0.478859
0.738155 0.656779 0.505272
0.769512 0.681544 0.541695
0.787366 0.701976 0.574823
0.234989 0.509209 0.316716
0.304067 0.589364 0.355993
0.45452 0.662394 0.457237
0.588083 0.693523 0.519799
0.660227 0.695521 0.534737
0.707927 0.69778 0.53727
0.753735 0.717739 0.559579
0.787167 0.738567 0.591272
0.802976 0.752178 0.618387
0.273701 0.603387 0.345922
0.382895 0.679988 0.414694
0.543191 0.725505 0.518593
0.632517 0.741909 0.55967
0.690028 0.743816 0.573831
0.725078 0.74435 0.577707
0.760891 0.750957 0.58584
0.79266 0.767178 0.611963
0.807797 0.776837 0.633127
0.317876 0.68127 0.379583
0.456519 0.738888 0.463371
0.606546 0.764614 0.549874
0.670512 0.772747 0.578546
0.712184 0.776349 0.595575
0.742458 0.778515 0.605005
0.76968 0.78117 0.612955
0.792157 0.786023 0.618219
0.808011 0.793881 0.638163
0.346532 0.728466 0.400046
0.502953 0.767865 0.487526
0.638224 0.784817 0.559991
0.68983 0.791592 0.583429
0.728954 0.796765 0.606088
0.755474 0.800534 0.623056
0.780194 0.803067 0.631998
0.799023 0.805295 0.636606
0.811795 0.807828 0.639811
0.148928 0.151217 0.270314
0.214603 0.163607 0.294026
0.28365 0.166888 0.28397
0.338933 0.164324 0.25391
0.390051 0.174228 0.25153
0.443076 0.186969 0.256016
0.499992 0.204425 0.267857
0.556985 0.223789 0.284916
0.589807 0.236088 0.295735
0.145129 0.202838 0.27892
0.207202 0.23624 0.317571
0.300771 0.245014 0.330083
0.380133 0.23537 0.306249
0.460807 0.239506 0.297124
0.536767 0.253376 0.299275
0.60528 0.273594 0.312764
0.6589 0.299351 0.333745
0.68957 0.318441 0.351324
0.156374 0.267887 0.293462
0.192355 0.287572 0.317617
0.324544 0.36379 0.387167
0.421027 0.359014 0.380621
0.516854 0.362066 0.371466
0.60238 0.374731 0.372854
0.660319 0.398398 0.389853
0.705104 0.428061 0.415778
0.726268 0.454459 0.439887
0.172793 0.321462 0.301656
0.195712 0.350866 0.321492
0.286656 0.414389 0.369223
0.501442 0.530373 0.487144
0.581521 0.525658 0.479469
0.650004 0.540963 0.486336
0.701549 0.565713 0.504555
0.736568 0.598169 0.538064
0.754971 0.624231 0.565927
0.205615 0.404852 0.332387
0.229129 0.45037 0.349981
0.312627 0.521508 0.399969
0.513726 0.619532 0.524117
0.635584 0.645655 0.56585
0.688716 0.651347 0.563394
0.732158 0.667933 0.579004
0.764599 0.693111 0.611063
0.781277 0.710994 0.638911
0.243503 0.497551 0.367361
0.275364 0.55523 0.386297
0.368673 0.623453 0.445792
0.555886 0.689891 0.568856
0.670909 0.715099 0.616403
0.712963 0.714443 0.615518
0.753201 0.727123 0.628931
0.784054 0.746029 0.654551
0.800793 0.759243 0.676768
0.277806 0.582757 0.398291
0.325765 0.647669 0.427848
0.464988 0.704494 0.521248
0.629953 0.746288 0.626184
0.70277 0.760952 0.651728
0.737926 0.762173 0.656535
0.76321 0.762005 0.654108
0.792187 0.775372 0.672358
0.808698 0.785245 0.690517
0.306355 0.653468 0.42295
0.386023 0.719036 0.476234
0.5664 0.757336 0.589868
0.684703 0.781796 0.654704
0.72929 0.790326 0.671946
0.757748 0.792874 0.679408
0.778576 0.792432 0.681285
0.794949 0.794125 0.681605
0.811795 0.802548 0.69752
0.326436 0.69897 0.437812
0.436988 0.75642 0.514046
0.624811 0.786664 0.62295
0.710338 0.799756 0.663417
0.746563 0.806653 0.678752
0.770901 0.811887 0.692805
0.789303 0.813565 0.699413
0.804074 0.814404 0.700923
0.815702 0.816403 0.703593
0.15494 0.161456 0.323171
0.215656 0.176837 0.353368
0.281971 0.184543 0.355276
0.344076 0.184283 0.324514
0.399558 0.186618 0.299535
0.444923 0.193545 0.295094
0.493034 0.205539 0.299901
0.547539 0.224079 0.314122
0.577585 0.235859 0.325795
0.156741 0.216724 0.333303
0.20029 0.233997 0.368154
0.294865 0.255634 0.399405
0.389136 0.258473 0.392432
0.462669 0.250935 0.361196
0.529152 0.257206 0.352529
0.589227 0.273075 0.357198
0.641901 0.293294 0.372976
0.670466 0.311498 0.389624
0.174105 0.286564 0.349218
0.195666 0.290867 0.372351
0.287709 0.347753 0.429511
0.418555 0.373968 0.4542
0.508141 0.360555 0.433967
0.590341 0.363851 0.423239
0.64683 0.38323 0.431968
0.6916 0.411688 0.45536
0.714183 0.436301 0.477119
0.194446 0.349706 0.363806
0.207584 0.358846 0.379141
0.264652 0.396979 0.416831
0.454032 0.50721 0.520226
0.561761 0.516899 0.528649
0.624399 0.520195 0.525811
0.674846 0.540795 0.538521
0.713283 0.570504 0.564584
0.735027 0.596857 0.591073
0.21004 0.400809 0.371206
0.229557 0.427619 0.38912
0.277272 0.483131 0.427344
0.418433 0.567086 0.507668
0.640299 0.661677 0.628626
0.688243 0.665278 0.630991
0.727718 0.681865 0.646174
0.758953 0.702525 0.668147
0.779355 0.720378 0.687114
0.250263 0.494194 0.411704
0.271992 0.533379 0.431632
0.324849 0.588663 0.468482
0.460822 0.64947 0.54992
0.662043 0.719188 0.664225
0.725155 0.733669 0.683146
0.757931 0.743099 0.69131
0.783871 0.75761 0.708507
0.800824 0.770855 0.725292
0.288258 0.578668 0.44828
0.313588 0.624186 0.470268
0.394064 0.674144 0.523262
0.540978 0.721218 0.609674
0.702632 0.765332 0.700114
0.750729 0.776776 0.714015
0.773251 0.777264 0.714244
0.796353 0.786007 0.726452
0.813214 0.796445 0.740597
0.315999 0.643839 0.476921
0.351415 0.696941 0.507378
0.483543 0.740185 0.587366
0.64538 0.775631 0.677058
0.744045 0.799313 0.730129
0.770214 0.804761 0.73547
0.789395 0.805753 0.737285
0.803128 0.807019 0.736645
0.818616 0.813596 0.747829
0.332082 0.684642 0.491142
0.386069 0.739239 0.534493
0.553445 0.778058 0.632593
0.700099 0.801038 0.707012
0.761395 0.815091 0.736156
0.783413 0.819867 0.747372
0.800275 0.822965 0.751263
0.81297 0.823087 0.752071
0.822446 0.825177 0.751995
0.16405 0.172503 0.377127
0.222812 0.188693 0.413336
0.284276 0.197177 0.417075
0.342641 0.199161 0.390127
0.401007 0.201404 0.362356
0.445548 0.203311 0.339818
0.489921 0.210697 0.337682
0.53872 0.224491 0.347936
0.568307 0.236866 0.357931
0.167361 0.224567 0.380865
0.205158 0.23856 0.423896
0.289372 0.263539 0.465537
0.387152 0.275212 0.469612
0.472633 0.277226 0.446067
0.528283 0.272328 0.414527
0.579919 0.279408 0.40798
0.628702 0.296086 0.418235
0.656825 0.312734 0.432746
0.186252 0.294148 0.396689
0.207187 0.296468 0.425284
0.273548 0.339254 0.479454
0.410269 0.38085 0.521111
0.519188 0.385351 0.519158
0.584939 0.37142 0.49279
0.640482 0.382803 0.488762
0.68278 0.406592 0.505409
0.707713 0.427359 0.521645
0.207599 0.360815 0.41384
0.222217 0.365194 0.433127
0.259953 0.388556 0.467597
0.420325 0.493309 0.557733
0.564645 0.530083 0.583825
0.621271 0.518807 0.57409
0.669718 0.529778 0.578943
0.706722 0.555947 0.597711
0.731456 0.582864 0.619852
0.228412 0.421973 0.428138
0.245441 0.437858 0.445441
0.273777 0.469902 0.476555
0.382437 0.54226 0.54078
0.607202 0.647791 0.647974
0.677989 0.659113 0.660258
0.713558 0.668986 0.668269
0.745968 0.690654 0.686259
0.766232 0.706996 0.703471
0.248081 0.480125 0.441245
0.27274 0.511131 0.463905
0.308858 0.560174 0.501656
0.407431 0.619913 0.560922
0.595407 0.693538 0.65391
0.732326 0.744823 0.722713
0.761303 0.754055 0.731594
0.786633 0.767468 0.746014
0.802548 0.779019 0.758099
0.29546 0.575616 0.490898
0.318135 0.611444 0.515831
0.365682 0.652949 0.551843
0.472938 0.698329 0.609232
0.639857 0.746242 0.690044
0.753841 0.782437 0.748135
0.781231 0.788769 0.754589
0.802731 0.797513 0.765118
0.81622 0.80589 0.775753
0.326833 0.642741 0.525139
0.352743 0.684993 0.553994
0.428809 0.721614 0.599664
0.568093 0.757946 0.66746
0.707942 0.790722 0.735134
0.776135 0.810361 0.768383
0.796796 0.813962 0.773236
0.810391 0.815274 0.773022
0.823453 0.820279 0.780804
0.344381 0.682292 0.54287
0.378637 0.726452 0.578576
0.48101 0.76321 0.637003
0.646479 0.794461 0.712139
0.753567 0.815061 0.761883
0.791882 0.826459 0.780102
0.806485 0.829221 0.784314
0.818814 0.830945 0.783963
0.827497 0.831403 0.787594
0.17499 0.184649 0.43267
0.229969 0.199969 0.471992
0.289448 0.208499 0.471946
0.346456 0.211749 0.447059
0.40824 0.2177 0.422141
0.455283 0.220066 0.400214
0.488014 0.21825 0.380865
0.532097 0.229831 0.386923
0.557977 0.239231 0.395361
0.178927 0.231922 0.427558
0.214679 0.247028 0.483742
0.289784 0.270268 0.529732
0.387442 0.286503 0.537377
0.480034 0.296147 0.519692
0.541802 0.299367 0.494789
0.576333 0.29308 0.468315
0.617594 0.303944 0.469764
0.643565 0.315999 0.479255
0.199344 0.30135 0.444846
0.218204 0.301259 0.478996
0.281865 0.346563 0.540719
0.406485 0.386389 0.580819
0.524605 0.402258 0.58468
0.594598 0.402625 0.57258
0.636255 0.396567 0.552163
0.676173 0.409857 0.557565
0.700847 0.424521 0.568902
0.21976 0.365454 0.462882
0.235584 0.370352 0.486839
0.273457 0.392981 0.527214
0.409979 0.491218 0.602396
0.561059 0.53698 0.628031
0.6318 0.539376 0.631968
0.669322 0.534127 0.624796
0.706142 0.550378 0.632837
0.731106 0.573816 0.648966
0.240421 0.429023 0.47834
0.260136 0.444312 0.499519
0.28513 0.469612 0.531243
0.372137 0.531518 0.58529
0.591745 0.643641 0.673335
0.68368 0.668849 0.692836
0.711971 0.66566 0.692302
0.743786 0.683497 0.70721
0.764218 0.700252 0.721828
0.264622 0.495491 0.496574
0.287831 0.519112 0.517983
0.31545 0.553933 0.550744
0.386755 0.602686 0.594827
0.563561 0.677943 0.669413
0.71957 0.74197 0.737316
0.756207 0.750118 0.74609
0.780484 0.7626 0.758251
0.797971 0.774395 0.770748
0.291524 0.558297 0.515969
0.314794 0.58938 0.542138
0.350652 0.630426 0.577844
0.433478 0.676326 0.624155
0.591089 0.728222 0.690089
0.726085 0.772534 0.750774
0.787274 0.797833 0.781704
0.808392 0.805066 0.790951
0.820249 0.812497 0.798795
0.333288 0.638346 0.562936
0.356619 0.673945 0.592477
0.408911 0.707225 0.625711
0.510506 0.74107 0.671244
0.658457 0.777829 0.730861
0.753597 0.804211 0.773678
0.802243 0.818372 0.795636
0.815229 0.821515 0.799756
0.827466 0.827192 0.805386
0.354665 0.682109 0.585916
0.380972 0.719676 0.616922
0.44509 0.752499 0.653498
0.574487 0.780392 0.706432
0.714336 0.808164 0.763989
0.782666 0.824201 0.793866
0.811948 0.832242 0.806149
0.824704 0.835294 0.808865
0.831403 0.836667 0.809064
0.189654 0.198871 0.489418
0.236042 0.209308 0.520165
0.288228 0.217517 0.517327
0.351644 0.223697 0.498405
0.421332 0.234714 0.483116
0.476692 0.243549 0.469306
0.507744 0.241474 0.449577
0.528695 0.235554 0.428061
0.55227 0.24387 0.434516
0.19057 0.240848 0.475914
0.226947 0.257221 0.541711
0.294774 0.278111 0.586328
0.391669 0.29633 0.592508
0.489433 0.312139 0.578485
0.556069 0.323171 0.566018
0.591333 0.321904 0.545449
0.610147 0.313329 0.521126
0.63331 0.322362 0.525505
0.211353 0.307744 0.494026
0.232151 0.309422 0.531136
0.294697 0.355566 0.599664
0.412879 0.39498 0.630747
0.531853 0.416571 0.634928
0.605478 0.426123 0.628977
0.646769 0.426093 0.618265
0.672541 0.418936 0.606439
0.695949 0.429969 0.612894
0.232822 0.374136 0.511955
0.250385 0.378164 0.538674
0.290471 0.405097 0.586221
0.428901 0.500969 0.650629
0.572625 0.548272 0.666178
0.643961 0.556466 0.67425
0.681956 0.557488 0.672999
0.70753 0.552621 0.668345
0.729107 0.569451 0.679179
0.253376 0.437552 0.526802
0.274846 0.451728 0.549783
0.300832 0.475715 0.584817
0.395727 0.544152 0.636561
0.602777 0.651835 0.705028
0.690028 0.677943 0.720592
0.723705 0.68188 0.725933
0.744839 0.68191 0.727275
0.764111 0.694301 0.738415
0.279637 0.50692 0.546059
0.302617 0.528191 0.568139
0.326848 0.557214 0.599481
0.398001 0.605035 0.639765
0.564996 0.6804 0.70074
0.720226 0.74406 0.756054
0.762264 0.755901 0.767605
0.778637 0.759243 0.77055
0.794522 0.769848 0.780545
0.305715 0.571023 0.567132
0.330053 0.595544 0.589487
0.358221 0.629816 0.620951
0.433387 0.670558 0.659831
0.578927 0.723842 0.712551
0.716182 0.771054 0.76376
0.785519 0.798016 0.793072
0.805325 0.803342 0.801038
0.818082 0.810803 0.808347
0.330938 0.62385 0.586709
0.35259 0.655283 0.613199
0.389319 0.6878 0.643732
0.474205 0.724651 0.682979
0.615091 0.765591 0.73434
0.731319 0.797177 0.776944
0.792966 0.815915 0.803922
0.822553 0.826841 0.815137
0.831113 0.831098 0.822507
0.35935 0.675441 0.616754
0.38027 0.70869 0.643534
0.426902 0.739956 0.674357
0.52932 0.768872 0.714626
0.672969 0.800549 0.763409
0.765438 0.820462 0.799252
0.806851 0.831189 0.815
0.829374 0.839124 0.825879
0.835294 0.8392 0.826596
0.197101 0.205798 0.518898
0.24181 0.215412 0.543877
0.290715 0.221546 0.539635
0.352987 0.229786 0.523674
0.42562 0.24329 0.512779
0.485756 0.25568 0.50663
0.521523 0.258213 0.491341
0.540627 0.252522 0.470695
0.548562 0.247639 0.459632
0.198184 0.246418 0.504601
0.234913 0.267399 0.57322
0.300572 0.282673 0.613336
0.392233 0.301442 0.617533
0.492012 0.320302 0.6047
0.5635 0.336172 0.598093
0.603983 0.341375 0.587762
0.620829 0.333608 0.567834
0.628702 0.327794 0.553246
0.218494 0.315496 0.522805
0.241428 0.315984 0.561257
0.303258 0.363149 0.633646
0.418677 0.399924 0.657496
0.537316 0.424262 0.661402
0.612329 0.440101 0.658167
0.655695 0.446815 0.65481
0.680278 0.44004 0.647074
0.692943 0.434241 0.640269
0.241428 0.380484 0.540688
0.259861 0.385809 0.569863
0.301854 0.415244 0.619806
0.446326 0.512169 0.678813
0.582834 0.558328 0.690105
0.652171 0.569833 0.698802
0.691234 0.575647 0.702495
0.716274 0.574533 0.700175
0.728985 0.570901 0.697398
0.262455 0.445319 0.557198
0.284306 0.45832 0.581094
0.311345 0.483192 0.618967
0.421347 0.560861 0.671122
0.619669 0.661753 0.727367
0.698589 0.686412 0.739528
0.732876 0.691798 0.74638
0.752056 0.694392 0.74905
0.76524 0.693294 0.750362
0.289387 0.513375 0.577371
0.312596 0.533959 0.599695
0.33666 0.561868 0.631418
0.416419 0.614404 0.67422
0.59115 0.693919 0.730114
0.730694 0.751705 0.772457
0.768978 0.763714 0.78233
0.786908 0.768109 0.786725
0.79443 0.76849 0.788296
0.316228 0.578286 0.598886
0.340597 0.602579 0.620966
0.366155 0.632822 0.652354
0.444038 0.67451 0.68954
0.591989 0.73135 0.738537
0.726436 0.775418 0.780972
0.787366 0.800046 0.805035
0.809201 0.807675 0.81059
0.817517 0.808438 0.813626
0.34226 0.631495 0.618448
0.362554 0.657893 0.644236
0.394629 0.687984 0.672358
0.480934 0.725948 0.709773
0.618402 0.766674 0.754742
0.735836 0.800046 0.793088
0.794156 0.817685 0.813611
0.822522 0.827253 0.823438
0.831052 0.831006 0.827146
0.359274 0.665446 0.632166
0.376745 0.693904 0.658595
0.412528 0.724392 0.685878
0.501579 0.756848 0.7234
0.640009 0.791074 0.766827
0.748669 0.815259 0.802274
0.800656 0.829419 0.820676
0.826383 0.838514 0.830716
0.8392 0.843107 0.835294
