public/LUTS/Cinematic/Cinematic_16.cube
TITLE "Generated by Resolve"
LUT_3D_SIZE 33
0.0747234 0.0578775 0.0578775
0.089601 0.0575265 0.0577554
0.105196 0.0582895 0.0583963
0.121569 0.0587167 0.0584421
0.138613 0.0597696 0.0585184
0.156176 0.0612955 0.0586252
0.174044 0.0626383 0.0585489
0.192309 0.0636606 0.0596933
0.210575 0.0648356 0.0610971
0.228809 0.0670787 0.0620279
0.248188 0.0694133 0.0640726
0.26714 0.0722515 0.0656443
0.287388 0.0752422 0.0677806
0.307286 0.079118 0.0700389
0.328618 0.0825818 0.0730907
0.351858 0.0866255 0.0765393
0.37145 0.0903487 0.079942
0.390295 0.095491 0.0827192
0.411017 0.0995346 0.0875868
0.432044 0.10486 0.0900587
0.452979 0.110658 0.095613
0.475746 0.115572 0.0979782
0.499031 0.120546 0.101991
0.522835 0.12578 0.107652
0.546426 0.130541 0.11281
0.5729 0.137179 0.11632
0.598581 0.143481 0.12163
0.62182 0.149737 0.12697
0.645609 0.156527 0.132464
0.668437 0.162951 0.138079
0.687877 0.169131 0.142565
0.698695 0.172854 0.145098
0.698512 0.172702 0.144976
0.0737621 0.0658122 0.0552071
0.0866102 0.0661936 0.0543679
0.101823 0.0666972 0.0550393
0.118776 0.0670481 0.0547189
0.137026 0.0681773 0.0547036
0.156893 0.0700999 0.0559243
0.175616 0.0720836 0.0568856
0.194827 0.0744945 0.0581979
0.215595 0.0763409 0.0592508
0.23415 0.0783856 0.06009
0.254414 0.0812085 0.0621653
0.274922 0.0836652 0.0650187
0.296239 0.0870222 0.0679637
0.317479 0.0910964 0.0712444
0.340795 0.0963149 0.0740673
0.367102 0.101534 0.0792554
0.388312 0.106233 0.0819257
0.409384 0.112093 0.0857099
0.432364 0.116258 0.0900435
0.453788 0.121935 0.0935683
0.47657 0.127733 0.0985122
0.499825 0.133303 0.10132
0.52462 0.139086 0.106691
0.548989 0.144686 0.112657
0.572808 0.150591 0.117067
0.598123 0.157595 0.121386
0.623194 0.164569 0.126665
0.645869 0.17142 0.131853
0.66772 0.177508 0.137652
0.688212 0.1832 0.143282
0.70663 0.18999 0.147936
0.716625 0.193698 0.150332
0.716625 0.193698 0.150332
0.0731975 0.0743877 0.0536049
0.0855421 0.074876 0.0526894
0.0988327 0.0747845 0.0520638
0.114778 0.0750286 0.0513008
0.134157 0.0763409 0.0510719
0.15462 0.0787671 0.0521096
0.174289 0.0819409 0.053666
0.195041 0.0852522 0.0552834
0.217746 0.0883192 0.0565957
0.237385 0.0911879 0.0582742
0.258442 0.0946365 0.060914
0.281056 0.0971237 0.0646677
0.302678 0.101686 0.0677958
0.325826 0.10576 0.0720836
0.349538 0.111604 0.0755627
0.376425 0.117861 0.0805219
0.400443 0.124132 0.0844587
0.424598 0.130419 0.0889296
0.448112 0.135637 0.0929732
0.47216 0.140917 0.0977493
0.497093 0.146456 0.102083
0.521843 0.152865 0.106508
0.546807 0.158862 0.111757
0.570382 0.165408 0.116014
0.592538 0.171939 0.120668
0.615625 0.178302 0.126757
0.638865 0.185168 0.132143
0.659876 0.191882 0.137102
0.680201 0.198489 0.142428
0.69868 0.205234 0.147127
0.715328 0.21178 0.151705
0.726543 0.215763 0.155077
0.726299 0.215534 0.154925
0.071809 0.0853742 0.0505837
0.0847028 0.0858473 0.0496986
0.0972 0.0854353 0.0493629
0.113664 0.0849928 0.0487373
0.133272 0.086183 0.0483253
0.152956 0.0886702 0.0493935
0.173724 0.0922255 0.0509041
0.195636 0.0959335 0.05243
0.218402 0.0995956 0.0539864
0.240101 0.104234 0.0562142
0.262959 0.1084 0.0602274
0.287083 0.11165 0.0644236
0.308522 0.117815 0.0677348
0.333349 0.122454 0.0720073
0.357565 0.128283 0.0774395
0.385229 0.135225 0.0820783
0.412009 0.141207 0.0865949
0.437217 0.147753 0.091249
0.462165 0.154452 0.0961776
0.48835 0.160418 0.101015
0.515816 0.166735 0.105745
0.539834 0.172885 0.111223
0.565606 0.179034 0.115648
0.589746 0.185458 0.120195
0.612268 0.191928 0.126055
0.635172 0.198505 0.132616
0.655879 0.204944 0.137972
0.67483 0.211612 0.142733
0.693996 0.218555 0.147555
0.710857 0.225589 0.152041
0.726238 0.232441 0.156847
0.737057 0.236622 0.159319
0.736934 0.236469 0.159167
0.0698253 0.0983444 0.0467536
0.083238 0.098497 0.0461433
0.0960555 0.0985733 0.0461128
0.113039 0.0987259 0.0457618
0.134264 0.0993362 0.0456245
0.153399 0.101244 0.0469825
0.174319 0.104479 0.0484779
0.195621 0.108461 0.0503548
0.219089 0.112459 0.05243
0.243 0.118181 0.0553445
0.267674 0.123552 0.0599222
0.291096 0.128267 0.0636912
0.315526 0.135195 0.0690471
0.341497 0.140398 0.0741588
0.366354 0.147936 0.0788434
0.395804 0.154406 0.0855573
0.424109 0.16112 0.0902876
0.448783 0.168414 0.0940261
0.475883 0.176623 0.0986496
0.502632 0.183017 0.103578
0.530266 0.189212 0.109621
0.555184 0.195453 0.114336
0.581018 0.202014 0.119448
0.605051 0.20856 0.125246
0.627115 0.214984 0.130327
0.648234 0.221775 0.135683
0.668894 0.228244 0.141588
0.687007 0.235096 0.147829
0.70312 0.241932 0.15314
0.719997 0.248905 0.157702
0.733593 0.255024 0.163012
0.745373 0.257649 0.16669
0.745327 0.257527 0.166629
0.0667124 0.110079 0.0437171
0.0805829 0.111437 0.0432746
0.095079 0.112062 0.0427863
0.112016 0.113191 0.0425727
0.133761 0.113725 0.0431373
0.153887 0.115175 0.0441901
0.173983 0.118654 0.0461585
0.194293 0.122881 0.0481727
0.218799 0.127214 0.0513313
0.242908 0.131991 0.0560922
0.268132 0.138399 0.0599832
0.294408 0.145235 0.0641184
0.320562 0.150988 0.0696574
0.347539 0.158114 0.0758984
0.37377 0.165667 0.0789349
0.405203 0.173465 0.0874495
0.433356 0.181582 0.0935378
0.460426 0.188357 0.0978714
0.48748 0.196612 0.101198
0.514534 0.203204 0.106233
0.542031 0.20943 0.112261
0.570123 0.216068 0.118868
0.595666 0.22385 0.124865
0.61857 0.231342 0.130495
0.640391 0.238087 0.135622
0.660883 0.244953 0.141146
0.680797 0.251774 0.147494
0.699535 0.258457 0.152621
0.714412 0.265431 0.157122
0.72871 0.272129 0.163394
0.742824 0.279454 0.168688
0.751888 0.284901 0.171496
0.75172 0.284611 0.171298
0.0630198 0.120958 0.0408331
0.0777905 0.124575 0.0399176
0.0941024 0.126192 0.0398718
0.111833 0.12694 0.0398718
0.133211 0.128771 0.0411078
0.153323 0.130846 0.042771
0.174105 0.132906 0.0462806
0.193866 0.136843 0.0482643
0.216831 0.142489 0.050721
0.241337 0.147616 0.0558175
0.269688 0.155245 0.0604715
0.296559 0.161395 0.062974
0.326146 0.166613 0.068986
0.35082 0.175708 0.0737774
0.379629 0.182864 0.0792401
0.412619 0.191455 0.0881666
0.441337 0.200046 0.0944839
0.468833 0.207553 0.100542
0.496941 0.215778 0.10602
0.525414 0.222507 0.112306
0.55375 0.22887 0.118349
0.580636 0.236927 0.123705
0.605158 0.244892 0.129747
0.627573 0.252811 0.135103
0.648722 0.260716 0.1402
0.669215 0.268315 0.146426
0.688548 0.275654 0.152789
0.706035 0.282582 0.15903
0.722301 0.289662 0.164782
0.737179 0.296513 0.169116
0.749523 0.303548 0.174624
0.759091 0.308705 0.177615
0.758968 0.308492 0.177478
0.0605936 0.13193 0.0388342
0.0761425 0.135256 0.0386969
0.0931411 0.13872 0.037995
0.110063 0.141238 0.0381933
0.132387 0.143877 0.0400549
0.154376 0.145586 0.0422675
0.175647 0.14725 0.0451667
0.194736 0.150332 0.0479286
0.216922 0.156268 0.0509499
0.242405 0.16228 0.0556649
0.268238 0.16968 0.0608072
0.29778 0.177478 0.0654002
0.327825 0.183536 0.0713207
0.357214 0.192248 0.0762798
0.386511 0.19913 0.0819562
0.416693 0.208225 0.0879225
0.447227 0.217502 0.0945907
0.476524 0.227176 0.101289
0.505043 0.23476 0.10779
0.532555 0.242847 0.113573
0.561975 0.249424 0.119631
0.588998 0.257252 0.12575
0.613855 0.26511 0.132235
0.636957 0.271687 0.139086
0.657374 0.280186 0.145541
0.676814 0.289937 0.151492
0.696117 0.299046 0.158038
0.712474 0.306706 0.163851
0.728374 0.314031 0.168505
0.743954 0.320775 0.175067
0.756222 0.327764 0.180972
0.766339 0.333989 0.183536
0.76614 0.333639 0.183337
0.0574502 0.142443 0.035935
0.0728466 0.147662 0.0366674
0.0919509 0.152346 0.0367742
0.110658 0.155016 0.0370489
0.131868 0.15964 0.0383917
0.154238 0.161883 0.0414588
0.177737 0.164294 0.0460822
0.196918 0.167651 0.0492866
0.218769 0.171664 0.0518959
0.241123 0.178042 0.0572061
0.2701 0.184726 0.0621805
0.299535 0.193545 0.0651255
0.329625 0.202838 0.0725872
0.358312 0.210712 0.0780652
0.388724 0.218662 0.0836957
0.42153 0.227802 0.0889754
0.453239 0.23711 0.0970932
0.482521 0.246616 0.103624
0.512306 0.255619 0.109468
0.540719 0.2636 0.115282
0.569329 0.272145 0.121889
0.595621 0.279194 0.128725
0.619684 0.286946 0.135164
0.642252 0.294896 0.141543
0.663005 0.302785 0.148165
0.682963 0.313085 0.155352
0.702296 0.322423 0.163333
0.718532 0.3308 0.16997
0.733654 0.340322 0.175875
0.749538 0.348028 0.1823
0.760983 0.357565 0.186069
0.771756 0.36379 0.191684
0.771618 0.363531 0.191546
0.0534524 0.154208 0.034165
0.0703288 0.158633 0.0338293
0.090013 0.164462 0.0347448
0.109483 0.168338 0.0361791
0.132189 0.173816 0.037995
0.15433 0.179004 0.0415198
0.179629 0.181689 0.0455024
0.200412 0.184421 0.0480201
0.221286 0.189273 0.0538338
0.243656 0.192493 0.0567788
0.272023 0.200565 0.0615396
0.299413 0.208347 0.0671244
0.329732 0.21944 0.0715038
0.360433 0.229648 0.0773938
0.392416 0.237369 0.0856947
0.426413 0.247715 0.0914778
0.458106 0.257343 0.0988327
0.487831 0.266148 0.106188
0.519493 0.275715 0.112184
0.548852 0.284138 0.11873
0.576303 0.291752 0.126375
0.601694 0.300603 0.133288
0.625055 0.309194 0.139788
0.647486 0.318135 0.146715
0.667582 0.327398 0.152789
0.688151 0.336522 0.159945
0.707546 0.346609 0.168353
0.724208 0.355291 0.17554
0.739132 0.364767 0.182193
0.753246 0.373281 0.188327
0.766125 0.384283 0.191241
0.77705 0.392477 0.197162
0.776989 0.39234 0.197116
0.0517281 0.163851 0.0311742
0.0677348 0.169818 0.0324102
0.0878157 0.178607 0.0336156
0.106783 0.184161 0.0350805
0.12958 0.190951 0.0383459
0.15494 0.196612 0.0411841
0.181033 0.200946 0.0462348
0.20145 0.203586 0.0497749
0.225254 0.2094 0.054963
0.24799 0.212116 0.0579995
0.273503 0.217578 0.0628519
0.299748 0.225879 0.0690318
0.33193 0.235859 0.0740673
0.362509 0.246296 0.0789502
0.393408 0.257084 0.0865797
0.428855 0.267842 0.095079
0.46247 0.278874 0.101045
0.49395 0.288762 0.109194
0.525185 0.297139 0.116487
0.554223 0.305379 0.122271
0.581628 0.314199 0.129671
0.607767 0.323919 0.137713
0.631373 0.333059 0.144686
0.65301 0.341741 0.151461
0.673198 0.35201 0.158694
0.692836 0.362646 0.166278
0.71162 0.373251 0.173678
0.728573 0.381552 0.181613
0.743786 0.391699 0.187839
0.757061 0.401541 0.193866
0.77142 0.411231 0.199603
0.782376 0.420493 0.205646
0.782238 0.420203 0.205493
0.0482338 0.176196 0.0307774
0.0646372 0.182589 0.032166
0.0867781 0.192264 0.0322576
0.106355 0.198123 0.0351568
0.130541 0.206531 0.0386816
0.153903 0.213428 0.0434882
0.180819 0.219196 0.0481117
0.205432 0.223713 0.0510567
0.230457 0.227329 0.057847
0.253025 0.232639 0.0600443
0.278004 0.238041 0.0650034
0.301747 0.244282 0.069337
0.332479 0.252979 0.0759594
0.363745 0.262654 0.081239
0.394064 0.274464 0.0885786
0.430365 0.286229 0.0963912
0.464622 0.297536 0.103761
0.496468 0.308293 0.111559
0.528496 0.31783 0.119631
0.558907 0.327657 0.12755
0.586831 0.337224 0.134874
0.612512 0.346578 0.141451
0.635737 0.355962 0.148531
0.657786 0.365194 0.156725
0.678218 0.375891 0.164202
0.697902 0.38674 0.171405
0.715877 0.398489 0.179934
0.732296 0.408286 0.186633
0.746853 0.41915 0.193011
0.76173 0.428489 0.201205
0.77406 0.438849 0.205661
0.78526 0.449271 0.211902
0.785092 0.448768 0.211765
0.0467384 0.188586 0.0280308
0.062623 0.194507 0.0302434
0.0829938 0.205097 0.0359197
0.104692 0.213184 0.0378271
0.132174 0.223651 0.0419776
0.155276 0.232593 0.0461738
0.183307 0.237781 0.052079
0.206897 0.243473 0.0532387
0.234852 0.24918 0.0586709
0.257618 0.254627 0.0640421
0.282582 0.260182 0.066865
0.305196 0.26656 0.0715801
0.332967 0.272786 0.0778058
0.364187 0.281895 0.082948
0.39585 0.293614 0.0903182
0.431571 0.305074 0.0987716
0.466255 0.316182 0.106538
0.498421 0.328328 0.114473
0.530983 0.340246 0.123339
0.56144 0.350835 0.131746
0.590173 0.360983 0.139513
0.61651 0.370398 0.146822
0.639887 0.380407 0.154757
0.662318 0.390372 0.162737
0.681987 0.400214 0.16965
0.701411 0.411658 0.177386
0.71986 0.424567 0.185412
0.7364 0.435584 0.192844
0.750179 0.446662 0.199283
0.764675 0.456413 0.206775
0.776883 0.467414 0.211246
0.788006 0.478737 0.217365
0.788327 0.478859 0.217487
0.0453193 0.201205 0.0271
0.0594644 0.206592 0.030045
0.081529 0.218845 0.0359197
0.104601 0.229664 0.0378576
0.133089 0.242557 0.0437324
0.159152 0.251026 0.0487373
0.185412 0.258656 0.0536355
0.209995 0.265797 0.057908
0.236667 0.271855 0.0614176
0.261585 0.277363 0.0671244
0.286885 0.282689 0.0708934
0.311559 0.288808 0.0748913
0.336858 0.295598 0.0801556
0.364202 0.303197 0.0855116
0.395972 0.31252 0.0924697
0.432364 0.325383 0.101152
0.468956 0.337407 0.109422
0.502068 0.34934 0.117617
0.53402 0.362173 0.125994
0.564721 0.373465 0.134279
0.593576 0.38381 0.143633
0.620279 0.394308 0.152331
0.643717 0.405509 0.15996
0.665522 0.415686 0.168215
0.685573 0.426352 0.175433
0.704631 0.438117 0.18436
0.723888 0.450645 0.191546
0.739361 0.461921 0.200046
0.753597 0.473365 0.204929
0.767361 0.48452 0.211948
0.779919 0.496101 0.21706
0.791745 0.507073 0.222919
0.79266 0.507866 0.223362
0.0445258 0.214008 0.0268101
0.0578012 0.220905 0.0292363
0.0797131 0.234241 0.0347143
0.103777 0.245289 0.0386511
0.1346 0.261799 0.0457618
0.160372 0.27187 0.0503853
0.188632 0.281483 0.0554513
0.214099 0.288258 0.0600443
0.242145 0.295735 0.0645914
0.266636 0.30219 0.0697642
0.292409 0.307958 0.0750896
0.317357 0.31342 0.0789349
0.343252 0.319051 0.0831006
0.369589 0.326818 0.0889601
0.398703 0.334356 0.0958419
0.434119 0.346059 0.103578
0.471015 0.359533 0.111955
0.504173 0.371603 0.120531
0.536873 0.384192 0.12932
0.569162 0.396124 0.138491
0.596857 0.406744 0.148302
0.622675 0.41799 0.157733
0.646021 0.430091 0.164889
0.668925 0.441794 0.173404
0.688426 0.453864 0.180728
0.707576 0.46453 0.189654
0.727428 0.477638 0.196841
0.742138 0.488685 0.204929
0.756497 0.501045 0.209857
0.771313 0.511589 0.217807
0.783001 0.522408 0.222354
0.795041 0.534264 0.227955
0.796536 0.535668 0.228641
0.0450446 0.230396 0.0275273
0.059205 0.236454 0.030869
0.0809644 0.251499 0.0341955
0.10425 0.264225 0.0383307
0.135592 0.283009 0.0474403
0.163226 0.295933 0.0540017
0.19266 0.306477 0.059678
0.218585 0.314534 0.0642557
0.247578 0.322011 0.0695048
0.272877 0.329961 0.0742962
0.299855 0.335698 0.0798352
0.323766 0.340841 0.0829328
0.350103 0.346181 0.0871901
0.377447 0.353399 0.0931411
0.405188 0.360494 0.100099
0.436561 0.369543 0.107637
0.471214 0.381445 0.115648
0.506874 0.395071 0.124819
0.540688 0.40763 0.134035
0.572229 0.419944 0.143481
0.599664 0.431769 0.153246
0.624949 0.442939 0.162753
0.648402 0.45594 0.17055
0.671687 0.467231 0.178195
0.690684 0.480446 0.185489
0.710735 0.491691 0.194202
0.72903 0.506462 0.200961
0.745663 0.517113 0.208194
0.758907 0.528054 0.214542
0.773449 0.538796 0.221942
0.78555 0.548363 0.227512
0.798108 0.560662 0.233173
0.800046 0.562432 0.234028
0.0451057 0.244862 0.0293736
0.0607156 0.252216 0.0315251
0.0833143 0.269261 0.0361791
0.106645 0.281514 0.040116
0.137118 0.302068 0.0498207
0.167803 0.317433 0.0575113
0.197864 0.331151 0.0637675
0.224445 0.340627 0.0690623
0.252049 0.348806 0.0745403
0.279484 0.357092 0.0792554
0.30779 0.364309 0.085359
0.331914 0.36968 0.0887465
0.356756 0.374517 0.0929885
0.384268 0.380728 0.0986038
0.412787 0.386984 0.104952
0.442481 0.395026 0.112688
0.473335 0.404685 0.120165
0.50779 0.416266 0.128145
0.543389 0.430289 0.138018
0.57528 0.444129 0.148379
0.603006 0.457572 0.158175
0.628199 0.469291 0.167529
0.651118 0.480949 0.175341
0.673961 0.492409 0.183307
0.693919 0.505547 0.190845
0.714122 0.517662 0.199466
0.73019 0.532525 0.205783
0.748425 0.542962 0.213397
0.761501 0.553811 0.21912
0.774365 0.564218 0.226001
0.786175 0.574075 0.231617
0.800504 0.584894 0.237766
0.803342 0.58677 0.238956
0.0472572 0.259709 0.0300145
0.0627604 0.269703 0.032578
0.0873426 0.2869 0.0389868
0.108995 0.300191 0.0441596
0.140185 0.321279 0.052369
0.171984 0.338933 0.0605631
0.202487 0.354986 0.0677195
0.230304 0.366247 0.0737316
0.257755 0.375509 0.0788434
0.287053 0.385046 0.0841077
0.315206 0.392844 0.090547
0.340414 0.398154 0.0946059
0.365194 0.403006 0.0990768
0.391653 0.40885 0.104891
0.420462 0.414527 0.110948
0.449805 0.421057 0.117464
0.478569 0.42887 0.124208
0.508843 0.43772 0.13164
0.543542 0.451408 0.141405
0.577447 0.466407 0.152728
0.605737 0.480064 0.162554
0.631403 0.493797 0.171557
0.654948 0.504616 0.180392
0.676265 0.515938 0.188251
0.696376 0.528603 0.195209
0.716548 0.540459 0.204715
0.733501 0.554421 0.210163
0.75079 0.56582 0.218479
0.762402 0.576455 0.223239
0.777081 0.584283 0.230915
0.787778 0.594202 0.234668
0.801129 0.604868 0.240314
0.804715 0.607645 0.241917
0.0494087 0.275334 0.0312352
0.0671855 0.286625 0.035584
0.0921035 0.305501 0.0412909
0.113268 0.321401 0.0484627
0.143709 0.343297 0.0544137
0.176013 0.361868 0.0635233
0.206851 0.379797 0.0715343
0.236088 0.393225 0.0781872
0.26537 0.403952 0.0842908
0.294148 0.413581 0.0899825
0.322545 0.421302 0.0957961
0.349325 0.427359 0.100511
0.374868 0.432792 0.10576
0.400412 0.438224 0.112032
0.427344 0.442649 0.118059
0.456336 0.448753 0.124025
0.485771 0.45684 0.130465
0.514473 0.463645 0.13817
0.544182 0.473411 0.146151
0.576959 0.487343 0.155901
0.606012 0.500938 0.16614
0.634882 0.515373 0.175296
0.658152 0.527184 0.184207
0.679149 0.53872 0.192248
0.697566 0.549081 0.198459
0.717693 0.562234 0.207645
0.735424 0.574487 0.21413
0.751781 0.585641 0.221256
0.764279 0.595315 0.22739
0.776684 0.604349 0.233585
0.789044 0.612924 0.238087
0.801221 0.622797 0.243809
0.804562 0.625269 0.245487
0.0522621 0.29189 0.0345922
0.0714885 0.304768 0.0386206
0.0970932 0.326284 0.0451972
0.119112 0.342519 0.0524605
0.148623 0.365728 0.0587472
0.181964 0.386175 0.0669871
0.213474 0.405554 0.0752117
0.242588 0.420661 0.0821851
0.272282 0.431754 0.0901045
0.30132 0.442542 0.0969863
0.330587 0.451514 0.102846
0.357198 0.456641 0.108675
0.38265 0.461646 0.114427
0.408927 0.466194 0.119631
0.435904 0.470726 0.125673
0.463722 0.476585 0.132082
0.492714 0.484138 0.137789
0.521309 0.491249 0.144427
0.549279 0.497993 0.151766
0.577539 0.508431 0.161334
0.606073 0.52221 0.170855
0.636255 0.535897 0.180163
0.659937 0.547707 0.188251
0.679667 0.560647 0.196735
0.69897 0.571176 0.203326
0.719295 0.580056 0.210849
0.736339 0.593057 0.216953
0.753292 0.603449 0.223545
0.766171 0.612894 0.230198
0.778408 0.622385 0.236637
0.790173 0.631022 0.241215
0.801755 0.640452 0.245945
0.805432 0.643656 0.247471
0.0574197 0.309712 0.037644
0.0736553 0.325154 0.0409857
0.102251 0.347189 0.049485
0.125612 0.365667 0.0561837
0.155627 0.389654 0.0653697
0.188724 0.413108 0.0726177
0.220584 0.43238 0.0805219
0.248981 0.448234 0.0881971
0.279103 0.461448 0.0961166
0.308888 0.473533 0.103471
0.337087 0.482246 0.110307
0.364263 0.487907 0.11696
0.390845 0.491661 0.121401
0.418616 0.496635 0.125292
0.444068 0.501289 0.130892
0.470451 0.505791 0.137362
0.499901 0.510735 0.144091
0.528344 0.517479 0.151522
0.555444 0.523583 0.158679
0.582589 0.532525 0.166964
0.606363 0.542107 0.173297
0.63653 0.554284 0.182742
0.660807 0.566583 0.191211
0.681804 0.580499 0.200687
0.70071 0.589471 0.207843
0.720119 0.598993 0.214298
0.735302 0.609659 0.220417
0.75198 0.620691 0.226825
0.765042 0.628672 0.233875
0.778424 0.63769 0.237659
0.789425 0.646418 0.242939
0.801266 0.654429 0.250019
0.805676 0.656977 0.252537
0.0603342 0.330114 0.0411078
0.0779583 0.346029 0.0444648
0.108248 0.369833 0.0528115
0.134035 0.390463 0.0599985
0.162448 0.415122 0.0697642
0.193744 0.439719 0.0790112
0.226764 0.460868 0.0870985
0.257038 0.478065 0.0952468
0.286473 0.492515 0.102678
0.316335 0.504356 0.109483
0.345327 0.513313 0.117128
0.372992 0.520256 0.12398
0.399558 0.525139 0.127993
0.426276 0.528893 0.132494
0.452125 0.531731 0.139025
0.47895 0.535393 0.145403
0.50808 0.5393 0.152377
0.535424 0.54316 0.159014
0.561196 0.54963 0.166247
0.589212 0.557549 0.172351
0.614008 0.564584 0.179217
0.634928 0.572335 0.185794
0.660594 0.584176 0.193805
0.683421 0.595636 0.203647
0.701534 0.608011 0.210727
0.721263 0.61854 0.218326
0.736736 0.627253 0.224247
0.751583 0.636118 0.230671
0.764889 0.643977 0.23476
0.77789 0.65127 0.240681
0.788968 0.658763 0.245686
0.799924 0.668101 0.250462
0.804486 0.672129 0.252476
0.0650339 0.355703 0.0453956
0.0850843 0.371923 0.0496986
0.115099 0.395438 0.0598764
0.141405 0.418463 0.0669871
0.16997 0.443198 0.0753796
0.201801 0.469032 0.0844587
0.235019 0.491218 0.0935683
0.265217 0.507897 0.10222
0.294728 0.52108 0.109895
0.325032 0.532753 0.116899
0.354818 0.542199 0.123552
0.382635 0.549187 0.129778
0.408469 0.554482 0.135088
0.434943 0.557595 0.140063
0.462409 0.559716 0.146502
0.487495 0.561669 0.152605
0.51487 0.565347 0.1579
0.54049 0.569009 0.162951
0.564157 0.572778 0.169558
0.591409 0.580392 0.176913
0.61593 0.585794 0.183856
0.638483 0.59321 0.1906
0.658549 0.597879 0.197238
0.680964 0.610773 0.204623
0.701366 0.621012 0.211917
0.720943 0.630823 0.221515
0.736461 0.640986 0.228473
0.752667 0.64921 0.232975
0.765103 0.656626 0.238392
0.777234 0.66392 0.242695
0.787152 0.670939 0.246311
0.797833 0.679118 0.251896
0.803388 0.683116 0.255024
0.0719463 0.382315 0.0511635
0.0903182 0.400015 0.0550393
0.119493 0.423163 0.0643931
0.147341 0.448692 0.0725567
0.177951 0.472251 0.0818952
0.210178 0.498085 0.0923476
0.242618 0.5205 0.100938
0.273335 0.538399 0.110094
0.303181 0.552178 0.117525
0.33402 0.5626 0.123644
0.363607 0.571298 0.130694
0.390692 0.578134 0.136614
0.418265 0.583612 0.142504
0.445838 0.587167 0.147906
0.471504 0.588525 0.153689
0.496086 0.590326 0.159121
0.523308 0.592691 0.164126
0.548592 0.594491 0.170901
0.571405 0.598489 0.176059
0.596323 0.602365 0.181674
0.619348 0.607843 0.189425
0.640742 0.613901 0.195819
0.660563 0.618799 0.201617
0.67985 0.623499 0.205554
0.697856 0.633585 0.214847
0.717083 0.643839 0.222461
0.735134 0.653544 0.229435
0.751507 0.663005 0.235569
0.764218 0.670024 0.240223
0.776257 0.6766 0.24361
0.786755 0.68275 0.248814
0.797375 0.68957 0.254231
0.80322 0.693324 0.256428
0.082063 0.414939 0.0584878
0.0990921 0.4327 0.0620737
0.12752 0.456428 0.0696117
0.157076 0.480598 0.0792401
0.187304 0.502205 0.0893416
0.21912 0.525139 0.0988632
0.251255 0.548074 0.107454
0.281514 0.565209 0.116121
0.312367 0.577447 0.124468
0.342565 0.588022 0.13109
0.371023 0.597299 0.137362
0.400458 0.603037 0.143908
0.427802 0.608255 0.149767
0.453742 0.612192 0.155367
0.480369 0.613764 0.160906
0.50544 0.615473 0.165347
0.531258 0.617517 0.171984
0.556054 0.618692 0.176837
0.577127 0.620508 0.183062
0.601938 0.623987 0.187015
0.622736 0.628519 0.194247
0.643656 0.63418 0.200992
0.662272 0.636942 0.205493
0.679927 0.640772 0.209689
0.695689 0.645624 0.214618
0.714199 0.654276 0.222934
0.731762 0.66453 0.230182
0.747997 0.673289 0.236072
0.761807 0.680308 0.24123
0.774578 0.687388 0.245167
0.786007 0.693187 0.25037
0.795926 0.69929 0.255818
0.800687 0.702892 0.257801
0.0904097 0.448081 0.0673686
0.111376 0.466804 0.0704051
0.137469 0.488945 0.0780041
0.166308 0.512581 0.0882582
0.197711 0.534249 0.098024
0.229404 0.556481 0.106462
0.260716 0.576242 0.114794
0.291325 0.592981 0.123613
0.321386 0.605783 0.130983
0.35201 0.615183 0.137285
0.380453 0.623514 0.144274
0.40914 0.629404 0.151217
0.436896 0.634531 0.157305
0.463996 0.638697 0.162066
0.490196 0.64062 0.167803
0.515267 0.641749 0.173434
0.540917 0.642939 0.17911
0.564492 0.644358 0.18497
0.586114 0.64535 0.18999
0.607279 0.646479 0.194263
0.62768 0.649622 0.201144
0.647562 0.653284 0.205341
0.665949 0.655909 0.209995
0.68188 0.65893 0.215045
0.69662 0.661448 0.219791
0.712444 0.664454 0.225467
0.729564 0.67277 0.230762
0.744854 0.681468 0.236088
0.75938 0.688533 0.241352
0.772839 0.695308 0.246006
0.783719 0.702083 0.25095
0.794018 0.708827 0.256245
0.800214 0.712566 0.259037
0.101335 0.486091 0.0778821
0.122148 0.506249 0.0814527
0.148455 0.527001 0.0896315
0.178119 0.549081 0.0979934
0.208652 0.567742 0.105226
0.240131 0.586389 0.113649
0.272175 0.604913 0.12256
0.302159 0.620523 0.130663
0.330495 0.632807 0.137926
0.360662 0.640391 0.144793
0.390585 0.647562 0.151644
0.419028 0.653346 0.15787
0.445609 0.659571 0.164004
0.474205 0.662623 0.169818
0.499489 0.66479 0.175341
0.524269 0.665751 0.179995
0.549645 0.667353 0.186175
0.573114 0.668498 0.191135
0.593866 0.668269 0.196994
0.614527 0.669215 0.20087
0.632395 0.669612 0.205997
