public/LUTS/Cinematic/Cinematic_27.cube
TITLE "Generated by Resolve"
LUT_3D_SIZE 33
0.0479438 0.0686656 0.0747997
0.053193 0.0679789 0.0729686
0.0597238 0.0671244 0.0704814
0.0694591 0.068986 0.070222
0.0823224 0.0747539 0.0738842
0.0980392 0.0818647 0.0783856
0.11606 0.0882124 0.0811475
0.13576 0.0935073 0.0819409
0.157412 0.0973373 0.0798657
0.17995 0.099321 0.0744182
0.207828 0.0982376 0.0604105
0.238499 0.0958114 0.0456397
0.269215 0.0985885 0.0392309
0.30811 0.0987869 0.0434119
0.353735 0.105013 0.0497292
0.407309 0.111925 0.0576333
0.463142 0.120424 0.0664073
0.520119 0.129686 0.0757305
0.575357 0.138659 0.0851148
0.625574 0.154818 0.0944076
0.67126 0.173342 0.103166
0.711788 0.194217 0.111513
0.747204 0.215244 0.119097
0.778927 0.23299 0.125917
0.806455 0.253086 0.132403
0.831952 0.272114 0.13843
0.855802 0.293339 0.144472
0.880049 0.316503 0.150729
0.904891 0.341604 0.157351
0.910811 0.366064 0.160891
0.911116 0.390768 0.163745
0.911513 0.414572 0.166583
0.911803 0.433646 0.169009
0.0447089 0.0635691 0.0652628
0.0497597 0.0638437 0.065156
0.0562753 0.0640574 0.0648508
0.0657664 0.0661631 0.0645304
0.0783246 0.0711528 0.0662852
0.0941634 0.0769207 0.0677958
0.11136 0.0824598 0.0682536
0.130632 0.0870832 0.0666819
0.149889 0.0922103 0.0646983
0.169543 0.0978408 0.0621653
0.190692 0.1028 0.0571756
0.215198 0.10779 0.0495155
0.241535 0.112993 0.0409552
0.273075 0.117174 0.0410773
0.310521 0.122377 0.0457313
0.358404 0.130388 0.0524147
0.413794 0.138064 0.0606241
0.472511 0.145846 0.0697795
0.531594 0.1514 0.0790875
0.588739 0.156603 0.0885023
0.641611 0.162127 0.0975052
0.689143 0.168231 0.105776
0.729809 0.177752 0.113375
0.762402 0.19852 0.120409
0.790036 0.222324 0.127001
0.814618 0.246983 0.133242
0.837903 0.27245 0.139467
0.861311 0.297444 0.145785
0.885573 0.322698 0.152285
0.910552 0.347951 0.158923
0.910903 0.370657 0.161349
0.911208 0.395514 0.164309
0.911604 0.419638 0.167178
0.0443732 0.0750591 0.0695659
0.0498512 0.074052 0.0677653
0.0563973 0.0721447 0.0657969
0.0630655 0.0730144 0.0662242
0.0747539 0.0738537 0.0644846
0.0891737 0.0778363 0.0650492
0.105257 0.0835889 0.0665446
0.122805 0.0893721 0.0670481
0.141588 0.0946975 0.0666361
0.162097 0.0995651 0.0643015
0.183124 0.103624 0.0599374
0.207538 0.107729 0.0528115
0.233677 0.112108 0.044419
0.263462 0.116594 0.0400549
0.299687 0.121019 0.0442817
0.344717 0.128359 0.0504616
0.399268 0.136706 0.0584878
0.457649 0.143999 0.0673991
0.516411 0.150362 0.0766766
0.573663 0.156497 0.0861219
0.627588 0.162753 0.0952468
0.676799 0.169482 0.103792
0.719448 0.176638 0.111543
0.75523 0.18764 0.11841
0.783703 0.211017 0.125017
0.809018 0.235157 0.13135
0.832563 0.2598 0.137469
0.855543 0.284153 0.143603
0.879118 0.30869 0.149844
0.903502 0.335103 0.156497
0.910704 0.360082 0.160204
0.91107 0.38526 0.163088
0.911421 0.410163 0.166033
0.0466468 0.0868086 0.0727092
0.0522164 0.0851453 0.0703746
0.0582132 0.0834363 0.0688182
0.0631571 0.0835431 0.0692912
0.0718853 0.0863966 0.0703746
0.0856336 0.0840314 0.0660563
0.101854 0.0859846 0.0655985
0.118791 0.0919509 0.0666209
0.137102 0.0978866 0.0665446
0.157031 0.103624 0.0649119
0.177539 0.108553 0.0611582
0.20177 0.112703 0.0549477
0.229084 0.115526 0.045716
0.259403 0.118288 0.0404517
0.295247 0.121935 0.0438697
0.338506 0.128023 0.0497139
0.393301 0.135378 0.0575113
0.451926 0.142687 0.0664836
0.511009 0.149737 0.0758526
0.5682 0.156817 0.0852674
0.62266 0.16379 0.0944839
0.671763 0.171527 0.10312
0.714488 0.179187 0.110842
0.751324 0.187991 0.117784
0.781811 0.202747 0.124102
0.807095 0.225498 0.130251
0.830854 0.24802 0.136172
0.853788 0.271672 0.142168
0.876936 0.296696 0.148363
0.901473 0.323674 0.155047
0.910567 0.349416 0.159045
0.910887 0.374716 0.161852
0.911269 0.400458 0.164889
0.0492866 0.0983597 0.0757763
0.0544442 0.0967269 0.073579
0.0601968 0.0952316 0.0722515
0.0646983 0.0950637 0.0729076
0.0711223 0.0974899 0.0741436
0.082536 0.100175 0.0750591
0.0977035 0.0968032 0.0692302
0.115801 0.0957198 0.0668193
0.134798 0.101061 0.0670481
0.15465 0.106813 0.0658122
0.175219 0.112047 0.0629129
0.198581 0.117174 0.0570687
0.224948 0.122408 0.0489509
0.254963 0.127428 0.0419776
0.290135 0.132265 0.0442969
0.332845 0.139467 0.0500954
0.386221 0.147799 0.0577401
0.445945 0.154726 0.0667124
0.506874 0.161547 0.0761883
0.565362 0.168475 0.0857404
0.619806 0.175845 0.0949874
0.669474 0.183612 0.103624
0.712398 0.191653 0.111421
0.749554 0.200793 0.118364
0.780758 0.211124 0.124514
0.807721 0.223102 0.130159
0.831739 0.240024 0.135683
0.854704 0.260502 0.14139
0.877668 0.285191 0.147463
0.901701 0.313008 0.154009
0.910445 0.339498 0.158053
0.910796 0.365454 0.160815
0.911147 0.391775 0.163821
0.0516823 0.110246 0.079408
0.0565957 0.108995 0.0774243
0.0622416 0.107485 0.0759442
0.066392 0.107073 0.0767529
0.0717784 0.1084 0.0778821
0.0809033 0.111986 0.0795148
0.0948043 0.115114 0.0813916
0.111574 0.109712 0.0727092
0.131258 0.106325 0.0689403
0.152804 0.110826 0.0675975
0.173892 0.11603 0.0648203
0.19733 0.121401 0.0595102
0.224445 0.126711 0.0513161
0.253819 0.132616 0.0433814
0.288777 0.139071 0.0448768
0.330724 0.148501 0.0507668
0.383474 0.161074 0.058732
0.441672 0.172351 0.0677653
0.502892 0.180713 0.0772869
0.563027 0.187518 0.0870222
0.618845 0.194629 0.0963455
0.66952 0.20235 0.105119
0.712749 0.210178 0.112917
0.749538 0.218692 0.119768
0.780728 0.228382 0.125856
0.80763 0.239506 0.131426
0.832212 0.252583 0.136812
0.855528 0.267781 0.142123
0.879026 0.285481 0.147707
0.902937 0.305608 0.153506
0.910307 0.32845 0.156939
0.910658 0.355383 0.15967
0.911025 0.382742 0.162768
0.0535592 0.122408 0.0833753
0.05832 0.121218 0.0816205
0.0640574 0.119753 0.0801404
0.0681163 0.119539 0.0808881
0.0731365 0.119997 0.0820478
0.0805982 0.12311 0.0834211
0.0929732 0.12697 0.085832
0.109972 0.130251 0.0868238
0.128923 0.122927 0.0760204
0.149111 0.118639 0.0720531
0.172335 0.121721 0.0686046
0.19617 0.126192 0.0630808
0.223774 0.131746 0.0550393
0.253727 0.137591 0.0463722
0.289143 0.1449 0.0455482
0.332815 0.154772 0.0517128
0.386069 0.1682 0.0598001
0.446021 0.18291 0.0694438
0.504906 0.196475 0.0791791
0.563485 0.207248 0.0889754
0.620157 0.215778 0.0984512
0.670726 0.223331 0.107118
0.714656 0.231434 0.114977
0.751186 0.239841 0.121782
0.782376 0.249256 0.127916
0.809094 0.259998 0.133425
0.833448 0.271992 0.138674
0.856779 0.286397 0.143984
0.880262 0.30309 0.149508
0.904463 0.321462 0.155276
0.91046 0.33962 0.158068
0.910674 0.358022 0.159991
0.910964 0.378363 0.162264
0.0551003 0.134752 0.0880293
0.0598459 0.133639 0.0863203
0.0655833 0.132342 0.0848859
0.0698405 0.132158 0.0855116
0.0745098 0.132174 0.0865187
0.0812085 0.134356 0.0877546
0.0918746 0.13843 0.0897231
0.107195 0.142626 0.0931411
0.128664 0.145907 0.0927138
0.150179 0.137194 0.0817426
0.169085 0.130892 0.0758068
0.194797 0.132845 0.0693065
0.224094 0.137484 0.0601968
0.255146 0.143557 0.0514076
0.291066 0.151339 0.047364
0.335668 0.162097 0.0528573
0.390951 0.175494 0.0612497
0.452476 0.190906 0.0711986
0.514565 0.20676 0.081651
0.572686 0.220996 0.0917067
0.625101 0.234592 0.101061
0.673365 0.246479 0.109773
0.716945 0.254963 0.117571
0.754086 0.263691 0.124437
0.78497 0.273152 0.130541
0.811521 0.283314 0.135943
0.835813 0.295445 0.141222
0.859068 0.309117 0.146517
0.882994 0.325429 0.152102
0.907515 0.343191 0.157946
0.910735 0.359579 0.160159
0.910933 0.376913 0.162127
0.911223 0.395468 0.164309
0.0565042 0.146761 0.092958
0.0613565 0.145861 0.0912642
0.0670481 0.144778 0.0898756
0.0711986 0.144472 0.0902724
0.0758373 0.144533 0.0911574
0.0819562 0.1458 0.0923781
0.0915847 0.149828 0.0939193
0.105303 0.154437 0.0966812
0.123583 0.159579 0.100526
0.149859 0.162371 0.0962539
0.170642 0.150637 0.0862593
0.191485 0.14313 0.0797742
0.223545 0.145098 0.0683604
0.256764 0.150118 0.0564889
0.293477 0.158495 0.0500038
0.339605 0.169741 0.0541848
0.395941 0.184009 0.0628519
0.460777 0.19971 0.0733501
0.523293 0.2159 0.0839246
0.582742 0.232547 0.0944381
0.636088 0.246921 0.10399
0.681712 0.26183 0.112642
0.721614 0.276341 0.120394
0.756924 0.288563 0.127398
0.787488 0.298543 0.133394
0.813916 0.309285 0.138903
0.838254 0.321447 0.144289
0.862135 0.335424 0.149706
0.885817 0.351049 0.155245
0.908675 0.368032 0.160754
0.911025 0.383673 0.162905
0.911284 0.400305 0.164858
0.911528 0.417472 0.166964
0.0579232 0.159976 0.0986648
0.0628061 0.159136 0.0970016
0.068452 0.158114 0.095491
0.0725719 0.157931 0.0956436
0.0770428 0.158083 0.0964675
0.0829023 0.158801 0.097322
0.0912642 0.162585 0.0985733
0.103548 0.167895 0.10016
0.120485 0.173617 0.103319
0.142794 0.180072 0.106966
0.172305 0.181109 0.099443
0.195468 0.167773 0.087953
0.221225 0.158404 0.0791485
0.257282 0.160159 0.0638437
0.296361 0.167193 0.0536965
0.343175 0.179126 0.0557259
0.402289 0.193408 0.0647593
0.467872 0.209857 0.0754101
0.533059 0.22649 0.0864576
0.59321 0.243473 0.0971695
0.646738 0.260746 0.107103
0.69337 0.276539 0.11606
0.732052 0.291325 0.123674
0.764446 0.306691 0.13051
0.792294 0.32137 0.136645
0.817639 0.336248 0.142428
0.841627 0.35082 0.147982
0.86508 0.36611 0.153536
0.889158 0.382422 0.159289
0.90956 0.398825 0.164431
0.911498 0.413779 0.166506
0.911742 0.429511 0.168505
0.911986 0.445762 0.170626
0.059556 0.173846 0.104845
0.0643778 0.173281 0.103197
0.0698405 0.172519 0.101595
0.0739605 0.17258 0.101595
0.0782635 0.172824 0.102083
0.0837415 0.173404 0.102724
0.0911879 0.176577 0.103502
0.101915 0.1823 0.104341
0.117525 0.188815 0.106554
0.138231 0.195926 0.110124
0.164843 0.204257 0.113466
0.199878 0.206088 0.102754
0.227497 0.185763 0.0867475
0.25626 0.175692 0.074876
0.29897 0.179202 0.0604257
0.347967 0.189624 0.057908
0.408225 0.204425 0.0669261
0.476844 0.221073 0.0779583
0.543114 0.238621 0.0893111
0.604669 0.256428 0.100313
0.658564 0.273747 0.110384
0.704326 0.292042 0.119402
0.742565 0.308827 0.127245
0.774029 0.323964 0.133959
0.800977 0.340719 0.1402
0.824598 0.357702 0.146014
0.846494 0.376089 0.151675
0.869871 0.393729 0.157519
0.893385 0.412207 0.163516
0.91133 0.4318 0.168688
0.912093 0.448646 0.170962
0.912367 0.464195 0.173114
0.912612 0.479179 0.175143
0.0614786 0.18854 0.111818
0.066331 0.187961 0.109957
0.0715496 0.187411 0.108354
0.0752575 0.187518 0.108186
0.079408 0.188067 0.108431
0.0846113 0.189014 0.108782
0.0912642 0.190906 0.109056
0.100893 0.19733 0.109438
0.114504 0.204547 0.109834
0.133822 0.212573 0.112047
0.158587 0.222187 0.115068
0.189746 0.231998 0.116991
0.232715 0.230777 0.102068
0.263371 0.206287 0.0840772
0.298955 0.19678 0.0716716
0.351308 0.203632 0.0628214
0.414786 0.216632 0.069276
0.485298 0.234287 0.0806897
0.553414 0.252064 0.0923781
0.615183 0.27039 0.103426
0.669047 0.288533 0.113649
0.71458 0.306432 0.122621
0.752239 0.324514 0.130587
0.783108 0.342702 0.137575
0.809247 0.360525 0.143862
0.832639 0.377493 0.149615
0.854765 0.396231 0.155459
0.877195 0.416648 0.161532
0.900221 0.437995 0.167803
0.91223 0.458 0.172259
0.912551 0.475624 0.17467
0.912886 0.493462 0.177234
0.913237 0.510338 0.17969
0.0630961 0.20502 0.119203
0.0676432 0.2047 0.117449
0.0726482 0.204135 0.115648
0.0764324 0.204364 0.115206
0.0802167 0.205097 0.11516
0.085069 0.206271 0.11516
0.0911116 0.208255 0.115068
0.0991531 0.214817 0.114214
0.109819 0.223453 0.111955
0.128237 0.23241 0.112764
0.152422 0.242451 0.115312
0.182422 0.253712 0.119051
0.224628 0.265599 0.121355
0.275486 0.258946 0.0995956
0.306645 0.227665 0.0830854
0.35314 0.223484 0.0729686
0.420645 0.232944 0.072282
0.494408 0.248631 0.083711
0.563104 0.267323 0.0955673
0.625681 0.286137 0.106859
0.679896 0.304509 0.117144
0.725383 0.323476 0.126268
0.761593 0.342 0.134096
0.791882 0.36022 0.141054
0.817578 0.378958 0.147433
0.840635 0.399481 0.153628
0.863447 0.419196 0.159747
0.886 0.439048 0.165774
0.908614 0.459709 0.171923
0.912657 0.4804 0.175326
0.913039 0.500328 0.178256
0.913481 0.52108 0.181292
0.913802 0.535439 0.183505
0.0614328 0.227054 0.125612
0.0657206 0.226947 0.123644
0.0704509 0.226734 0.121736
0.0740978 0.227115 0.121019
0.0777752 0.228138 0.12079
0.0825818 0.229496 0.120363
0.0883955 0.231327 0.119753
0.096025 0.236378 0.118502
0.105669 0.245731 0.115694
0.121798 0.256031 0.11368
0.146731 0.266346 0.116457
0.176455 0.278202 0.120836
0.217685 0.292653 0.127993
0.265431 0.304143 0.132891
0.323232 0.294499 0.109285
0.35877 0.254505 0.0836347
0.423239 0.256748 0.0771344
0.502144 0.268238 0.0873579
0.573541 0.284611 0.0991989
0.637629 0.304402 0.110903
0.690028 0.323857 0.120989
0.734707 0.34255 0.130022
0.770642 0.361227 0.13785
0.800183 0.379919 0.144808
0.825376 0.399725 0.151293
0.8486 0.419532 0.157443
0.871717 0.440375 0.16379
0.894743 0.462303 0.17023
0.912108 0.484047 0.175769
0.9131 0.502876 0.178592
0.913512 0.521996 0.181445
0.913924 0.541863 0.184497
0.914183 0.553124 0.186313
0.060029 0.254093 0.133684
0.0639963 0.254337 0.131548
0.068574 0.254444 0.129351
0.0720989 0.255207 0.128527
0.0756695 0.25626 0.127962
0.0803693 0.257893 0.12726
0.086183 0.259937 0.126299
0.0937514 0.264103 0.124743
0.103731 0.273472 0.122194
0.11812 0.28481 0.118853
0.143633 0.296376 0.121859
0.173739 0.309194 0.127611
0.213535 0.324849 0.13518
0.263813 0.342535 0.143908
0.319814 0.354681 0.14725
0.388067 0.344854 0.119295
0.430533 0.294606 0.0855879
0.506889 0.298024 0.092134
0.583917 0.310094 0.10399
0.648325 0.326101 0.115221
0.700771 0.345861 0.125383
0.744259 0.365042 0.13434
0.779141 0.38439 0.142138
0.807904 0.403784 0.149096
0.833204 0.423011 0.155566
0.856825 0.442878 0.161837
0.880049 0.463478 0.168185
0.903227 0.485161 0.17464
0.91313 0.506416 0.179126
0.913603 0.52665 0.182162
0.914 0.546838 0.18529
0.914427 0.565927 0.188357
0.914626 0.572885 0.189441
0.062501 0.284321 0.143282
0.0661173 0.284977 0.141375
0.0703899 0.285328 0.139269
0.0738689 0.286107 0.138308
0.0776684 0.287526 0.137667
0.0825818 0.289174 0.136797
0.0888075 0.292012 0.135729
0.0966201 0.295521 0.134173
0.107164 0.304158 0.132326
0.121599 0.317021 0.129747
0.144427 0.330144 0.130419
0.174456 0.343984 0.136065
0.213687 0.360845 0.14342
0.261295 0.37911 0.15172
0.32079 0.398169 0.160708
0.382727 0.4094 0.164569
0.46215 0.381415 0.114168
0.515129 0.335988 0.0988785
0.589975 0.343679 0.109621
0.656596 0.355596 0.120409
0.710857 0.369375 0.129992
0.754177 0.389197 0.13904
0.787671 0.408377 0.146639
0.815976 0.427848 0.153567
0.840635 0.447135 0.160006
0.863966 0.467277 0.166278
0.887297 0.487709 0.172671
0.910826 0.508675 0.17911
0.913603 0.52726 0.182254
0.914031 0.546868 0.185336
0.914504 0.567102 0.188525
0.914931 0.585992 0.191592
0.914992 0.589731 0.192203
0.0691234 0.318486 0.154696
0.0726177 0.319005 0.152682
0.0767376 0.319615 0.150683
0.0802014 0.320638 0.149767
0.084123 0.322362 0.149203
0.0891127 0.324437 0.148302
0.0954147 0.327276 0.147189
0.103273 0.330968 0.145586
0.113176 0.337881 0.143526
0.126894 0.351614 0.140856
0.147829 0.366186 0.140032
0.177249 0.380545 0.144701
0.216114 0.398749 0.152087
0.262516 0.417731 0.160174
0.321035 0.438193 0.169253
0.39237 0.459403 0.178988
0.462089 0.466529 0.179065
0.540154 0.416495 0.116075
0.597635 0.381018 0.116335
0.663447 0.390311 0.12639
0.719173 0.401907 0.135775
0.762585 0.414466 0.143786
0.795544 0.432547 0.151141
0.822675 0.451682 0.157916
0.847379 0.471611 0.164492
0.870985 0.491493 0.170855
0.894911 0.511391 0.177279
0.913207 0.531197 0.182803
0.914046 0.548791 0.185626
0.914443 0.567376 0.188602
0.914946 0.586358 0.191669
0.915328 0.601236 0.194141
0.915358 0.604379 0.19469
0.076585 0.354894 0.166201
0.0798199 0.355428 0.164294
0.0838636 0.356085 0.162295
0.0874647 0.357885 0.161578
0.0914015 0.359701 0.160861
0.0964218 0.361898 0.159838
0.10277 0.364858 0.158541
0.110567 0.368551 0.156832
0.119921 0.373846 0.154696
0.133837 0.388296 0.15198
0.153231 0.403769 0.149935
0.182162 0.419242 0.153735
0.220783 0.437461 0.160876
0.266636 0.457069 0.168856
0.323857 0.478721 0.177859
0.394064 0.500923 0.187701
0.473304 0.518593 0.196521
0.550637 0.51635 0.175692
0.613108 0.452506 0.130144
0.671565 0.428351 0.133318
0.724361 0.437629 0.141787
0.767727 0.448112 0.149401
0.801602 0.459571 0.155978
0.82948 0.475868 0.162478
0.853544 0.495171 0.168872
0.878508 0.514946 0.175418
0.902708 0.534386 0.181765
0.914137 0.552865 0.186282
0.914549 0.569619 0.188891
0.914961 0.586923 0.19176
0.91545 0.604837 0.194751
0.915755 0.617334 0.196918
0.915755 0.619211 0.197238
0.0843977 0.392721 0.177462
0.0876936 0.393606 0.175616
0.0915847 0.394858 0.173831
0.0950179 0.396429 0.173083
0.0989853 0.398276 0.17229
0.104189 0.400732 0.171191
0.110796 0.404059 0.16968
0.118685 0.408148 0.167849
0.128161 0.413169 0.165286
0.141436 0.42594 0.162387
0.159869 0.442329 0.15938
0.18909 0.458381 0.162936
0.228199 0.477546 0.16994
0.273442 0.497154 0.177661
0.329122 0.518074 0.186358
0.397604 0.540581 0.195987
0.483375 0.564065 0.20676
0.555932 0.573053 0.212009
0.629557 0.553628 0.167666
0.678904 0.490425 0.144656
0.73106 0.474845 0.148577
0.772885 0.483146 0.15555
0.806271 0.493263 0.161822
0.834669 0.504356 0.167529
0.860578 0.518166 0.173312
0.884993 0.537453 0.179797
0.90811 0.556374 0.185992
0.914641 0.573724 0.189593
0.915068 0.590387 0.192325
0.915465 0.607233 0.195193
0.915862 0.623697 0.197986
0.916152 0.6327 0.199557
0.916152 0.63415 0.199786
0.0926223 0.431815 0.188586
0.0957046 0.432639 0.186786
0.0992599 0.433936 0.185138
0.102831 0.43563 0.184222
0.106996 0.437751 0.183322
0.112535 0.440665 0.182086
0.119249 0.444053 0.180407
0.127306 0.448157 0.178302
0.136828 0.453162 0.175525
0.149615 0.464027 0.172168
0.167224 0.481178 0.168276
0.197864 0.497749 0.172107
0.23653 0.516167 0.178637
0.282124 0.536004 0.186236
0.336965 0.556893 0.194781
0.403845 0.579034 0.204288
0.488045 0.602853 0.215137
0.569512 0.619272 0.223972
0.63122 0.621469 0.221149
0.691295 0.580072 0.162631
0.734417 0.528878 0.158145
0.778653 0.5196 0.162249
0.811032 0.527443 0.16791
0.839017 0.536614 0.173251
0.865049 0.54699 0.178515
0.890288 0.560082 0.1841
0.913329 0.577661 0.190051
0.915099 0.593591 0.192874
0.915541 0.609796 0.195621
0.915953 0.625437 0.198291
0.916381 0.641489 0.201083
0.916548 0.647257 0.202106
0.916548 0.648478 0.20235
0.100832 0.470436 0.198795
0.103731 0.471412 0.197177
0.107057 0.472755 0.195712
0.110689 0.474678 0.194766
0.11519 0.47744 0.193912
0.120806 0.480262 0.192447
0.127794 0.483848 0.1906
0.136095 0.488106 0.188205
0.145815 0.492912 0.185107
0.158709 0.502892 0.181277
0.175357 0.519081 0.176684
0.207218 0.535866 0.180896
0.246052 0.55404 0.187167
0.291676 0.573571 0.194583
0.345998 0.594263 0.202914
0.411276 0.615366 0.212177
0.492531 0.638392 0.222889
0.578225 0.658732 0.233158
0.64065 0.665339 0.238712
0.696452 0.661952 0.220859
0.744839 0.611292 0.174304
0.779126 0.567514 0.17052
0.815442 0.562264 0.174334
0.842908 0.569329 0.179141
0.869566 0.578393 0.184268
0.895628 0.588266 0.189395
0.915175 0.599069 0.193805
0.915602 0.613352 0.196201
0.915999 0.628122 0.198734
0.916396 0.643488 0.201419
0.916869 0.659358 0.204288
0.916945 0.661997 0.204761
0.917006 0.663355 0.20502
0.109575 0.508705 0.208347
0.111864 0.509651 0.206989
0.115099 0.511543 0.205814
0.118685 0.513634 0.204974
0.123278 0.516426 0.203815
0.129351 0.519417 0.202258
0.136522 0.522957 0.200137
0.145052 0.527474 0.197696
0.155093 0.532387 0.194141
0.167605 0.540688 0.18999
0.183902 0.556405 0.184848
0.217258 0.573007 0.189441
0.256809 0.591363 0.195636
0.302159 0.609934 0.20264
0.355245 0.629374 0.210697
0.419623 0.64979 0.219806
0.498451 0.671824 0.230335
0.582284 0.692348 0.240955
0.65275 0.704784 0.248905
0.702113 0.707698 0.253483
0.745647 0.692103 0.216129
0.785183 0.641199 0.184649
0.81471 0.606073 0.181888
0.847089 0.603632 0.185626
0.873701 0.609705 0.190127
0.900099 0.617502 0.194919
0.915923 0.62533 0.19826
0.916136 0.633234 0.199634
0.916518 0.646693 0.202014
0.916915 0.661585 0.204685
0.917296 0.674769 0.207065
0.917327 0.676341 0.20737
0.917403 0.677791 0.207645
0.119203 0.54728 0.217166
0.120195 0.548043 0.216342
0.123033 0.549645 0.215351
0.126528 0.551751 0.214557
0.131472 0.554833 0.213428
0.137865 0.558053 0.211536
0.14548 0.562066 0.209293
0.154284 0.566613 0.206424
0.164584 0.571374 0.20264
0.176761 0.577737 0.197955
0.194202 0.592874 0.193103
0.227649 0.608927 0.197635
0.266758 0.626474 0.203464
0.312444 0.64445 0.210376
0.364935 0.662989 0.218219
0.427985 0.682506 0.227146
0.505379 0.703441 0.237629
0.585443 0.722286 0.248157
0.659892 0.738201 0.258
0.710903 0.742931 0.263325
0.752163 0.745998 0.268376
0.783078 0.718318 0.210895
0.816983 0.67216 0.194247
0.845426 0.64419 0.192599
0.87718 0.642283 0.196262
0.904128 0.647486 0.20058
0.916686 0.653132 0.203143
0.916838 0.658351 0.20415
0.917037 0.665568 0.205417
0.917418 0.679057 0.207843
0.917708 0.688975 0.209659
0.917784 0.690806 0.209995
0.917815 0.692271 0.210269
0.129244 0.585641 0.225422
0.129366 0.585779 0.224964
0.131106 0.587091 0.22443
0.134569 0.589487 0.223758
0.139864 0.592859 0.222538
0.146685 0.596521 0.220478
0.154574 0.600534 0.217792
0.163516 0.604715 0.214664
0.174136 0.609461 0.210544
0.186603 0.615244 0.205524
0.204868 0.628504 0.201236
0.238453 0.644053 0.205722
0.277699 0.660334 0.211292
0.322972 0.677348 0.217868
0.375738 0.695506 0.225696
0.437522 0.713832 0.234516
0.512261 0.732876 0.244831
0.588876 0.75024 0.255421
0.661021 0.765393 0.26569
0.719966 0.775265 0.274189
0.758358 0.777157 0.278691
0.791852 0.77818 0.281193
0.813123 0.744289 0.212055
0.844724 0.702113 0.203174
0.874464 0.680964 0.202869
0.907576 0.678828 0.206622
0.917494 0.68101 0.208255
0.917586 0.684367 0.208835
0.917708 0.688884 0.209659
0.918013 0.697963 0.211307
0.918166 0.703487 0.212345
0.918196 0.705257 0.212665
0.918288 0.706523 0.212909
0.139025 0.622827 0.233173
0.139132 0.62327 0.232792
0.139757 0.624247 0.232898
0.142687 0.626688 0.232593
0.148135 0.630091 0.231281
0.155428 0.633906 0.228931
0.163714 0.638041 0.226017
0.17322 0.642405 0.222477
0.184161 0.647486 0.218082
0.196384 0.652445 0.212711
0.215503 0.66302 0.209079
0.24947 0.677607 0.213565
0.289189 0.693385 0.219135
0.334371 0.709545 0.225528
0.386282 0.725734 0.232883
0.446906 0.742947 0.241794
0.519631 0.760281 0.252171
0.593317 0.776074 0.262959
0.662058 0.789776 0.273564
0.722591 0.80119 0.283833
0.764706 0.805844 0.290608
0.795834 0.806943 0.295399
0.821775 0.804761 0.293523
0.840116 0.770916 0.219104
0.870588 0.731655 0.211872
0.903304 0.714809 0.212604
0.918395 0.710506 0.213611
0.918364 0.711009 0.213703
0.918471 0.713542 0.214176
0.918685 0.720714 0.215579
0.918624 0.718456 0.215106
0.918669 0.719463 0.215305
0.918685 0.720821 0.215595
0.14876 0.659617 0.240681
0.149004 0.660349 0.240375
0.149233 0.66125 0.240787
0.151034 0.663233 0.241108
0.156725 0.666819 0.239689
0.164401 0.670787 0.23711
0.173129 0.675258 0.234043
0.182986 0.679622 0.230121
0.19411 0.684138 0.225238
0.206775 0.688838 0.219455
0.226703 0.696773 0.21677
0.260945 0.710552 0.221454
0.300481 0.725002 0.226917
0.344991 0.739788 0.233173
0.396887 0.754589 0.240406
0.456123 0.769924 0.249195
0.527382 0.786084 0.260014
0.597345 0.800031 0.271046
0.662394 0.812116 0.281865
0.720333 0.822843 0.292576
0.768811 0.831632 0.302983
0.799908 0.8336 0.308797
0.826596 0.834577 0.314321
0.847486 0.828275 0.304784
0.865446 0.795361 0.230137
0.896895 0.759594 0.220279
0.919493 0.745022 0.220172
0.919295 0.738994 0.219028
0.919295 0.739345 0.219059
0.919432 0.743725 0.219928
0.919326 0.739406 0.219059
0.919112 0.734447 0.218143
0.919173 0.735149 0.218296
0.158358 0.695598 0.248234
0.158511 0.696254 0.247883
0.158862 0.697414 0.248478
0.159838 0.699001 0.249256
0.165667 0.702693 0.247837
0.173724 0.706828 0.244999
0.182879 0.710948 0.241382
0.193088 0.715389 0.237293
0.204471 0.719646 0.232136
0.218143 0.724269 0.226184
0.2392 0.730098 0.22501
0.273396 0.741924 0.229496
0.312551 0.754986 0.234928
0.357107 0.768368 0.241215
0.407294 0.781521 0.248447
0.467399 0.795789 0.257618
0.535546 0.81001 0.268574
0.602304 0.822553 0.279789
0.663462 0.833753 0.290883
0.718151 0.843809 0.302007
0.765698 0.853086 0.313298
0.80322 0.859586 0.323293
0.828962 0.860365 0.328923
0.853773 0.860899 0.334752
