public/LUTS/Cinematic/Cinematic_26.cube
TITLE "Generated by Resolve"
LUT_3D_SIZE 9
0.0552834 0.081529 0.0893568
0.0944686 0.0874037 0.0865187
0.172915 0.110094 0.0921035
0.304967 0.100999 0.0458686
0.510475 0.128054 0.0741588
0.697002 0.192126 0.108873
0.81886 0.261769 0.135256
0.910613 0.348989 0.159014
0.911803 0.433951 0.16907
0.0542306 0.113298 0.0880751
0.0824445 0.113146 0.0870069
0.153628 0.115679 0.0784619
0.253803 0.135744 0.0499123
0.437263 0.170184 0.0669261
0.656138 0.199619 0.102724
0.795148 0.233555 0.128786
0.88748 0.291264 0.14966
0.91104 0.386374 0.16321
0.0589761 0.161379 0.103929
0.0839094 0.160006 0.101915
0.142306 0.17969 0.109606
0.25481 0.160983 0.0682383
0.453712 0.207401 0.0732128
0.674434 0.272358 0.112642
0.801282 0.328206 0.138857
0.892119 0.380072 0.159472
0.911894 0.438148 0.169619
0.0615702 0.22565 0.128328
0.0828412 0.227634 0.122621
0.120912 0.251438 0.116213
0.2589 0.296391 0.129168
0.481498 0.262196 0.0838331
0.713863 0.333333 0.125719
0.832197 0.405478 0.153063
0.912581 0.484977 0.175982
0.914153 0.551888 0.186069
0.0753033 0.347219 0.166094
0.0950484 0.353597 0.15935
0.131212 0.375601 0.151278
0.25568 0.439658 0.164492
0.523964 0.501701 0.176608
0.746792 0.435035 0.144518
0.859998 0.498146 0.17023
0.914534 0.569268 0.188891
0.915724 0.617472 0.196948
0.107149 0.495766 0.207019
0.126665 0.505013 0.200198
0.163058 0.52192 0.188159
0.285527 0.586389 0.197543
0.550042 0.669276 0.233494
0.766415 0.633631 0.180987
0.880323 0.601282 0.189563
0.916442 0.643549 0.20148
0.917266 0.672938 0.206744
0.14406 0.641733 0.239475
0.16022 0.650828 0.234043
0.200549 0.667445 0.217533
0.324483 0.713909 0.227207
0.5664 0.778027 0.261311
0.781338 0.816449 0.297566
0.876921 0.746746 0.215503
0.918868 0.725551 0.216449
0.918944 0.728206 0.216938
0.179156 0.773068 0.271183
0.199054 0.782727 0.263539
0.244999 0.79588 0.244907
0.373678 0.820661 0.260945
0.589593 0.866361 0.299718
0.770764 0.903456 0.342275
0.886809 0.921721 0.377005
0.92256 0.832273 0.237415
0.921416 0.800137 0.230915
0.230701 0.884489 0.313054
0.257923 0.894835 0.302846
0.316808 0.905196 0.294575
0.43595 0.921279 0.312871
0.609277 0.943358 0.346319
0.752621 0.946395 0.365438
0.874311 0.949996 0.389395
0.952407 0.952407 0.404807
0.949859 0.925765 0.38645
0.0352941 0.143938 0.179355
0.0601511 0.141176 0.164706
0.108675 0.138735 0.146563
0.204456 0.160388 0.14519
0.400031 0.214206 0.158587
0.661738 0.264286 0.132494
0.813382 0.296376 0.13753
0.9084 0.356435 0.159426
0.911742 0.43151 0.16875
0.036759 0.128161 0.144015
0.0564584 0.132067 0.145388
0.108034 0.131823 0.138567
0.205188 0.155489 0.142428
0.400061 0.173831 0.10193
0.633616 0.2112 0.100145
0.781064 0.249348 0.127718
0.873381 0.306416 0.148684
0.911192 0.393515 0.16405
0.0395666 0.167697 0.154574
0.0404212 0.17586 0.152728
0.105715 0.169497 0.145434
0.219059 0.17438 0.134981
0.407507 0.206088 0.0883345
0.641032 0.252811 0.105394
0.783581 0.285908 0.131518
0.870375 0.327886 0.150286
0.911116 0.389029 0.163531
0.0489204 0.263722 0.193149
0.0460517 0.246296 0.172152
0.0957198 0.24033 0.153597
0.193759 0.273014 0.143755
0.429541 0.256718 0.102907
0.669978 0.32903 0.11873
0.806775 0.398917 0.148287
0.887419 0.462882 0.169207
0.913314 0.514 0.180255
0.0775921 0.384421 0.229541
0.0734112 0.367361 0.206516
0.112337 0.367758 0.182467
0.191394 0.402975 0.169894
0.44593 0.483101 0.197131
0.706676 0.42652 0.137621
0.835996 0.49543 0.166369
0.914504 0.567102 0.18854
0.915785 0.620508 0.197421
0.114321 0.528328 0.268681
0.110842 0.514809 0.245274
0.14873 0.520058 0.217746
0.225986 0.547539 0.20264
0.458885 0.629145 0.229877
0.720775 0.659022 0.210483
0.856153 0.598276 0.185885
0.916457 0.644831 0.201663
0.917433 0.679805 0.207996
0.150179 0.664805 0.304173
0.147875 0.656138 0.27982
0.186862 0.665812 0.249714
0.27248 0.683467 0.234836
0.489387 0.747112 0.260014
0.739178 0.80267 0.29659
0.845716 0.765698 0.2168
0.918776 0.722927 0.215915
0.919097 0.732662 0.217807
0.182635 0.785901 0.34258
0.18175 0.782681 0.317082
0.228809 0.793469 0.279942
0.327123 0.803662 0.270024
0.525521 0.84155 0.296574
0.727489 0.883024 0.339544
0.86099 0.907622 0.37612
0.922637 0.83389 0.237766
0.921218 0.796719 0.230243
0.209796 0.885145 0.399756
0.21706 0.886717 0.372351
0.287251 0.900114 0.322576
0.392874 0.907286 0.322164
0.561563 0.93669 0.352102
0.714382 0.947814 0.383032
0.837583 0.950378 0.39823
0.953201 0.953201 0.414237
0.945907 0.918059 0.356619
0.0405432 0.220279 0.292622
0.0393683 0.216266 0.266606
0.0406043 0.213886 0.242191
0.111604 0.220462 0.221057
0.298817 0.234821 0.190875
0.54493 0.322393 0.23183
0.762875 0.380514 0.238239
0.886366 0.432761 0.234302
0.922515 0.481788 0.222385
0.0368658 0.195026 0.237995
0.0369573 0.197436 0.242771
0.0434424 0.19472 0.234379
0.117571 0.196612 0.210895
0.281071 0.216602 0.187152
0.532647 0.289525 0.215244
0.753033 0.3346 0.19379
0.863355 0.385321 0.171969
0.911742 0.429084 0.168399
0.0374762 0.189288 0.219913
0.0381323 0.193866 0.22121
0.0403601 0.203555 0.232013
0.122957 0.208759 0.231327
0.316838 0.236774 0.213352
0.602533 0.273045 0.185138
0.769436 0.317922 0.157
0.862089 0.355734 0.151873
0.91133 0.403342 0.165194
0.0448615 0.239567 0.242878
0.0474556 0.25478 0.245335
0.0517586 0.276753 0.252979
0.104234 0.279698 0.241291
0.370718 0.284642 0.219699
0.632944 0.340047 0.178149
0.783001 0.393439 0.155901
0.869657 0.428504 0.161944
0.912398 0.467475 0.173571
0.0967422 0.460029 0.373541
0.0919203 0.441077 0.331044
0.086717 0.420645 0.293904
0.13022 0.409796 0.25832
0.348257 0.464134 0.234836
0.668544 0.438972 0.18471
0.808927 0.50692 0.164309
0.904494 0.575174 0.18851
0.915846 0.622202 0.197742
0.130831 0.59176 0.420737
0.12665 0.575753 0.373693
0.121965 0.557794 0.331228
0.179583 0.556649 0.282551
0.373419 0.605386 0.267247
0.673136 0.672328 0.287205
0.830854 0.599939 0.182849
0.916671 0.65304 0.203159
0.91783 0.692912 0.210391
0.16173 0.708293 0.462486
0.158984 0.697993 0.41416
0.155871 0.686412 0.368093
0.233173 0.69514 0.305653
0.423896 0.727581 0.297887
0.671016 0.783673 0.327031
0.828672 0.783185 0.288853
0.918837 0.725368 0.216434
0.919448 0.743328 0.219806
0.188724 0.808087 0.507195
0.187457 0.803418 0.457206
0.186007 0.798108 0.40972
0.286458 0.812177 0.333623
0.468482 0.826413 0.335317
0.671717 0.865919 0.36878
0.832624 0.89688 0.400626
0.922118 0.843397 0.254215
0.921187 0.795163 0.229923
0.213474 0.898741 0.559808
0.21294 0.896712 0.513481
0.212787 0.893996 0.467643
0.348074 0.91342 0.383047
0.515648 0.920531 0.389609
0.676432 0.950072 0.422034
0.806928 0.953201 0.436301
0.947311 0.955398 0.44126
0.946044 0.914595 0.358892
0.0700084 0.344427 0.46183
0.0681621 0.339147 0.426108
0.0669566 0.337011 0.390005
0.0656138 0.334691 0.348196
0.139879 0.345296 0.290761
0.458488 0.343633 0.215259
0.683452 0.403281 0.234806
0.83859 0.507179 0.367407
0.943938 0.568048 0.462699
0.0589151 0.300206 0.3879
0.0595407 0.302083 0.398474
0.0584268 0.298543 0.382712
0.0570687 0.296452 0.340963
0.130373 0.305531 0.291707
0.415381 0.310872 0.233753
0.647654 0.387488 0.26006
0.815427 0.475883 0.318212
0.93463 0.518624 0.342504
0.0559854 0.288838 0.364157
0.057969 0.297414 0.37084
0.0605783 0.307744 0.390265
0.0599832 0.305745 0.384039
0.149844 0.310201 0.32401
0.444053 0.324254 0.269261
0.670344 0.404471 0.300359
0.83093 0.463355 0.308644
0.93254 0.507607 0.313924
0.0558175 0.289372 0.352697
0.0578775 0.298405 0.358602
0.0615396 0.313664 0.374395
0.0668345 0.335973 0.395773
0.183398 0.345312 0.393851
0.515908 0.381872 0.348074
0.739361 0.433326 0.355215
0.865904 0.46688 0.329549
0.931273 0.498604 0.300679
0.0733501 0.364599 0.400244
0.0775616 0.382879 0.403357
0.0835889 0.407828 0.413596
0.0925917 0.443793 0.431678
0.178882 0.486854 0.443549
0.59649 0.498756 0.422019
0.784772 0.552117 0.403525
0.886915 0.586664 0.379995
0.935775 0.609659 0.334478
0.130022 0.588586 0.563897
0.138781 0.621851 0.567651
0.141756 0.633051 0.546944
0.138949 0.622568 0.507378
0.229053 0.620966 0.4551
0.586114 0.668193 0.419348
0.812253 0.638392 0.383978
0.913939 0.683421 0.348501
0.93341 0.716808 0.289723
0.173098 0.7505 0.672969
0.171267 0.743984 0.630716
0.169512 0.73727 0.586908
0.167376 0.729335 0.538918
0.316243 0.738445 0.458122
0.591836 0.770153 0.439918
0.807752 0.803403 0.451514
0.932296 0.745693 0.311559
0.933379 0.766659 0.281498
0.195132 0.831586 0.709072
0.194293 0.828443 0.66891
0.1935 0.825528 0.626062
0.192004 0.820157 0.573037
0.394934 0.836332 0.468299
0.609796 0.851682 0.467872
0.786404 0.88246 0.486336
0.912139 0.863432 0.414267
0.92314 0.806149 0.236149
0.217731 0.91429 0.740215
0.217395 0.913085 0.704448
0.217075 0.911955 0.665415
0.216052 0.908248 0.612039
0.465965 0.932174 0.499016
0.635142 0.940063 0.50779
0.769757 0.958572 0.517403
0.91191 0.959152 0.500008
0.95111 0.916472 0.40679
0.104417 0.481086 0.622873
0.102342 0.475212 0.584833
0.0995804 0.467109 0.534569
0.0970016 0.460105 0.477867
0.0936446 0.448142 0.3991
0.323232 0.466804 0.296498
0.639963 0.447562 0.255695
0.807462 0.513527 0.36173
0.947158 0.619471 0.595254
0.0912337 0.429999 0.557717
0.091371 0.429801 0.566613
0.0894331 0.42327 0.54464
0.0871138 0.417456 0.48867
0.0831464 0.406516 0.406241
0.262898 0.427726 0.30248
0.588388 0.409567 0.223484
0.773281 0.481239 0.318898
0.912444 0.585428 0.530282
0.0878309 0.417014 0.534661
0.0892958 0.422858 0.542168
0.0901808 0.425391 0.556527
0.0889601 0.420752 0.549996
0.0848707 0.410132 0.457694
0.28748 0.427909 0.349828
0.595361 0.415961 0.285344
0.782437 0.492149 0.369909
0.914443 0.592737 0.553857
0.0868849 0.413779 0.525322
0.0890669 0.422629 0.532067
0.0921492 0.434943 0.544549
0.0964675 0.451591 0.567178
0.0957504 0.445701 0.556054
0.35668 0.456489 0.444572
0.64062 0.461524 0.391409
0.813794 0.539376 0.489708
0.938796 0.6038 0.568673
0.0891127 0.423316 0.524269
0.0916457 0.433829 0.529458
0.0952621 0.448539 0.540261
0.10135 0.472862 0.560739
0.113909 0.50988 0.587823
0.438804 0.533455 0.597559
0.717372 0.585702 0.586419
0.866117 0.626383 0.608865
0.951888 0.633112 0.574182
0.10779 0.498924 0.571603
0.112261 0.517052 0.573617
0.117693 0.539101 0.580499
0.125231 0.56875 0.597055
0.134997 0.606638 0.621424
0.464408 0.67689 0.658122
0.773159 0.691951 0.636896
0.889632 0.725353 0.631907
0.95523 0.728328 0.590204
0.155169 0.681727 0.715007
0.160723 0.703563 0.717327
0.167178 0.728664 0.722515
0.17583 0.760632 0.732509
0.175296 0.758755 0.694499
0.505882 0.77911 0.634913
0.772244 0.803098 0.60647
0.916442 0.777661 0.566918
0.952544 0.790311 0.509743
0.193652 0.826047 0.823926
0.199451 0.847318 0.823011
0.199222 0.846677 0.796155
0.198306 0.843229 0.761425
0.196506 0.836255 0.706432
0.563882 0.858671 0.615976
0.751156 0.872007 0.604669
0.898543 0.882582 0.593622
0.949187 0.827253 0.422766
0.219104 0.919295 0.867216
0.219104 0.919295 0.839628
0.219104 0.919295 0.811261
0.219043 0.919142 0.777279
0.239811 0.922438 0.721325
0.6177 0.950179 0.61886
0.747753 0.952193 0.626886
0.872831 0.965011 0.601022
0.959365 0.924407 0.511757
0.136095 0.602975 0.74226
0.1346 0.598871 0.718715
0.131777 0.589883 0.682383
0.128664 0.579797 0.642145
0.124575 0.566461 0.591897
0.247745 0.569802 0.55906
0.589014 0.558663 0.485313
0.790127 0.583169 0.527794
0.928267 0.630045 0.610178
0.122148 0.549737 0.693675
0.12192 0.54815 0.699077
0.120027 0.541711 0.68333
0.11664 0.531258 0.630686
0.113283 0.521706 0.566232
0.193912 0.52343 0.508659
0.507439 0.525887 0.419257
0.738231 0.537591 0.445991
0.887984 0.592416 0.54078
0.118395 0.535348 0.676753
0.118471 0.535378 0.680537
0.118105 0.533165 0.688426
0.116426 0.526314 0.686458
0.112993 0.517327 0.614878
0.203616 0.517632 0.543801
0.531106 0.517815 0.455848
0.741726 0.533822 0.465919
0.888411 0.598276 0.56997
0.117098 0.530343 0.669444
0.11809 0.534218 0.673304
0.119707 0.540352 0.680537
0.121218 0.545815 0.694072
0.120043 0.540352 0.701976
0.251545 0.537392 0.630365
0.573785 0.538659 0.559197
0.773983 0.556634 0.538567
0.90573 0.630045 0.646418
0.117525 0.532372 0.668132
0.119173 0.538872 0.671885
0.122026 0.550164 0.679057
0.126696 0.568475 0.692439
0.13431 0.597482 0.718685
0.336385 0.601343 0.740505
0.64538 0.592264 0.678935
0.820768 0.636774 0.672068
0.939101 0.695125 0.746899
0.12137 0.547951 0.674235
0.124056 0.558709 0.67747
0.127413 0.571969 0.683406
0.132494 0.591867 0.696345
0.140993 0.624521 0.720317
0.373816 0.679042 0.768185
0.713268 0.698787 0.756436
0.858473 0.739284 0.767742
0.966934 0.754986 0.76466
0.139422 0.618433 0.715953
0.143374 0.634272 0.718074
0.147997 0.652552 0.722911
0.153429 0.673655 0.733043
0.160861 0.702312 0.750134
0.363897 0.756695 0.786618
0.730098 0.799252 0.782528
0.885924 0.812406 0.769635
0.969162 0.818067 0.759854
0.177264 0.761639 0.825254
0.181323 0.777493 0.82739
0.185641 0.794278 0.830152
0.190906 0.814664 0.834165
0.198474 0.843854 0.836866
0.304524 0.863706 0.815061
0.730327 0.874464 0.756451
0.882765 0.888685 0.728389
0.965316 0.857328 0.68011
0.206531 0.870909 0.908629
0.212207 0.893065 0.909056
0.217426 0.913314 0.90927
0.219104 0.919295 0.894209
0.219104 0.919295 0.851606
0.415641 0.947173 0.800168
0.744778 0.957015 0.734752
0.848478 0.963333 0.718624
0.968307 0.93611 0.651453
0.164263 0.710063 0.821668
0.163821 0.709041 0.81239
0.162173 0.703746 0.797116
0.159518 0.694652 0.779767
0.15642 0.68368 0.760845
0.181842 0.673213 0.746654
0.502525 0.667781 0.753017
0.776379 0.654353 0.728267
0.920592 0.685664 0.749538
0.150408 0.657038 0.790204
0.150271 0.656184 0.793576
0.149416 0.653025 0.789624
0.146731 0.644297 0.763287
0.143511 0.634119 0.728023
0.139834 0.620203 0.68777
0.418814 0.625818 0.688594
0.718486 0.619379 0.654582
0.8748 0.649775 0.678996
0.145998 0.639811 0.779507
0.14551 0.637659 0.78265
0.144656 0.633967 0.786923
0.143709 0.629709 0.791257
0.14049 0.619867 0.753292
0.13666 0.608423 0.703441
0.425116 0.611246 0.697215
0.716045 0.60708 0.656199
0.870146 0.638743 0.672053
0.144167 0.632914 0.775479
0.144274 0.633127 0.778592
0.144762 0.634684 0.78294
0.144762 0.634089 0.789181
0.143038 0.626032 0.798856
0.156832 0.621805 0.757153
0.471046 0.614252 0.742504
0.73962 0.607736 0.695109
0.880064 0.642863 0.698436
0.143801 0.631754 0.77525
0.1449 0.635477 0.778759
0.146807 0.642802 0.783536
0.149462 0.653086 0.790448
0.153109 0.666789 0.804074
0.222248 0.668727 0.823148
0.554513 0.660792 0.808865
0.785077 0.650202 0.769039
0.905501 0.68748 0.762097
0.14551 0.638102 0.779614
0.147219 0.644694 0.782681
0.149737 0.654704 0.787274
0.153338 0.668559 0.794308
0.159716 0.692851 0.808667
0.239826 0.726665 0.835096
0.623362 0.728832 0.848692
0.823957 0.727367 0.819776
0.93785 0.758007 0.820768
0.150973 0.659297 0.790555
0.15349 0.669276 0.793286
0.15642 0.680751 0.796613
0.160128 0.695048 0.803021
0.165728 0.716457 0.815473
0.267582 0.752728 0.840497
0.648783 0.792691 0.859953
0.850462 0.805112 0.847074
0.967544 0.825345 0.863005
0.16669 0.719661 0.82295
0.16994 0.732235 0.825208
0.173114 0.744854 0.82829
0.176776 0.758968 0.833326
0.181781 0.778164 0.841077
0.254429 0.807019 0.854978
0.639918 0.848157 0.87097
0.857572 0.879469 0.855924
0.97731 0.888365 0.848493
0.193713 0.820264 0.908446
0.196704 0.832166 0.910567
0.200031 0.845075 0.912016
0.204456 0.86244 0.913787
0.210895 0.887678 0.914626
0.217319 0.912886 0.903166
0.608759 0.957763 0.88072
0.849989 0.958663 0.835813
0.975021 0.95581 0.798337
0.187243 0.796674 0.880003
0.187396 0.797436 0.877043
0.186618 0.794888 0.871565
0.184878 0.788373 0.86595
0.182239 0.778378 0.861662
0.179751 0.768475 0.860288
0.447059 0.764904 0.881498
0.762921 0.753689 0.880934
0.916365 0.734493 0.868727
0.175372 0.751232 0.858228
0.175631 0.751888 0.861494
0.17554 0.751522 0.862486
0.173739 0.745541 0.850095
0.171115 0.736049 0.835569
0.168795 0.727779 0.824781
0.359106 0.729244 0.838911
0.686412 0.714366 0.836439
0.867933 0.699519 0.820127
0.170901 0.733852 0.852766
0.170245 0.730938 0.855985
0.169558 0.727901 0.859007
0.168948 0.725002 0.863035
0.166644 0.717372 0.845594
0.16437 0.710018 0.827054
0.357458 0.714015 0.838041
0.682399 0.700404 0.83299
0.86183 0.687556 0.813596
0.168811 0.725429 0.851575
0.168215 0.72282 0.854765
0.167681 0.720424 0.857298
0.166964 0.71725 0.860899
0.165331 0.710018 0.867704
0.163363 0.703944 0.84683
0.377447 0.708431 0.853956
0.700587 0.69836 0.845518
0.867765 0.686931 0.823987
0.168032 0.722255 0.852735
0.168032 0.722011 0.855894
0.168475 0.723613 0.858579
0.169436 0.727108 0.862608
0.170382 0.730114 0.869932
0.168276 0.720958 0.878843
0.426246 0.725612 0.886336
0.739895 0.72285 0.874067
0.884215 0.710475 0.849363
0.168521 0.723964 0.85626
0.169146 0.726085 0.858869
0.170199 0.73022 0.861616
0.172198 0.737881 0.866178
0.175708 0.75108 0.875257
0.178683 0.762173 0.885893
0.489876 0.759823 0.914488
0.783627 0.767865 0.904112
0.910689 0.757931 0.87834
0.170657 0.732006 0.863218
0.171756 0.736187 0.865339
0.173266 0.742138 0.867674
0.175692 0.751278 0.872145
0.179446 0.765728 0.881315
0.184146 0.78352 0.891112
0.53518 0.807553 0.92491
0.819181 0.818509 0.923522
0.939345 0.812512 0.902052
0.175692 0.751019 0.875349
0.177432 0.757839 0.877165
0.179263 0.765087 0.879271
0.181552 0.773922 0.883314
0.185031 0.786954 0.891203
0.188769 0.801404 0.896498
0.576974 0.831937 0.928054
0.833692 0.873945 0.925872
0.952865 0.879316 0.915877
0.186648 0.792477 0.90483
0.188724 0.80061 0.90721
0.190936 0.809293 0.909697
0.19353 0.819379 0.912322
0.197116 0.833417 0.914153
0.201053 0.848356 0.914748
0.591608 0.886519 0.939498
0.832105 0.927962 0.93164
0.951736 0.956558 0.91014
0.195285 0.826917 0.902754
0.195483 0.827741 0.901427
0.194919 0.82565 0.898299
0.193225 0.819348 0.895933
0.190753 0.809445 0.895354
0.18851 0.80029 0.898802
0.415747 0.794354 0.923232
0.755901 0.784497 0.929641
0.914855 0.758618 0.918883
0.192432 0.815137 0.908186
0.192767 0.816266 0.91194
0.193042 0.817227 0.913878
0.19173 0.812451 0.90808
0.189715 0.804761 0.902083
0.187671 0.796918 0.900298
0.269734 0.795224 0.916503
0.660517 0.780896 0.932143
0.859541 0.766735 0.925216
0.190127 0.805829 0.912688
0.189349 0.802579 0.914656
0.188769 0.800107 0.914549
0.188403 0.798657 0.914549
0.187106 0.793713 0.913985
0.185336 0.786923 0.90779
0.246082 0.787396 0.919173
0.64477 0.774639 0.937606
0.84889 0.763989 0.929793
0.187869 0.79678 0.913344
0.18677 0.792432 0.913848
0.18587 0.788663 0.914076
0.184939 0.784924 0.914031
0.183749 0.780285 0.913848
0.182513 0.775418 0.913527
0.252384 0.777859 0.926848
0.656733 0.767239 0.945037
0.851072 0.75906 0.935485
0.186557 0.791409 0.914275
0.185626 0.787655 0.914107
0.185 0.785367 0.914092
0.184726 0.784283 0.914
0.184298 0.782513 0.913909
0.182284 0.774472 0.91368
0.279942 0.778408 0.931197
0.683268 0.769955 0.958526
0.865049 0.763958 0.94522
0.185275 0.786221 0.914107
0.184771 0.784298 0.914
0.184771 0.784421 0.914
0.185428 0.786969 0.914107
0.186755 0.792233 0.91426
0.187671 0.795895 0.914443
0.360616 0.792645 0.939361
0.741909 0.789914 0.966247
0.891432 0.784192 0.954284
0.184405 0.783001 0.914
0.184497 0.783413 0.914
0.185031 0.785336 0.914015
0.186206 0.790036 0.914199
0.188388 0.798779 0.914504
0.191592 0.81146 0.915007
0.468071 0.820981 0.948302
0.799435 0.825971 0.968124
0.926909 0.818341 0.955444
0.184894 0.784817 0.914015
0.185641 0.787793 0.914122
0.186694 0.791928 0.914275
0.188144 0.797665 0.914504
0.19057 0.807523 0.91487
0.193896 0.820432 0.915297
0.534264 0.842481 0.953414
0.819425 0.877806 0.962371
0.945663 0.87776 0.9561
0.188281 0.798505 0.915053
0.189731 0.804227 0.914748
0.191287 0.81033 0.914977
0.193194 0.817884 0.915251
0.196017 0.829038 0.915663
0.198764 0.839933 0.916075
0.591165 0.868559 0.95729
0.832624 0.908782 0.957183
0.951614 0.957076 0.951675
