public/LUTS/Cinematic/Cinematic_12.cube
TITLE "Generated by Resolve"
LUT_3D_SIZE 33
0.0979171 0.0829328 0.0818952
0.111147 0.0859693 0.0850996
0.12575 0.0912337 0.0882887
0.141543 0.0954299 0.0899825
0.15697 0.0988785 0.0919051
0.172213 0.102434 0.0949264
0.188342 0.10576 0.0980392
0.203586 0.109224 0.101457
0.219364 0.11249 0.104402
0.23508 0.116518 0.10782
0.251469 0.120485 0.111223
0.268696 0.126238 0.115633
0.287175 0.131731 0.120104
0.306569 0.137972 0.125429
0.325765 0.144579 0.131182
0.343465 0.150378 0.136172
0.361059 0.157137 0.141711
0.377508 0.163989 0.148135
0.394903 0.17023 0.154681
0.412436 0.176516 0.15964
0.430457 0.183337 0.165301
0.448936 0.189807 0.171389
0.467247 0.196719 0.177905
0.484886 0.203922 0.183902
0.502708 0.211032 0.189197
0.520348 0.218006 0.195331
0.53817 0.224796 0.201465
0.553552 0.231601 0.208347
0.569909 0.238483 0.214298
0.582864 0.244999 0.219287
0.596002 0.25185 0.224613
0.602838 0.25536 0.22739
0.602655 0.255207 0.227268
0.103685 0.0952163 0.0849775
0.117144 0.0984512 0.0860914
0.131472 0.102266 0.0889448
0.147189 0.105882 0.091783
0.163302 0.10959 0.0946517
0.180194 0.114122 0.0982986
0.198215 0.119142 0.10193
0.213931 0.123629 0.105592
0.232349 0.128634 0.110491
0.248112 0.13312 0.114244
0.265202 0.137926 0.118486
0.282734 0.143069 0.122667
0.301335 0.148928 0.127764
0.321401 0.155535 0.133379
0.342031 0.162646 0.139162
0.36051 0.1691 0.144762
0.379583 0.175998 0.151049
0.397391 0.183459 0.15787
0.415 0.190295 0.164034
0.433173 0.197238 0.169192
0.45127 0.203571 0.175082
0.470619 0.209949 0.18172
0.489021 0.216709 0.188022
0.505974 0.223972 0.193591
0.52285 0.231128 0.198978
0.540047 0.238315 0.205463
0.557153 0.245319 0.212314
0.570245 0.252232 0.218692
0.586572 0.25922 0.224002
0.598962 0.266056 0.229236
0.611475 0.272389 0.234302
0.618387 0.275471 0.236789
0.618387 0.275471 0.236789
0.109407 0.108476 0.0883192
0.122805 0.111666 0.0899214
0.137377 0.11516 0.0917983
0.153307 0.118624 0.0943923
0.169406 0.122393 0.0975814
0.186267 0.12694 0.101183
0.205951 0.133257 0.105287
0.223056 0.139223 0.110079
0.243076 0.145708 0.115526
0.259968 0.151507 0.120439
0.278172 0.15639 0.125154
0.296529 0.16202 0.130297
0.315007 0.168643 0.135882
0.334905 0.175448 0.141619
0.355856 0.182147 0.147616
0.374975 0.189151 0.15404
0.39472 0.195911 0.16083
0.41352 0.204211 0.16788
0.431952 0.211856 0.17406
0.44979 0.218723 0.1794
0.468162 0.225071 0.185122
0.487388 0.231434 0.191714
0.505409 0.237842 0.197925
0.52195 0.24448 0.203342
0.538308 0.251591 0.208865
0.554528 0.259403 0.215396
0.570474 0.266682 0.222339
0.582727 0.273396 0.227832
0.597238 0.280217 0.232868
0.609445 0.286992 0.2383
0.621668 0.293355 0.243427
0.628901 0.29662 0.246006
0.628702 0.2963 0.245838
0.11339 0.122026 0.0914626
0.127214 0.125414 0.0942092
0.142733 0.129076 0.0956893
0.159365 0.132998 0.0975814
0.17615 0.137209 0.100755
0.193057 0.141787 0.10428
0.212696 0.148516 0.108675
0.231678 0.154192 0.114565
0.251926 0.160967 0.119905
0.27013 0.168048 0.125505
0.289754 0.17438 0.130953
0.309331 0.18143 0.137438
0.327871 0.188495 0.143587
0.347585 0.1953 0.149706
0.369039 0.202441 0.156847
0.389227 0.209522 0.163775
0.409461 0.216312 0.170336
0.42829 0.224567 0.177127
0.447639 0.233036 0.183871
0.465873 0.240269 0.189654
0.484794 0.247242 0.195331
0.502968 0.253605 0.201511
0.520424 0.25977 0.208164
0.537621 0.266285 0.214099
0.554269 0.273396 0.21886
0.569558 0.281193 0.225452
0.583444 0.288136 0.232059
0.596719 0.295094 0.237507
0.609308 0.301961 0.242725
0.621347 0.308812 0.248676
0.632563 0.315618 0.253727
0.638911 0.319539 0.256001
0.638758 0.319356 0.255879
0.116289 0.135256 0.0944839
0.131075 0.140032 0.0975967
0.147463 0.143877 0.0995499
0.164996 0.147936 0.101656
0.1832 0.153124 0.10515
0.200595 0.157992 0.108583
0.219074 0.163684 0.112764
0.238697 0.168582 0.118502
0.259617 0.175311 0.1243
0.278889 0.183017 0.130175
0.299367 0.191974 0.136812
0.319249 0.199847 0.143694
0.338598 0.206912 0.150515
0.359243 0.214649 0.157946
0.380804 0.222675 0.166049
0.401389 0.229725 0.173129
0.422156 0.236652 0.178866
0.442145 0.244907 0.185321
0.461357 0.2533 0.19237
0.480171 0.260533 0.198184
0.498238 0.26746 0.204425
0.515648 0.274281 0.211124
0.533227 0.281254 0.217548
0.550149 0.288182 0.223209
0.565011 0.295033 0.228473
0.581582 0.301869 0.235142
0.595773 0.308598 0.241779
0.607446 0.316045 0.247395
0.619959 0.322866 0.252628
0.631678 0.329686 0.25774
0.642344 0.336416 0.262852
0.649073 0.340566 0.266255
0.64892 0.340352 0.266117
0.118395 0.147143 0.0969406
0.134524 0.154437 0.100237
0.152117 0.159533 0.10341
0.170382 0.164019 0.10695
0.188251 0.16846 0.110292
0.205951 0.173739 0.113954
0.226444 0.17821 0.1187
0.245197 0.185 0.122881
0.265843 0.19205 0.12929
0.286397 0.199939 0.136126
0.307118 0.208331 0.143084
0.328054 0.216281 0.150164
0.348989 0.224628 0.157366
0.370031 0.233448 0.164843
0.391653 0.241642 0.173266
0.412222 0.248814 0.18146
0.433433 0.257465 0.187655
0.454154 0.265873 0.193866
0.473457 0.273167 0.200549
0.493111 0.280034 0.207401
0.511467 0.286702 0.213855
0.529091 0.294362 0.220218
0.546334 0.301869 0.226535
0.562905 0.308675 0.23299
0.577554 0.316167 0.238407
0.592828 0.324392 0.245426
0.605783 0.331655 0.252232
0.619242 0.338933 0.256779
0.6309 0.346471 0.262379
0.641611 0.353796 0.268635
0.652216 0.360967 0.274022
0.659098 0.365255 0.276661
0.65893 0.365042 0.276539
0.119768 0.159457 0.0991226
0.13756 0.168078 0.103319
0.155962 0.17496 0.107393
0.174838 0.181094 0.11104
0.194141 0.186969 0.114794
0.211719 0.190906 0.118898
0.23238 0.196307 0.125139
0.252384 0.201541 0.128954
0.272984 0.210559 0.135531
0.29398 0.21828 0.142367
0.315526 0.227665 0.15021
0.336461 0.235935 0.158312
0.357443 0.243198 0.166369
0.379232 0.251225 0.173831
0.40325 0.261021 0.181003
0.424598 0.269337 0.188708
0.444648 0.277302 0.195911
0.465049 0.285801 0.203296
0.485222 0.2934 0.21033
0.50544 0.301442 0.217426
0.523674 0.308629 0.223926
0.540673 0.315236 0.229953
0.557656 0.322469 0.236164
0.573617 0.3308 0.242908
0.589807 0.3393 0.248722
0.604593 0.348821 0.256199
0.618357 0.356649 0.262684
0.631525 0.364553 0.268666
0.643626 0.372427 0.27512
0.654337 0.379339 0.280385
0.664805 0.386191 0.285344
0.672129 0.390982 0.289342
0.671839 0.390677 0.289113
0.120439 0.171664 0.101045
0.138216 0.18088 0.106142
0.158373 0.189334 0.111238
0.179599 0.197024 0.116045
0.200427 0.203326 0.120256
0.219959 0.207416 0.125154
0.238361 0.213748 0.13051
0.257832 0.219821 0.135393
0.278599 0.2271 0.142046
0.299351 0.235615 0.149233
0.320928 0.244419 0.157275
0.343404 0.253559 0.165698
0.365728 0.262425 0.173526
0.388708 0.271077 0.181231
0.413077 0.280858 0.189807
0.434272 0.288716 0.197482
0.454856 0.297292 0.204593
0.475853 0.305867 0.212192
0.496345 0.314214 0.219257
0.516213 0.322423 0.226108
0.535058 0.330434 0.232914
0.552544 0.337804 0.239567
0.568994 0.344869 0.246342
0.584222 0.352987 0.253056
0.601007 0.362081 0.25948
0.615518 0.371756 0.266682
0.629786 0.38088 0.273579
0.642847 0.389487 0.280217
0.654734 0.397604 0.286503
0.665705 0.405371 0.292393
0.676448 0.412467 0.297566
0.685069 0.417838 0.301183
0.684794 0.417502 0.300969
0.120562 0.181811 0.10251
0.139773 0.194049 0.108995
0.161898 0.205249 0.115602
0.182971 0.213687 0.120623
0.204486 0.220829 0.12636
0.224826 0.226505 0.131487
0.246586 0.232959 0.136965
0.264897 0.238666 0.143099
0.284977 0.245472 0.148821
0.305684 0.253407 0.155673
0.327535 0.262409 0.16408
0.350759 0.272618 0.173007
0.3738 0.282368 0.181262
0.39762 0.291249 0.18996
0.422461 0.301076 0.198322
0.445045 0.310094 0.206744
0.466407 0.317998 0.214221
0.487449 0.326619 0.221653
0.507561 0.3355 0.228733
0.527047 0.343954 0.235874
0.546014 0.352697 0.243244
0.563622 0.361257 0.25034
0.579812 0.368368 0.257115
0.595331 0.376898 0.263966
0.6112 0.385443 0.27068
0.626551 0.395377 0.277653
0.640986 0.405325 0.284962
0.653712 0.414694 0.291829
0.665537 0.423392 0.298329
0.676905 0.432319 0.304921
0.687617 0.440635 0.31046
0.696681 0.446479 0.313664
0.696483 0.446189 0.313497
0.121035 0.193484 0.10399
0.141131 0.207156 0.111223
0.164416 0.219608 0.118944
0.186709 0.229618 0.125505
0.209094 0.237873 0.131502
0.230549 0.24564 0.137926
0.253269 0.252247 0.143648
0.272236 0.258366 0.15024
0.292332 0.264836 0.156268
0.313405 0.272343 0.163241
0.335027 0.281147 0.171466
0.357641 0.290867 0.180163
0.381033 0.300572 0.188586
0.405737 0.311116 0.198032
0.4318 0.32224 0.207401
0.455604 0.331273 0.216022
0.477104 0.339498 0.223896
0.498497 0.348318 0.231495
0.519051 0.357702 0.238743
0.538354 0.366232 0.245975
0.556802 0.374945 0.253742
0.573846 0.383871 0.261128
0.590677 0.392187 0.268101
0.606531 0.401801 0.275639
0.621866 0.410788 0.28249
0.637446 0.420752 0.289235
0.651881 0.430777 0.296437
0.664637 0.44094 0.303471
0.676814 0.450523 0.310475
0.68809 0.459541 0.316976
0.698573 0.469093 0.32285
0.707607 0.47602 0.327138
0.707561 0.475898 0.327077
0.12166 0.204852 0.105791
0.142382 0.219028 0.113313
0.166949 0.233783 0.121965
0.191058 0.246387 0.130159
0.214511 0.256565 0.137331
0.236271 0.265019 0.144381
0.259052 0.271992 0.1514
0.279606 0.278508 0.157733
0.300862 0.285298 0.164721
0.321447 0.291951 0.171633
0.342458 0.300221 0.179263
0.364843 0.309728 0.187625
0.388739 0.319768 0.196506
0.412848 0.330541 0.2056
0.440146 0.342824 0.215976
0.464454 0.352026 0.224872
0.486915 0.36173 0.233509
0.509255 0.371603 0.241733
0.529946 0.380774 0.249104
0.549554 0.389624 0.25658
0.567941 0.398291 0.264378
0.585199 0.407553 0.272129
0.602014 0.416541 0.279042
0.616938 0.42678 0.286671
0.632471 0.436713 0.293797
0.64828 0.447578 0.301274
0.662791 0.457893 0.308324
0.675517 0.468177 0.315145
0.687465 0.477806 0.321874
0.698665 0.486732 0.328222
0.709361 0.496834 0.334691
0.718685 0.504952 0.340398
0.718425 0.504509 0.340185
0.122988 0.216831 0.108019
0.14432 0.231922 0.11632
0.17023 0.248676 0.125963
0.195239 0.263508 0.135088
0.219821 0.275731 0.143801
0.242176 0.285008 0.151507
0.265675 0.293019 0.159899
0.287602 0.299718 0.16643
0.309224 0.306401 0.173648
0.329961 0.313268 0.180728
0.350805 0.321401 0.187991
0.3729 0.330266 0.195941
0.396231 0.339513 0.204623
0.419944 0.34992 0.21387
0.447807 0.362615 0.224414
0.472755 0.373404 0.233799
0.496056 0.383871 0.242771
0.519112 0.394461 0.251469
0.540368 0.40444 0.259876
0.560128 0.413947 0.268177
0.578927 0.423072 0.275975
0.596262 0.431952 0.282933
0.612879 0.441184 0.289998
0.627192 0.451942 0.296849
0.642786 0.462516 0.304875
0.658808 0.474372 0.313481
0.673915 0.485283 0.32105
0.686152 0.495338 0.327794
0.69749 0.505653 0.334417
0.708888 0.515846 0.340688
0.719417 0.525689 0.346777
0.730373 0.534081 0.352987
0.73022 0.533822 0.352834
0.12575 0.230808 0.11136
0.146654 0.24654 0.120333
0.1738 0.264469 0.131197
0.199832 0.281132 0.141634
0.226184 0.295476 0.1514
0.249409 0.306233 0.159976
0.273121 0.314641 0.168292
0.29575 0.322225 0.175845
0.317632 0.32932 0.183154
0.33875 0.336446 0.190158
0.359777 0.344213 0.197406
0.381369 0.35172 0.20502
0.403601 0.35906 0.212848
0.427527 0.369207 0.222416
0.455451 0.381826 0.233616
0.480278 0.392538 0.241901
0.503944 0.403861 0.250736
0.527642 0.415305 0.260456
0.549493 0.426307 0.269795
0.569421 0.436576 0.278172
0.588769 0.44622 0.285985
0.60557 0.456062 0.293355
0.62266 0.465904 0.301076
0.63743 0.475792 0.308568
0.653056 0.485863 0.316838
0.667842 0.498085 0.324025
0.682918 0.509697 0.330907
0.695857 0.520256 0.337987
0.707271 0.530465 0.344701
0.719356 0.541268 0.351507
0.728771 0.550088 0.358358
0.740307 0.559899 0.36495
0.740124 0.559594 0.364782
0.12929 0.245594 0.115724
0.149691 0.262669 0.124743
0.177661 0.283207 0.137087
0.205219 0.301015 0.14847
0.233875 0.316716 0.160296
0.257649 0.327031 0.168414
0.281666 0.33753 0.177813
0.303929 0.347204 0.185931
0.326009 0.354559 0.193286
0.347616 0.361151 0.200366
0.36875 0.368032 0.207218
0.391409 0.375906 0.21471
0.413245 0.383673 0.222416
0.435843 0.390265 0.229999
0.463691 0.402197 0.241672
0.488411 0.414313 0.250523
0.512856 0.425757 0.260288
0.536522 0.437156 0.270069
0.558816 0.448615 0.279408
0.579034 0.45922 0.287938
0.598001 0.46981 0.296025
0.615366 0.480308 0.303746
0.632746 0.492226 0.311894
0.64744 0.502129 0.319738
0.662882 0.512474 0.326925
0.67805 0.524773 0.334829
0.692622 0.536004 0.342367
0.705028 0.545419 0.349325
0.715938 0.554925 0.356176
0.727169 0.564874 0.362997
0.736629 0.573556 0.369757
0.746975 0.583581 0.375158
0.746868 0.583337 0.375021
0.13579 0.264775 0.121569
0.15613 0.282292 0.130953
0.18497 0.303365 0.144549
0.214115 0.324269 0.156374
0.24213 0.341848 0.169299
0.266758 0.354772 0.178744
0.292012 0.365408 0.188724
0.31516 0.374975 0.197238
0.337758 0.383169 0.204623
0.359472 0.390066 0.211795
0.38085 0.396765 0.219501
0.403281 0.403891 0.227466
0.423484 0.411841 0.23508
0.447684 0.418692 0.242481
0.472663 0.426047 0.251713
0.497642 0.437919 0.260655
0.522042 0.450599 0.270161
0.545754 0.461967 0.280034
0.568338 0.473442 0.289769
0.589548 0.485451 0.298817
0.608682 0.495903 0.306889
0.625696 0.506477 0.315618
0.642451 0.518151 0.322866
0.657404 0.527764 0.330846
0.672938 0.53875 0.338277
0.687816 0.550546 0.346441
0.701823 0.561151 0.353857
0.714305 0.571283 0.360815
0.725048 0.581323 0.367834
0.735698 0.590692 0.374716
0.745373 0.598352 0.381384
0.755459 0.608286 0.387579
0.755825 0.608515 0.387732
0.142153 0.282689 0.127535
0.162158 0.300755 0.137575
0.190799 0.322789 0.151171
0.220676 0.344625 0.164874
0.251347 0.364691 0.177478
0.276585 0.379553 0.188464
0.301396 0.391318 0.198962
0.324681 0.40145 0.20737
0.348165 0.41033 0.215869
0.370886 0.417487 0.224094
0.392233 0.424033 0.23122
0.413886 0.429892 0.238468
0.435264 0.436912 0.245686
0.45948 0.444694 0.253376
0.483955 0.452232 0.262531
0.506645 0.460121 0.27042
0.530144 0.471687 0.279606
0.554498 0.484779 0.28986
0.577493 0.496986 0.299763
0.598642 0.508873 0.308827
0.618112 0.520012 0.316487
0.635889 0.530419 0.325078
0.65182 0.541451 0.333028
0.666362 0.551324 0.34078
0.681483 0.561746 0.348516
0.695369 0.572427 0.35671
0.709163 0.583474 0.364569
0.721538 0.593637 0.371374
0.732021 0.603265 0.377966
0.742519 0.6121 0.384115
0.752621 0.620432 0.391073
0.762921 0.629465 0.39794
0.763638 0.629953 0.398306
0.150607 0.302846 0.134066
0.171313 0.321767 0.144396
0.200366 0.345281 0.158572
0.230152 0.368292 0.172702
0.259754 0.388739 0.18645
0.287297 0.404562 0.198444
0.312764 0.417716 0.209247
0.336477 0.428367 0.218479
0.359915 0.437446 0.227039
0.383093 0.445075 0.23534
0.405142 0.451545 0.243061
0.426993 0.45655 0.250019
0.447288 0.462547 0.256001
0.46952 0.469642 0.264408
0.494301 0.476768 0.272984
0.51696 0.484138 0.281056
0.538705 0.493111 0.289006
0.56199 0.505058 0.298665
0.585306 0.517678 0.308873
0.606714 0.529381 0.317784
0.626337 0.54168 0.326131
0.644175 0.551919 0.334127
0.66038 0.562478 0.34168
0.674098 0.571496 0.349142
0.689296 0.582055 0.357275
0.702678 0.592706 0.365698
0.715221 0.60267 0.373312
0.727108 0.611841 0.380133
0.737224 0.620829 0.386984
0.748302 0.629877 0.393149
0.757168 0.637964 0.399924
0.767483 0.646738 0.405997
0.768673 0.647639 0.406592
0.159274 0.323339 0.142061
0.180941 0.343648 0.152697
0.209735 0.367224 0.166796
0.239841 0.391272 0.181064
0.270039 0.413291 0.195377
0.29836 0.430426 0.208347
0.324544 0.44419 0.219715
0.348714 0.455177 0.229465
0.372183 0.464698 0.238468
0.39585 0.47332 0.247242
0.418265 0.479347 0.254795
0.440589 0.48304 0.261494
0.460304 0.48896 0.267628
0.481407 0.495323 0.275776
0.505806 0.5019 0.284276
0.527718 0.508873 0.292134
0.548165 0.51606 0.299107
0.569863 0.525505 0.307286
0.592828 0.537453 0.317143
0.614511 0.549142 0.326177
0.633951 0.561242 0.334722
0.651225 0.57142 0.34284
0.668116 0.582406 0.349874
0.681666 0.590326 0.35729
0.696315 0.600504 0.365148
0.709194 0.611063 0.373083
0.721248 0.62063 0.380591
0.732891 0.628809 0.387671
0.741817 0.636393 0.39472
0.753292 0.646036 0.401495
0.760967 0.652491 0.40824
0.770321 0.661814 0.413748
0.771923 0.663386 0.414664
0.168215 0.343954 0.149569
0.191165 0.366064 0.161257
0.220005 0.389807 0.175906
0.250935 0.414847 0.190616
0.281346 0.437949 0.205295
0.309499 0.456107 0.218372
0.336431 0.470375 0.23035
0.361288 0.481804 0.240604
0.384787 0.491859 0.249897
0.40824 0.500404 0.258854
0.431083 0.506233 0.26656
0.453544 0.509316 0.27332
0.474083 0.515267 0.28011
0.494484 0.520775 0.286961
0.517555 0.526482 0.295399
0.538796 0.532784 0.302892
0.558938 0.539712 0.309789
0.579431 0.547723 0.316976
0.600244 0.557305 0.324956
0.621073 0.568109 0.333944
0.641855 0.580133 0.342382
0.659388 0.590707 0.351019
0.674678 0.600885 0.358007
0.688792 0.608927 0.365728
0.702342 0.617807 0.372976
0.714809 0.627863 0.380118
0.726833 0.637003 0.387076
0.738384 0.644785 0.393927
0.746685 0.652033 0.400671
0.757855 0.661418 0.407431
0.76672 0.667582 0.414435
0.773953 0.675441 0.421042
0.775311 0.676921 0.422217
0.178027 0.365148 0.157366
0.202518 0.389166 0.170153
0.232136 0.413733 0.18584
0.26334 0.438911 0.200839
0.292607 0.462333 0.215854
0.321309 0.481804 0.229252
0.349035 0.496712 0.241306
0.373983 0.508232 0.251774
0.397055 0.518135 0.260884
0.420859 0.526864 0.269688
0.444984 0.533211 0.278752
0.466224 0.535943 0.28571
0.486519 0.540642 0.291386
0.50602 0.545724 0.29836
0.528283 0.549813 0.305562
0.550011 0.555611 0.312673
0.569558 0.562325 0.319448
0.588983 0.569574 0.326711
0.608911 0.577783 0.334585
0.627024 0.586618 0.341787
0.647684 0.597543 0.35053
0.66508 0.607675 0.358343
0.680262 0.617655 0.365347
0.694469 0.625635 0.372412
0.707088 0.633219 0.379522
0.719249 0.641566 0.386465
0.731533 0.650446 0.393332
0.742611 0.658564 0.4
0.752224 0.666163 0.406806
0.762646 0.674983 0.413657
0.769741 0.68162 0.420401
0.777783 0.688396 0.426902
0.779706 0.689876 0.428321
0.188571 0.387213 0.166888
0.213657 0.411185 0.17966
0.244282 0.435447 0.195331
0.275608 0.462074 0.211246
0.305348 0.486778 0.225956
0.333684 0.507149 0.239933
0.361334 0.522591 0.252003
0.386389 0.534325 0.262196
0.409567 0.544808 0.272221
0.433402 0.553903 0.281727
0.457191 0.559838 0.288701
0.478553 0.562799 0.296529
0.499565 0.567849 0.302525
0.517739 0.571237 0.308751
0.540002 0.575631 0.315419
0.560372 0.579522 0.322225
0.57847 0.583902 0.329015
0.597818 0.591058 0.335988
0.617075 0.599268 0.342962
0.635538 0.607156 0.350759
0.653071 0.613886 0.357656
0.670558 0.62385 0.364569
0.686168 0.632547 0.371862
0.700267 0.641123 0.378775
0.712261 0.648859 0.385611
0.723217 0.656229 0.393439
0.73434 0.663676 0.4009
0.745342 0.670924 0.406119
0.754864 0.677867 0.412757
0.765255 0.685527 0.419516
0.772549 0.691691 0.425986
0.780697 0.698741 0.432853
0.782879 0.700481 0.434485
0.200305 0.412299 0.175433
0.227054 0.437171 0.189319
0.257237 0.460151 0.204761
0.288258 0.486427 0.220768
0.317571 0.509361 0.23592
0.345922 0.529702 0.249577
0.373526 0.54551 0.261814
0.399054 0.557458 0.272801
0.421775 0.567407 0.282322
0.445548 0.576562 0.291447
0.469413 0.582864 0.299138
0.490974 0.586114 0.306127
0.510765 0.590036 0.312871
0.529839 0.592721 0.319661
0.55079 0.596597 0.326223
0.570581 0.601068 0.332326
0.588602 0.605371 0.33817
0.606104 0.609735 0.343771
0.623941 0.616663 0.350286
0.642176 0.623468 0.357259
0.659754 0.630426 0.364309
0.67451 0.635691 0.370733
0.689357 0.644617 0.377829
0.703517 0.653178 0.384741
0.715724 0.661402 0.391501
0.726833 0.669566 0.398856
0.737606 0.676432 0.40589
0.747799 0.683024 0.411872
0.755871 0.688243 0.418341
0.766247 0.695613 0.425284
0.773541 0.701488 0.431769
0.782269 0.708507 0.436744
0.78526 0.710826 0.438193
0.213291 0.439307 0.186313
0.24123 0.464454 0.202136
0.270085 0.488167 0.216571
0.300816 0.512322 0.232822
0.330114 0.534112 0.247333
0.358572 0.55433 0.260487
0.386069 0.569299 0.272587
0.411521 0.580255 0.283375
0.434089 0.590417 0.292287
0.45771 0.598474 0.300999
0.482155 0.605829 0.309758
0.503304 0.608743 0.316564
0.522957 0.612665 0.322637
0.541085 0.615167 0.329
0.561135 0.618402 0.335851
0.580331 0.621881 0.341527
0.597742 0.625345 0.3467
0.614542 0.628611 0.352682
0.630503 0.633143 0.359121
0.648219 0.640055 0.365927
0.664881 0.646525 0.370871
0.679683 0.651057 0.37702
0.692622 0.656428 0.383612
0.706203 0.664561 0.390677
0.718532 0.672816 0.397498
0.729397 0.680156 0.404334
0.7402 0.68719 0.411215
0.750607 0.693812 0.417838
0.75819 0.698421 0.424231
0.768078 0.704967 0.428931
0.775174 0.710018 0.435294
0.783246 0.716564 0.440116
0.786465 0.71931 0.441749
0.228031 0.46746 0.198154
0.254154 0.491997 0.214633
0.282673 0.512001 0.227466
0.313634 0.535897 0.243442
0.342657 0.555962 0.257771
0.370398 0.574502 0.270191
0.396948 0.589456 0.281559
0.421973 0.599954 0.292317
0.446006 0.609903 0.302083
0.469978 0.616953 0.310506
0.491859 0.623941 0.318685
0.513649 0.62739 0.325612
0.533272 0.630976 0.332219
0.551736 0.634028 0.338689
0.570916 0.637049 0.345296
0.589303 0.639704 0.350896
0.605844 0.64213 0.355764
0.622309 0.645792 0.361929
0.637827 0.650065 0.367895
0.653727 0.65478 0.37322
0.669017 0.659953 0.378729
0.683803 0.665141 0.38378
0.695933 0.669352 0.389838
0.707454 0.674723 0.395468
0.719524 0.681361 0.401404
0.731319 0.688289 0.408255
0.742428 0.69572 0.415351
0.753002 0.702541 0.422049
0.760632 0.707835 0.428229
0.769314 0.713268 0.432273
0.776379 0.718471 0.438102
0.783795 0.724041 0.443809
0.786892 0.726329 0.445884
0.243854 0.496818 0.212818
0.269123 0.520592 0.227512
0.29778 0.539666 0.239551
0.326757 0.560555 0.253758
0.355032 0.578149 0.267567
0.381994 0.59501 0.279896
0.40827 0.609903 0.290974
0.433219 0.619699 0.300923
0.456474 0.628458 0.310643
0.480354 0.633967 0.319905
0.502358 0.640696 0.327779
0.524025 0.645029 0.334798
0.543053 0.648127 0.341375
0.561334 0.651255 0.347784
0.580163 0.654383 0.354238
0.598886 0.657374 0.360265
0.614984 0.659434 0.365148
0.629969 0.662058 0.370825
0.645075 0.665476 0.375647
0.659785 0.668849 0.381216
0.673823 0.672755 0.386435
0.687907 0.67808 0.391363
0.699794 0.682322 0.39646
0.709728 0.685771 0.400641
0.720394 0.68986 0.405112
0.732189 0.695155 0.411032
0.743313 0.702373 0.417899
0.75378 0.709331 0.424414
0.761944 0.715877 0.430808
0.770077 0.721294 0.435737
0.777249 0.726574 0.441123
0.784649 0.731533 0.447272
0.788052 0.733639 0.450126
0.260349 0.526818 0.227314
0.285008 0.550042 0.240757
0.31191 0.567178 0.252003
0.340337 0.584955 0.264988
0.368185 0.600412 0.277958
0.394171 0.61529 0.289738
0.41944 0.628977 0.300435
0.444297 0.637995 0.309972
0.466911 0.645884 0.319158
0.490501 0.650797 0.328511
0.513085 0.656825 0.336736
0.533837 0.661372 0.343755
0.553124 0.664988 0.350423
0.571145 0.668177 0.356329
0.589563 0.671092 0.362539
0.60763 0.673548 0.368643
0.623621 0.67602 0.373968
0.638468 0.678523 0.37969
0.652918 0.680598 0.383795
0.666041 0.683391 0.389517
0.679225 0.686641 0.393774
0.692317 0.690852 0.39884
0.704234 0.694789 0.403449
0.713802 0.697993 0.406958
0.722499 0.70042 0.410086
0.732235 0.7028 0.414038
0.742626 0.708568 0.420066
0.753216 0.715572 0.426184
0.761639 0.722332 0.432914
0.770871 0.728954 0.438148
0.778805 0.733654 0.44387
0.786404 0.739055 0.450034
0.789975 0.741726 0.452842
0.276265 0.556909 0.240253
0.300893 0.579202 0.253712
0.326467 0.594537 0.264897
0.354635 0.609552 0.276753
0.381292 0.622141 0.288136
0.406302 0.634684 0.299046
0.430854 0.64686 0.309499
0.4551 0.655314 0.319173
0.477989 0.662715 0.327916
0.500893 0.667124 0.335775
0.52285 0.672404 0.344686
0.542931 0.676951 0.351827
0.562783 0.681086 0.35874
0.580941 0.684092 0.364385
0.598718 0.686213 0.370153
0.6159 0.688167 0.376593
0.631098 0.691035 0.382437
0.646784 0.694179 0.388159
0.660655 0.696239 0.392432
0.672465 0.698619 0.39678
0.685115 0.701457 0.401816
0.696651 0.703609 0.405844
0.707607 0.706172 0.409583
0.717266 0.709072 0.41294
0.725841 0.711696 0.415625
0.734966 0.713909 0.418769
0.742184 0.715236 0.42211
0.752453 0.72166 0.426963
0.760922 0.72813 0.4336
0.770901 0.734981 0.439506
0.778912 0.739467 0.44593
0.785962 0.744915 0.451789
0.789654 0.748486 0.45452
0.291463 0.58613 0.25333
0.316548 0.606836 0.266239
0.341436 0.619867 0.27686
0.367758 0.632547 0.287144
0.39324 0.643549 0.297276
0.417868 0.653758 0.307729
