public/LUTS/Cinematic/Cinematic_24.cube
TITLE "Generated by Resolve"
LUT_3D_SIZE 9
0.049958 0.0725261 0.0788739
0.0859846 0.078645 0.0775158
0.163043 0.100328 0.0816815
0.280568 0.0990616 0.0401617
0.475792 0.125689 0.0686809
0.680064 0.175235 0.104768
0.81033 0.254414 0.13315
0.906996 0.343313 0.157839
0.911803 0.433768 0.169055
0.0518654 0.0997177 0.0870527
0.0890974 0.0971695 0.0813306
0.165057 0.113985 0.0779431
0.278126 0.128878 0.0441291
0.486748 0.158785 0.0729686
0.695323 0.188357 0.108248
0.820493 0.23122 0.133074
0.908568 0.32845 0.156649
0.911681 0.424323 0.167803
0.0575418 0.146517 0.102388
0.0890822 0.145418 0.100771
0.165606 0.144244 0.0923934
0.290486 0.159182 0.0544442
0.516243 0.21503 0.082826
0.713588 0.268528 0.118303
0.83035 0.304891 0.141238
0.91075 0.3635 0.160586
0.911681 0.422797 0.167605
0.0619516 0.202502 0.124376
0.0906996 0.204028 0.119432
0.149981 0.233188 0.119005
0.303365 0.215045 0.0829938
0.559197 0.264652 0.0946822
0.755184 0.337804 0.132601
0.854673 0.410697 0.157275
0.912718 0.485435 0.176089
0.91368 0.529473 0.182574
0.0673533 0.311681 0.157229
0.0927749 0.318944 0.148867
0.140749 0.350256 0.139544
0.309834 0.418631 0.164477
0.588663 0.369497 0.113344
0.787213 0.426429 0.149111
0.886824 0.503914 0.17499
0.914717 0.57734 0.190158
0.915389 0.605188 0.194842
0.100099 0.465873 0.201038
0.124071 0.476112 0.192401
0.166964 0.500679 0.178866
0.320226 0.572045 0.197452
0.616754 0.651926 0.234119
0.80264 0.555062 0.171389
0.909041 0.591775 0.191745
0.916594 0.650172 0.202625
0.916945 0.663859 0.205097
0.138872 0.622141 0.236179
0.158251 0.632242 0.229099
0.201038 0.649454 0.211444
0.345617 0.705501 0.227054
0.613718 0.774624 0.264347
0.802518 0.802487 0.294759
0.912917 0.710811 0.213016
0.918639 0.718196 0.215091
0.918746 0.722332 0.215839
0.176989 0.76495 0.268254
0.195621 0.774411 0.261387
0.242832 0.78854 0.24213
0.379492 0.816602 0.259632
0.607553 0.86453 0.300572
0.78883 0.901366 0.343938
0.903136 0.913207 0.37615
0.921981 0.817578 0.234424
0.920974 0.786664 0.22826
0.229953 0.884657 0.311925
0.254994 0.895109 0.303471
0.31136 0.906416 0.293721
0.430381 0.922713 0.312139
0.605966 0.943145 0.344793
0.754696 0.946288 0.364721
0.879866 0.95021 0.39057
0.952407 0.952407 0.404791
0.948745 0.924269 0.375006
0.0401007 0.116381 0.140917
0.067628 0.113161 0.12871
0.118257 0.112749 0.112932
0.20734 0.152361 0.136751
0.420233 0.182483 0.106676
0.673381 0.220966 0.107362
0.813413 0.262074 0.13434
0.907225 0.345571 0.158114
0.911803 0.432959 0.168933
0.0403449 0.117357 0.131243
0.0695201 0.119814 0.133364
0.129656 0.123156 0.121736
0.247425 0.146426 0.117144
0.46627 0.174151 0.0772869
0.684337 0.212329 0.108415
0.813581 0.258335 0.134066
0.906325 0.342657 0.157702
0.911757 0.430747 0.168643
0.0387579 0.14873 0.138659
0.0592508 0.155825 0.13901
0.14107 0.149569 0.129107
0.269368 0.166659 0.104845
0.495384 0.206943 0.0788586
0.706554 0.23949 0.114397
0.821225 0.275135 0.136889
0.907912 0.335622 0.157259
0.911406 0.407797 0.165759
0.0441291 0.231769 0.171557
0.052079 0.216388 0.154681
0.121065 0.221027 0.144274
0.280644 0.221897 0.113863
0.522637 0.266102 0.0898146
0.73312 0.338491 0.129274
0.836698 0.402213 0.153368
0.911131 0.454917 0.171679
0.913024 0.500053 0.17818
0.066865 0.34078 0.203052
0.0659495 0.326162 0.184604
0.12398 0.338567 0.164355
0.257862 0.394629 0.166964
0.549249 0.369192 0.108431
0.766186 0.427375 0.146166
0.871397 0.504799 0.172854
0.91458 0.571176 0.189197
0.915434 0.60618 0.19501
0.104753 0.491508 0.242267
0.103487 0.480201 0.224414
0.157473 0.497139 0.200687
0.275731 0.545846 0.199557
0.569787 0.637858 0.23418
0.782391 0.560006 0.16968
0.892134 0.594598 0.189975
0.916655 0.651194 0.202808
0.917144 0.669184 0.206104
0.143648 0.640269 0.275776
0.14316 0.634394 0.258701
0.194324 0.651469 0.232746
0.307988 0.682704 0.230015
0.561395 0.755917 0.262455
0.782742 0.79765 0.296056
0.892287 0.718151 0.211917
0.918578 0.718151 0.215076
0.918837 0.725811 0.21651
0.179919 0.775799 0.310155
0.181048 0.774289 0.292592
0.233631 0.788525 0.262425
0.345266 0.801022 0.262821
0.566262 0.849149 0.297276
0.762783 0.889036 0.341466
0.883803 0.904982 0.374914
0.921981 0.81651 0.234165
0.920851 0.78558 0.228061
0.209857 0.885328 0.367071
0.24007 0.893339 0.334936
0.291569 0.903456 0.307195
0.400458 0.910735 0.314916
0.575372 0.943343 0.34995
0.728893 0.947143 0.374548
0.854612 0.950072 0.392782
0.952743 0.952743 0.40853
0.947311 0.920897 0.362631
0.0344854 0.171771 0.222034
0.0372625 0.166964 0.20177
0.0753338 0.16672 0.186007
0.156786 0.168811 0.161761
0.316548 0.224308 0.185168
0.603189 0.281315 0.183841
0.789471 0.335592 0.163409
0.899733 0.380957 0.160815
0.911986 0.442893 0.170245
0.0360723 0.174685 0.210758
0.035935 0.173022 0.214832
0.0773785 0.172946 0.198077
0.175921 0.174212 0.167727
0.351247 0.235157 0.195483
0.638468 0.280934 0.173465
0.801297 0.333944 0.15227
0.903532 0.376577 0.160906
0.911925 0.440604 0.169924
0.0370947 0.175097 0.20145
0.0376287 0.180011 0.20444
0.0729534 0.18909 0.220081
0.204501 0.192782 0.187732
0.434592 0.232181 0.180407
0.682719 0.278477 0.149096
0.811658 0.316747 0.139361
0.90312 0.364462 0.159503
0.911788 0.431724 0.168765
0.0424201 0.21622 0.216266
0.0440528 0.230167 0.220157
0.0484932 0.246082 0.224567
0.226398 0.243061 0.196994
0.487175 0.275837 0.169512
0.706722 0.332464 0.137316
0.823713 0.369696 0.147326
0.907576 0.41033 0.165515
0.912383 0.465751 0.173312
0.0838941 0.409628 0.318578
0.0787518 0.388952 0.280217
0.0728161 0.364797 0.24831
0.18468 0.380392 0.213657
0.511727 0.391455 0.171969
0.73463 0.439414 0.148089
0.851453 0.512581 0.171221
0.914672 0.574914 0.189807
0.915572 0.610483 0.195712
0.119951 0.550195 0.359594
0.115343 0.53225 0.31696
0.110796 0.511696 0.281834
0.219745 0.536065 0.23595
0.4907 0.61471 0.254841
0.747097 0.57142 0.167452
0.870817 0.600443 0.188159
0.916823 0.657816 0.204013
0.917403 0.678325 0.207721
0.154391 0.680888 0.394797
0.151202 0.668635 0.349569
0.152392 0.657832 0.3131
0.266346 0.681514 0.260075
0.498787 0.736156 0.282734
0.749722 0.790249 0.314611
0.870817 0.72224 0.210117
0.9187 0.721386 0.215702
0.919097 0.733104 0.217868
0.18526 0.795361 0.427924
0.183841 0.790173 0.382666
0.194598 0.789258 0.344518
0.313817 0.806516 0.291325
0.517128 0.834119 0.314031
0.723018 0.875456 0.354971
0.865827 0.899443 0.389166
0.922026 0.818311 0.234562
0.920913 0.787243 0.228367
0.21294 0.896696 0.477531
0.21236 0.894499 0.435569
0.259678 0.904143 0.385351
0.370687 0.915068 0.341848
0.538598 0.930816 0.366583
0.699886 0.949111 0.399634
0.828122 0.951583 0.412558
0.954223 0.954223 0.42501
0.946807 0.918196 0.35967
0.0507362 0.264561 0.356786
0.049134 0.259617 0.328252
0.048127 0.257893 0.299504
0.0513924 0.255558 0.266361
0.181598 0.276173 0.219272
0.484642 0.310948 0.219059
0.710323 0.407675 0.265507
0.8645 0.464164 0.278553
0.931594 0.517525 0.300618
0.0514839 0.269062 0.348531
0.0512245 0.266926 0.356588
0.0500649 0.264546 0.322576
0.0567025 0.263035 0.284489
0.206378 0.282094 0.224903
0.506783 0.323796 0.234714
0.725124 0.416632 0.276967
0.873259 0.467247 0.279957
0.931212 0.518349 0.2972
0.051545 0.270405 0.338964
0.0534981 0.278767 0.348547
0.0546883 0.282124 0.370474
0.0665141 0.279271 0.322408
0.279103 0.290791 0.238865
0.544198 0.347372 0.269093
0.75494 0.421103 0.290425
0.888594 0.467704 0.284428
0.929992 0.5149 0.28481
0.0518044 0.272435 0.330297
0.054078 0.28249 0.338827
0.0581064 0.299733 0.357473
0.0730449 0.314275 0.382162
0.343526 0.324865 0.309071
0.613947 0.390066 0.33315
0.803525 0.423407 0.304631
0.911116 0.469352 0.291356
0.926329 0.498039 0.251743
0.0658427 0.334524 0.362158
0.0701915 0.353079 0.367239
0.0765393 0.37995 0.379965
0.0862898 0.418936 0.399374
0.41001 0.446433 0.363592
0.690227 0.486458 0.367239
0.831296 0.530251 0.345892
0.926253 0.559945 0.310628
0.928664 0.587579 0.264332
0.129503 0.586511 0.536767
0.134874 0.607156 0.52221
0.131853 0.595682 0.480613
0.127199 0.577813 0.434302
0.367697 0.601099 0.372885
0.712703 0.61326 0.317281
0.852674 0.632303 0.312825
0.930953 0.681651 0.274388
0.919234 0.696208 0.215579
0.167056 0.728298 0.603128
0.164858 0.719997 0.555779
0.162676 0.711711 0.507591
0.15877 0.697154 0.451667
0.417533 0.725231 0.376287
0.67921 0.776043 0.395987
0.85098 0.740536 0.269764
0.924559 0.738491 0.236362
0.919875 0.748669 0.221515
0.19202 0.820203 0.631617
0.190936 0.816327 0.584665
0.189807 0.812207 0.534356
0.199908 0.807599 0.474708
0.456855 0.829129 0.393439
0.661097 0.859403 0.421424
0.833463 0.889998 0.445075
0.923262 0.824521 0.238544
0.921309 0.797452 0.230381
0.217243 0.91249 0.659739
0.216602 0.910216 0.617868
0.216007 0.907897 0.569329
0.274525 0.916609 0.505791
0.495705 0.931258 0.433204
0.656886 0.951843 0.462043
0.795331 0.955596 0.470344
0.943908 0.957153 0.464317
0.94844 0.915694 0.37673
0.0863508 0.409903 0.542885
0.0845655 0.405066 0.509316
0.082475 0.399558 0.46421
0.0809796 0.396506 0.417197
0.0805066 0.386969 0.344381
0.355764 0.405447 0.22797
0.655344 0.402411 0.206912
0.820676 0.506523 0.355856
0.952255 0.615412 0.587198
0.0866407 0.411551 0.538384
0.0863966 0.409857 0.547036
0.0838483 0.402853 0.497169
0.0818036 0.398337 0.441932
0.0921035 0.391882 0.36144
0.379461 0.406744 0.234882
0.663981 0.408011 0.224018
0.829709 0.514824 0.381308
0.953307 0.622507 0.600931
0.086717 0.412482 0.530327
0.0878614 0.416754 0.539895
0.0875868 0.414115 0.557763
0.0851148 0.408347 0.496513
0.118914 0.403906 0.403159
0.433478 0.405524 0.253101
0.67895 0.425177 0.270665
0.842145 0.529442 0.42826
0.953307 0.62475 0.601282
0.0865034 0.412284 0.523949
0.0887922 0.421454 0.532128
0.0918746 0.433371 0.548226
0.0937209 0.438865 0.578027
0.159976 0.433188 0.486809
0.492988 0.426688 0.350958
0.714199 0.473732 0.382589
0.863218 0.565179 0.518639
0.951476 0.617945 0.571908
0.0872358 0.415915 0.517372
0.0898909 0.426841 0.523842
0.0941024 0.443839 0.537865
0.101534 0.473518 0.5635
0.214054 0.509758 0.614816
0.570748 0.523476 0.521645
0.777447 0.583734 0.577829
0.909468 0.610819 0.572641
0.94905 0.617868 0.531579
0.101625 0.475227 0.543984
0.106233 0.494163 0.547173
0.112123 0.517601 0.556542
0.120592 0.551095 0.57731
0.19353 0.607111 0.618647
0.641291 0.648737 0.608713
0.81944 0.688838 0.623133
0.929168 0.708812 0.601617
0.951232 0.701732 0.534356
0.154772 0.681208 0.699733
0.161089 0.705837 0.702541
0.169253 0.73637 0.710628
0.173297 0.751308 0.696391
0.184009 0.740398 0.642741
0.611963 0.767346 0.586282
0.83331 0.771206 0.51136
0.948577 0.770581 0.512123
0.948089 0.777569 0.444434
0.198184 0.84271 0.814267
0.197482 0.840085 0.783703
0.196735 0.837507 0.749554
0.195804 0.834028 0.707027
0.252125 0.836103 0.643503
0.615244 0.852033 0.55964
0.788235 0.877119 0.562341
0.936004 0.840223 0.408576
0.943023 0.819669 0.35053
0.219104 0.919295 0.821332
0.218982 0.918898 0.791272
0.218875 0.918471 0.758404
0.218769 0.91809 0.716991
0.353231 0.938537 0.639338
0.631022 0.950088 0.562112
0.758968 0.961074 0.57847
0.902373 0.962402 0.550744
0.955795 0.921675 0.461494
0.124758 0.559838 0.703258
0.123415 0.556161 0.676997
0.120424 0.546944 0.631983
0.117266 0.537163 0.584131
0.113176 0.523812 0.524804
0.247379 0.532128 0.47689
0.590906 0.509346 0.381216
0.792752 0.54464 0.431128
0.936599 0.625559 0.603174
0.123812 0.555917 0.700648
0.123705 0.555154 0.7066
0.120562 0.545205 0.664164
0.117082 0.534493 0.611353
0.113161 0.522637 0.543679
0.260288 0.533104 0.49482
0.600855 0.511803 0.409155
0.798062 0.547051 0.446921
0.942458 0.63212 0.620874
0.122576 0.551308 0.695262
0.122255 0.549538 0.699947
0.121386 0.545083 0.710323
0.118303 0.535775 0.665141
0.114351 0.524804 0.5879
0.285847 0.53489 0.534676
0.610803 0.524178 0.46479
0.807691 0.550835 0.476799
0.948547 0.641627 0.649516
0.121828 0.548501 0.690623
0.122576 0.551354 0.695109
0.123384 0.554009 0.703365
0.122972 0.550942 0.719829
0.119463 0.54078 0.662943
0.333165 0.540581 0.604791
0.642634 0.548074 0.542031
0.825818 0.571572 0.546365
0.957351 0.657816 0.694118
0.121187 0.54638 0.685618
0.122972 0.553185 0.690059
0.125963 0.564874 0.69865
0.13077 0.583474 0.714214
0.133791 0.593622 0.741833
0.41973 0.585504 0.713985
0.708156 0.591714 0.646647
0.859541 0.641733 0.680507
0.962219 0.703899 0.764157
0.122545 0.552117 0.682765
0.125048 0.562249 0.686336
0.128557 0.576043 0.693721
0.134432 0.598932 0.709209
0.144121 0.636072 0.735042
0.498116 0.677104 0.78352
0.764065 0.687587 0.737209
0.893416 0.73698 0.775845
0.966125 0.746746 0.761746
0.134737 0.600595 0.700298
0.138903 0.617334 0.702815
0.143481 0.635538 0.708309
0.149783 0.659754 0.721294
0.157595 0.689952 0.740429
0.480491 0.751263 0.782605
0.795987 0.786847 0.770779
0.914626 0.808042 0.77528
0.96788 0.803555 0.74966
0.177386 0.762493 0.820951
0.181674 0.779355 0.823072
0.186358 0.797528 0.825971
0.192065 0.819669 0.829969
0.19971 0.848386 0.828
0.403235 0.864469 0.791074
0.767575 0.868864 0.732754
0.920867 0.861204 0.66836
0.962921 0.849561 0.643137
0.212421 0.893706 0.910826
0.217868 0.914824 0.911192
0.219089 0.91928 0.898436
0.219104 0.919295 0.865934
0.219104 0.919295 0.822049
0.493248 0.952941 0.75491
0.750515 0.956985 0.699016
0.863233 0.968811 0.683421
0.965255 0.931014 0.603052
0.160327 0.695094 0.81059
0.159945 0.694347 0.801526
0.158312 0.689387 0.784146
0.155703 0.680644 0.76379
0.152544 0.669413 0.741772
0.166842 0.655863 0.719966
0.482002 0.653284 0.724224
0.768658 0.644831 0.697627
0.920104 0.67689 0.725185
0.158648 0.688197 0.812024
0.159136 0.689891 0.815946
0.157458 0.684489 0.801312
0.154711 0.675364 0.779538
0.151522 0.664622 0.752041
0.176303 0.656413 0.731701
0.496391 0.65127 0.734081
0.775113 0.642695 0.70428
0.921736 0.675822 0.729549
0.15642 0.679454 0.811246
0.155932 0.677058 0.814649
0.155383 0.674372 0.819593
0.153445 0.667796 0.805463
0.150134 0.657511 0.773388
0.189273 0.654841 0.751659
0.519921 0.645884 0.750652
0.783383 0.638651 0.718181
0.92491 0.672831 0.73547
0.15494 0.673548 0.810285
0.15462 0.671839 0.813291
0.154284 0.670146 0.817319
0.153063 0.664652 0.823545
0.150439 0.655634 0.806409
0.21471 0.657633 0.78526
0.554498 0.644358 0.77731
0.796506 0.637919 0.742855
0.932525 0.673182 0.74931
0.153704 0.66865 0.808133
0.154314 0.670619 0.811566
0.155489 0.67509 0.81561
0.157107 0.681224 0.822003
0.156771 0.678721 0.833539
0.268162 0.681819 0.834638
0.616312 0.671687 0.82269
0.820432 0.661265 0.786923
0.948821 0.697047 0.783413
0.153048 0.66627 0.806088
0.154406 0.671443 0.809277
0.156603 0.679911 0.813458
0.160159 0.693584 0.820844
0.165927 0.715526 0.834821
0.309895 0.731304 0.863981
0.672557 0.729793 0.860777
0.85127 0.724269 0.830381
0.965728 0.75378 0.831327
0.154788 0.673136 0.807202
0.15697 0.681666 0.809964
0.15964 0.692241 0.813382
0.163287 0.706233 0.819883
0.169253 0.729 0.832914
0.309392 0.7664 0.860258
0.706645 0.794888 0.876875
0.874189 0.797971 0.854994
0.97467 0.817838 0.870802
0.163851 0.708644 0.81799
0.167071 0.721233 0.820264
0.170321 0.734127 0.823545
0.174075 0.748638 0.828855
0.179294 0.768597 0.837507
0.307622 0.801282 0.857633
0.695125 0.839414 0.870192
0.880049 0.871839 0.859678
0.980499 0.882002 0.862425
0.193973 0.821286 0.909865
0.197116 0.833661 0.911894
0.200656 0.847501 0.913497
0.205264 0.865553 0.9149
0.211948 0.891737 0.915663
0.218204 0.916106 0.902892
0.624994 0.959808 0.873381
0.856321 0.959091 0.829709
0.977844 0.94902 0.785382
0.189624 0.80589 0.885161
0.18996 0.807431 0.883497
0.189517 0.805829 0.878843
0.188174 0.8009 0.874586
0.185641 0.79089 0.872221
0.183108 0.780926 0.872312
0.39942 0.776944 0.892638
0.746563 0.765698 0.896208
0.909819 0.740871 0.883711
0.187961 0.798856 0.890425
0.188693 0.801465 0.893812
0.188312 0.800198 0.890578
0.186679 0.794247 0.883513
0.184207 0.784909 0.876188
0.182055 0.77673 0.874754
0.41294 0.77348 0.896529
0.749126 0.763195 0.898497
0.91284 0.738888 0.885313
0.18558 0.788907 0.89485
0.185061 0.78674 0.898589
0.184741 0.785183 0.901228
0.183902 0.782116 0.897856
0.181811 0.774594 0.886473
0.180117 0.768322 0.880522
0.431998 0.76643 0.902953
0.755505 0.758556 0.902815
0.915373 0.735241 0.888151
0.183474 0.780484 0.897536
0.182559 0.776547 0.901396
0.181689 0.772793 0.904356
0.180804 0.76907 0.907607
0.179294 0.763363 0.902861
0.177829 0.758389 0.891081
0.454841 0.757198 0.912352
0.766049 0.753323 0.910185
0.919951 0.731991 0.893919
0.18172 0.77351 0.898451
0.181018 0.770413 0.901701
0.180697 0.769009 0.904646
0.180468 0.767651 0.908293
0.179156 0.762051 0.913222
0.177676 0.756222 0.910338
0.469993 0.754543 0.928298
0.779492 0.754635 0.922225
0.929046 0.738567 0.905547
0.180514 0.768612 0.897597
0.180255 0.7673 0.900023
0.180636 0.768704 0.902876
0.181781 0.773037 0.907454
0.183612 0.779858 0.913832
0.18294 0.777142 0.913741
0.512734 0.772152 0.948898
0.804685 0.777981 0.941039
0.941161 0.765194 0.921813
0.179736 0.765377 0.896849
0.180117 0.766781 0.898726
0.180987 0.770291 0.901259
0.182803 0.777157 0.905974
0.186038 0.789349 0.914137
0.189395 0.802792 0.914672
0.589639 0.808957 0.955993
0.836164 0.817792 0.956909
0.961822 0.807813 0.938445
0.180621 0.769009 0.899184
0.181827 0.773648 0.900832
0.1832 0.778973 0.902724
0.185122 0.786358 0.906767
0.188312 0.798352 0.914366
0.191959 0.812879 0.915053
0.596002 0.84036 0.955367
0.849241 0.874693 0.953674
0.967407 0.870985 0.941863
0.185611 0.788159 0.906416
0.187564 0.796063 0.908751
0.189654 0.803967 0.911254
0.191989 0.813199 0.914458
0.195224 0.825895 0.915526
0.198734 0.839689 0.916091
0.597009 0.872831 0.947051
0.841245 0.912718 0.939406
0.95642 0.953735 0.928695
0.1953 0.826993 0.900832
0.195575 0.82826 0.899931
0.195148 0.826856 0.896956
0.193973 0.822126 0.894682
0.191394 0.8121 0.894621
0.188983 0.802258 0.898299
0.368612 0.79704 0.920546
0.734813 0.784649 0.929168
0.906645 0.760204 0.919478
0.193362 0.818982 0.906584
0.194095 0.821805 0.909789
0.19382 0.820752 0.907759
0.19237 0.81529 0.902953
0.189914 0.806027 0.898344
0.187884 0.797803 0.899809
0.379034 0.793576 0.923552
0.739162 0.78265 0.931304
0.908232 0.758007 0.920424
0.190768 0.808515 0.912245
0.190295 0.806378 0.914839
0.190021 0.805264 0.914733
0.189395 0.802731 0.914504
0.187472 0.795697 0.907973
0.185824 0.789136 0.904692
0.398856 0.785977 0.929625
0.746471 0.777813 0.935225
0.91075 0.753582 0.92285
0.188647 0.799741 0.914565
0.187472 0.79498 0.914382
0.186481 0.791211 0.91426
0.185641 0.787854 0.914153
0.184466 0.783123 0.913954
0.183246 0.778424 0.913481
0.41651 0.775998 0.937819
0.756008 0.772229 0.941833
0.914885 0.748837 0.927321
0.186816 0.792554 0.914305
0.185794 0.788403 0.914183
0.185046 0.785443 0.914046
0.184512 0.783413 0.914
0.183062 0.777569 0.913802
0.181643 0.772015 0.913603
0.42884 0.771069 0.944076
0.769635 0.77203 0.952224
0.921736 0.752361 0.936614
0.185428 0.78674 0.914107
0.184878 0.784741 0.914
0.184894 0.784772 0.914
0.185428 0.787015 0.914107
0.186557 0.791379 0.91426
0.185641 0.787762 0.914122
0.469139 0.783932 0.94728
0.795087 0.788495 0.964538
0.934417 0.772869 0.948058
0.184527 0.783475 0.914
0.184512 0.783413 0.914
0.185016 0.785321 0.914061
0.186191 0.790127 0.914199
0.188678 0.799924 0.91458
0.191501 0.811185 0.914977
0.565759 0.81181 0.954559
0.832242 0.820661 0.966217
0.958572 0.808682 0.952056
0.184726 0.784222 0.914
0.185351 0.786725 0.914107
0.186404 0.790799 0.914244
0.187915 0.796765 0.914473
0.190494 0.807141 0.914855
0.193881 0.820356 0.915297
0.579202 0.84387 0.956451
0.845594 0.8757 0.963409
0.966918 0.87039 0.955596
0.1879 0.79675 0.914931
0.18941 0.802808 0.914672
0.190997 0.809186 0.914916
0.19292 0.816632 0.91519
0.195636 0.827604 0.915618
0.19852 0.838941 0.91606
0.58909 0.867628 0.957275
0.836469 0.909331 0.957198
0.957397 0.957946 0.951995
