public/LUTS/Cinematic/Cinematic_06.cube
TITLE "Generated by Resolve"
LUT_3D_SIZE 5
0 0.000457771 0.000457771
0.246006 0 0
0.515755 0 0
0.785519 0 0
1 0 0
0 0.257954 0
0.228504 0.252705 0
0.498268 0.247456 0
0.768017 0.242191 0
1 0.236942 0
0 0.51545 0
0.211002 0.510201 0
0.480766 0.504952 0
0.750515 0.499702 0
1 0.494453 0
0 0.772961 0
0.1935 0.767712 0
0.463264 0.762463 0
0.733013 0.757198 0
1 0.751949 0
0 1 0
0.176013 1 0
0.445762 1 0
0.715511 1 0
0.985275 1 0
0 0 0.273198
0.243763 0 0.267948
0.513512 0 0.262699
0.783261 0 0.25745
1 0 0.252201
0 0.255695 0.255695
0.226261 0.250446 0.250446
0.49601 0.245197 0.245197
0.765759 0.239948 0.239948
1 0.234699 0.234699
0 0.513207 0.238193
0.208759 0.507958 0.232944
0.478508 0.502708 0.227695
0.748272 0.497459 0.222446
1 0.492195 0.217197
0 0.770703 0.220691
0.191257 0.765454 0.215442
0.461006 0.760204 0.210193
0.73077 0.754955 0.204944
1 0.749706 0.199695
0 1 0.203204
0.173754 1 0.197955
0.443503 1 0.192691
0.713268 1 0.187442
0.983017 1 0.182193
0 0 0.545953
0.241505 0 0.540703
0.511254 0 0.535454
0.781018 0 0.530205
1 0 0.524956
0 0.253452 0.52845
0.224002 0.248203 0.523201
0.493767 0.242954 0.517952
0.763516 0.237705 0.512703
1 0.232441 0.507454
0 0.510964 0.510948
0.2065 0.505699 0.505699
0.476265 0.50045 0.50045
0.746014 0.495201 0.495201
1 0.489952 0.489952
0 0.76846 0.493446
0.189014 0.76321 0.488197
0.458762 0.757961 0.482948
0.728511 0.752712 0.477699
0.998276 0.747463 0.47245
0 1 0.475959
0.171511 1 0.47071
0.44126 1 0.465446
0.711009 1 0.460197
0.980774 1 0.454948
0 0 0.818708
0.239261 0 0.813458
0.50901 0 0.808209
0.778759 0 0.80296
1 0 0.797711
0 0.251209 0.801205
0.221759 0.245945 0.795956
0.491508 0.240696 0.790707
0.761273 0.235447 0.785458
1 0.230198 0.780209
0 0.508705 0.783703
0.204257 0.503456 0.778454
0.474006 0.498207 0.773205
0.74377 0.492958 0.767956
1 0.487709 0.762707
0 0.766217 0.766201
0.186755 0.760967 0.760952
0.456504 0.755703 0.755703
0.726268 0.750454 0.750454
0.996017 0.745205 0.745205
0 1 0.748714
0.169253 1 0.743465
0.439017 1 0.738201
0.708766 1 0.732952
0.978515 1 0.727703
0 0 1
0.237003 0 1
0.506767 0 1
0.776516 0 1
1 0 1
0 0.248951 1
0.219501 0.243702 1
0.489265 0.238453 1
0.759014 0.233204 1
1 0.227955 1
0 0.506462 1
0.201999 0.501213 1
0.471763 0.495949 1
0.741512 0.4907 1
1 0.485451 1
0 0.763958 1
0.184512 0.758709 1
0.454261 0.75346 1
0.72401 0.748211 1
0.993774 0.742962 1
0 1 1
0.16701 1 1
0.436759 1 1
0.706508 1 1
0.976272 1 1
