public/LUTS/Cinematic/Cinematic_27.cube
TITLE "Generated by Resolve"
LUT_3D_SIZE 5
0.0479438 0.0686656 0.0747997
0.157412 0.0973373 0.0798657
0.463142 0.120424 0.0664073
0.806455 0.253086 0.132403
0.911803 0.433646 0.169009
0.0565042 0.146761 0.092958
0.123583 0.159579 0.100526
0.395941 0.184009 0.0628519
0.787488 0.298543 0.133394
0.911528 0.417472 0.166964
0.0691234 0.318486 0.154696
0.113176 0.337881 0.143526
0.462089 0.466529 0.179065
0.847379 0.471611 0.164492
0.915358 0.604379 0.19469
0.139025 0.622827 0.233173
0.184161 0.647486 0.218082
0.519631 0.760281 0.252171
0.870588 0.731655 0.211872
0.918685 0.720821 0.215595
0.225528 0.878035 0.307836
0.296605 0.90193 0.289937
0.584207 0.94255 0.340078
0.866835 0.949798 0.387457
0.947997 0.924147 0.371572
0.0368658 0.202243 0.267048
0.0421912 0.194537 0.221714
0.268391 0.215518 0.17998
0.756817 0.356451 0.21593
0.914763 0.464683 0.182742
0.0366522 0.171603 0.200793
0.0432593 0.181872 0.205737
0.279347 0.209186 0.188952
0.751278 0.294148 0.134005
0.911131 0.390478 0.163699
0.0863203 0.419059 0.340581
0.0766613 0.380529 0.263798
0.297642 0.417395 0.209476
0.79707 0.47451 0.157565
0.915236 0.598627 0.193729
0.156863 0.690059 0.436606
0.150332 0.665309 0.342458
0.379919 0.703273 0.275898
0.819608 0.770657 0.265583
0.919142 0.734936 0.218219
0.2121 0.893645 0.537133
0.210956 0.888624 0.444511
0.487984 0.913924 0.369635
0.799939 0.952132 0.423713
0.944274 0.912139 0.34432
0.0992599 0.461067 0.598947
0.0951705 0.449668 0.519142
0.090135 0.434195 0.39234
0.620737 0.429114 0.216419
0.945739 0.613046 0.58233
0.0817578 0.392859 0.507164
0.0840925 0.401663 0.526467
0.0797742 0.3897 0.439994
0.56669 0.395453 0.268803
0.90869 0.58024 0.526299
0.0825666 0.397528 0.49575
0.0882734 0.420951 0.509911
0.102541 0.47805 0.556695
0.691478 0.550439 0.539574
0.948638 0.606455 0.52842
0.151232 0.667216 0.699245
0.164309 0.717922 0.705959
0.172015 0.746548 0.674754
0.756268 0.791592 0.58088
0.950225 0.780682 0.476646
0.219104 0.919295 0.860121
0.219059 0.919173 0.801068
0.222126 0.915785 0.709102
0.735897 0.949248 0.608759
0.957412 0.920729 0.485252
0.162203 0.702296 0.814221
0.160769 0.698711 0.790707
0.155169 0.679377 0.753155
0.461646 0.662287 0.738888
0.916716 0.681651 0.738231
0.143984 0.632609 0.771008
0.142718 0.626841 0.778012
0.13843 0.612604 0.741131
0.378271 0.604974 0.672541
0.863081 0.631769 0.649042
0.141405 0.622492 0.765972
0.143618 0.630869 0.773831
0.149096 0.651438 0.79292
0.506844 0.643168 0.791989
0.89778 0.672663 0.742123
0.14757 0.646281 0.78117
0.153063 0.667979 0.787579
0.16231 0.703563 0.805417
0.615885 0.782666 0.853666
0.964553 0.818067 0.855436
0.192828 0.816999 0.905898
0.199283 0.84239 0.909545
0.210178 0.884855 0.912993
0.574609 0.954421 0.876829
0.973449 0.953552 0.789349
0.195285 0.827131 0.899794
0.195239 0.827237 0.896025
0.191623 0.813062 0.894591
0.367208 0.79736 0.92018
0.909346 0.759945 0.919188
0.190738 0.808423 0.908949
0.189746 0.804364 0.914336
0.188357 0.798581 0.912856
0.195743 0.787015 0.908202
0.841596 0.766796 0.929168
0.187182 0.794003 0.914199
0.185306 0.786328 0.914107
0.184207 0.781979 0.913909
0.219791 0.775906 0.922408
0.855817 0.762142 0.943954
0.184604 0.783673 0.914
0.184771 0.784405 0.914
0.187716 0.795911 0.914397
0.396246 0.818479 0.942901
0.919951 0.813931 0.955703
0.187625 0.795605 0.914824
0.190738 0.808072 0.914855
0.195224 0.825986 0.915541
0.546685 0.864073 0.954894
0.948669 0.954284 0.951812
