public/LUTS/Cinematic/Cinematic_09.cube
TITLE "Generated by Resolve"
LUT_3D_SIZE 5
0 0.000411994 0.0439612
0.229831 0 0.0387121
0.49958 0 0.033463
0.769329 0 0.0282139
1 0 0.0229648
0 0.257908 0.0264591
0.212329 0.252659 0.02121
0.482078 0.247395 0.0159609
0.751842 0.242145 0.0107118
1 0.236896 0.00546273
0 0.515404 0.00895705
0.194827 0.510155 0.00370794
0.464576 0.504906 0
0.73434 0.499657 0
1 0.494408 0
0 0.772915 0
0.177325 0.767666 0
0.447089 0.762402 0
0.716838 0.757153 0
0.986587 0.751904 0
0 1 0
0.159823 1 0
0.429587 1 0
0.699336 1 0
0.969085 1 0
0 0 0.316701
0.227573 0 0.311452
0.497337 0 0.306203
0.767086 0 0.300954
1 0 0.295705
0 0.25565 0.299199
0.210086 0.250401 0.29395
0.479835 0.245151 0.288701
0.749584 0.239902 0.283452
1 0.234653 0.278202
0 0.513161 0.281697
0.192584 0.507912 0.276448
0.462333 0.502663 0.271199
0.732082 0.497398 0.265949
1 0.492149 0.2607
0 0.770657 0.264195
0.175082 0.765408 0.258946
0.444831 0.760159 0.253697
0.71458 0.75491 0.248447
0.984344 0.74966 0.243198
0 1 0.246693
0.15758 1 0.241443
0.427329 1 0.236194
0.697093 1 0.230945
0.966842 1 0.225696
0 0 0.589456
0.22533 0 0.584207
0.495079 0 0.578958
0.764843 0 0.573709
1 0 0.56846
0 0.253407 0.571954
0.207828 0.248157 0.566705
0.477577 0.242908 0.561456
0.747341 0.237644 0.556207
1 0.232395 0.550958
0 0.510903 0.554452
0.190326 0.505653 0.549203
0.46009 0.500404 0.543954
0.729839 0.495155 0.538705
0.999588 0.489906 0.533455
0 0.768414 0.53695
0.172824 0.763165 0.531701
0.442588 0.757916 0.526452
0.712337 0.752667 0.521202
0.982086 0.747402 0.515953
0 1 0.519448
0.155322 1 0.514199
0.425086 1 0.508949
0.694835 1 0.5037
0.964584 1 0.498451
0 0 0.862211
0.223072 0 0.856962
0.492836 0 0.851713
0.762585 0 0.846464
1 0 0.841215
0 0.251148 0.844709
0.205585 0.245899 0.83946
0.475334 0.24065 0.834211
0.745083 0.235401 0.828962
1 0.230152 0.823713
0 0.508659 0.827207
0.188083 0.50341 0.821958
0.457832 0.498161 0.816709
0.727581 0.492912 0.81146
0.997345 0.487648 0.80621
0 0.766171 0.809705
0.170581 0.760906 0.804456
0.44033 0.755657 0.799207
0.710094 0.750408 0.793957
0.979843 0.745159 0.788708
0 1 0.792203
0.153079 1 0.786954
0.422827 1 0.781704
0.692592 1 0.776455
0.962341 1 0.771206
0 0 1
0.220829 0 1
0.490578 0 1
0.760342 0 1
1 0 1
0 0.248905 1
0.203326 0.243656 1
0.473091 0.238407 1
0.74284 0.233158 1
1 0.227909 1
0 0.506416 1
0.185824 0.501152 1
0.455589 0.495903 1
0.725338 0.490654 1
0.995087 0.485405 1
0 0.763912 1
0.168322 0.758663 1
0.438087 0.753414 1
0.707835 0.748165 1
0.977584 0.742916 1
0 1 1
0.150835 1 1
0.420584 1 1
0.690333 1 1
0.960098 1 1
