public/LUTS/Cinematic/Cinematic_10.cube
TITLE "Generated by Resolve"
LUT_3D_SIZE 33
0.0413519 0.0563668 0.0614023
0.045655 0.0558938 0.059968
0.0509651 0.0554208 0.0580148
0.0592203 0.0574502 0.058381
0.0707103 0.0629282 0.062089
0.0855879 0.0695048 0.0660258
0.102724 0.0754101 0.068574
0.122347 0.0806897 0.0690471
0.143328 0.0846876 0.0673228
0.166415 0.0864118 0.061387
0.188769 0.0876631 0.0542
0.216999 0.0854658 0.0399176
0.243015 0.0905928 0.0370947
0.275944 0.0917067 0.0390936
0.313451 0.0987106 0.044007
0.361837 0.105837 0.0507973
0.418555 0.112322 0.059266
0.478691 0.118334 0.0686046
0.537774 0.127153 0.078294
0.593439 0.140352 0.0881208
0.642695 0.160891 0.0975967
0.687541 0.182879 0.106554
0.727077 0.204532 0.114855
0.762402 0.223606 0.122316
0.792859 0.243778 0.129259
0.820798 0.262501 0.135637
0.846387 0.284184 0.142
0.871138 0.3084 0.148455
0.897383 0.33402 0.155352
0.910719 0.360754 0.160296
0.91104 0.385321 0.163088
0.911452 0.411505 0.166247
0.911803 0.433524 0.168978
0.0384985 0.0520638 0.0534066
0.0425727 0.0523995 0.0534066
0.0479591 0.0529488 0.0534524
0.0559701 0.0551003 0.0535897
0.0671244 0.0595865 0.055314
0.0809949 0.0647288 0.0567178
0.0965591 0.0698253 0.0575265
0.114351 0.0750286 0.0572671
0.131991 0.0816052 0.0579538
0.150866 0.087892 0.0572824
0.170733 0.0935225 0.0543984
0.191867 0.0984207 0.0493935
0.216953 0.103532 0.0421607
0.244236 0.108095 0.0384375
0.277211 0.110887 0.0408637
0.317968 0.114733 0.0458991
0.369238 0.122683 0.053193
0.427497 0.131502 0.0620279
0.487999 0.139437 0.0715953
0.548348 0.146059 0.0813001
0.606531 0.151629 0.0910506
0.659983 0.157671 0.100252
0.706294 0.16788 0.108675
0.74316 0.191028 0.116579
0.774609 0.215534 0.123796
0.801938 0.24007 0.130495
0.826917 0.26511 0.136934
0.85124 0.29012 0.143389
0.876921 0.314229 0.150011
0.903807 0.339635 0.15697
0.910811 0.365911 0.160861
0.911131 0.391073 0.163775
0.911543 0.416419 0.166781
0.0389105 0.0621958 0.0577554
0.0429999 0.0614481 0.0560922
0.0482643 0.0598764 0.0543832
0.0538949 0.0607767 0.0548409
0.0638437 0.0614939 0.0534829
0.076173 0.0653239 0.0543374
0.0906081 0.0708629 0.0560616
0.106676 0.0767376 0.0574807
0.124269 0.0825818 0.0582589
0.143633 0.0880751 0.0580148
0.163912 0.0931258 0.0559396
0.184817 0.0976272 0.0514382
0.208942 0.102266 0.0446632
0.235782 0.106706 0.0390326
0.266636 0.110414 0.0397498
0.305241 0.113527 0.0442664
0.353124 0.120516 0.0508736
0.410285 0.128496 0.0593423
0.47042 0.136095 0.0687266
0.53164 0.142916 0.0784161
0.590768 0.149279 0.088304
0.645762 0.156115 0.0978103
0.694224 0.163821 0.10634
0.733791 0.181979 0.114336
0.766552 0.205798 0.12163
0.794888 0.229953 0.128435
0.820508 0.254688 0.13492
0.844648 0.280476 0.141344
0.869154 0.305928 0.147906
0.895048 0.332921 0.154849
0.910689 0.357778 0.159976
0.910994 0.38201 0.162692
0.911406 0.409689 0.165927
0.0417487 0.0723888 0.0609445
0.0453346 0.0711833 0.0587015
0.0501869 0.0699474 0.0573587
0.0544747 0.0700694 0.0578164
0.0614176 0.0722057 0.0586252
0.0726329 0.0703899 0.0552682
0.0871443 0.0725719 0.0551766
0.102724 0.0783703 0.0568551
0.119554 0.0846265 0.0579995
0.138293 0.090959 0.0582132
0.158038 0.0966354 0.056611
0.179248 0.101183 0.0530861
0.203571 0.104906 0.0469215
0.230823 0.108125 0.0396277
0.261906 0.110597 0.0394598
0.299672 0.112383 0.043473
0.345708 0.117784 0.0496834
0.402914 0.125322 0.0579995
0.462776 0.132738 0.0672618
0.524178 0.140215 0.0771344
0.583017 0.147448 0.0869459
0.638132 0.155123 0.0964675
0.687297 0.163439 0.105165
0.728832 0.176883 0.113161
0.762676 0.199527 0.120546
0.791684 0.223041 0.127352
0.817456 0.246738 0.133761
0.84181 0.270451 0.139986
0.866178 0.295125 0.14641
0.891768 0.321965 0.153216
0.910567 0.349172 0.15906
0.910933 0.375189 0.161898
0.911299 0.401846 0.165042
0.0451667 0.083238 0.0641337
0.0481727 0.0822461 0.0620737
0.0527199 0.0809186 0.0608225
0.0565499 0.080705 0.0613413
0.0616312 0.0825666 0.0622263
0.0702373 0.084947 0.0631418
0.0826734 0.0826429 0.058793
0.0994278 0.081529 0.0567025
0.117082 0.0871138 0.0581979
0.135454 0.0932631 0.058732
0.1552 0.099382 0.0577401
0.17586 0.104997 0.0550088
0.199054 0.110307 0.0496681
0.2262 0.11577 0.0427558
0.256916 0.119646 0.0400549
0.293721 0.121279 0.0436713
0.33872 0.126101 0.0495308
0.396628 0.132387 0.0576791
0.458152 0.139467 0.0671092
0.519951 0.146624 0.076936
0.579095 0.153857 0.0867475
0.635035 0.16173 0.096376
0.684413 0.170367 0.10515
0.727443 0.179583 0.1131
0.762936 0.192828 0.120134
0.792325 0.212436 0.12665
0.817792 0.235569 0.132906
0.841917 0.259541 0.139086
0.865888 0.285206 0.145449
0.891051 0.312444 0.152193
0.910475 0.34052 0.158175
0.910811 0.366659 0.160937
0.911192 0.393835 0.164111
0.0483253 0.0949264 0.0677653
0.0511025 0.0941482 0.0658427
0.0553902 0.0928054 0.064332
0.0589609 0.0925002 0.065095
0.0628824 0.0931258 0.0660258
0.0697948 0.0960098 0.0670787
0.0806592 0.0992905 0.0693675
0.0948959 0.0953841 0.0620279
0.113588 0.0921645 0.0592203
0.133181 0.096849 0.0598306
0.153124 0.102876 0.0594034
0.174548 0.108782 0.057023
0.197604 0.114244 0.052491
0.224659 0.120272 0.0456092
0.254292 0.126146 0.0406043
0.29015 0.132326 0.0443275
0.334112 0.140993 0.05037
0.389471 0.149859 0.0583963
0.452384 0.156085 0.0677348
0.516152 0.162219 0.0775921
0.577005 0.169406 0.0876631
0.634226 0.177478 0.0973983
0.684413 0.185214 0.106233
0.727031 0.194278 0.114092
0.763317 0.204227 0.120974
0.793545 0.216068 0.127138
0.820401 0.229923 0.132952
0.844663 0.25008 0.138781
0.868116 0.275074 0.144945
0.892668 0.302907 0.151568
0.909941 0.331716 0.157183
0.910674 0.359106 0.160113
0.91107 0.386923 0.163256
0.0511788 0.10724 0.0720989
0.0535592 0.10663 0.0702678
0.0577707 0.105348 0.0687419
0.0610666 0.105013 0.0693828
0.0648051 0.104845 0.0703746
0.0704662 0.107195 0.0712749
0.0798657 0.110445 0.0731365
0.0928054 0.113802 0.0758984
0.109911 0.109789 0.0682231
0.129274 0.104158 0.0626993
0.151171 0.107927 0.0624552
0.173342 0.113405 0.0601968
0.19675 0.119066 0.0560006
0.224475 0.125002 0.0489509
0.254414 0.131228 0.0413672
0.291493 0.138003 0.0450599
0.335485 0.14818 0.0512856
0.390158 0.16083 0.0595865
0.450584 0.172595 0.0690776
0.514183 0.181964 0.0791028
0.577569 0.189242 0.0894484
0.635248 0.196735 0.0991379
0.686046 0.204746 0.108003
0.729046 0.213504 0.115877
0.765087 0.223102 0.122698
0.795377 0.234333 0.128832
0.821698 0.246754 0.134508
0.846494 0.261662 0.140047
0.870863 0.279026 0.145785
0.896071 0.300618 0.151965
0.910262 0.324041 0.156512
0.910582 0.350149 0.159167
0.910964 0.379202 0.162371
0.0535134 0.119707 0.0769513
0.0554208 0.119173 0.0752575
0.0596628 0.118059 0.0738994
0.0631876 0.117723 0.0745098
0.0668803 0.117388 0.075288
0.0717479 0.118349 0.0761883
0.0799115 0.121798 0.0774548
0.0916762 0.12549 0.0801709
0.108598 0.129335 0.0833448
0.127947 0.122896 0.0729381
0.147234 0.116182 0.0678874
0.171542 0.119631 0.0651408
0.196094 0.124529 0.060502
0.225238 0.13048 0.0530556
0.256107 0.136858 0.0447242
0.293355 0.144244 0.0459449
0.338643 0.15462 0.0523384
0.39556 0.168734 0.0611582
0.458091 0.183536 0.0712139
0.519478 0.197253 0.0813764
0.579705 0.209354 0.0915999
0.638193 0.218189 0.101518
0.689067 0.226368 0.110414
0.732494 0.235294 0.118318
0.768261 0.244373 0.125048
0.798123 0.255344 0.131121
0.824323 0.267308 0.13666
0.848936 0.281788 0.14226
0.873823 0.29897 0.148058
0.899382 0.318105 0.154101
0.910414 0.337469 0.157855
0.910674 0.356985 0.159899
0.910964 0.377737 0.162234
0.0554055 0.132387 0.0820783
0.0572671 0.132021 0.0806897
0.0614481 0.13106 0.0793774
0.0651102 0.130632 0.0796674
0.0688945 0.130388 0.0803845
0.0732891 0.130495 0.0812543
0.0804456 0.133562 0.082475
0.091249 0.137484 0.0848554
0.106172 0.141863 0.0891737
0.127855 0.145068 0.0901045
0.149905 0.137865 0.0799878
0.168292 0.130098 0.0737926
0.194842 0.13228 0.0680095
0.225834 0.136736 0.0585489
0.257877 0.143008 0.0496223
0.295689 0.151141 0.0471199
0.343038 0.162402 0.0537575
0.402182 0.176974 0.0628824
0.466239 0.193027 0.0733349
0.530434 0.208469 0.0841382
0.589426 0.223026 0.0944686
0.644099 0.236881 0.104219
0.693736 0.248829 0.113252
0.736004 0.259449 0.12108
0.771511 0.269215 0.127855
0.801419 0.280049 0.133898
0.827771 0.292103 0.139574
0.852522 0.306386 0.14519
0.877363 0.323232 0.150973
0.902846 0.341848 0.157092
0.910735 0.360159 0.16025
0.910964 0.378622 0.162341
0.911238 0.398886 0.164691
0.0573281 0.145022 0.0877394
0.0590982 0.144671 0.0863508
0.0633097 0.143816 0.085008
0.0669413 0.14342 0.0851606
0.0708782 0.143252 0.0858473
0.0749828 0.14313 0.0867018
0.0813153 0.145312 0.0877852
0.0910658 0.149416 0.0896162
0.104585 0.154101 0.0931868
0.123461 0.160174 0.0987564
0.149569 0.164096 0.0962844
0.172519 0.152758 0.085359
0.191333 0.143191 0.0793317
0.224887 0.144976 0.0680247
0.259831 0.149783 0.0549477
0.298833 0.158953 0.0495308
0.348363 0.171038 0.055375
0.409354 0.185748 0.0648356
0.476341 0.202213 0.0757
0.540307 0.219364 0.0867018
0.601556 0.235492 0.0975357
0.655085 0.251164 0.107393
0.701442 0.266239 0.116228
0.741558 0.279469 0.123903
0.775723 0.292638 0.130861
0.804685 0.306767 0.137102
0.830915 0.319646 0.142855
0.856016 0.333989 0.148516
0.8813 0.350591 0.154467
0.90721 0.368948 0.160601
0.91104 0.386389 0.16321
0.911345 0.404334 0.165301
0.91165 0.423041 0.167651
0.0592813 0.15845 0.0939498
0.0609445 0.15816 0.0927749
0.0651102 0.157565 0.0914168
0.0689708 0.157336 0.0914778
0.0725414 0.157229 0.0920119
0.0766461 0.157168 0.0926375
0.0822919 0.158297 0.0935378
0.090898 0.162692 0.0946517
0.102968 0.168124 0.0970474
0.1205 0.17467 0.101823
0.142718 0.182269 0.107622
0.172976 0.183856 0.100877
0.197116 0.169802 0.0883345
0.222858 0.159014 0.0789502
0.260868 0.160678 0.0625925
0.302556 0.168109 0.0529641
0.352941 0.180545 0.0570382
0.415839 0.195758 0.0668193
0.485435 0.212955 0.0781567
0.552728 0.230579 0.0897841
0.613596 0.248646 0.100755
0.667201 0.265751 0.110811
0.712367 0.28159 0.119539
0.750301 0.297658 0.12726
0.78233 0.313451 0.134173
0.810254 0.329183 0.140444
0.835798 0.345327 0.146441
0.860288 0.363058 0.152407
0.885405 0.381415 0.158572
0.910735 0.401465 0.164935
0.911574 0.418341 0.167056
0.911849 0.435798 0.169299
0.912139 0.453529 0.171649
0.0613565 0.173037 0.100893
0.0628672 0.172869 0.0998856
0.0671702 0.172381 0.0985428
0.0707256 0.172259 0.0983444
0.0741741 0.172366 0.0986648
0.0781109 0.172519 0.0988937
0.083238 0.173236 0.0994736
0.0908522 0.17731 0.10042
0.101335 0.183261 0.10135
0.117479 0.190158 0.104967
0.138231 0.198093 0.109834
0.165454 0.207187 0.113802
0.201709 0.209628 0.103716
0.231037 0.187732 0.0865797
0.260349 0.177081 0.0736553
0.305318 0.181033 0.0599985
0.358953 0.191714 0.0591897
0.424659 0.207691 0.0694438
0.495491 0.225284 0.0810559
0.563668 0.243824 0.0928969
0.625711 0.261692 0.104051
0.6795 0.280446 0.114336
0.72433 0.299519 0.123293
0.76112 0.315892 0.130999
0.791089 0.332784 0.137713
0.817288 0.350973 0.144045
0.841123 0.370001 0.150118
0.865827 0.3888 0.156329
0.891142 0.409354 0.162799
0.911742 0.430014 0.168536
0.912047 0.449332 0.171054
0.912444 0.469734 0.173892
0.912764 0.488075 0.17644
0.0637217 0.188281 0.108415
0.0653239 0.188266 0.107485
0.069276 0.187793 0.106111
0.0726329 0.187732 0.105684
0.0757916 0.188022 0.105821
0.07953 0.188495 0.105959
0.0844282 0.18941 0.106172
0.0911574 0.192599 0.106584
0.10045 0.198688 0.106981
0.114275 0.206714 0.10808
0.13341 0.215747 0.111482
0.159319 0.226322 0.115267
0.192264 0.236576 0.117586
0.237324 0.235492 0.10219
0.269001 0.208621 0.0831311
0.30605 0.199344 0.0711223
0.363043 0.20708 0.0632792
0.43267 0.220783 0.0720836
0.506035 0.239139 0.0840925
0.575784 0.257954 0.0962387
0.637613 0.276905 0.10753
0.691234 0.296422 0.117891
0.73521 0.315175 0.126818
0.770764 0.334279 0.134661
0.799908 0.353338 0.141497
0.825666 0.371298 0.147784
0.849439 0.391058 0.153979
0.873152 0.41236 0.160372
0.897368 0.434821 0.166964
0.9122 0.456611 0.172061
0.912596 0.47631 0.174792
0.912947 0.496361 0.177646
0.913329 0.514046 0.180255
0.065095 0.206226 0.116304
0.0665141 0.206226 0.115282
0.0703288 0.205783 0.113741
0.0734417 0.205859 0.113344
0.0766308 0.20647 0.113252
0.080293 0.206806 0.1131
0.0846876 0.207996 0.11313
0.0906233 0.210605 0.112871
0.0984054 0.217487 0.111849
0.109804 0.226993 0.110475
0.127611 0.236866 0.112078
0.152758 0.247807 0.11545
0.184634 0.259464 0.1196
0.228855 0.271443 0.122881
0.282002 0.264836 0.102159
0.316197 0.232654 0.0833143
0.365743 0.228031 0.0726024
0.439841 0.238254 0.075227
0.516243 0.254673 0.0874647
0.586557 0.274403 0.099794
0.649027 0.294102 0.111315
0.702419 0.313619 0.121584
0.745144 0.33315 0.13051
0.779721 0.352331 0.138201
0.80882 0.372 0.14522
0.833829 0.393378 0.151797
0.857893 0.414191 0.158221
0.881422 0.435004 0.164553
0.905974 0.456779 0.17116
0.912596 0.479042 0.175158
0.913085 0.501045 0.178332
0.913512 0.522881 0.181598
0.913802 0.53756 0.183841
0.0632486 0.229664 0.123293
0.0645609 0.229709 0.122148
0.0681773 0.229496 0.120577
0.0711223 0.229892 0.119966
0.0742504 0.230411 0.119707
0.0776684 0.231098 0.11928
0.0821088 0.232288 0.11873
0.0876478 0.234211 0.118074
0.0951095 0.241047 0.116793
0.105058 0.250828 0.113771
0.120989 0.261433 0.113115
0.1467 0.273045 0.11696
0.1785 0.285588 0.122454
0.223331 0.301396 0.130571
0.272358 0.31397 0.13817
0.3346 0.302541 0.111009
0.370871 0.259129 0.0834821
0.442206 0.263233 0.0789349
0.52546 0.275807 0.0915236
0.598856 0.293416 0.103914
0.660578 0.313344 0.115389
0.712673 0.333623 0.125536
0.755093 0.353353 0.134478
0.788968 0.373159 0.142214
0.817212 0.393286 0.149187
0.842084 0.41442 0.155764
0.865705 0.435798 0.162234
0.889982 0.458762 0.169039
0.912718 0.482383 0.175601
0.913054 0.502174 0.178485
0.913466 0.522683 0.181552
0.913909 0.543221 0.184726
0.914229 0.554635 0.186557
0.0616312 0.258412 0.131853
0.062974 0.258839 0.130846
0.0663767 0.2589 0.129076
0.0693675 0.259388 0.128283
0.0724346 0.259892 0.127672
0.0757153 0.260685 0.127016
0.0801404 0.262638 0.12639
0.0857404 0.264851 0.125429
0.0932326 0.269444 0.123903
0.104067 0.280354 0.12137
0.117861 0.292561 0.118593
0.145006 0.305715 0.123949
0.176715 0.319295 0.130373
0.21973 0.336355 0.138476
0.273091 0.354696 0.147326
0.332326 0.366949 0.150866
0.404395 0.352422 0.118273
0.450675 0.301106 0.0860151
0.532616 0.307973 0.0969253
0.609186 0.320211 0.108904
0.672755 0.337041 0.120165
0.724041 0.357626 0.130343
0.765637 0.377844 0.139223
0.797528 0.398016 0.146731
0.825086 0.418006 0.153628
0.850401 0.438788 0.160342
0.874723 0.460319 0.166964
0.899214 0.482643 0.173693
0.913146 0.504646 0.178866
0.913573 0.52578 0.18204
0.914031 0.547463 0.185412
0.914504 0.56733 0.188586
0.914656 0.575326 0.189868
0.0649424 0.290745 0.142779
0.0662089 0.290898 0.141634
0.0693217 0.291173 0.139864
0.0721752 0.291722 0.139101
0.0753643 0.292805 0.138537
0.0788891 0.294057 0.137896
0.0836042 0.295918 0.137041
0.0895705 0.298512 0.136019
0.0972763 0.302541 0.134585
0.108598 0.313054 0.132982
0.122988 0.327077 0.130831
0.146441 0.341726 0.133028
0.17789 0.356359 0.139193
0.220096 0.37438 0.147066
0.271305 0.394003 0.15581
0.337011 0.414832 0.16556
0.402808 0.424704 0.167514
0.48394 0.389715 0.113298
0.540749 0.346731 0.103777
0.616281 0.35523 0.114855
0.681758 0.367803 0.125628
0.734783 0.382712 0.135256
0.773922 0.402579 0.143786
0.805905 0.422858 0.151369
0.833021 0.443061 0.158251
0.858137 0.464271 0.164996
0.882567 0.485466 0.171664
0.906981 0.506874 0.178286
0.913573 0.526894 0.182208
0.914015 0.5467 0.18529
0.914519 0.567849 0.188632
0.914977 0.586862 0.19176
0.915053 0.591394 0.192508
0.0721904 0.326818 0.154742
0.0732891 0.326848 0.153704
0.076112 0.327306 0.152163
0.0789654 0.328115 0.1514
0.0823072 0.329351 0.150805
0.0859236 0.33077 0.150057
0.0905623 0.332967 0.149264
0.0966812 0.335866 0.148119
0.104402 0.339895 0.14667
0.115145 0.349248 0.14493
0.129213 0.363943 0.14258
0.150134 0.379721 0.142336
0.181491 0.395911 0.148516
0.223362 0.415183 0.156268
0.27396 0.435477 0.164935
0.33724 0.456947 0.17438
0.412879 0.477791 0.184222
0.48983 0.481392 0.176196
0.563378 0.425803 0.12137
0.624689 0.395132 0.121996
0.689082 0.404501 0.131975
0.741665 0.415946 0.140978
0.781308 0.428748 0.148516
0.813214 0.44744 0.155917
0.840131 0.468544 0.162966
0.865568 0.48957 0.169772
0.89012 0.510094 0.176364
0.913237 0.531029 0.182757
0.914107 0.549645 0.185733
0.914534 0.568795 0.1888
0.914961 0.587991 0.191913
0.915358 0.603525 0.194568
0.915465 0.606439 0.195041
0.0797894 0.364858 0.166766
0.0809949 0.365362 0.16582
0.0837262 0.365942 0.164446
0.0865492 0.366842 0.163745
0.0897536 0.368154 0.163043
0.09337 0.369497 0.16228
0.0982681 0.372152 0.161334
0.104463 0.375586 0.160159
0.112459 0.37969 0.158434
0.122515 0.387335 0.156573
0.136904 0.40293 0.15375
0.157168 0.419974 0.152895
0.187625 0.436805 0.157961
0.230045 0.456611 0.165713
0.279667 0.477607 0.174105
0.341329 0.499001 0.183383
0.418601 0.522667 0.193896
0.500923 0.538308 0.202518
0.579416 0.527337 0.168963
0.638773 0.461967 0.134936
0.696422 0.443137 0.138964
0.74815 0.452369 0.147356
0.788006 0.463706 0.15465
0.819791 0.475532 0.160998
0.84651 0.492515 0.167437
0.872526 0.513146 0.174304
0.897734 0.533578 0.180972
0.914137 0.553628 0.186374
0.91458 0.571572 0.189242
0.915053 0.589914 0.192264
0.91548 0.607507 0.195224
0.915785 0.620493 0.197436
0.915877 0.622065 0.197696
0.0879225 0.404929 0.178653
0.0890059 0.405127 0.177768
0.0914931 0.405707 0.176364
0.0944381 0.406928 0.175586
0.097673 0.408347 0.174899
0.101534 0.41062 0.174166
0.106584 0.41326 0.173114
0.112932 0.416678 0.17174
0.120943 0.421088 0.169909
0.130709 0.426993 0.167483
0.145144 0.442481 0.164553
0.165255 0.460502 0.162661
0.196231 0.478279 0.167483
0.23859 0.498253 0.175097
0.288151 0.519036 0.183368
0.348806 0.541482 0.19263
0.423392 0.564233 0.202701
0.513924 0.586862 0.213519
0.583429 0.593332 0.218769
0.657237 0.561135 0.163897
0.704448 0.499992 0.149462
0.75433 0.490883 0.154299
0.792752 0.49929 0.16083
0.824247 0.509697 0.166918
0.852384 0.521279 0.172686
0.879103 0.536614 0.178836
0.904677 0.556573 0.185519
0.914656 0.574975 0.189776
0.915084 0.592233 0.192645
0.915511 0.609903 0.195651
0.915999 0.627588 0.198657
0.916213 0.636286 0.200153
0.916274 0.637919 0.200458
0.0961166 0.444968 0.189975
0.0971542 0.44506 0.188937
0.0995499 0.446159 0.187945
0.102373 0.447456 0.187106
0.105852 0.449516 0.186481
0.109804 0.451575 0.18558
0.115023 0.45452 0.18439
0.121721 0.458183 0.182864
0.129809 0.462684 0.180682
0.139925 0.468467 0.177951
0.15404 0.482612 0.174441
0.174319 0.50106 0.172
0.205951 0.518853 0.176776
0.248569 0.538964 0.184222
0.298238 0.559777 0.192355
0.35758 0.581384 0.201236
0.430488 0.603784 0.211231
0.520607 0.627695 0.222583
0.597864 0.639902 0.230304
0.662058 0.644129 0.226139
0.720012 0.591348 0.167819
0.757458 0.539513 0.16289
0.79823 0.536263 0.167651
0.829007 0.544182 0.173083
0.857282 0.554192 0.178607
0.884031 0.565438 0.184115
0.90959 0.579049 0.189776
0.915175 0.595575 0.193194
0.915602 0.612314 0.196063
0.91603 0.629526 0.198978
0.916518 0.647089 0.20209
0.91664 0.651514 0.202884
0.916686 0.652903 0.203098
0.104356 0.484764 0.200534
0.105409 0.485039 0.199588
0.107759 0.486351 0.198627
0.110567 0.487938 0.198001
0.113985 0.490043 0.197391
0.118227 0.49247 0.196368
0.12369 0.495567 0.19501
0.130709 0.499733 0.193332
0.139269 0.504601 0.190967
0.149508 0.51017 0.187747
0.163439 0.522393 0.183688
0.183627 0.540337 0.180529
0.217395 0.558801 0.185885
0.259785 0.57882 0.193118
0.309224 0.598795 0.200977
0.367712 0.619425 0.209705
0.438117 0.640635 0.219348
0.525872 0.663462 0.230564
0.612192 0.682811 0.240894
0.669093 0.686137 0.245502
0.721782 0.677821 0.220127
0.767102 0.621332 0.178775
0.799527 0.58053 0.175387
0.834104 0.580148 0.179828
0.861723 0.587594 0.184756
0.889113 0.596475 0.189899
0.912871 0.606516 0.194705
0.915694 0.616541 0.19675
0.916106 0.631662 0.199359
0.916518 0.647532 0.202182
0.916991 0.664698 0.205234
0.917098 0.666545 0.2056
0.917098 0.668299 0.205921
0.11342 0.524498 0.210269
0.113985 0.524727 0.209674
0.115953 0.525826 0.208804
0.118608 0.527565 0.208255
0.122026 0.529961 0.207706
0.126558 0.532647 0.206577
0.132509 0.536416 0.205158
0.139895 0.540795 0.203159
0.148669 0.545327 0.200412
0.15935 0.551171 0.196918
0.173159 0.561868 0.192386
0.194034 0.579751 0.188907
0.228748 0.597177 0.19443
0.271107 0.616266 0.20148
0.320256 0.635462 0.209171
0.37847 0.655573 0.217746
0.447822 0.676066 0.227314
0.531868 0.697536 0.238437
0.615641 0.716411 0.249058
0.6804 0.725353 0.256138
0.728038 0.727794 0.259983
0.766873 0.703838 0.210712
0.803738 0.652934 0.18909
0.83415 0.621302 0.187076
0.865812 0.621729 0.191196
0.893568 0.628122 0.19588
0.915175 0.636011 0.199954
0.916381 0.642313 0.201236
0.91664 0.65098 0.202777
0.917037 0.66601 0.205493
0.917433 0.679408 0.207919
0.917494 0.68162 0.208316
0.91754 0.683375 0.208637
0.12369 0.564477 0.21915
0.123659 0.564248 0.21857
0.124422 0.56492 0.218326
0.126818 0.566781 0.218051
0.130282 0.569589 0.217609
0.135103 0.572778 0.216449
0.141512 0.576577 0.21474
0.149187 0.580774 0.21239
0.158297 0.585534 0.209293
0.169589 0.591608 0.205447
0.183307 0.600992 0.200427
0.204837 0.617151 0.197223
0.241184 0.634409 0.202899
0.283452 0.652735 0.209735
0.332692 0.671382 0.217334
0.38967 0.689967 0.225666
0.45742 0.708812 0.23505
0.538415 0.728664 0.24596
0.618265 0.74609 0.256748
0.689738 0.760052 0.26659
0.736385 0.762814 0.271595
0.775097 0.763638 0.271504
0.802808 0.730938 0.212161
0.834684 0.68452 0.198703
0.865629 0.660777 0.198108
0.898192 0.660929 0.202213
0.917037 0.665797 0.205478
0.917205 0.670054 0.206226
0.917311 0.675624 0.207218
0.917617 0.685145 0.208972
0.917906 0.694575 0.210712
0.917937 0.696422 0.211048
0.917998 0.6981 0.211353
0.133974 0.603601 0.227314
0.133974 0.603479 0.226902
0.134127 0.604089 0.227024
0.13518 0.605661 0.227329
0.138689 0.608591 0.226902
0.143618 0.611978 0.225818
0.150484 0.615976 0.223819
0.158801 0.620691 0.221164
0.168475 0.626001 0.217914
0.179797 0.631357 0.213489
0.193378 0.638926 0.207904
0.216327 0.65391 0.205722
0.253468 0.670176 0.211124
0.296345 0.687785 0.217792
0.344564 0.705013 0.225101
0.400656 0.722133 0.233265
0.467597 0.740017 0.242847
0.54519 0.757778 0.253742
0.621592 0.773693 0.264759
0.691432 0.787106 0.275547
0.744411 0.794324 0.283543
0.780529 0.79559 0.288441
0.810895 0.793835 0.28304
0.831678 0.758068 0.214511
0.863523 0.716121 0.208103
0.896208 0.6981 0.208682
0.917952 0.6963 0.210986
0.918013 0.698085 0.211353
0.91812 0.701915 0.21207
0.918364 0.709453 0.213428
0.918364 0.710216 0.213581
0.918395 0.711101 0.213748
0.918441 0.712825 0.214069
0.144106 0.641901 0.235111
0.144183 0.642222 0.23476
0.14435 0.642847 0.234974
0.144793 0.644327 0.235706
0.147189 0.646952 0.235904
0.152239 0.650584 0.234928
0.159792 0.655039 0.232517
0.168597 0.660075 0.229572
0.17879 0.665003 0.225757
0.190417 0.670375 0.221057
0.203815 0.676234 0.214984
0.229206 0.689693 0.214176
0.266178 0.705364 0.219516
0.309606 0.721355 0.225727
0.356085 0.736584 0.232807
0.411872 0.752346 0.241032
0.477775 0.76875 0.250767
0.552728 0.784772 0.261952
0.624781 0.798688 0.273152
0.691051 0.810849 0.284291
0.748913 0.821317 0.295399
0.786175 0.824109 0.3019
0.81561 0.825376 0.3075
0.839887 0.819944 0.295949
0.857877 0.783291 0.220584
0.891722 0.747219 0.217319
0.918593 0.732265 0.21767
0.918914 0.727581 0.216861
0.918959 0.728679 0.217044
0.919112 0.734462 0.218143
0.919051 0.731167 0.217502
0.918868 0.72665 0.216693
0.918914 0.727626 0.216831
0.154147 0.679881 0.242924
0.154192 0.680064 0.242527
0.154421 0.680842 0.242817
0.154788 0.682246 0.243565
0.156374 0.68484 0.244419
0.16144 0.688792 0.243549
0.169574 0.693324 0.240925
0.178653 0.698207 0.237629
0.189258 0.703136 0.233478
0.201389 0.708461 0.228244
0.216114 0.714275 0.221988
0.242191 0.724422 0.22269
0.279377 0.738231 0.227787
0.321767 0.752438 0.233738
0.369619 0.766598 0.240894
0.423987 0.78114 0.249332
0.488869 0.795682 0.259403
0.560357 0.809445 0.270771
0.628412 0.821988 0.282246
0.69099 0.833021 0.293675
0.74583 0.843244 0.305364
0.79028 0.85127 0.316426
0.819135 0.852583 0.322515
