public/LUTS/Cinematic/Cinematic_18.cube
TITLE "Generated by Resolve"
LUT_3D_SIZE 5
0.0736858 0.0583658 0.0583658
0.218418 0.0846113 0.081178
0.439139 0.176745 0.167025
0.728054 0.331731 0.314839
0.968811 0.458396 0.431479
0.0718242 0.150668 0.0518654
0.249912 0.20531 0.0918898
0.629343 0.417899 0.280934
1 0.664073 0.5084
1 0.799237 0.622248
0.116701 0.306493 0.101747
0.396902 0.493095 0.220432
0.769329 0.699001 0.407568
1 1 0.686366
1 1 0.812421
0.327581 0.658366 0.304158
0.754131 1 0.556039
1 1 0.686
1 1 0.798184
1 1 0.895949
0.686671 1 0.646601
0.993423 1 0.760159
1 1 0.836149
1 1 0.885008
1 1 0.924849
0.0972457 0.0794232 0.179263
0.207141 0.0788281 0.157412
0.377935 0.137896 0.205097
0.622889 0.256733 0.314672
0.867628 0.379995 0.43595
0.0686046 0.166064 0.162493
0.252918 0.235477 0.204776
0.785245 0.481102 0.412833
1 0.656809 0.580179
1 0.773739 0.683574
0.154116 0.399969 0.252735
0.432319 0.737102 0.43534
0.959808 0.909529 0.599573
1 1 0.836927
1 1 0.982269
0.447623 0.891051 0.547341
0.882963 1 0.813565
1 1 0.881437
1 1 1
1 1 1
0.675502 1 0.759594
1 1 0.933486
1 1 1
1 1 1
1 1 1
0.140917 0.130663 0.345235
0.293568 0.158221 0.38938
0.465736 0.183261 0.344274
0.698283 0.289113 0.433631
0.883604 0.38233 0.517998
0.13724 0.246677 0.354421
0.269535 0.325017 0.491035
0.63357 0.354406 0.495445
1 0.561563 0.649439
1 0.675502 0.750637
0.222507 0.493721 0.465476
0.306203 0.598672 0.542168
0.571725 0.626398 0.54435
1 0.869078 0.77435
1 0.984009 0.895125
0.493278 0.959625 0.748577
0.667414 1 0.880674
0.802426 0.999588 0.810376
0.957794 0.962539 0.789685
1 1 0.870146
0.654627 1 0.890654
0.902846 1 1
0.95903 1 0.881254
1 1 0.864927
1 1 0.906508
0.224506 0.218402 0.547341
0.381537 0.264546 0.623041
0.504021 0.243488 0.548012
0.723659 0.309148 0.554925
0.88658 0.386023 0.621195
0.251164 0.372 0.598535
0.401389 0.45745 0.798733
0.718868 0.499046 0.869688
1 0.563027 0.829709
1 0.665156 0.905226
0.362051 0.652918 0.748913
0.437598 0.696452 0.82742
0.64152 0.774197 0.88777
0.860929 0.689693 0.794369
1 0.815503 0.892348
0.511406 0.955718 0.890028
0.626673 1 0.995956
0.816312 1 1
0.773724 0.795575 0.758007
0.849928 0.825452 0.791318
0.703609 1 1
0.832197 1 1
0.921447 1 1
0.8215 0.875929 0.806348
0.869749 0.879591 0.80853
0.322591 0.317052 0.757183
0.465568 0.354253 0.8112
0.573495 0.330877 0.752056
0.755199 0.3552 0.716747
0.878523 0.394934 0.721462
0.362417 0.488746 0.825895
0.498039 0.551553 1
0.814603 0.62324 1
1 0.684581 1
1 0.680232 1
0.466865 0.740612 0.960555
0.565362 0.798016 1
0.828336 0.936568 1
0.916716 0.771649 0.957748
1 0.849485 1
0.601877 1 1
0.713756 1 1
0.897307 1 1
0.774929 0.805798 0.823987
0.828794 0.8 0.820447
0.719738 1 1
0.823392 1 1
1 1 1
0.801358 0.882094 0.863401
0.838392 0.84686 0.829923
