public/LUTS/Cinematic/Cinematic_14.cube
TITLE "Generated by Resolve"
LUT_3D_SIZE 9
0.0588846 0.0498054 0.0498207
0.093904 0.0555428 0.0558938
0.139147 0.0649424 0.0639506
0.190616 0.0789502 0.0767224
0.246418 0.096788 0.0924239
0.309209 0.117769 0.111254
0.38088 0.140002 0.131228
0.474678 0.170535 0.158175
0.530816 0.190753 0.174426
0.0627604 0.0789654 0.0539864
0.095491 0.0821393 0.0572671
0.146792 0.0965591 0.0692149
0.214786 0.122423 0.0905013
0.295125 0.154223 0.117968
0.385397 0.18703 0.14522
0.473884 0.217868 0.171649
0.550622 0.248508 0.19675
0.589899 0.269047 0.21326
0.0688945 0.114107 0.0603799
0.108507 0.125185 0.0676738
0.159777 0.139406 0.0830701
0.237339 0.175341 0.110124
0.336797 0.21767 0.143175
0.43772 0.259709 0.175509
0.527108 0.298054 0.208286
0.597375 0.335912 0.239857
0.63537 0.361624 0.258885
0.0759289 0.150561 0.0681468
0.126513 0.175326 0.0855268
0.193286 0.202136 0.109285
0.25803 0.23035 0.128878
0.366308 0.282689 0.168017
0.478447 0.337224 0.209552
0.566217 0.383642 0.247532
0.633753 0.43035 0.286152
0.675517 0.463447 0.310262
0.0884108 0.19263 0.0806134
0.150469 0.234607 0.108003
0.23444 0.28394 0.144884
0.308766 0.31725 0.169848
0.396826 0.356115 0.199496
0.514046 0.422339 0.249424
0.604166 0.477882 0.293004
0.672862 0.531334 0.33312
0.716884 0.569497 0.358618
0.111467 0.242618 0.103655
0.181903 0.307012 0.138964
0.284825 0.38613 0.188586
0.371466 0.428717 0.223697
0.451423 0.459663 0.250721
0.544198 0.502724 0.287373
0.63711 0.56347 0.332204
0.701793 0.60943 0.364355
0.742504 0.643168 0.386954
0.151492 0.337942 0.140398
0.231235 0.413611 0.184222
0.344488 0.504967 0.240665
0.43711 0.552819 0.27921
0.515099 0.574456 0.304753
0.589487 0.595575 0.329259
0.65449 0.621851 0.355154
0.717845 0.663676 0.385794
0.756283 0.689433 0.405371
0.219242 0.487572 0.205035
0.30164 0.551263 0.246891
0.404013 0.616587 0.291371
0.494545 0.654887 0.325216
0.574258 0.673411 0.351675
0.634638 0.679377 0.368124
0.681392 0.686427 0.382467
0.720913 0.694621 0.39408
0.7608 0.722087 0.416556
0.290196 0.623499 0.270604
0.36347 0.662455 0.298039
0.451453 0.696757 0.330632
0.53286 0.716014 0.352239
0.603998 0.72781 0.37525
0.661479 0.72987 0.390906
0.702785 0.733303 0.403067
0.737942 0.737804 0.41236
0.764706 0.745098 0.423499
0.0656443 0.0553445 0.0818799
0.0939651 0.0555581 0.0798047
0.136904 0.0645914 0.0858473
0.185122 0.0780194 0.096788
0.236103 0.0921035 0.109499
0.292882 0.108019 0.124529
0.355566 0.127428 0.142489
0.438132 0.151095 0.163989
0.494759 0.168109 0.179309
0.0634623 0.0798199 0.0798505
0.108736 0.0918898 0.0892958
0.178073 0.108934 0.101122
0.251743 0.126726 0.115969
0.336797 0.152453 0.137148
0.417548 0.181811 0.163363
0.499535 0.212451 0.190753
0.57499 0.243809 0.219104
0.617182 0.264942 0.236072
0.0675364 0.11632 0.0842603
0.128145 0.153933 0.10428
0.211994 0.178225 0.119814
0.304234 0.207446 0.143954
0.399359 0.244099 0.176333
0.488548 0.278416 0.206302
0.566796 0.308721 0.236149
0.628351 0.340719 0.260639
0.663157 0.365606 0.278813
0.074052 0.157977 0.0924086
0.129686 0.210697 0.112749
0.238102 0.263081 0.145449
0.336934 0.293004 0.175723
0.443503 0.338109 0.216373
0.54049 0.376257 0.25066
0.616419 0.415839 0.284443
0.679927 0.460426 0.31519
0.718227 0.492531 0.336034
0.0906233 0.208392 0.106432
0.143038 0.278752 0.127489
0.270619 0.363882 0.183078
0.377356 0.402808 0.221881
0.481666 0.435096 0.257832
0.58648 0.485023 0.298528
0.664256 0.532891 0.334325
0.72433 0.580118 0.367437
0.75993 0.611826 0.391577
0.117449 0.272404 0.132967
0.184558 0.374685 0.162539
0.317845 0.479606 0.22858
0.431815 0.528161 0.274647
0.529656 0.547433 0.306127
0.620829 0.579385 0.338933
0.698116 0.623255 0.373541
0.750027 0.6607 0.406531
0.781567 0.688594 0.433326
0.158602 0.376761 0.17293
0.241337 0.487709 0.209369
0.372778 0.585519 0.273594
0.485496 0.629831 0.319631
0.576867 0.644862 0.350744
0.651911 0.658976 0.376242
0.714107 0.681498 0.401923
0.76112 0.710353 0.432471
0.790402 0.730816 0.455268
0.222629 0.524681 0.23267
0.310567 0.61355 0.268086
0.425055 0.667185 0.314595
0.529473 0.696437 0.355077
0.614115 0.710887 0.386496
0.680247 0.721279 0.411353
0.727642 0.730434 0.429252
0.760311 0.738048 0.440665
0.793179 0.75877 0.46537
0.273198 0.640528 0.277455
0.359258 0.702708 0.305333
0.466056 0.729335 0.34638
0.560265 0.743282 0.378393
0.633249 0.750713 0.40502
0.694606 0.758297 0.428595
0.738491 0.765347 0.445212
0.769253 0.769558 0.455772
0.792004 0.776303 0.465934
0.0726482 0.0641947 0.121386
0.105653 0.0655222 0.119646
0.13521 0.0661326 0.112108
0.181308 0.0785077 0.121416
0.229786 0.0913863 0.132616
0.28217 0.106081 0.14609
0.342428 0.122591 0.162448
0.417472 0.143282 0.181857
0.469749 0.158755 0.195438
0.0709544 0.0891432 0.121859
0.11989 0.105028 0.139712
0.170138 0.103563 0.133272
0.233936 0.114488 0.140032
0.302907 0.13196 0.152056
0.377966 0.151247 0.168841
0.460838 0.177172 0.191363
0.547524 0.206531 0.216236
0.601801 0.225315 0.233509
0.073228 0.123507 0.121874
0.111864 0.151034 0.145342
0.213214 0.196445 0.180194
0.316365 0.218051 0.191424
0.427497 0.24033 0.203357
0.523033 0.265309 0.22501
0.601022 0.292256 0.248371
0.660365 0.322866 0.275807
0.697551 0.345907 0.294377
0.0858778 0.171984 0.135744
0.116213 0.212039 0.154665
0.226139 0.298817 0.21706
0.364019 0.336767 0.236576
0.483528 0.355367 0.248615
0.577432 0.380484 0.272984
0.648508 0.410025 0.297749
0.702937 0.451102 0.33257
0.736461 0.4813 0.356115
0.112551 0.24477 0.165148
0.139208 0.294987 0.179156
0.235004 0.401602 0.233967
0.397726 0.475776 0.294423
0.519646 0.484672 0.310124
0.624292 0.516197 0.336324
0.696223 0.554101 0.368277
0.746395 0.597025 0.411643
0.772747 0.628595 0.445686
0.149264 0.33637 0.205524
0.180163 0.405921 0.214984
0.298405 0.539925 0.283711
0.452186 0.603738 0.353918
0.565957 0.609888 0.384115
0.6533 0.622919 0.40206
0.725658 0.657389 0.435416
0.772946 0.69308 0.47599
0.796826 0.716442 0.514092
0.19292 0.443732 0.248051
0.228107 0.528908 0.252644
0.381552 0.647471 0.339117
0.516777 0.687175 0.406455
0.611276 0.69308 0.440574
0.678737 0.697246 0.457755
0.740581 0.717357 0.480812
0.783551 0.741939 0.512505
0.804929 0.75819 0.545083
0.245212 0.564172 0.294163
0.288502 0.646494 0.296941
0.453513 0.717586 0.379538
0.567544 0.737285 0.433402
0.646326 0.745708 0.469841
0.705013 0.751476 0.49453
0.751751 0.760739 0.513756
0.786831 0.771099 0.526436
0.807797 0.781994 0.55346
0.284245 0.650996 0.330983
0.333104 0.71931 0.326833
0.49984 0.75555 0.405386
0.599664 0.767117 0.448905
0.671214 0.775647 0.482475
0.725032 0.783581 0.514015
0.764797 0.791348 0.536171
0.792248 0.796124 0.54725
0.808637 0.799741 0.554009
0.081529 0.0730144 0.165087
0.120104 0.0794537 0.171054
0.163119 0.0852827 0.168292
0.191608 0.0851301 0.154955
0.246052 0.0976577 0.164279
0.301701 0.112474 0.177905
0.361959 0.128435 0.192538
0.429816 0.145922 0.209888
0.474372 0.158724 0.220096
0.0799268 0.0993057 0.167895
0.127489 0.118044 0.201556
0.194736 0.125704 0.212802
0.246632 0.121981 0.186114
0.305547 0.134676 0.189319
0.366278 0.151339 0.199969
0.438636 0.172488 0.2177
0.515221 0.19855 0.239399
0.562127 0.215778 0.254185
0.0865187 0.138857 0.170443
0.118685 0.166155 0.206699
0.204486 0.211109 0.250065
0.289311 0.20174 0.23592
0.384802 0.211276 0.234424
0.481926 0.228183 0.241184
0.579751 0.250736 0.257465
0.653849 0.283055 0.284535
0.695735 0.306996 0.304204
0.0990463 0.188861 0.184497
0.126116 0.226795 0.218067
0.174533 0.268864 0.247715
0.354665 0.365423 0.334951
0.466117 0.368933 0.327077
0.581674 0.383719 0.327672
0.658228 0.40737 0.34609
0.711223 0.446799 0.377829
0.740642 0.481682 0.411078
0.128756 0.2701 0.223789
0.157321 0.313344 0.247303
0.197192 0.374807 0.272892
0.354635 0.48632 0.365682
0.527871 0.528267 0.413321
0.627985 0.535058 0.407431
0.69485 0.5579 0.428199
0.741604 0.598505 0.470237
0.768124 0.630564 0.511925
0.171054 0.37998 0.274617
0.201617 0.424186 0.290547
0.243229 0.499947 0.310842
0.402533 0.606455 0.412955
0.580575 0.650813 0.491463
0.660182 0.650034 0.494774
0.725978 0.672114 0.513787
0.771359 0.702464 0.553353
0.794369 0.721996 0.592111
0.214618 0.486107 0.317647
0.245289 0.533608 0.328618
0.322911 0.627543 0.372305
0.503777 0.700145 0.492073
0.628763 0.723613 0.546868
0.692256 0.723522 0.557687
0.74052 0.730678 0.56553
0.784176 0.752712 0.596643
0.806195 0.767117 0.626261
0.251057 0.572564 0.348302
0.286595 0.633265 0.361593
0.405112 0.717754 0.429969
0.592844 0.756725 0.54258
0.672282 0.76759 0.577295
0.719676 0.769909 0.593484
0.755108 0.772976 0.603189
0.786496 0.779187 0.611597
0.807828 0.789227 0.635752
0.28188 0.637949 0.372564
0.317571 0.702129 0.384665
0.466941 0.762356 0.465614
0.636667 0.784649 0.557733
0.696391 0.792737 0.584924
0.738598 0.798001 0.611124
0.768673 0.801511 0.627649
0.794125 0.804013 0.635248
0.811795 0.80766 0.638407
0.0901808 0.0838788 0.21088
0.130114 0.0930037 0.22385
0.184482 0.106188 0.238544
0.231205 0.11043 0.231037
0.276265 0.111543 0.211307
0.340002 0.125078 0.220386
0.397681 0.139116 0.232471
0.456245 0.153643 0.245258
0.492638 0.163165 0.255314
0.091722 0.11194 0.217578
0.131777 0.128832 0.260426
0.200885 0.144167 0.288701
0.26978 0.149554 0.276158
0.331319 0.152026 0.246143
0.382452 0.162844 0.244556
0.43978 0.176593 0.253162
0.50695 0.198184 0.271092
0.546532 0.212741 0.282017
0.100587 0.156573 0.221698
0.132235 0.186679 0.273487
0.189395 0.214893 0.315923
0.297917 0.226947 0.335515
0.386862 0.216373 0.300816
0.471092 0.225528 0.293202
0.553643 0.244511 0.30071
0.625071 0.271427 0.322759
0.670604 0.294499 0.34258
0.118715 0.217533 0.247196
0.153323 0.265766 0.293935
0.178958 0.280186 0.320653
0.314275 0.357534 0.394232
0.433753 0.354726 0.387457
0.544076 0.359167 0.377218
0.631693 0.379324 0.38584
0.69099 0.413825 0.413825
0.721935 0.445533 0.442618
0.140948 0.291402 0.279683
0.170932 0.325521 0.306661
0.193256 0.355093 0.327474
0.273762 0.420691 0.374258
0.528664 0.557351 0.514046
0.614603 0.555047 0.508904
0.685145 0.577493 0.523369
0.73196 0.610193 0.554284
0.758572 0.641657 0.590707
0.177234 0.389792 0.324071
0.211536 0.425559 0.347372
0.237751 0.472358 0.366751
0.316854 0.550332 0.415015
0.544732 0.65098 0.556481
0.670802 0.677882 0.600839
0.725383 0.690028 0.60618
0.766186 0.712352 0.633478
0.789853 0.735424 0.666957
0.221866 0.495827 0.36997
0.256138 0.53048 0.390005
0.290257 0.591119 0.409491
0.401648 0.663951 0.483162
0.607385 0.725216 0.613947
0.709117 0.746838 0.652857
0.745739 0.745953 0.652018
0.78381 0.762539 0.671641
0.807111 0.778454 0.695308
0.256306 0.575906 0.398825
0.289357 0.613733 0.418235
0.342153 0.686442 0.454963
0.52755 0.743313 0.574212
0.687266 0.778653 0.665705
0.739376 0.788846 0.68304
0.767712 0.788922 0.687083
0.790448 0.790173 0.687251
0.812055 0.800656 0.704402
0.279103 0.628168 0.414343
0.312444 0.668864 0.433982
0.394598 0.742199 0.497444
0.613825 0.785733 0.627329
0.72134 0.802777 0.679347
0.758709 0.810819 0.694972
0.784039 0.814923 0.706828
0.803555 0.815686 0.709773
0.815702 0.817517 0.712856
0.100725 0.095491 0.257588
0.14197 0.108278 0.277287
0.197406 0.123308 0.299199
0.245853 0.129183 0.300694
0.301457 0.128542 0.276463
0.362478 0.136339 0.265827
0.417075 0.147097 0.272358
0.470634 0.159182 0.281712
0.50248 0.169574 0.291127
0.105577 0.128161 0.266651
0.141558 0.142046 0.322667
0.207355 0.160327 0.355947
0.269184 0.168673 0.353323
0.330175 0.168353 0.314565
0.392309 0.172564 0.294301
0.442557 0.180011 0.292897
0.502419 0.197925 0.30399
0.542107 0.212421 0.31754
0.116457 0.179171 0.278935
0.147112 0.20354 0.333471
0.189776 0.217838 0.377356
0.29073 0.241917 0.417487
0.396612 0.244541 0.402792
0.474144 0.241001 0.365805
0.541009 0.248066 0.355932
0.605356 0.271 0.368338
0.647593 0.290761 0.388174
0.13489 0.244999 0.309331
0.17116 0.284001 0.356863
0.190723 0.288808 0.384405
0.277928 0.339681 0.444617
0.439826 0.377966 0.481437
0.537179 0.361547 0.452049
0.620111 0.369665 0.445731
0.676936 0.398291 0.463767
0.710765 0.428641 0.489891
0.162768 0.332525 0.351125
0.196124 0.363088 0.380682
0.213886 0.372305 0.396887
0.25803 0.403922 0.432395
0.476616 0.531838 0.551141
0.594522 0.544854 0.562631
0.658564 0.55494 0.565515
0.707866 0.584222 0.587533
0.738766 0.617441 0.620401
0.185336 0.400061 0.372915
0.21384 0.422126 0.391058
0.239811 0.448631 0.409873
0.284535 0.508965 0.451591
0.441733 0.600504 0.542367
0.678019 0.69662 0.667933
0.725734 0.705303 0.676097
0.762295 0.726253 0.69688
0.787793 0.744121 0.717266
0.228321 0.499123 0.416007
0.263859 0.532296 0.441291
0.292134 0.572671 0.465156
0.348791 0.629267 0.50811
0.508476 0.691691 0.598367
0.707408 0.754421 0.706447
0.758297 0.765438 0.719554
0.789258 0.778531 0.732677
0.809506 0.790387 0.749065
0.267689 0.583535 0.453758
0.301442 0.613764 0.477974
0.334813 0.666209 0.509529
0.439521 0.717678 0.577417
0.62295 0.765057 0.674022
0.749752 0.797498 0.740551
0.781811 0.803738 0.747433
0.800717 0.804395 0.748898
0.819287 0.812436 0.76054
0.293965 0.638209 0.476905
0.325154 0.665583 0.49778
0.369818 0.722713 0.542016
0.519844 0.77203 0.630915
0.704158 0.802655 0.721981
0.775235 0.819867 0.755154
0.795697 0.82385 0.763775
0.812024 0.826093 0.76669
0.823499 0.827436 0.766674
0.115831 0.111467 0.314641
0.160021 0.125414 0.340536
0.212512 0.139605 0.362066
0.251957 0.143374 0.361913
0.298558 0.13959 0.334035
0.360861 0.142947 0.314687
0.421439 0.151476 0.310414
0.472389 0.163043 0.319387
0.502419 0.170199 0.32694
0.119173 0.144366 0.32018
0.154864 0.157107 0.388464
0.218936 0.175647 0.422812
0.277089 0.182406 0.414496
0.332097 0.181994 0.380575
0.38999 0.184756 0.352056
0.440208 0.186755 0.336522
0.49723 0.201343 0.343908
0.533837 0.212314 0.353704
0.132189 0.198947 0.341146
0.161334 0.214572 0.386542
0.199023 0.22594 0.444862
0.28716 0.251118 0.495659
0.393561 0.262806 0.488655
0.486549 0.269429 0.460609
0.536843 0.264424 0.424002
0.592523 0.277501 0.425345
0.63064 0.295933 0.439719
0.151537 0.266987 0.37322
0.186435 0.295354 0.413443
0.205432 0.294408 0.444282
0.275029 0.33933 0.510903
0.431815 0.385916 0.558999
0.549676 0.392447 0.552819
0.614679 0.382712 0.524498
0.668849 0.398108 0.52871
0.703853 0.422843 0.546258
0.177951 0.349554 0.410956
0.209079 0.37026 0.43653
0.230091 0.378836 0.459831
0.264408 0.402243 0.498177
0.446494 0.52105 0.595575
0.6047 0.562554 0.624262
0.657526 0.553262 0.617166
0.703746 0.572137 0.628
0.735744 0.604791 0.652247
0.204685 0.426032 0.437018
0.232807 0.443976 0.456031
0.259434 0.463004 0.476753
0.289036 0.499474 0.513176
0.405493 0.575875 0.58117
0.651881 0.686793 0.689128
0.717037 0.698726 0.702235
0.751705 0.715785 0.717128
0.777951 0.73489 0.734234
0.230579 0.493919 0.455146
0.261311 0.518776 0.477043
0.292485 0.550408 0.503578
0.332555 0.60087 0.544976
0.446174 0.662394 0.60882
0.650339 0.733135 0.701625
0.767422 0.778058 0.759823
0.794903 0.788602 0.770809
0.812955 0.801022 0.784649
0.276066 0.58587 0.501503
0.310857 0.613199 0.528298
0.342687 0.656184 0.562463
0.401266 0.69894 0.603815
0.537072 0.743053 0.667308
0.705211 0.785657 0.743175
0.788083 0.811231 0.781582
0.808408 0.813886 0.78555
0.824323 0.822766 0.795697
0.307271 0.644511 0.532586
0.340093 0.668605 0.55671
0.371801 0.713298 0.59292
0.454734 0.755779 0.644205
0.628489 0.791394 0.719463
0.762081 0.818173 0.77586
0.80322 0.830457 0.79559
0.819791 0.834318 0.79913
0.83032 0.835187 0.799863
0.134691 0.131243 0.384207
0.183734 0.145113 0.415167
0.230472 0.156725 0.430365
0.261616 0.156146 0.4224
0.302434 0.150072 0.39585
0.357977 0.151263 0.370748
0.417014 0.158618 0.35967
0.469657 0.166613 0.357549
0.49839 0.17322 0.364019
0.134035 0.161273 0.38143
0.171069 0.175296 0.455421
0.228397 0.190341 0.483146
0.278874 0.195529 0.472496
0.340627 0.197803 0.446464
0.411215 0.206943 0.427741
0.459388 0.208133 0.409308
0.493782 0.205966 0.390707
0.529351 0.2168 0.397681
0.148486 0.220844 0.410361
0.174823 0.225299 0.442283
0.212512 0.238056 0.51606
0.290242 0.259541 0.566445
0.401144 0.276295 0.562432
0.501244 0.293172 0.542947
0.559792 0.298589 0.518868
0.582849 0.289281 0.484749
0.615488 0.301289 0.491829
0.169116 0.288746 0.443412
0.198306 0.304829 0.473182
0.221515 0.301961 0.507118
0.287816 0.349111 0.584634
0.436042 0.396017 0.621897
0.561517 0.414084 0.619272
0.627863 0.418067 0.608286
0.663554 0.409476 0.591119
0.695171 0.425238 0.600931
0.19353 0.361242 0.471092
0.223316 0.379141 0.49633
0.247456 0.388663 0.52224
0.28397 0.412222 0.569482
0.455634 0.526543 0.648966
0.609567 0.574182 0.669169
0.671733 0.577844 0.674083
0.705623 0.573785 0.670192
0.734356 0.596017 0.684642
0.219409 0.43447 0.493828
0.248066 0.452552 0.514412
0.277836 0.473213 0.538872
0.304189 0.502846 0.576196
0.411704 0.575311 0.634958
0.650385 0.688548 0.7187
0.726192 0.710231 0.734844
0.751995 0.711086 0.738109
0.775784 0.728618 0.752514
0.2495 0.510796 0.518227
0.280125 0.532311 0.538567
0.311009 0.559808 0.563241
0.340337 0.596841 0.599481
0.434012 0.650935 0.649088
0.627359 0.72488 0.721508
0.761822 0.777066 0.775402
0.790677 0.785794 0.784024
0.808957 0.796429 0.795926
0.27715 0.578378 0.540215
0.310521 0.601175 0.562768
0.341573 0.634745 0.592508
0.381018 0.676341 0.629801
0.487114 0.722683 0.679179
0.659937 0.771527 0.744228
0.770474 0.805005 0.790082
0.816281 0.821424 0.809323
0.828016 0.828 0.816617
0.317601 0.645808 0.578836
0.34757 0.667247 0.599802
0.374624 0.704402 0.634012
0.429923 0.742672 0.669932
0.562066 0.777234 0.721019
0.721248 0.810666 0.77818
0.794751 0.82768 0.807095
0.826917 0.838712 0.822995
0.835279 0.8392 0.822934
0.146593 0.142672 0.429435
0.198169 0.157794 0.46154
0.240772 0.166323 0.469474
0.268635 0.16321 0.458259
0.30927 0.159945 0.434821
0.362402 0.159609 0.41117
0.416876 0.163729 0.396933
0.466575 0.170977 0.389593
0.494392 0.177081 0.3888
0.143679 0.17377 0.423255
0.184527 0.188327 0.49926
0.238437 0.198795 0.518715
0.282185 0.202716 0.505226
0.347265 0.207507 0.487953
0.422705 0.221088 0.475624
0.477012 0.22916 0.461814
0.507546 0.224491 0.442679
0.525658 0.220218 0.431281
0.159594 0.236591 0.458122
0.183658 0.232639 0.480217
0.225589 0.251408 0.563195
0.297185 0.267475 0.603357
0.403006 0.286122 0.597375
0.507469 0.307027 0.582528
0.574655 0.321874 0.574151
0.599802 0.316823 0.552026
0.609155 0.308736 0.530846
0.18204 0.305562 0.49192
0.209277 0.314244 0.511498
0.233219 0.310628 0.547494
0.30103 0.359686 0.631678
0.441825 0.404395 0.658763
0.567956 0.427482 0.659236
0.637903 0.441413 0.655543
0.674296 0.439734 0.648203
0.69163 0.431067 0.638437
0.203326 0.370764 0.51313
0.234958 0.388647 0.535698
0.259312 0.397269 0.563699
0.300099 0.424949 0.618189
0.478126 0.540887 0.686336
0.623011 0.587289 0.700816
0.683833 0.596536 0.707988
0.718105 0.599176 0.710918
0.735622 0.596353 0.7084
0.228122 0.43856 0.534371
0.260502 0.462608 0.555673
0.290623 0.481437 0.58114
0.31841 0.510338 0.620996
0.4477 0.596429 0.681483
0.669291 0.700862 0.745495
0.735256 0.720638 0.757931
0.76173 0.725429 0.763836
0.777081 0.725322 0.766339
0.2589 0.516426 0.560906
0.293782 0.542489 0.581338
0.324666 0.569314 0.607675
0.352087 0.601114 0.642649
0.453101 0.659724 0.690074
0.648554 0.734569 0.752087
0.767025 0.782544 0.792691
0.797345 0.792844 0.801343
0.808835 0.794125 0.804929
0.293584 0.58941 0.585962
0.32636 0.611978 0.606683
0.353536 0.639857 0.633234
0.387839 0.675517 0.667643
0.493629 0.72398 0.712642
0.663996 0.773739 0.768139
0.772839 0.808179 0.804486
0.815961 0.823697 0.820645
0.827939 0.827497 0.823957
0.317601 0.635294 0.603906
0.347448 0.656397 0.62417
0.373129 0.688182 0.652888
0.4112 0.723827 0.685039
0.522881 0.763622 0.730388
0.688197 0.802838 0.781826
0.782757 0.823636 0.814847
0.823041 0.83534 0.827543
0.838911 0.842954 0.835142
