public/LUTS/Cinematic/Cinematic_20.cube
TITLE "Generated by Resolve"
LUT_3D_SIZE 33
0.100816 0.116365 0.125582
0.117845 0.121889 0.117296
0.139178 0.131624 0.110491
0.162844 0.141024 0.0986343
0.187396 0.147997 0.0774548
0.211933 0.155276 0.0515297
0.236957 0.165133 0.0268559
0.265965 0.177661 0.00502022
0.30013 0.190692 0
0.341161 0.201907 0
0.384009 0.212039 0
0.4262 0.221408 0
0.46659 0.22974 0
0.504509 0.237217 0
0.539193 0.243885 0
0.569696 0.25095 0
0.596521 0.258991 0
0.619852 0.267353 0
0.640879 0.275624 0
0.659449 0.283284 0
0.675776 0.294697 0
0.690654 0.309117 0
0.704875 0.324834 0
0.719051 0.341619 0
0.733166 0.360006 0
0.746868 0.380087 0
0.750469 0.399542 0
0.748791 0.41883 0
0.747112 0.438865 0
0.74548 0.459174 0
0.743862 0.479423 0
0.743206 0.488106 0
0.743175 0.488548 0
0.0998398 0.130556 0.134051
0.11783 0.132036 0.12282
0.139376 0.138918 0.114855
0.162921 0.148775 0.106432
0.187152 0.157534 0.090013
0.212741 0.164843 0.0649119
0.239475 0.173541 0.0382239
0.269886 0.185916 0.0154269
0.304021 0.200336 0
0.343404 0.213489 0
0.387121 0.224643 0
0.429877 0.235203 0
0.47039 0.24506 0
0.508324 0.254444 0
0.542016 0.26244 0
0.571862 0.270069 0
0.598337 0.27715 0
0.6215 0.284398 0
0.641794 0.29218 0
0.659648 0.301381 0
0.6757 0.311894 0
0.690745 0.323659 0
0.705226 0.336522 0
0.719661 0.350896 0
0.734218 0.366598 0
0.747845 0.383261 0
0.750622 0.397864 0
0.749355 0.412589 0
0.74786 0.43003 0
0.746212 0.449989 0
0.74461 0.46978 0
0.743984 0.477928 0
0.743938 0.47834 0
0.0993057 0.146578 0.142519
0.114824 0.15079 0.137881
0.13846 0.150622 0.118303
0.163668 0.156466 0.110903
0.188205 0.166125 0.0961776
0.213657 0.17467 0.0715496
0.240711 0.184924 0.0452888
0.271794 0.198764 0.0226749
0.306371 0.214511 0.00332647
0.345388 0.229755 0
0.388785 0.24271 0
0.431708 0.254856 0
0.472663 0.26598 0
0.510475 0.276005 0
0.544259 0.285222 0
0.57348 0.29427 0
0.599298 0.302586 0
0.621759 0.311299 0
0.641474 0.320043 0
0.658824 0.328878 0
0.674601 0.338323 0
0.689433 0.348837 0
0.703853 0.360815 0
0.718364 0.374121 0
0.732891 0.388449 0
0.746365 0.4038 0
0.748928 0.417243 0
0.747784 0.430945 0
0.746593 0.445136 0
0.745418 0.459739 0
0.744244 0.474586 0
0.743832 0.479545 0
0.743893 0.478981 0
0.0979019 0.162875 0.150942
0.111849 0.166751 0.147478
0.134203 0.176776 0.137911
0.162844 0.172213 0.113802
0.189853 0.174975 0.10103
0.216281 0.183993 0.0760662
0.244038 0.194797 0.049897
0.275898 0.209751 0.0282444
0.310201 0.227192 0.00852979
0.348699 0.244724 0
0.393164 0.261128 0
0.436744 0.276707 0
0.476326 0.291035 0
0.512657 0.304494 0
0.545174 0.31603 0
0.573602 0.326604 0
0.598901 0.336477 0
0.621164 0.345083 0
0.64062 0.353384 0
0.657618 0.361624 0
0.673259 0.370321 0
0.687999 0.379782 0
0.702449 0.390692 0
0.716655 0.402655 0
0.731365 0.415656 0
0.744625 0.429709 0
0.746868 0.441917 0
0.745861 0.454307 0
0.744808 0.467552 0
0.743725 0.481239 0
0.742733 0.494362 0.00123598
0.742473 0.49752 0.00250248
0.742565 0.496681 0.00218204
0.0959487 0.179278 0.159304
0.108949 0.183276 0.155779
0.12575 0.193408 0.150042
0.158129 0.20412 0.133455
0.188418 0.190188 0.10367
0.218189 0.194903 0.08159
0.247303 0.205249 0.0556802
0.280629 0.22031 0.0338903
0.316075 0.238148 0.0133059
0.354971 0.256916 0
0.39968 0.274418 0
0.443351 0.292012 0
0.48304 0.308858 0
0.519875 0.325414 0
0.551644 0.341115 0
0.579263 0.355581 0
0.603204 0.367514 0
0.623316 0.37821 0
0.640711 0.389105 0
0.656504 0.398917 0
0.671656 0.407767 0
0.686275 0.4168 0
0.700603 0.426047 0
0.714992 0.43679 0
0.729671 0.448646 0
0.742733 0.460929 0
0.744396 0.472007 0
0.743603 0.482918 0
0.742672 0.495048 0.0015259
0.741741 0.506844 0.00634775
0.740887 0.518624 0.0111849
0.740795 0.520012 0.0118105
0.740841 0.519203 0.0113985
0.093904 0.195819 0.167895
0.106172 0.199969 0.16408
0.120043 0.21004 0.158053
0.146792 0.224445 0.14876
0.185489 0.234943 0.121035
0.217227 0.217731 0.0886549
0.249729 0.218814 0.0634012
0.285069 0.232563 0.0403449
0.32224 0.250736 0.0191196
0.360784 0.269703 0.00213626
0.406516 0.288045 0
0.450797 0.305959 0
0.491096 0.323827 0
0.52813 0.341573 0
0.559518 0.358282 0
0.586343 0.374395 0
0.609796 0.389395 0
0.629236 0.404288 0
0.646738 0.417655 0
0.661265 0.430594 0
0.674922 0.44239 0
0.687892 0.453147 0
0.700908 0.464088 0
0.714061 0.47567 0.000198367
0.728069 0.487358 0.00170901
0.740734 0.499092 0.00355535
0.741695 0.508171 0.0069276
0.740978 0.517708 0.0108492
0.740185 0.528069 0.0151522
0.739406 0.539361 0.019852
0.73875 0.548394 0.0236362
0.738827 0.547646 0.023331
0.738888 0.546609 0.0229343
0.0914321 0.213596 0.177127
0.102678 0.218647 0.17258
0.114015 0.228504 0.166171
0.13637 0.243626 0.156695
0.172519 0.260395 0.147539
0.215457 0.262501 0.107698
0.249775 0.242054 0.076463
0.288731 0.248234 0.0494087
0.327276 0.264149 0.0264286
0.366873 0.283665 0.00750744
0.412238 0.302449 0.000701915
0.457053 0.321355 0
0.497978 0.339681 0
0.535225 0.358022 0
0.566873 0.375265 0
0.593759 0.391897 0
0.616617 0.408347 0
0.635782 0.423774 0
0.65243 0.438911 0
0.667277 0.453651 0.00161746
0.680598 0.468147 0.00445563
0.693385 0.483513 0.00775158
0.705715 0.496895 0.0103914
0.718593 0.509407 0.0125124
0.731929 0.522454 0.0147707
0.739696 0.53518 0.0180972
0.738933 0.546059 0.0226902
0.738216 0.556313 0.0270085
0.737591 0.566018 0.0311284
0.736873 0.576211 0.0354925
0.736522 0.581308 0.037644
0.736629 0.580133 0.037171
0.736706 0.578378 0.0364233
0.0871138 0.234745 0.18703
0.097734 0.239933 0.181689
0.1084 0.249012 0.175128
0.127565 0.264866 0.164767
0.162509 0.28191 0.157076
0.207462 0.300114 0.144976
0.253285 0.297902 0.101228
0.289113 0.274784 0.065095
0.33106 0.282582 0.036759
0.372442 0.299046 0.0132753
0.417899 0.318227 0.00556954
0.462898 0.337697 0.00230411
0.50428 0.356725 0.000106813
0.541222 0.375311 0
0.572396 0.393225 0
0.599237 0.410391 0
0.62211 0.427253 0.000976577
0.641337 0.443229 0.00314336
0.657832 0.459297 0.00588998
0.672602 0.474571 0.00868238
0.686244 0.48957 0.0117189
0.699031 0.504997 0.0151217
0.712306 0.520333 0.0183261
0.725277 0.535714 0.0216068
0.736339 0.550988 0.0252384
0.737758 0.563302 0.0299687
0.73698 0.57467 0.0348211
0.736187 0.586709 0.0399939
0.735424 0.598932 0.0452888
0.734646 0.610803 0.0504616
0.734508 0.613275 0.0515297
0.734539 0.612634 0.0512398
0.73463 0.611261 0.0506294
0.0841535 0.257389 0.19826
0.0943313 0.263005 0.192386
0.104982 0.271229 0.185687
0.122606 0.287358 0.175753
0.156893 0.305867 0.169833
0.200153 0.326192 0.163745
0.249134 0.344366 0.147753
0.293553 0.329976 0.0938888
0.33167 0.310414 0.0530861
0.375311 0.32015 0.0243381
0.422782 0.336278 0.0116732
0.468803 0.355077 0.00782788
0.509728 0.37435 0.00584421
0.545983 0.393149 0.00476081
0.577386 0.41149 0.00482185
0.604273 0.429328 0.00582895
0.626291 0.446601 0.00779736
0.645243 0.463188 0.010193
0.661952 0.479637 0.0131075
0.676692 0.495598 0.0162509
0.691188 0.511452 0.0194553
0.704997 0.527001 0.0226139
0.718288 0.54287 0.0260929
0.731411 0.558755 0.0295872
0.736965 0.572412 0.0338903
0.736278 0.585458 0.0394598
0.735439 0.598505 0.0451057
0.7346 0.611551 0.0507668
0.733806 0.624201 0.0563058
0.733242 0.633677 0.0604868
0.733104 0.635843 0.0614176
0.733074 0.636469 0.0617227
0.73312 0.635782 0.0614023
0.0842145 0.282094 0.210742
0.0942397 0.288075 0.204562
0.105318 0.296117 0.198077
0.12195 0.312703 0.189151
0.153689 0.331548 0.183627
0.194812 0.352529 0.178637
0.243122 0.37554 0.171862
0.294682 0.391104 0.146242
0.33843 0.368048 0.0809644
0.376028 0.348348 0.0387274
0.423911 0.360113 0.0211948
0.473411 0.374304 0.0145418
0.515145 0.393042 0.0120546
0.551034 0.412116 0.0111849
0.582574 0.430762 0.0113985
0.607889 0.448753 0.0127871
0.630274 0.46627 0.0148013
0.648753 0.483055 0.01738
0.665324 0.499733 0.0204623
0.680461 0.516335 0.0238193
0.694759 0.532998 0.0274052
0.70898 0.54934 0.0308537
0.723278 0.565332 0.0341497
0.735927 0.58085 0.0376287
0.735729 0.593362 0.0428168
0.734936 0.605768 0.0482032
0.734127 0.619181 0.054078
0.733288 0.632807 0.0601358
0.732509 0.646387 0.0661173
0.732143 0.651804 0.0685435
0.732067 0.652888 0.0690013
0.732052 0.653925 0.0694896
0.732036 0.654215 0.0695964
0.0870985 0.309667 0.224811
0.0970474 0.316365 0.218784
0.107912 0.324071 0.212177
0.122805 0.339574 0.203311
0.152468 0.359442 0.197757
0.191501 0.381186 0.193622
0.237766 0.404562 0.187945
0.291768 0.428611 0.17995
0.342702 0.437156 0.143618
0.381064 0.406058 0.0691997
0.423362 0.391409 0.0349432
0.474311 0.401953 0.0257877
0.518074 0.415579 0.0205386
0.555611 0.43212 0.0182956
0.586038 0.450599 0.018616
0.611826 0.468437 0.0198978
0.633005 0.485801 0.0220951
0.651652 0.503075 0.0249332
0.668086 0.519921 0.0281376
0.68333 0.537102 0.0317235
0.698192 0.553628 0.0351263
0.713146 0.56997 0.038468
0.728084 0.586786 0.0419165
0.735225 0.601267 0.0462654
0.734447 0.61387 0.0518044
0.733684 0.626398 0.0572671
0.732937 0.638788 0.0627298
0.732158 0.651423 0.0683299
0.731487 0.663554 0.0737621
0.731395 0.664805 0.074342
0.731365 0.665553 0.0746777
0.73138 0.665965 0.0748455
0.731365 0.666468 0.0750896
0.0906844 0.339239 0.239673
0.100328 0.345892 0.233066
0.11078 0.353628 0.226535
0.124346 0.367926 0.217777
0.152392 0.388586 0.211963
0.190204 0.410712 0.208408
0.234562 0.435065 0.203876
0.287114 0.460304 0.196826
0.342947 0.482338 0.186648
0.393835 0.491051 0.141909
0.426184 0.447181 0.0615091
0.474739 0.433326 0.03888
0.51957 0.444724 0.0323186
0.558572 0.456977 0.0277867
0.58996 0.471382 0.0262608
0.614786 0.488289 0.0273442
0.636027 0.505501 0.0295262
0.654215 0.523049 0.032639
0.670512 0.540078 0.035935
0.686229 0.556909 0.039292
0.701122 0.573419 0.04271
0.71574 0.590356 0.0464027
0.730907 0.606836 0.0496529
0.73402 0.6206 0.0547341
0.733318 0.632639 0.060029
0.732586 0.644968 0.0654459
0.731807 0.657664 0.0711223
0.731106 0.670619 0.0769665
0.730709 0.677791 0.0801556
0.730678 0.678614 0.0805371
0.730602 0.679652 0.0809949
0.730526 0.680751 0.0815442
0.730465 0.6813 0.0817273
0.0943313 0.36994 0.254444
0.103822 0.376806 0.247852
0.114015 0.384604 0.24094
0.126772 0.397589 0.23209
0.153368 0.418494 0.226246
0.190204 0.441123 0.223148
0.232898 0.465446 0.218967
0.283207 0.490959 0.212879
0.34052 0.516777 0.204303
0.392782 0.533852 0.191394
0.437003 0.528008 0.127626
0.472801 0.487984 0.0632181
0.519249 0.477638 0.0464637
0.558862 0.486961 0.0403754
0.59086 0.498116 0.037171
0.617212 0.51014 0.0358892
0.638575 0.525628 0.0373541
0.656336 0.54258 0.0402533
0.672694 0.559335 0.0434424
0.688182 0.57586 0.0467842
0.703151 0.592432 0.050248
0.71873 0.609125 0.0535286
0.731716 0.625177 0.0572366
0.732967 0.638071 0.0624552
0.732235 0.650599 0.0679942
0.731517 0.662745 0.0733959
0.730892 0.674327 0.0786145
0.73022 0.686458 0.084062
0.729961 0.691157 0.086183
0.729931 0.691722 0.0864271
0.729885 0.69218 0.086656
0.729809 0.693294 0.0871595
0.729778 0.69366 0.0872816
0.0982071 0.401877 0.269612
0.107378 0.40882 0.262898
0.117632 0.416709 0.255482
0.130007 0.428885 0.246509
0.15523 0.449393 0.240482
0.191501 0.471962 0.237507
0.232898 0.496254 0.233768
0.281315 0.521462 0.228168
0.336385 0.547677 0.220584
0.395682 0.572702 0.210849
0.442557 0.584543 0.191913
0.478889 0.569848 0.114961
0.516045 0.529305 0.0699474
0.558648 0.519646 0.0545052
0.59173 0.528191 0.0497597
0.618036 0.538186 0.0475471
0.640009 0.548699 0.0467079
0.658503 0.562173 0.0480049
0.674357 0.578241 0.0511177
0.690028 0.594507 0.0542763
0.705592 0.611109 0.057557
0.721279 0.627482 0.0607767
0.732021 0.642451 0.0645304
0.731975 0.654887 0.0698711
0.73135 0.666514 0.0750896
0.730663 0.678386 0.080415
0.729992 0.690257 0.0858015
0.729381 0.701518 0.0908827
0.729259 0.704051 0.0920272
0.729229 0.704509 0.0922408
0.729198 0.705074 0.0925154
0.729183 0.705959 0.0929122
0.729183 0.706249 0.0930495
0.10219 0.434348 0.284611
0.111284 0.441291 0.277638
0.121447 0.449348 0.270115
0.133486 0.460349 0.260456
0.157839 0.480125 0.254353
0.193622 0.502556 0.251453
0.233951 0.526207 0.247791
0.281071 0.551705 0.242725
0.334279 0.577752 0.235874
0.392355 0.603525 0.226932
0.445853 0.622156 0.216541
0.487587 0.630152 0.196826
0.519448 0.604578 0.112902
0.553063 0.567224 0.0768444
0.592035 0.559915 0.0634318
0.618494 0.567452 0.060029
0.640284 0.576562 0.0585184
0.659281 0.586145 0.0580911
0.676097 0.597131 0.058732
0.69218 0.61323 0.061738
0.707439 0.62916 0.0648508
0.723278 0.644587 0.067628
0.731746 0.658732 0.0716259
0.731121 0.670344 0.0767681
0.730465 0.682292 0.0821851
0.729809 0.693599 0.0872816
0.729244 0.704372 0.0922255
0.728725 0.714931 0.0970626
0.728634 0.715938 0.0974594
0.728649 0.716197 0.0975967
0.728618 0.716762 0.0978561
0.728588 0.717739 0.0983291
0.728603 0.717647 0.0982834
0.106203 0.466606 0.299336
0.11519 0.473686 0.292332
0.125292 0.481712 0.284352
0.137026 0.49163 0.274296
0.160952 0.50985 0.267628
0.196109 0.532235 0.264744
0.236255 0.556161 0.261158
0.281773 0.581048 0.256504
0.33312 0.606332 0.249958
0.38909 0.631464 0.241733
0.446036 0.654597 0.232136
0.490867 0.666529 0.221897
0.525887 0.669657 0.184115
0.552987 0.637308 0.111055
0.58471 0.605539 0.0855421
0.617212 0.599344 0.074342
0.640223 0.604791 0.0708476
0.659205 0.612848 0.0696422
0.676799 0.62208 0.0693675
0.693385 0.632334 0.0697185
0.709316 0.646036 0.0717174
0.72517 0.661357 0.0743877
0.730892 0.674403 0.078645
0.730236 0.685832 0.0838026
0.729656 0.696788 0.0887312
0.729076 0.707591 0.0936294
0.728496 0.718898 0.0988479
0.728054 0.727565 0.102815
0.728038 0.727825 0.102937
0.728008 0.728313 0.103197
0.728023 0.728725 0.103365
0.727993 0.729229 0.103563
0.727993 0.72932 0.103593
0.110369 0.499001 0.313756
0.119203 0.506065 0.30663
0.129152 0.513787 0.29807
0.140841 0.523003 0.287572
0.164553 0.539925 0.280644
0.199542 0.561776 0.277653
0.238193 0.584909 0.274174
0.283101 0.60911 0.269444
0.332799 0.633799 0.263264
0.386908 0.658473 0.255619
0.44329 0.682002 0.246738
0.494804 0.700847 0.237507
0.531624 0.708019 0.228748
0.559548 0.708232 0.182208
0.583947 0.670115 0.114977
0.60943 0.640879 0.0948653
0.638987 0.634897 0.0844434
0.659358 0.640635 0.0818341
0.676875 0.647868 0.0805829
0.693584 0.656016 0.0800183
0.71075 0.664836 0.07953
0.727291 0.678111 0.081117
0.730037 0.689708 0.0855116
0.729412 0.700587 0.0904402
0.728908 0.710918 0.0951553
0.728405 0.721309 0.0999619
0.72784 0.732601 0.105196
0.727535 0.738888 0.10808
0.727535 0.738994 0.108125
0.727504 0.73933 0.108263
0.727474 0.739651 0.108431
0.727459 0.74023 0.10869
0.727443 0.740383 0.108751
0.114382 0.530938 0.327871
0.123201 0.538094 0.320577
0.133165 0.545693 0.311604
0.144793 0.554559 0.300618
0.168185 0.569039 0.293431
0.202884 0.590616 0.29012
0.241566 0.613169 0.286412
0.284886 0.636439 0.281804
0.333333 0.660273 0.275883
0.385702 0.684138 0.268635
0.440253 0.70721 0.260487
0.493874 0.728374 0.251865
0.534478 0.739376 0.243442
0.566751 0.745556 0.233433
0.5841 0.736522 0.176074
0.605997 0.70312 0.124163
0.630518 0.677012 0.105592
0.656153 0.672023 0.0966506
0.676814 0.674632 0.0925002
0.693568 0.681437 0.0912337
0.710918 0.688685 0.0899977
0.728435 0.696895 0.0890669
0.729213 0.704997 0.0924697
0.72871 0.715145 0.0971084
0.728176 0.725124 0.101717
0.727703 0.734768 0.106172
0.727123 0.746563 0.111589
0.726925 0.750698 0.113481
0.726925 0.750759 0.113527
0.726909 0.75108 0.11368
0.726894 0.7514 0.113832
0.726879 0.751751 0.113985
0.726864 0.751827 0.114015
0.118318 0.562753 0.341756
0.127184 0.56965 0.334051
0.137133 0.577203 0.324865
0.148836 0.585794 0.313451
0.172229 0.597955 0.305745
0.206546 0.618677 0.30222
0.244526 0.640513 0.298436
0.287083 0.663081 0.293767
0.334234 0.68629 0.288182
0.385046 0.709285 0.281407
0.437568 0.731121 0.273655
0.489158 0.751385 0.26566
0.535653 0.767712 0.258
0.569085 0.774823 0.250874
0.598276 0.781048 0.246921
0.607111 0.766888 0.181033
0.627146 0.735378 0.133196
0.64863 0.7122 0.116732
0.672435 0.705364 0.107424
0.693065 0.707515 0.102968
0.71104 0.713329 0.100923
0.727916 0.719692 0.0993668
0.728328 0.722545 0.100542
0.727977 0.729305 0.103609
0.727504 0.738582 0.107912
0.727047 0.747921 0.1122
0.726467 0.759793 0.117723
0.72639 0.761776 0.118654
0.72639 0.761776 0.118654
0.72639 0.762066 0.118776
0.726345 0.76257 0.118959
0.726314 0.762951 0.119173
0.726329 0.763012 0.119203
0.122393 0.594003 0.355367
0.131197 0.600992 0.347311
0.141238 0.60853 0.337728
0.152895 0.616541 0.325933
0.176272 0.626551 0.318013
0.210269 0.646189 0.314107
0.247349 0.667033 0.310048
0.289723 0.689143 0.305333
0.335775 0.711315 0.299794
0.384344 0.732723 0.293278
0.435554 0.753704 0.286091
0.485679 0.773129 0.278706
0.533074 0.790402 0.271778
0.572076 0.802167 0.265538
0.598993 0.806638 0.260029
0.62211 0.810101 0.251545
0.624384 0.795392 0.18439
0.642054 0.766049 0.143297
0.66424 0.743267 0.126772
0.68777 0.737789 0.118013
0.709789 0.738598 0.112612
0.726955 0.74258 0.10985
0.727245 0.744244 0.110521
0.727108 0.746471 0.111589
0.726864 0.752422 0.114305
0.726421 0.761212 0.118379
0.725902 0.772137 0.123445
0.725841 0.77322 0.123964
0.725811 0.773556 0.124086
0.725811 0.773648 0.124132
0.725811 0.773846 0.124224
0.725826 0.774105 0.124346
0.725826 0.774212 0.124392
0.12639 0.624872 0.368521
0.135241 0.631693 0.360021
0.145174 0.638865 0.350118
0.157214 0.646555 0.33814
0.180591 0.654398 0.329809
0.214023 0.673121 0.325689
0.251026 0.693217 0.32137
0.292119 0.713985 0.316533
0.336843 0.734829 0.310964
0.384756 0.755474 0.304738
0.434211 0.775158 0.297993
0.483268 0.793774 0.291325
0.529122 0.809873 0.284901
0.570886 0.823987 0.279606
0.601175 0.831052 0.274983
0.624384 0.83473 0.271321
0.645274 0.838041 0.26865
0.642908 0.820981 0.197635
0.656519 0.794537 0.152621
0.679423 0.774212 0.136904
0.703212 0.76759 0.127443
0.725307 0.76669 0.121141
0.726192 0.766064 0.120623
0.726131 0.766979 0.121035
0.726085 0.768582 0.121782
0.72578 0.774868 0.124681
0.725353 0.783566 0.12874
0.725322 0.784283 0.129091
0.725322 0.784421 0.129168
0.725307 0.784726 0.12932
0.725307 0.785199 0.129519
0.725277 0.785565 0.129702
0.725277 0.785687 0.129747
0.130404 0.655085 0.381338
0.139132 0.661768 0.372641
0.149126 0.668772 0.362219
0.161425 0.676036 0.350179
0.185382 0.683192 0.341817
0.218006 0.699397 0.337102
0.254582 0.718685 0.332525
0.294896 0.738033 0.327459
0.338857 0.757839 0.321935
0.384985 0.777173 0.31606
0.433524 0.795651 0.309651
0.480842 0.812833 0.303548
0.525246 0.828122 0.297978
0.566613 0.841199 0.293111
0.602487 0.852735 0.28986
0.626322 0.85684 0.286595
0.646311 0.859663 0.28423
0.664195 0.860761 0.281468
0.657023 0.845899 0.204913
0.669993 0.820584 0.161013
0.694453 0.800351 0.144854
0.719692 0.794202 0.135134
0.725109 0.789624 0.131548
0.725155 0.787671 0.130724
0.725185 0.788037 0.130861
0.725017 0.791211 0.132357
0.724865 0.794934 0.134096
0.724819 0.795544 0.134356
0.724819 0.795941 0.134524
0.724804 0.796124 0.13463
0.724773 0.796521 0.134813
0.724743 0.79678 0.13492
0.724743 0.796887 0.134951
0.134478 0.684825 0.393957
0.143343 0.691386 0.384726
0.153292 0.698283 0.374075
0.166278 0.705592 0.361868
0.190478 0.71136 0.353582
0.222416 0.725292 0.348363
0.258167 0.743206 0.343603
0.297704 0.761456 0.338445
0.340948 0.779889 0.332906
0.386679 0.798032 0.327169
0.433066 0.815076 0.321401
0.478981 0.830732 0.315755
0.522148 0.844984 0.310933
0.562432 0.857664 0.306783
0.598276 0.869032 0.304341
0.62742 0.87718 0.30277
0.648051 0.8804 0.300832
0.666178 0.882521 0.299397
0.681086 0.881895 0.292271
0.674434 0.867079 0.221729
0.682811 0.843763 0.168383
0.710307 0.825269 0.15201
0.723918 0.817136 0.144533
0.724178 0.810697 0.141482
0.7243 0.808301 0.140322
0.724193 0.8103 0.141329
0.724147 0.810987 0.141604
0.7243 0.807645 0.140032
0.724315 0.80737 0.13994
0.7243 0.807675 0.140047
0.724269 0.80798 0.140169
0.724269 0.808331 0.140352
0.724239 0.809003 0.140658
0.138766 0.713802 0.406012
0.147738 0.720363 0.396475
0.157794 0.727398 0.385931
0.171038 0.733974 0.373358
0.19585 0.739116 0.365362
0.226932 0.750484 0.35964
0.262638 0.766842 0.35436
0.301869 0.784237 0.349294
0.343725 0.801068 0.343908
0.38793 0.817761 0.338445
0.433524 0.833432 0.333104
0.477852 0.848295 0.328313
0.519631 0.861494 0.324178
0.558709 0.873777 0.320958
0.593317 0.884245 0.318791
0.623972 0.893645 0.318196
0.649134 0.900359 0.318227
0.667308 0.902342 0.31664
0.684413 0.903746 0.315297
0.700053 0.902617 0.312428
0.689921 0.887419 0.233768
0.696727 0.864439 0.17438
0.7205 0.846159 0.158862
0.723125 0.835981 0.153399
0.723323 0.830549 0.150835
0.723369 0.829465 0.150332
0.723384 0.829145 0.150195
0.723629 0.823743 0.147662
0.723812 0.819165 0.145464
0.723812 0.81915 0.14548
0.723781 0.819516 0.145647
0.723751 0.819821 0.145785
0.723766 0.82063 0.14612
0.14345 0.741817 0.417823
0.152468 0.748226 0.408011
0.162585 0.754635 0.396796
0.176394 0.761013 0.384512
0.201907 0.765957 0.376822
0.232364 0.774655 0.370581
0.267781 0.789761 0.365209
0.306432 0.805539 0.359915
0.347585 0.821241 0.354833
0.390555 0.836362 0.349767
0.434348 0.851011 0.345083
0.477394 0.864973 0.341054
0.517723 0.877684 0.33785
0.555169 0.889097 0.335317
0.588586 0.899443 0.333898
0.618265 0.908309 0.333425
0.645197 0.916579 0.334218
0.66743 0.922179 0.33489
0.685039 0.92372 0.333684
0.702098 0.924498 0.332067
0.715557 0.921431 0.321675
0.706142 0.905898 0.245899
0.710933 0.882414 0.178592
0.722042 0.86302 0.166278
0.722408 0.854078 0.16202
0.72253 0.850721 0.160433
0.722652 0.847257 0.158755
0.722896 0.841794 0.156207
0.723125 0.83624 0.153552
0.723293 0.83151 0.151263
0.723308 0.831067 0.15108
0.723323 0.831281 0.151186
0.723308 0.832029 0.151553
0.148714 0.768551 0.429129
0.157595 0.774441 0.419196
0.167849 0.780514 0.407599
0.182635 0.786572 0.395377
0.209171 0.791318 0.388022
0.239033 0.798352 0.381735
0.273243 0.811322 0.376272
0.311116 0.825803 0.371176
0.351888 0.840391 0.366171
0.393988 0.854566 0.361593
0.436301 0.868605 0.357717
0.477333 0.882017 0.354635
0.515801 0.893919 0.352163
0.551934 0.905028 0.35053
0.584146 0.914839 0.349477
0.613001 0.923552 0.349416
0.639002 0.931517 0.350149
0.663447 0.939193 0.351873
0.684749 0.944106 0.352605
0.701915 0.944839 0.350988
0.719814 0.94548 0.348959
0.735134 0.941527 0.342168
0.722057 0.923156 0.252415
0.720226 0.899092 0.18381
0.721431 0.879667 0.174258
0.721706 0.872221 0.170657
0.721843 0.868238 0.16878
0.722072 0.862181 0.16585
0.722377 0.855543 0.162753
0.722591 0.849332 0.159792
0.722789 0.843931 0.157168
0.72285 0.842588 0.156558
0.722789 0.843854 0.157153
0.15491 0.79379 0.440085
0.163653 0.799146 0.42977
0.174136 0.804868 0.418097
0.189914 0.810575 0.406531
0.217243 0.815198 0.399466
0.246372 0.820356 0.392905
0.280247 0.832074 0.387594
0.317525 0.845487 0.382666
0.356374 0.859022 0.378363
0.397726 0.872755 0.374395
0.438056 0.886122 0.371344
0.477882 0.898985 0.368841
0.514336 0.910414 0.367178
0.548898 0.921279 0.366171
0.579751 0.930892 0.365713
0.607813 0.939712 0.366079
0.633112 0.947662 0.366796
0.65687 0.955001 0.368338
0.680003 0.962676 0.370474
0.700984 0.967071 0.370809
0.719005 0.967697 0.368704
0.738216 0.968032 0.365988
0.752911 0.961669 0.35317
0.739712 0.942107 0.265293
0.720241 0.914595 0.191119
0.720851 0.895979 0.182132
0.72108 0.889067 0.178744
0.721294 0.88307 0.175891
0.721492 0.876753 0.172824
0.721798 0.870466 0.169848
0.722026 0.863798 0.166659
0.722164 0.859953 0.164813
0.722072 0.862074 0.165789
0.162295 0.817487 0.45066
0.170993 0.822614 0.440879
0.181811 0.828382 0.429374
0.198886 0.833661 0.417914
0.226246 0.837751 0.411292
0.255314 0.842588 0.404944
0.287846 0.852201 0.39968
0.32398 0.864912 0.395254
0.362799 0.87834 0.391516
