public/LUTS/Cinematic/Cinematic_03.cube
TITLE "Generated by Resolve"
LUT_3D_SIZE 9
0.0180819 0.0520943 0.0691081
0.158862 0.0478981 0.0648966
0.299657 0.0436866 0.0607004
0.440467 0.0394903 0.0565042
0.581262 0.0352941 0.0523079
0.722072 0.0310979 0.0480964
0.862867 0.0268864 0.0439002
1 0.0226902 0.039704
1 0.0184939 0.0355077
0.00407416 0.183078 0.0551003
0.144869 0.178882 0.0509041
0.285664 0.174685 0.0467079
0.426474 0.170474 0.0424964
0.567269 0.166278 0.0383001
0.708064 0.162081 0.0341039
0.848875 0.15787 0.0299077
0.98967 0.153674 0.0256962
1 0.149477 0.0215
0 0.314076 0.0411078
0.130861 0.30988 0.0368963
0.271672 0.305684 0.0327001
0.412467 0.301488 0.0285039
0.553262 0.297276 0.0243076
0.694072 0.29308 0.0200961
0.834867 0.288884 0.0158999
0.975677 0.284672 0.0117037
1 0.280476 0.00750744
0 0.44509 0.0271
0.116869 0.440879 0.0229038
0.257664 0.436683 0.0187076
0.398474 0.432486 0.0144961
0.539269 0.428275 0.0102998
0.680064 0.424079 0.00610361
0.820874 0.419883 0.00190738
0.961669 0.415686 0
1 0.411475 0
0 0.576089 0.0131075
0.102861 0.571893 0.00889601
0.243671 0.567681 0.00469978
0.384466 0.563485 0.000503548
0.525261 0.559289 0
0.666072 0.555077 0
0.806867 0.550881 0
0.947677 0.546685 0
1 0.542489 0
0 0.707088 0
0.0888685 0.702892 0
0.229664 0.698695 0
0.370459 0.694484 0
0.511269 0.690288 0
0.652064 0.686091 0
0.792874 0.68188 0
0.933669 0.677684 0
1 0.673487 0
0 0.838087 0
0.0748608 0.83389 0
0.215671 0.829694 0
0.356466 0.825483 0
0.497261 0.821286 0
0.638071 0.81709 0
0.778866 0.812894 0
0.919676 0.808682 0
1 0.804486 0
0 0.969085 0
0.0608682 0.964889 0
0.201663 0.960693 0
0.342458 0.956497 0
0.483268 0.952285 0
0.624063 0.948089 0
0.764874 0.943893 0
0.905669 0.939681 0
1 0.935485 0
0 1 0
0.0468605 1 0
0.187671 1 0
0.328466 1 0
0.469261 1 0
0.610071 1 0
0.750866 1 0
0.891676 1 0
1 1 0
0.0162814 0.0502937 0.212284
0.157061 0.0460975 0.208087
0.297856 0.0419013 0.203891
0.438666 0.0376898 0.199695
0.579461 0.0334936 0.195483
0.720272 0.0292973 0.191287
0.861067 0.0250858 0.187091
1 0.0208896 0.182895
1 0.0166934 0.178683
0.00227359 0.181277 0.198291
0.143069 0.177081 0.194095
0.283864 0.172885 0.189883
0.424674 0.168673 0.185687
0.565469 0.164477 0.181491
0.706279 0.160281 0.177295
0.847074 0.156085 0.173083
0.987869 0.151873 0.168887
1 0.147677 0.164691
0 0.312276 0.184283
0.129061 0.30808 0.180087
0.269871 0.303883 0.175891
0.410666 0.299687 0.171695
0.551476 0.295476 0.167483
0.692271 0.291279 0.163287
0.833066 0.287083 0.159091
0.973877 0.282872 0.154894
1 0.278676 0.150683
0 0.44329 0.170291
0.115068 0.439078 0.166094
0.255863 0.434882 0.161883
0.396674 0.430686 0.157687
0.537469 0.42649 0.15349
0.678264 0.422278 0.149294
0.819074 0.418082 0.145083
0.959869 0.413886 0.140887
1 0.409674 0.13669
0 0.574289 0.156283
0.101061 0.570092 0.152087
0.241871 0.565881 0.14789
0.382666 0.561685 0.143694
0.523476 0.557488 0.139483
0.664271 0.553277 0.135286
0.805066 0.549081 0.13109
0.945876 0.544884 0.126894
1 0.540688 0.122683
0 0.705287 0.14229
0.087068 0.701091 0.138094
0.227863 0.696895 0.133883
0.368673 0.692683 0.129686
0.509468 0.688487 0.12549
0.650263 0.684291 0.121294
0.791074 0.680079 0.117082
0.931868 0.675883 0.112886
1 0.671687 0.10869
0 0.836286 0.128283
0.0730602 0.83209 0.124086
0.21387 0.827893 0.11989
0.354665 0.823697 0.115679
0.495476 0.819486 0.111482
0.636271 0.81529 0.107286
0.777066 0.811093 0.10309
0.917876 0.806882 0.0988785
1 0.802686 0.0946822
0 0.9673 0.11429
0.0590677 0.963088 0.110079
0.199863 0.958892 0.105882
0.340673 0.954696 0.101686
0.481468 0.950484 0.0974899
0.622263 0.946288 0.0932784
0.763073 0.942092 0.0890822
0.903868 0.937896 0.0848859
1 0.933684 0.0806897
0 1 0.100282
0.0450599 1 0.0960861
0.18587 1 0.0918898
0.326665 1 0.0876783
0.467475 1 0.0834821
0.60827 1 0.0792859
0.749065 1 0.0750896
0.889876 1 0.0708782
1 1 0.0666819
0.0144808 0.0484932 0.355489
0.155261 0.0442969 0.351293
0.296071 0.0401007 0.347097
0.436866 0.0358892 0.342885
0.577661 0.031693 0.338689
0.718471 0.0274968 0.334493
0.859266 0.0232853 0.330297
1 0.019089 0.326085
1 0.0148928 0.321889
0.00047303 0.179477 0.341497
0.141268 0.17528 0.337285
0.282063 0.171084 0.333089
0.422873 0.166873 0.328893
0.563668 0.162676 0.324697
0.704479 0.15848 0.320485
0.845273 0.154284 0.316289
0.986068 0.150072 0.312093
1 0.145876 0.307897
0 0.310491 0.327489
0.12726 0.306279 0.323293
0.26807 0.302083 0.319097
0.408865 0.297887 0.314885
0.549676 0.293675 0.310689
0.690471 0.289479 0.306493
0.831281 0.285283 0.302296
0.972076 0.281086 0.298085
1 0.276875 0.293889
0 0.441489 0.313497
0.113268 0.437293 0.309285
0.254063 0.433082 0.305089
0.394873 0.428885 0.300893
0.535668 0.424689 0.296696
0.676478 0.420478 0.292485
0.817273 0.416281 0.288289
0.958068 0.412085 0.284092
1 0.407874 0.279896
0 0.572488 0.299489
0.0992599 0.568292 0.295293
0.24007 0.56408 0.291096
0.380865 0.559884 0.286885
0.521675 0.555688 0.282689
0.66247 0.551492 0.278492
0.803265 0.54728 0.274296
0.944076 0.543084 0.270085
1 0.538888 0.265888
0 0.703487 0.285496
0.0852674 0.69929 0.281285
0.226062 0.695094 0.277089
0.366873 0.690883 0.272892
0.507668 0.686687 0.268696
0.648478 0.68249 0.264485
0.789273 0.678279 0.260288
0.930068 0.674083 0.256092
1 0.669886 0.251896
0 0.834485 0.271489
0.0712596 0.830289 0.267292
0.21207 0.826093 0.263096
0.352865 0.821897 0.258885
0.493675 0.817685 0.254688
0.63447 0.813489 0.250492
0.775265 0.809293 0.246296
0.916075 0.805081 0.242084
1 0.800885 0.237888
0 0.965499 0.257496
0.0572671 0.961288 0.253285
0.198062 0.957092 0.249088
0.338872 0.952895 0.244892
0.479667 0.948699 0.240696
0.620478 0.944488 0.236484
0.761273 0.940291 0.232288
0.902068 0.936095 0.228092
1 0.931884 0.22388
0 1 0.243488
0.0432593 1 0.239292
0.18407 1 0.23508
0.324865 1 0.230884
0.465675 1 0.226688
0.60647 1 0.222492
0.747265 1 0.21828
0.888075 1 0.214084
1 1 0.209888
0.0126802 0.0466926 0.498695
0.15346 0.0424964 0.494499
0.29427 0.0383001 0.490288
0.435065 0.0340887 0.486091
0.575875 0.0298924 0.481895
0.71667 0.0256962 0.477699
0.857466 0.0214847 0.473487
0.998276 0.0172885 0.469291
1 0.0130922 0.465095
0 0.177676 0.484688
0.139467 0.17348 0.480491
0.280262 0.169284 0.476295
0.421073 0.165087 0.472099
0.561868 0.160876 0.467887
0.702678 0.15668 0.463691
0.843473 0.152483 0.459495
0.984283 0.148272 0.455299
1 0.144076 0.451087
0 0.30869 0.470695
0.12546 0.304479 0.466499
0.26627 0.300282 0.462287
0.407065 0.296086 0.458091
0.547875 0.291875 0.453895
0.68867 0.287678 0.449699
0.82948 0.283482 0.445487
0.970275 0.279286 0.441291
1 0.275074 0.437095
0 0.439689 0.456687
0.111467 0.435492 0.452491
0.252262 0.431281 0.448295
0.393072 0.427085 0.444099
0.533867 0.422889 0.439887
0.674678 0.418677 0.435691
0.815473 0.414481 0.431495
0.956283 0.410285 0.427298
1 0.406088 0.423087
0 0.570687 0.442695
0.0974594 0.566491 0.438499
0.23827 0.56228 0.434287
0.379065 0.558083 0.430091
0.519875 0.553887 0.425895
0.66067 0.549691 0.421698
0.80148 0.54548 0.417487
0.942275 0.541283 0.413291
1 0.537087 0.409094
0 0.701686 0.428687
0.0834669 0.69749 0.424491
0.224262 0.693294 0.420294
0.365072 0.689082 0.416098
0.505867 0.684886 0.411887
0.646677 0.68069 0.407691
0.787472 0.676493 0.403494
0.928267 0.672282 0.399298
1 0.668086 0.395087
0 0.832685 0.414694
0.0694591 0.828489 0.410498
0.210269 0.824292 0.406287
0.351064 0.820096 0.40209
0.491875 0.815885 0.397894
0.63267 0.811688 0.393698
0.77348 0.807492 0.389487
0.914275 0.803281 0.38529
1 0.799084 0.381094
0 0.963699 0.400687
0.0554665 0.959487 0.39649
0.196262 0.955291 0.392294
0.337072 0.951095 0.388098
0.477867 0.946899 0.383886
0.618677 0.942687 0.37969
0.759472 0.938491 0.375494
0.900267 0.934295 0.371298
1 0.930083 0.367086
0 1 0.386694
0.0414588 1 0.382498
0.182269 1 0.378286
0.323064 1 0.37409
0.463874 1 0.369894
0.604669 1 0.365698
0.74548 1 0.361486
0.886275 1 0.35729
1 1 0.353094
0.0108797 0.044892 0.641901
0.151659 0.0406958 0.63769
0.29247 0.0364996 0.633494
0.433265 0.0322881 0.629297
0.574075 0.0280919 0.625101
0.71487 0.0238956 0.62089
0.855665 0.0196994 0.616693
0.996475 0.0154879 0.612497
1 0.0112917 0.608301
0 0.175875 0.627894
0.137667 0.171679 0.623697
0.278462 0.167483 0.619501
0.419272 0.163287 0.61529
0.560067 0.159075 0.611093
0.700877 0.154879 0.606897
0.841672 0.150683 0.602701
0.982483 0.146471 0.598489
1 0.142275 0.594293
0 0.306889 0.613901
0.123659 0.302678 0.609689
0.264469 0.298482 0.605493
0.405264 0.294286 0.601297
0.546075 0.290089 0.597101
0.68687 0.285878 0.592889
0.82768 0.281682 0.588693
0.968475 0.277485 0.584497
1 0.273274 0.580301
0 0.437888 0.599893
0.109667 0.433692 0.595697
0.250462 0.42948 0.591501
0.391272 0.425284 0.587289
0.532067 0.421088 0.583093
0.672877 0.416876 0.578897
0.813672 0.41268 0.574701
0.954482 0.408484 0.570489
1 0.404288 0.566293
0 0.568887 0.585901
0.0956588 0.564691 0.581689
0.236469 0.560494 0.577493
0.377264 0.556283 0.573297
0.518074 0.552087 0.5691
0.658869 0.54789 0.564889
0.79968 0.543679 0.560693
0.940475 0.539483 0.556497
1 0.535286 0.5523
0 0.699886 0.571893
0.0816663 0.695689 0.567697
0.222461 0.691493 0.5635
0.363272 0.687297 0.559289
0.504067 0.683085 0.555093
0.644877 0.678889 0.550896
0.785672 0.674693 0.5467
0.926482 0.670481 0.542489
1 0.666285 0.538293
0 0.8309 0.5579
0.0676585 0.826688 0.553689
0.208469 0.822492 0.549493
0.349264 0.818296 0.545296
0.490074 0.814084 0.5411
0.630869 0.809888 0.536889
0.771679 0.805692 0.532692
0.912474 0.801495 0.528496
1 0.797284 0.5243
0 0.961898 0.543893
0.053666 0.957702 0.539696
0.194461 0.95349 0.5355
0.335271 0.949294 0.531289
0.476066 0.945098 0.527092
0.616876 0.940887 0.522896
0.757671 0.93669 0.5187
0.898482 0.932494 0.514488
1 0.928283 0.510292
0 1 0.5299
0.0396582 1 0.525689
0.180468 1 0.521492
0.321263 1 0.517296
0.462074 1 0.5131
0.602869 1 0.508888
0.743679 1 0.504692
0.884474 1 0.500496
1 1 0.4963
0.00907912 0.0430915 0.785092
0.149859 0.0388952 0.780896
0.290669 0.034699 0.776699
0.431464 0.0305028 0.772503
0.572274 0.0262913 0.768292
0.713069 0.0220951 0.764096
0.85388 0.0178988 0.759899
0.994675 0.0136873 0.755703
1 0.00949111 0.751492
0 0.17409 0.771099
0.135866 0.169879 0.766903
0.276661 0.165682 0.762707
0.417472 0.161486 0.758495
0.558267 0.157275 0.754299
0.699077 0.153079 0.750103
0.839872 0.148882 0.745892
0.980682 0.144686 0.741695
1 0.140475 0.737499
0 0.305089 0.757092
0.121859 0.300877 0.752895
0.262669 0.296681 0.748699
0.403464 0.292485 0.744503
0.544274 0.288289 0.740291
0.685069 0.284077 0.736095
0.825879 0.279881 0.731899
0.966674 0.275685 0.727703
1 0.271473 0.723491
0 0.436088 0.743099
0.107866 0.431891 0.738903
0.248661 0.42768 0.734691
0.389471 0.423484 0.730495
0.530266 0.419287 0.726299
0.671077 0.415091 0.722103
0.811872 0.41088 0.717891
0.952682 0.406683 0.713695
1 0.402487 0.709499
0 0.567086 0.729091
0.0938582 0.56289 0.724895
0.234668 0.558694 0.720699
0.375463 0.554482 0.716503
0.516274 0.550286 0.712291
0.657069 0.54609 0.708095
0.797879 0.541878 0.703899
0.938674 0.537682 0.699702
1 0.533486 0.695491
0 0.698085 0.715099
0.0798657 0.693889 0.710903
0.220661 0.689693 0.706691
0.361471 0.685496 0.702495
0.502266 0.681285 0.698299
0.643076 0.677089 0.694102
0.783871 0.672892 0.689891
0.924681 0.668681 0.685695
1 0.664485 0.681498
0 0.829099 0.701091
0.0658579 0.824887 0.696895
0.206668 0.820691 0.692699
0.347463 0.816495 0.688502
0.488273 0.812299 0.684291
0.629068 0.808087 0.680095
0.769879 0.803891 0.675898
0.910674 0.799695 0.671702
1 0.795483 0.667491
0 0.960098 0.687099
0.0518654 0.955901 0.682902
0.19266 0.95169 0.678691
0.333471 0.947494 0.674495
0.474266 0.943297 0.670298
0.615076 0.939086 0.666102
0.755871 0.93489 0.661891
0.896681 0.930694 0.657694
1 0.926497 0.653498
0 1 0.673091
0.0378576 1 0.668894
0.178668 1 0.664698
0.319463 1 0.660502
0.460273 1 0.656291
0.601068 1 0.652094
0.741878 1 0.647898
0.882673 1 0.643702
1 1 0.63949
0.00727855 0.0412909 0.928298
0.148058 0.0370947 0.924102
0.288869 0.0328985 0.919905
0.429664 0.0287022 0.915694
0.570474 0.0244907 0.911498
0.711269 0.0202945 0.907301
0.852079 0.0160983 0.903105
0.992874 0.0118868 0.898894
1 0.00769055 0.894697
0 0.17229 0.914305
0.134066 0.168078 0.910109
0.274861 0.163882 0.905898
0.415671 0.159686 0.901701
0.556466 0.155474 0.897505
0.697276 0.151278 0.893309
0.838071 0.147082 0.889097
0.978882 0.142885 0.884901
1 0.138674 0.880705
0 0.303288 0.900298
0.120058 0.299092 0.896101
0.260868 0.294881 0.891905
0.401663 0.290684 0.887709
0.542473 0.286488 0.883497
0.683268 0.282277 0.879301
0.824079 0.27808 0.875105
0.964874 0.273884 0.870893
1 0.269688 0.866697
0 0.434287 0.886305
0.106065 0.430091 0.882109
0.24686 0.425879 0.877897
0.387671 0.421683 0.873701
0.528466 0.417487 0.869505
0.669276 0.413291 0.865293
0.810071 0.409079 0.861097
0.950881 0.404883 0.856901
1 0.400687 0.852705
0 0.565286 0.872297
0.0920577 0.56109 0.868101
0.232868 0.556893 0.863905
0.373663 0.552682 0.859693
0.514473 0.548486 0.855497
0.655268 0.544289 0.851301
0.796078 0.540093 0.847105
0.936873 0.535882 0.842893
1 0.531685 0.838697
0 0.696284 0.858305
0.0780652 0.692088 0.854093
0.21886 0.687892 0.849897
0.35967 0.683696 0.845701
0.500465 0.679484 0.841505
0.641276 0.675288 0.837293
0.782071 0.671092 0.833097
0.922881 0.66688 0.828901
1 0.662684 0.824704
0 0.827298 0.844297
0.0640574 0.823087 0.840101
0.204868 0.818891 0.835904
0.345663 0.814694 0.831693
0.486473 0.810498 0.827497
0.627268 0.806287 0.823301
0.768078 0.80209 0.819104
0.908873 0.797894 0.814893
1 0.793683 0.810697
0 0.958297 0.830304
0.0500649 0.954101 0.826093
0.19086 0.949889 0.821897
0.33167 0.945693 0.8177
0.472465 0.941497 0.813504
0.613275 0.937285 0.809293
0.75407 0.933089 0.805097
0.894881 0.928893 0.8009
1 0.924697 0.796704
0 1 0.816297
0.0360571 1 0.8121
0.176867 1 0.807904
0.317662 1 0.803693
0.458473 1 0.799496
0.599268 1 0.7953
0.740078 1 0.791104
0.880873 1 0.786892
1 1 0.782696
0.00547799 0.0394903 1
0.146258 0.0352941 1
0.287068 0.0310979 1
0.427863 0.0269017 1
0.568673 0.0226902 1
0.709468 0.0184939 1
0.850278 0.0142977 1
0.991073 0.0100862 1
1 0.00588998 1
0 0.170489 1
0.132265 0.166278 1
0.27306 0.162081 1
0.41387 0.157885 1
0.554665 0.153689 1
0.695476 0.149477 1
0.836271 0.145281 1
0.977081 0.141085 1
1 0.136873 1
0 0.301488 1
0.118257 0.297292 1
0.259068 0.29308 1
0.399863 0.288884 1
0.540673 0.284688 1
0.681468 0.280476 1
0.822278 0.27628 1
0.963073 0.272084 1
1 0.267887 1
0 0.432486 1
0.104265 0.42829 1
0.24506 0.424094 1
0.38587 0.419883 1
0.526665 0.415686 1
0.667475 0.41149 1
0.80827 0.407279 1
0.949081 0.403082 1
1 0.398886 0.995895
0 0.563485 1
0.0902571 0.559289 1
0.231067 0.555093 1
0.371862 0.550881 1
0.512673 0.546685 0.998703
0.653468 0.542489 0.994507
0.794278 0.538293 0.990295
0.935073 0.534081 0.986099
1 0.529885 0.981903
0 0.694499 1
0.0762646 0.690288 0.997299
0.21706 0.686091 0.993103
0.35787 0.681895 0.988907
0.498665 0.677684 0.984695
0.639475 0.673487 0.980499
0.78027 0.669291 0.976303
0.92108 0.665095 0.972107
1 0.660883 0.967895
0 0.825498 0.987503
0.0622568 0.821302 0.983307
0.203067 0.81709 0.979095
0.343862 0.812894 0.974899
0.484672 0.808698 0.970703
0.625467 0.804486 0.966506
0.766278 0.80029 0.962295
0.907073 0.796094 0.958099
1 0.791882 0.953902
0 0.956497 0.973495
0.0482643 0.9523 0.969299
0.189059 0.948089 0.965103
0.32987 0.943893 0.960906
0.470665 0.939696 0.956695
0.611475 0.9355 0.952499
0.75227 0.931289 0.948302
0.89308 0.927092 0.944106
1 0.922896 0.939895
0 1 0.959503
0.0342565 1 0.955306
0.175067 1 0.951095
0.315862 1 0.946899
0.456672 1 0.942702
0.597467 1 0.938506
0.738277 1 0.934295
0.879072 1 0.930098
1 1 0.925902
0.00367742 0.037705 1
0.144457 0.0334936 1
0.285267 0.0292973 1
0.426062 0.0251011 1
0.566873 0.0208896 1
0.707668 0.0166934 1
0.848478 0.0124971 1
0.989273 0.00830091 1
1 0.00408942 1
0 0.168688 1
0.130465 0.164477 1
0.27126 0.160281 1
0.41207 0.156085 1
0.552865 0.151888 1
0.693675 0.147677 1
0.83447 0.143481 1
0.97528 0.139284 1
1 0.135073 1
0 0.299687 1
0.116457 0.295491 1
0.257267 0.291279 1
0.398062 0.287083 1
0.538872 0.282887 1
0.679667 0.278691 1
0.820478 0.274479 1
0.961273 0.270283 1
1 0.266087 1
0 0.430686 1
0.102464 0.42649 1
0.243259 0.422293 1
0.38407 0.418082 1
0.524865 0.413886 1
0.665675 0.409689 1
0.80647 0.405478 1
0.94728 0.401282 1
1 0.397086 1
0 0.561685 1
0.0884565 0.557488 1
0.229267 0.553292 1
0.370062 0.549096 1
0.510872 0.544884 1
0.651667 0.540688 1
0.792477 0.536492 1
0.933272 0.53228 1
1 0.528084 1
0 0.692699 1
0.074464 0.688487 1
0.215259 0.684291 1
0.356069 0.680095 1
0.496864 0.675883 1
0.637675 0.671687 1
0.77847 0.667491 1
0.91928 0.663294 1
1 0.659083 1
0 0.823697 1
0.0604562 0.819501 1
0.201266 0.81529 1
0.342061 0.811093 1
0.482872 0.806897 1
0.623667 0.802686 1
0.764477 0.798489 1
0.905272 0.794293 1
1 0.790097 1
0 0.954696 1
0.0464637 0.9505 1
0.187259 0.946303 1
0.328069 0.942092 1
0.468864 0.937896 1
0.609674 0.9337 1
0.750469 0.929488 1
0.891279 0.925292 1
1 0.921096 1
0 1 1
0.0324559 1 1
0.173266 1 1
0.314061 1 1
0.454871 1 1
0.595666 1 1
0.736477 1 1
0.877272 1 1
1 1 1
