public/LUTS/Cinematic/Cinematic_17.cube
TITLE "Generated by Resolve"
LUT_3D_SIZE 33
0.073518 0.0581979 0.0581979
0.0873274 0.0581521 0.0583505
0.1019 0.0591745 0.0592813
0.117205 0.0598917 0.0596475
0.133211 0.0612192 0.0600748
0.149767 0.0630045 0.0605631
0.166629 0.064622 0.0608682
0.183871 0.065919 0.0622721
0.20116 0.0673533 0.06392
0.218555 0.06981 0.0651713
0.237095 0.0723735 0.0674449
0.255314 0.0753948 0.0693065
0.274815 0.078584 0.0716869
0.294133 0.0825971 0.0741894
0.314839 0.086244 0.0774243
0.337484 0.0904402 0.0810559
0.35668 0.0942702 0.0845655
0.375341 0.0994583 0.0875105
0.395758 0.103578 0.0923781
0.416648 0.108934 0.0950179
0.437598 0.114733 0.100542
0.460227 0.119677 0.103044
0.483452 0.124666 0.107073
0.507317 0.129885 0.112657
0.530953 0.134646 0.117754
0.557671 0.141207 0.121263
0.583703 0.147417 0.126467
0.607401 0.153552 0.131655
0.631769 0.160174 0.136995
0.655207 0.166445 0.142397
0.675303 0.172442 0.1467
0.686549 0.176059 0.149111
0.686336 0.175906 0.149004
0.0731365 0.0659037 0.0562295
0.0851148 0.0664988 0.0557107
0.0993362 0.067277 0.0566262
0.11519 0.0679179 0.0566567
0.132342 0.069337 0.0570077
0.151125 0.0715496 0.0585641
0.168872 0.0737926 0.0598306
0.187152 0.0764477 0.0614633
0.206897 0.0785687 0.0628214
0.224613 0.080827 0.0639353
0.244053 0.0838788 0.0662547
0.263767 0.0865492 0.069276
0.284398 0.0900893 0.0724041
0.305074 0.094316 0.0758373
0.327901 0.0996567 0.0788891
0.353689 0.105028 0.0841535
0.374594 0.109804 0.0869764
0.39556 0.115694 0.0908522
0.41825 0.119936 0.095201
0.439643 0.125612 0.0987716
0.46247 0.131411 0.10367
0.48574 0.136965 0.106523
0.510658 0.142718 0.111818
0.53521 0.148287 0.117617
0.559304 0.154116 0.121935
0.585077 0.160998 0.126131
0.610697 0.167819 0.131228
0.633997 0.174517 0.136187
0.656458 0.180438 0.141741
0.677592 0.185977 0.147112
0.696818 0.192538 0.151507
0.707286 0.196124 0.15375
0.707286 0.196124 0.15375
0.0731518 0.0742351 0.0552529
0.0846723 0.0749371 0.0546578
0.0970779 0.0750744 0.0542916
0.112001 0.0755932 0.0538643
0.13022 0.0772106 0.0540322
0.149615 0.0799268 0.055436
0.168368 0.0833295 0.0572976
0.188205 0.0868849 0.0592203
0.209918 0.0902266 0.0608835
0.228779 0.0932937 0.0627909
0.249073 0.0969558 0.0656291
0.270848 0.0996719 0.0694591
0.29192 0.104387 0.0727703
0.314488 0.108629 0.0771191
0.337819 0.114565 0.0807507
0.36434 0.120928 0.085771
0.388174 0.127245 0.0897688
0.412253 0.133547 0.0942397
0.43563 0.138811 0.0982834
0.459632 0.144121 0.102983
0.484581 0.149645 0.107256
0.509544 0.156008 0.111589
0.534737 0.161944 0.116686
0.558709 0.168399 0.12079
0.581338 0.174807 0.125246
0.604959 0.181033 0.131075
0.628824 0.187747 0.136187
0.650538 0.194263 0.140871
0.671611 0.200687 0.145892
0.690913 0.207233 0.150271
0.7084 0.21355 0.154513
0.72015 0.217395 0.157671
0.719875 0.217182 0.157534
0.0724956 0.0849317 0.0530709
0.0845655 0.0856031 0.0524758
0.0962234 0.08542 0.0523384
0.111604 0.0852674 0.0519875
0.130068 0.0867628 0.051957
0.148745 0.0895247 0.0533455
0.168582 0.0933242 0.0551614
0.189563 0.0972763 0.0570077
0.211414 0.101183 0.0588693
0.23241 0.106004 0.061326
0.254536 0.110384 0.0654459
0.277867 0.113848 0.069688
0.298955 0.120119 0.0731518
0.323232 0.12491 0.0774701
0.347127 0.130831 0.0828717
0.374548 0.13785 0.0875257
0.401083 0.143908 0.0920424
0.426261 0.150454 0.0966354
0.451286 0.157153 0.101442
0.477546 0.163119 0.106157
0.50515 0.169406 0.11075
0.529458 0.175494 0.115999
0.55555 0.181567 0.120241
0.580133 0.187884 0.124544
0.603235 0.194202 0.130098
0.62678 0.200626 0.136324
0.648188 0.206882 0.141344
0.667903 0.213367 0.145769
0.687907 0.220096 0.15024
0.705669 0.226902 0.154345
0.72195 0.233524 0.158755
0.733333 0.237568 0.160983
0.733196 0.237415 0.160845
0.0713512 0.0975509 0.0501564
0.0838941 0.0979324 0.0497902
0.0959029 0.0982223 0.0499428
0.111864 0.0986648 0.0498512
0.131838 0.0996109 0.0500343
0.150011 0.101778 0.0516213
0.169986 0.105272 0.0533608
0.190448 0.109468 0.0555123
0.213031 0.11371 0.0578164
0.236225 0.119631 0.060914
0.260243 0.125185 0.065568
0.283085 0.130083 0.069398
0.307164 0.137118 0.0747234
0.332662 0.142458 0.0797894
0.357366 0.150027 0.0844587
0.386572 0.156588 0.0910201
0.414755 0.163348 0.0956436
0.439551 0.170626 0.0992905
0.46688 0.17879 0.103716
0.493812 0.185138 0.108431
0.521721 0.191287 0.114183
0.54699 0.197452 0.118639
0.573281 0.203922 0.12343
0.597879 0.210315 0.128878
0.620584 0.216587 0.133623
0.642435 0.223194 0.138567
0.663859 0.229496 0.14406
0.682841 0.236133 0.149859
0.69984 0.242741 0.154742
0.717647 0.249485 0.158862
0.732097 0.255406 0.163745
0.74432 0.257908 0.167193
0.744244 0.257801 0.167147
0.0690318 0.108965 0.0478523
0.0820935 0.110552 0.0476844
0.0957198 0.111406 0.047425
0.111711 0.112779 0.0474556
0.132219 0.113664 0.0482643
0.151339 0.115404 0.0495155
0.170581 0.119112 0.051667
0.190143 0.123537 0.0538643
0.213764 0.128115 0.0571603
0.237156 0.133104 0.0619211
0.261784 0.139681 0.0658732
0.287556 0.14667 0.0700542
0.313252 0.152575 0.0755016
0.339956 0.159792 0.08159
0.366018 0.167391 0.0846113
0.39736 0.175265 0.0928206
0.425605 0.183368 0.0986496
0.452766 0.190127 0.102785
0.480125 0.198322 0.105882
0.507454 0.204852 0.110613
0.535302 0.211017 0.116289
0.563882 0.217563 0.122469
0.590112 0.225177 0.128023
0.613764 0.232486 0.133211
0.636301 0.239063 0.137896
0.657618 0.245747 0.142962
0.678401 0.252369 0.148791
0.698009 0.258839 0.15346
0.713787 0.265583 0.157458
0.72903 0.272053 0.163226
0.744137 0.279133 0.167971
0.753933 0.284398 0.170382
0.753735 0.284123 0.170214
0.0660716 0.11957 0.045594
0.0800946 0.123369 0.0450446
0.095491 0.125246 0.0452277
0.11223 0.126253 0.0454414
0.132525 0.128389 0.0468452
0.15169 0.130739 0.0486458
0.171557 0.133059 0.0521401
0.1906 0.137209 0.0542763
0.212863 0.143038 0.0568551
0.236667 0.148394 0.0619059
0.264439 0.156191 0.0665599
0.290761 0.162509 0.0691081
0.319783 0.167895 0.0749523
0.344411 0.17702 0.0795911
0.373053 0.184268 0.0848402
0.406027 0.192889 0.0933547
0.434943 0.201465 0.099321
0.462669 0.208942 0.105013
0.491142 0.21709 0.110094
0.519997 0.223743 0.115969
0.54876 0.230015 0.121584
0.576349 0.237934 0.126452
0.601633 0.245716 0.131975
0.624872 0.253437 0.136782
0.646906 0.261128 0.141314
0.668345 0.268528 0.14696
0.688624 0.275639 0.152743
0.707057 0.282338 0.158419
0.7243 0.289189 0.163607
0.740124 0.295811 0.167361
0.753429 0.302617 0.172305
0.763699 0.307607 0.174853
0.763561 0.307408 0.174746
0.0642863 0.130297 0.0441444
0.0790112 0.133837 0.0442817
0.0951553 0.13753 0.0438849
0.111238 0.140276 0.0442817
0.132479 0.143221 0.0462501
0.15346 0.145235 0.0485237
0.1738 0.147173 0.0514229
0.192187 0.150454 0.0542153
0.213764 0.156573 0.0572824
0.23859 0.162783 0.0619211
0.263935 0.170352 0.0669566
0.292988 0.178302 0.0714427
0.322576 0.184512 0.0771496
0.351797 0.193301 0.0818647
0.380957 0.200244 0.0872663
0.411231 0.209354 0.0928359
0.442023 0.218601 0.0990463
0.471763 0.228183 0.105226
0.500694 0.235706 0.111223
0.52874 0.243687 0.116487
0.558694 0.250156 0.122042
0.58645 0.257832 0.127565
0.612131 0.265507 0.13344
0.636027 0.271901 0.139727
0.657435 0.280171 0.14551
0.678019 0.289647 0.150683
0.698466 0.298512 0.156466
0.715831 0.305928 0.161624
0.732708 0.313024 0.165637
0.74931 0.319539 0.171572
0.762539 0.326299 0.176837
0.773465 0.332341 0.178836
0.77322 0.331991 0.178683
0.061738 0.140581 0.0417792
0.0764019 0.145983 0.0427405
0.0945754 0.150927 0.0431067
0.112367 0.153841 0.0435492
0.132692 0.158724 0.0450141
0.154086 0.161257 0.0480659
0.176638 0.163973 0.0525673
0.195163 0.167529 0.0557259
0.216342 0.17174 0.05832
0.238209 0.178271 0.0634623
0.266575 0.185153 0.0682841
0.295613 0.19411 0.071107
0.32549 0.20351 0.0781872
0.354025 0.21146 0.0833295
0.384375 0.219471 0.0885786
0.417304 0.228611 0.0934005
0.449332 0.237873 0.100908
0.479088 0.247318 0.106828
0.509422 0.256214 0.112047
0.53843 0.264088 0.11725
0.567803 0.27248 0.123156
0.594842 0.279362 0.129351
0.61976 0.286931 0.135103
0.643275 0.294667 0.14078
0.665003 0.302342 0.14667
0.686168 0.312383 0.152956
0.706722 0.321431 0.160082
0.724056 0.329564 0.165942
0.740337 0.338827 0.170962
0.757321 0.346288 0.176623
0.769848 0.355596 0.179492
0.781491 0.361624 0.184497
0.781338 0.361364 0.184375
0.0583963 0.152102 0.0404669
0.0744182 0.156756 0.0403754
0.0931868 0.162829 0.0414893
0.111772 0.166979 0.0429847
0.133547 0.172717 0.0448768
0.154864 0.178164 0.0483406
0.179202 0.181155 0.0522011
0.199268 0.184085 0.0546578
0.219608 0.189136 0.0602274
0.241352 0.192554 0.0630655
0.269245 0.200778 0.0675975
0.296284 0.208698 0.0728771
0.326467 0.219867 0.0768902
0.357137 0.230137 0.0822919
0.38909 0.237919 0.0900282
0.423331 0.248264 0.095201
0.455406 0.257832 0.101869
0.485603 0.266575 0.108507
0.517922 0.27602 0.113756
0.547982 0.284321 0.119554
0.576211 0.291768 0.126452
0.602518 0.300435 0.13257
0.626841 0.308812 0.138262
0.650324 0.31754 0.14432
0.671489 0.326558 0.149523
0.693217 0.335439 0.155779
0.713878 0.345235 0.16318
0.731685 0.353674 0.169497
0.747768 0.362905 0.175204
0.762966 0.371176 0.180468
0.777035 0.381949 0.182223
0.788952 0.389929 0.187289
0.788876 0.389807 0.187243
0.057084 0.161578 0.0379339
0.0723278 0.167742 0.0393072
0.0915541 0.176776 0.0406958
0.109712 0.182574 0.0422065
0.131624 0.189639 0.0453803
0.156054 0.19559 0.0481422
0.181262 0.200198 0.0529641
0.201007 0.203052 0.0563363
0.224247 0.209064 0.0612345
0.246387 0.211963 0.0641184
0.271427 0.217609 0.0686809
0.297414 0.226017 0.0744335
0.329397 0.236118 0.0790112
0.359991 0.246601 0.0833448
0.391058 0.257404 0.0902571
0.42681 0.268162 0.0979324
0.460929 0.279133 0.103059
0.493004 0.28893 0.110338
0.524895 0.297185 0.116808
0.554681 0.305303 0.121767
0.582986 0.313924 0.128283
0.610178 0.323445 0.135348
0.634821 0.332372 0.14139
0.657496 0.340826 0.147265
0.678859 0.350851 0.153445
0.699748 0.361227 0.159915
0.719783 0.371588 0.166201
0.737865 0.379629 0.173236
0.754269 0.389532 0.178363
0.768658 0.399145 0.183322
0.784192 0.408621 0.18793
0.796185 0.41767 0.19295
0.796017 0.41738 0.192828
0.054139 0.173724 0.0378424
0.0697642 0.180346 0.0393225
0.0909438 0.19028 0.0395972
0.109697 0.196399 0.0424201
0.132982 0.205097 0.0457923
0.155535 0.212253 0.0503395
0.181598 0.218311 0.0546883
0.205509 0.223056 0.0574197
0.229892 0.226886 0.0638285
0.252018 0.232364 0.0657969
0.2766 0.237919 0.0703899
0.300099 0.244266 0.074342
0.330648 0.253086 0.0803693
0.361898 0.262821 0.0850385
0.392462 0.274647 0.0915389
0.429145 0.286397 0.0983902
0.463935 0.297627 0.104768
0.496483 0.308293 0.111559
0.52929 0.317708 0.118639
0.560616 0.327352 0.125505
0.589532 0.336736 0.131807
0.616236 0.345876 0.137362
0.640528 0.355062 0.143389
0.663706 0.36405 0.150561
0.685344 0.374502 0.156863
0.706264 0.385107 0.16286
0.725551 0.396612 0.170092
0.743145 0.406165 0.175647
0.758862 0.416815 0.180789
0.774899 0.425925 0.1879
0.788296 0.436103 0.191073
0.800534 0.446326 0.196078
0.800336 0.445823 0.196002
0.0530404 0.185962 0.0355077
0.0681315 0.192126 0.037705
0.0876478 0.202976 0.0431678
0.108446 0.211353 0.0450141
0.13492 0.222126 0.0489204
0.157275 0.231327 0.0528115
0.184451 0.236805 0.0583047
0.207431 0.24271 0.0592508
0.234775 0.248631 0.0642405
0.25716 0.254246 0.0691844
0.281758 0.259937 0.0716259
0.304189 0.266423 0.0758679
0.331792 0.272755 0.081529
0.363012 0.281941 0.0859541
0.394934 0.29369 0.0923629
0.431052 0.305119 0.0997635
0.466316 0.316182 0.106432
0.49926 0.328222 0.113176
0.532753 0.339971 0.12076
0.564202 0.350408 0.127977
0.594003 0.360342 0.134554
0.621439 0.369543 0.140719
0.64596 0.379339 0.147494
0.669551 0.389075 0.154299
0.690364 0.398703 0.160037
0.711055 0.409903 0.166415
0.730831 0.422568 0.172915
0.748592 0.433356 0.179004
0.763455 0.444251 0.184085
0.779065 0.453788 0.190356
0.792309 0.464637 0.193393
0.804425 0.475807 0.198077
0.804776 0.475929 0.198184
0.0519417 0.198459 0.0348211
0.0653849 0.204059 0.037644
0.0864881 0.216632 0.0432593
0.108629 0.227741 0.0450599
0.136095 0.24097 0.0504921
0.161318 0.249744 0.0550546
0.186847 0.257633 0.0594797
0.210849 0.265003 0.0632792
0.236988 0.27126 0.066331
0.261524 0.276936 0.0715038
0.286519 0.282399 0.0747845
0.310994 0.288624 0.0782483
0.336233 0.295506 0.0828717
0.363607 0.303166 0.0874952
0.39559 0.31252 0.0935225
0.432456 0.325368 0.100938
0.469703 0.337331 0.107927
0.503639 0.349172 0.114778
0.536568 0.361852 0.121736
0.568322 0.372976 0.128649
0.598306 0.383108 0.136706
0.6262 0.393393 0.144076
0.650813 0.404379 0.150332
0.673808 0.414328 0.157305
0.695048 0.424765 0.163165
0.715358 0.436316 0.170642
0.735912 0.448631 0.176211
0.752529 0.459693 0.183291
0.767834 0.47097 0.186633
0.782666 0.481956 0.192187
0.796231 0.4934 0.195682
0.809003 0.50425 0.200031
0.809995 0.505028 0.200351
0.0513771 0.21117 0.0346838
0.0640116 0.218265 0.0370031
0.084947 0.231937 0.0421607
0.108019 0.24332 0.0457618
0.137728 0.260212 0.0522011
0.162692 0.270573 0.0562753
0.190204 0.280491 0.0607004
0.215091 0.28748 0.0647135
0.242649 0.295171 0.0686198
0.266819 0.301793 0.073167
0.292348 0.307698 0.0778363
0.317174 0.313252 0.0810559
0.343008 0.318975 0.0845655
0.369451 0.326787 0.089601
0.398779 0.334371 0.0955673
0.434669 0.346044 0.102007
0.472313 0.359457 0.108843
0.50631 0.37142 0.115969
0.540032 0.383871 0.123217
0.57348 0.395621 0.130831
0.602304 0.406043 0.139239
0.629328 0.417075 0.147204
0.653864 0.428977 0.152789
0.678035 0.440467 0.159747
0.698726 0.452354 0.165469
0.719066 0.462806 0.172976
0.74023 0.4757 0.178332
0.755993 0.48658 0.184955
0.771374 0.498817 0.188128
0.787289 0.509178 0.194598
0.799863 0.519905 0.197543
0.812833 0.531655 0.201389
0.814435 0.533043 0.201877
0.0520333 0.227527 0.035462
0.0654917 0.233814 0.0385748
0.0862745 0.24918 0.0415961
0.108583 0.262242 0.0452735
0.13875 0.281453 0.0534218
0.165515 0.294728 0.0591592
0.194171 0.305592 0.0640116
0.219562 0.313878 0.0678569
0.248096 0.321584 0.0723125
0.273121 0.329686 0.0762951
0.299916 0.335561 0.0810559
0.323751 0.34078 0.0834974
0.350118 0.346197 0.0869917
0.377615 0.35346 0.0920119
0.405631 0.360571 0.0979934
0.437476 0.369604 0.104341
0.472831 0.38146 0.110842
0.509438 0.39498 0.118273
0.544335 0.40737 0.12578
0.577035 0.419516 0.133547
0.605646 0.431159 0.14168
0.63212 0.44213 0.14966
0.656779 0.454948 0.155673
0.681331 0.466041 0.161669
0.701457 0.479103 0.167132
0.722744 0.490135 0.174228
0.742229 0.504768 0.178851
0.75996 0.515251 0.184497
0.774136 0.526085 0.189227
0.7897 0.53669 0.195026
0.80267 0.546136 0.199145
0.816114 0.558373 0.202884
0.818189 0.560128 0.203449
0.0521706 0.241962 0.0372168
0.0670024 0.249577 0.0391546
0.0885481 0.266987 0.0433051
0.110887 0.279591 0.0466926
0.140169 0.300603 0.0552529
0.169848 0.316396 0.0618448
0.199115 0.330449 0.0670024
0.225162 0.340185 0.0713512
0.252384 0.348562 0.0758984
0.279561 0.357031 0.0796368
0.307744 0.364385 0.0847486
0.331853 0.369848 0.0873426
0.356817 0.374716 0.0907912
0.384543 0.380957 0.0954452
0.413428 0.387228 0.100755
0.443626 0.395224 0.107301
0.475151 0.404822 0.11339
0.510521 0.416297 0.119677
0.54728 0.430198 0.127565
0.580392 0.443854 0.135958
0.609323 0.457145 0.143847
0.635706 0.468681 0.151492
0.659785 0.480171 0.157565
0.683879 0.491432 0.16379
0.704982 0.504417 0.16939
0.726406 0.516365 0.176181
0.74345 0.531151 0.180255
0.762875 0.541405 0.186191
0.776791 0.552178 0.190219
0.790524 0.562493 0.195499
0.803128 0.572274 0.199527
0.818463 0.582986 0.203861
0.8215 0.584817 0.20473
0.0542153 0.256855 0.0377661
0.068925 0.267124 0.0400092
0.0923171 0.284733 0.0456855
0.113024 0.29839 0.0501564
0.142947 0.319982 0.0570993
0.173663 0.338079 0.0639506
0.203342 0.354528 0.0697185
0.230594 0.366079 0.0745556
0.257679 0.37557 0.0785534
0.286732 0.38529 0.0825971
0.314809 0.393225 0.0878767
0.340093 0.398611 0.0910048
0.365072 0.403494 0.0945907
0.391821 0.409369 0.099382
0.421088 0.415015 0.104356
0.451011 0.421485 0.109697
0.480446 0.429221 0.115145
0.511589 0.437964 0.121126
0.547417 0.45153 0.128817
0.582635 0.466361 0.137896
0.612131 0.479866 0.145678
0.639017 0.493446 0.152605
0.663752 0.504082 0.159731
0.686229 0.515236 0.165805
0.707454 0.527779 0.170733
0.728832 0.539467 0.178393
0.746761 0.553353 0.181567
0.765148 0.56463 0.188067
0.777462 0.575219 0.191073
0.793164 0.582879 0.197467
0.804517 0.592767 0.199496
0.818753 0.603372 0.203296
0.822568 0.606119 0.20441
0.0561837 0.272557 0.0387884
0.0730297 0.284169 0.0426337
0.0967117 0.303502 0.0474708
0.116869 0.319814 0.0536812
0.146029 0.342229 0.0582437
0.177172 0.361288 0.0657511
0.207095 0.37966 0.0720989
0.235721 0.393423 0.0772412
0.264622 0.40441 0.0819562
0.293202 0.414237 0.0862745
0.321584 0.422095 0.0908217
0.348516 0.428214 0.0944076
0.374319 0.433661 0.0986038
0.400244 0.439109 0.103807
0.427695 0.443488 0.108827
0.457359 0.4495 0.113558
0.487556 0.457511 0.118532
0.517174 0.464179 0.124926
0.54789 0.473808 0.131228
0.581918 0.487602 0.138735
0.612222 0.501045 0.146822
0.64242 0.515312 0.153613
0.66688 0.52697 0.160601
0.688991 0.538369 0.166751
0.708431 0.548608 0.171206
0.729702 0.561624 0.178241
0.74847 0.573785 0.18265
0.76582 0.584833 0.187884
0.77908 0.594446 0.192401
0.792279 0.603403 0.197055
0.805432 0.611887 0.199985
0.818387 0.621714 0.203983
0.821942 0.62417 0.205219
0.058732 0.289235 0.0417334
0.076936 0.30248 0.0451514
0.101167 0.324514 0.0505989
0.122118 0.341192 0.0567636
0.150286 0.364965 0.0614176
0.182406 0.385977 0.0677806
0.212909 0.405844 0.0740215
0.241352 0.421317 0.0792248
0.270665 0.4327 0.0855573
0.299489 0.443702 0.090837
0.328771 0.452827 0.0951705
0.355642 0.458 0.099855
0.381445 0.46302 0.104494
0.408209 0.467521 0.108598
0.435798 0.471992 0.113542
0.464347 0.477745 0.118669
0.494179 0.485206 0.122866
0.523751 0.49218 0.128038
0.552789 0.498756 0.133974
0.582162 0.509041 0.141726
0.611887 0.522698 0.148959
0.643503 0.536187 0.155871
0.66836 0.54786 0.161913
0.689082 0.560723 0.168276
0.709438 0.571115 0.172992
0.731014 0.579812 0.178851
0.748974 0.592767 0.182681
0.766964 0.603021 0.187381
0.780621 0.612421 0.192432
0.793591 0.621851 0.197223
0.806088 0.630426 0.200198
0.818372 0.639841 0.203159
0.822263 0.64303 0.204105
0.063386 0.307271 0.0442817
0.078645 0.323079 0.0469062
0.105684 0.345708 0.0539712
0.127825 0.364691 0.0593271
0.15639 0.389303 0.0665446
0.188128 0.413397 0.0715648
0.218967 0.433188 0.0772869
0.246647 0.449454 0.0829786
0.27631 0.463004 0.0889754
0.305882 0.475334 0.0944381
0.334127 0.484215 0.0996719
0.361608 0.489906 0.105013
0.388708 0.493614 0.108324
0.41709 0.498543 0.110918
0.443198 0.50312 0.115328
0.47039 0.5075 0.120607
0.500847 0.512276 0.12604
0.530343 0.518868 0.131975
0.558556 0.524758 0.137743
0.586847 0.533547 0.144289
0.611688 0.542992 0.148821
0.643305 0.554971 0.155978
0.668772 0.567132 0.162249
0.690776 0.581003 0.169375
0.71075 0.589807 0.174868
0.731334 0.599176 0.179492
0.747341 0.609796 0.183688
0.764981 0.620737 0.188052
0.778851 0.628626 0.193698
0.793042 0.637568 0.195697
0.804685 0.646281 0.199374
0.817288 0.6542 0.205051
0.822019 0.656703 0.207111
0.0657511 0.327916 0.0470588
0.0822766 0.344228 0.049546
0.110842 0.368719 0.056199
0.135241 0.389929 0.0617075
0.162112 0.415274 0.0692454
0.191943 0.440558 0.0759899
0.223804 0.462318 0.0815137
0.253269 0.479988 0.0873121
0.2822 0.49482 0.0925612
0.311879 0.50692 0.0973068
0.340978 0.516014 0.103182
0.368963 0.523018 0.108461
0.396094 0.527886 0.111101
0.423545 0.531548 0.114366
0.450233 0.534234 0.119844
0.478004 0.537743 0.125032
0.508293 0.541421 0.130755
0.536812 0.545052 0.136202
0.563699 0.551354 0.141955
0.592996 0.55906 0.146258
0.619013 0.565896 0.151583
0.640986 0.57348 0.156603
0.667948 0.585168 0.162341
0.691966 0.596475 0.170092
0.710948 0.60882 0.174945
0.731807 0.619211 0.180545
0.748196 0.627832 0.184771
0.763928 0.636606 0.189532
0.778042 0.644388 0.19202
0.791882 0.65156 0.196536
0.803647 0.659007 0.200122
0.815198 0.668345 0.203098
0.820005 0.672389 0.204334
0.0695354 0.353872 0.0503243
0.0883345 0.370581 0.0535134
0.116548 0.394827 0.061738
0.141283 0.418509 0.0668345
0.168246 0.443976 0.0727855
0.198459 0.470588 0.0789654
0.230396 0.493431 0.0851759
0.2598 0.510613 0.0913252
0.288884 0.524147 0.0967727
0.319036 0.536095 0.101564
0.348989 0.545678 0.106218
0.377203 0.552728 0.110735
0.403616 0.558007 0.11458
0.430961 0.560983 0.118334
0.459464 0.56289 0.123674
0.485618 0.56463 0.128801
0.514168 0.568093 0.132799
0.540978 0.571527 0.136614
0.565805 0.575051 0.142092
0.594339 0.582467 0.147677
0.620188 0.587625 0.153246
0.643915 0.594842 0.158389
0.665187 0.599283 0.163897
0.688685 0.6121 0.168811
0.710216 0.622202 0.174075
0.730938 0.631861 0.181872
0.74728 0.641962 0.186938
0.764508 0.650065 0.18967
0.777691 0.657404 0.193637
0.79057 0.664622 0.196445
0.801068 0.671611 0.198642
0.812345 0.679774 0.202686
0.818235 0.683757 0.205066
0.075227 0.380972 0.0547646
0.0922866 0.399207 0.0573129
0.119615 0.423117 0.0645304
0.145617 0.449424 0.070222
0.174548 0.473762 0.0768902
0.205051 0.500435 0.0841535
0.236164 0.523568 0.0896315
0.265965 0.542016 0.095964
0.295354 0.556191 0.100893
0.326207 0.566842 0.104738
0.356054 0.575662 0.109743
0.383597 0.582544 0.113893
0.411856 0.587976 0.118151
0.440406 0.591379 0.122148
0.467201 0.592508 0.126925
0.492927 0.594064 0.13135
0.521508 0.596139 0.135134
0.54815 0.59765 0.140948
0.572137 0.601404 0.144869
0.598474 0.605005 0.149203
0.622751 0.610254 0.155627
0.645335 0.616098 0.160571
0.666377 0.620752 0.165118
0.6869 0.625223 0.167773
0.705821 0.635218 0.175235
0.726116 0.645365 0.180819
0.745205 0.654963 0.185824
0.762524 0.664317 0.190036
0.776013 0.67126 0.193225
0.78883 0.67776 0.195148
0.8 0.683833 0.199145
0.811276 0.690593 0.20325
0.817472 0.694301 0.204654
0.0835431 0.414328 0.0601205
0.0992142 0.432654 0.062211
0.125704 0.457191 0.0673533
0.153353 0.482216 0.0742351
0.181933 0.504585 0.0815442
0.212146 0.528313 0.0879225
0.242878 0.552026 0.0931106
0.272267 0.569711 0.0988632
0.302815 0.582284 0.104723
0.333013 0.593088 0.108965
0.361715 0.602518 0.113024
0.391836 0.60824 0.117784
0.419974 0.613382 0.12195
0.44686 0.617182 0.126116
0.474754 0.618509 0.13051
0.501106 0.619944 0.133822
0.528298 0.621698 0.139361
0.554574 0.622522 0.143267
0.576898 0.624048 0.148653
0.603204 0.627222 0.151247
0.625208 0.63151 0.15729
0.647334 0.636973 0.162631
0.667231 0.639429 0.166186
0.686061 0.64303 0.169268
0.702831 0.6477 0.173037
0.722408 0.656199 0.179629
0.740932 0.666377 0.184817
0.758129 0.675044 0.188861
0.772793 0.681956 0.192523
0.786374 0.68896 0.194873
0.798566 0.694652 0.198901
0.809094 0.700694 0.203159
0.81413 0.70428 0.204395
0.0898299 0.448325 0.0667277
0.109209 0.467704 0.0678721
0.133425 0.490654 0.0729839
0.160296 0.515175 0.0803082
0.190005 0.537652 0.0870222
0.220111 0.560693 0.0920882
0.250187 0.581155 0.0971237
0.279957 0.598444 0.102892
0.309697 0.611627 0.107561
0.34049 0.62121 0.111452
0.369284 0.629664 0.116274
0.398688 0.635523 0.121355
0.427344 0.640558 0.125673
0.455528 0.644572 0.128786
0.48304 0.64622 0.133318
0.509544 0.647028 0.137911
0.536736 0.647883 0.142535
0.561761 0.648951 0.147433
0.584833 0.649607 0.151629
0.607446 0.650385 0.155032
0.629145 0.653239 0.160922
0.650339 0.656641 0.163897
0.670039 0.658976 0.167605
0.687083 0.661753 0.171756
0.702907 0.664027 0.175753
0.719905 0.666758 0.180606
0.738033 0.674968 0.184054
0.754192 0.683589 0.187518
0.76965 0.690532 0.191226
0.783978 0.6972 0.194369
0.795499 0.703929 0.197925
0.806394 0.710628 0.201877
0.812985 0.714336 0.203876
0.0979934 0.487449 0.0742504
0.117021 0.50837 0.0755627
0.141436 0.529946 0.0810559
0.169192 0.552911 0.086305
0.198245 0.57232 0.0905013
0.228397 0.591699 0.0957046
0.259312 0.610895 0.101228
0.288563 0.627024 0.106233
0.316579 0.639689 0.110796
0.347127 0.647379 0.115434
0.37763 0.654597 0.120089
0.406867 0.660349 0.124361
0.434256 0.666529 0.128557
0.464195 0.669337 0.132799
0.490822 0.671244 0.137041
0.517128 0.671855 0.140597
0.544076 0.673106 0.145663
0.569116 0.673884 0.149615
0.591409 0.673243 0.154894
0.613596 0.673823 0.1579
0.632837 0.673884 0.162463
