public/LUTS/Cinematic/Cinematic_18.cube
TITLE "Generated by Resolve"
LUT_3D_SIZE 9
0.0736858 0.0583658 0.0583658
0.137575 0.0655833 0.0644388
0.218418 0.0846113 0.081178
0.316915 0.120668 0.113787
0.439139 0.176745 0.167025
0.571145 0.24828 0.234073
0.728054 0.331731 0.314839
0.889723 0.418128 0.394934
0.968811 0.458396 0.431479
0.0730449 0.0992447 0.0518502
0.13753 0.105303 0.0557259
0.236851 0.13753 0.0816205
0.370672 0.20061 0.138231
0.546685 0.295277 0.227573
0.737667 0.407248 0.330144
0.909148 0.505165 0.422187
1 0.576303 0.488304
1 0.612467 0.521813
0.0718242 0.150668 0.0518654
0.148669 0.174701 0.0609903
0.249912 0.20531 0.0918898
0.412161 0.290181 0.164858
0.629343 0.417899 0.280934
0.853361 0.558038 0.408713
1 0.664073 0.5084
1 0.750896 0.583032
1 0.799237 0.622248
0.0820172 0.214954 0.0644846
0.176196 0.263401 0.0901961
0.302068 0.315938 0.131533
0.448524 0.389502 0.19826
0.694469 0.544335 0.334585
0.94519 0.711528 0.48574
1 0.834134 0.595468
1 0.937575 0.677409
1 1 0.72398
0.116701 0.306493 0.101747
0.2392 0.399634 0.154284
0.396902 0.493095 0.220432
0.558648 0.576562 0.292622
0.769329 0.699001 0.407568
1 0.884962 0.571679
1 1 0.686366
1 1 0.764019
1 1 0.812421
0.184421 0.428305 0.165316
0.350927 0.583841 0.261082
0.559792 0.746487 0.372457
0.73077 0.835676 0.450385
0.913558 0.924971 0.538735
1 1 0.651728
1 1 0.759243
1 1 0.822858
1 1 0.866499
0.327581 0.658366 0.304158
0.531044 0.853681 0.430655
0.754131 1 0.556039
0.927214 1 0.629191
1 1 0.686
1 1 0.747478
1 1 0.798184
1 1 0.858457
1 1 0.895949
0.544503 0.997314 0.515267
0.726543 1 0.612009
0.903441 1 0.690776
1 1 0.747112
1 1 0.791211
1 1 0.821958
1 1 0.848707
1 1 0.872435
1 1 0.914992
0.686671 1 0.646601
0.839078 1 0.711025
0.993423 1 0.760159
1 1 0.801175
1 1 0.836149
1 1 0.862348
1 1 0.885008
1 1 0.904936
1 1 0.924849
0.0842756 0.0650187 0.109834
0.133104 0.0637064 0.102861
0.207446 0.0780499 0.113054
0.294118 0.106065 0.137774
0.39736 0.148348 0.175738
0.517708 0.205951 0.229892
0.661524 0.280964 0.301472
0.824506 0.365911 0.382696
0.91783 0.41149 0.423377
0.0683909 0.0987259 0.0976577
0.146105 0.113222 0.102159
0.274617 0.149538 0.129351
0.438941 0.216999 0.189349
0.627543 0.314885 0.2804
0.800381 0.412222 0.37351
0.953841 0.498146 0.455573
1 0.564065 0.515969
1 0.606332 0.551766
0.0633402 0.153246 0.0929427
0.149279 0.204761 0.110338
0.318959 0.258656 0.144381
0.530251 0.361227 0.237766
0.757626 0.489555 0.366705
0.951812 0.601175 0.476829
1 0.683742 0.555718
1 0.752178 0.613275
1 0.797162 0.651286
0.0747692 0.227893 0.107256
0.167941 0.325109 0.143389
0.361257 0.419287 0.197147
0.586892 0.513146 0.291661
0.859083 0.669932 0.448234
1 0.8009 0.577111
1 0.9019 0.665492
1 0.990204 0.732677
1 1 0.776165
0.121508 0.345312 0.154162
0.259678 0.521248 0.237491
0.496788 0.684031 0.341619
0.705119 0.762814 0.421408
0.960235 0.881636 0.548684
1 1 0.684138
1 1 0.774182
1 1 0.843473
1 1 0.891997
0.208286 0.502968 0.239399
0.440497 0.796246 0.398413
0.705745 1 0.54345
0.899916 1 0.615412
1 1 0.684321
1 1 0.77705
1 1 0.853498
1 1 0.919966
1 1 0.96878
0.372183 0.768658 0.400214
0.623682 1 0.557885
0.86331 1 0.680491
1 1 0.754238
1 1 0.805631
1 1 0.857038
1 1 0.908171
1 1 0.964904
1 1 1
0.564355 1 0.580072
0.765042 1 0.673961
0.966079 1 0.757168
1 1 0.82269
1 1 0.879347
1 1 0.925322
1 1 0.959304
1 1 0.98085
1 1 1
0.664424 1 0.675853
0.857404 1 0.749233
1 1 0.817319
1 1 0.866621
1 1 0.912322
1 1 0.95874
1 1 0.991379
1 1 1
1 1 1
0.0972457 0.0794232 0.179263
0.156313 0.0773175 0.174975
0.207141 0.0788281 0.157412
0.286397 0.10193 0.174594
0.377935 0.137896 0.205097
0.4869 0.188434 0.251072
0.622889 0.256733 0.314672
0.777691 0.335073 0.391623
0.867628 0.379995 0.43595
0.0783856 0.113405 0.16762
0.149248 0.127764 0.187015
0.248142 0.128161 0.178271
0.380087 0.171298 0.208179
0.540444 0.244007 0.272938
0.715099 0.331518 0.352544
0.886915 0.419989 0.436362
1 0.489067 0.49865
1 0.530221 0.538079
0.0686046 0.166064 0.162493
0.111772 0.1953 0.178866
0.252918 0.235477 0.204776
0.484794 0.32607 0.273838
0.785245 0.481102 0.412833
1 0.591531 0.520394
1 0.656809 0.580179
1 0.723491 0.639902
1 0.773739 0.683574
0.0864424 0.249393 0.182544
0.131426 0.319692 0.209659
0.274174 0.42034 0.264988
0.534325 0.501289 0.322148
0.895109 0.685069 0.49839
1 0.809567 0.623697
1 0.889845 0.697475
1 0.973724 0.769146
1 1 0.820417
0.154116 0.399969 0.252735
0.228931 0.523018 0.307424
0.432319 0.737102 0.43534
0.676173 0.82327 0.498482
0.959808 0.909529 0.599573
1 1 0.743526
1 1 0.836927
1 1 0.920287
1 1 0.982269
0.279011 0.61976 0.383276
0.41886 0.828367 0.482933
0.68455 1 0.66685
0.895384 1 0.728115
1 1 0.752728
1 1 0.843854
1 1 0.943023
1 1 1
1 1 1
0.447623 0.891051 0.547341
0.598932 1 0.639521
0.882963 1 0.813565
1 1 0.871229
1 1 0.881437
1 1 0.927871
1 1 1
1 1 1
1 1 1
0.596521 1 0.687099
0.727413 1 0.736339
1 1 0.893217
1 1 0.94902
1 1 0.976043
1 1 1
1 1 1
1 1 1
1 1 1
0.675502 1 0.759594
0.819974 1 0.799969
1 1 0.933486
1 1 0.988006
1 1 1
1 1 1
1 1 1
1 1 1
1 1 1
0.115358 0.101183 0.259525
0.181415 0.105531 0.267765
0.255467 0.111711 0.261036
0.310796 0.115373 0.232731
0.41146 0.153521 0.261692
0.519265 0.202472 0.305776
0.647898 0.266285 0.364981
0.785122 0.335912 0.43032
0.865614 0.374792 0.469047
0.10071 0.139162 0.255497
0.168276 0.161273 0.300542
0.278477 0.163058 0.312108
0.393835 0.175601 0.284321
0.530816 0.231876 0.323842
0.675486 0.306828 0.381872
0.83006 0.389715 0.457801
0.974914 0.46688 0.527459
1 0.504845 0.563607
0.0958267 0.199664 0.252628
0.136568 0.232715 0.297032
0.233326 0.261158 0.322988
0.39704 0.256306 0.314641
0.663737 0.376028 0.408026
0.914641 0.505501 0.519524
1 0.58996 0.5944
1 0.657313 0.653376
1 0.707088 0.697765
0.113451 0.28513 0.272953
0.149371 0.337026 0.315206
0.206683 0.382681 0.337865
0.383948 0.416083 0.349676
0.710597 0.548562 0.471122
1 0.765652 0.667979
1 0.877333 0.771267
1 0.968597 0.85098
1 1 0.911803
0.182773 0.442267 0.351904
0.235706 0.522789 0.4
0.330434 0.650721 0.467613
0.5187 0.756619 0.538918
0.762325 0.76846 0.560906
1 0.959243 0.736645
1 1 0.86215
1 1 0.945174
1 1 0.988403
0.323033 0.690791 0.50547
0.40296 0.802731 0.560876
0.547433 0.994629 0.667659
0.754955 1 0.77673
0.875563 0.995178 0.717464
1 1 0.784237
1 1 0.909148
1 1 0.98233
1 1 0.995422
0.48217 0.948058 0.662974
0.577356 1 0.724208
0.760037 1 0.849027
0.926085 1 0.910903
0.988586 1 0.842847
1 1 0.856504
1 1 0.925231
1 1 0.990127
1 1 1
0.596353 1 0.76556
0.687755 1 0.818769
0.929854 1 0.977172
1 1 0.965499
1 1 0.93077
1 1 0.92874
1 1 0.95816
1 1 1
1 1 1
0.658366 1 0.817151
0.760525 1 0.877012
1 1 1
1 1 1
1 1 0.992493
1 1 0.983169
1 1 0.993667
1 1 1
1 1 1
0.140917 0.130663 0.345235
0.208042 0.143435 0.371496
0.293568 0.158221 0.38938
0.370565 0.161059 0.361532
0.465736 0.183261 0.344274
0.583261 0.234165 0.384985
0.698283 0.289113 0.433631
0.815457 0.34786 0.487007
0.883604 0.38233 0.517998
0.134432 0.177218 0.35137
0.203037 0.208072 0.423835
0.310597 0.222217 0.463523
0.427832 0.222263 0.435721
0.55935 0.256229 0.413153
0.683192 0.313832 0.448722
0.809323 0.379049 0.50071
0.947921 0.454917 0.568276
1 0.495155 0.607141
0.13724 0.246677 0.354421
0.188952 0.29456 0.433478
0.269535 0.325017 0.491035
0.418311 0.305608 0.483696
0.63357 0.354406 0.495445
0.87274 0.467979 0.57821
1 0.561563 0.649439
1 0.628016 0.706065
1 0.675502 0.750637
0.168231 0.357824 0.400351
0.217456 0.422538 0.467338
0.250736 0.431846 0.494926
0.364553 0.448035 0.50634
0.565911 0.431327 0.48455
0.925246 0.627298 0.653452
1 0.780835 0.787823
1 0.880125 0.877333
1 0.941161 0.932998
0.222507 0.493721 0.465476
0.262989 0.53875 0.501427
0.306203 0.598672 0.542168
0.405035 0.673106 0.583322
0.571725 0.626398 0.54435
0.804166 0.710872 0.626474
1 0.869078 0.77435
1 0.962219 0.865278
1 0.984009 0.895125
0.340856 0.710689 0.594766
0.397787 0.775143 0.635142
0.480293 0.898268 0.707698
0.620508 1 0.794034
0.688319 0.869963 0.709316
0.795651 0.812131 0.675776
0.978439 0.921798 0.772122
1 0.977508 0.838148
1 0.985534 0.863401
0.493278 0.959625 0.748577
0.562692 1 0.796994
0.667414 1 0.880674
0.825101 1 0.973861
0.802426 0.999588 0.810376
0.860716 0.929366 0.756863
0.957794 0.962539 0.789685
1 1 0.847059
1 1 0.870146
0.599084 1 0.84773
0.676173 1 0.906249
0.799817 1 0.999649
0.947707 1 1
0.887205 1 0.845029
0.925109 1 0.822034
0.979706 1 0.830365
1 1 0.86392
1 1 0.890517
0.654627 1 0.890654
0.728786 1 0.948943
0.902846 1 1
0.983124 1 1
0.95903 1 0.881254
0.980804 1 0.866102
1 1 0.864927
1 1 0.883131
1 1 0.906508
0.17673 0.169009 0.439033
0.247044 0.189136 0.476326
0.331395 0.207416 0.502495
0.395712 0.204791 0.481468
0.491157 0.210544 0.444923
0.612604 0.253162 0.45716
0.721248 0.302663 0.496757
0.829267 0.354162 0.541238
0.887495 0.385061 0.568551
0.176837 0.223285 0.45069
0.253773 0.263447 0.553536
0.362097 0.291798 0.612985
0.451728 0.284703 0.591699
0.564782 0.2851 0.534081
0.689906 0.327306 0.527932
0.80116 0.378286 0.557122
0.930724 0.446418 0.61529
1 0.488151 0.654612
0.190616 0.310002 0.47393
0.250202 0.353719 0.563867
0.329015 0.388571 0.642298
0.479377 0.405402 0.689632
0.661006 0.407828 0.668544
0.858793 0.471611 0.680751
1 0.550454 0.724788
1 0.619303 0.780652
1 0.668101 0.823392
0.229053 0.429725 0.5308
0.282826 0.482414 0.599008
0.320302 0.490806 0.645609
0.438712 0.550301 0.720211
0.590265 0.485649 0.657099
0.869429 0.581048 0.732479
1 0.722576 0.846571
1 0.820081 0.926894
1 0.883284 0.983551
0.299107 0.591501 0.617166
0.338903 0.625071 0.652308
0.363607 0.643137 0.679957
0.433478 0.694957 0.733822
0.544594 0.648005 0.67303
0.676295 0.596536 0.622507
0.879759 0.712871 0.727337
1 0.812619 0.813001
1 0.853223 0.855711
0.367483 0.734859 0.682185
0.402045 0.759304 0.702586
0.453941 0.826261 0.751171
0.56051 0.957626 0.85214
0.65771 0.935546 0.830777
0.706188 0.738323 0.682063
0.800931 0.766766 0.710033
0.876921 0.815412 0.758221
0.923506 0.849073 0.792721
0.508705 0.971237 0.829435
0.573068 1 0.880964
0.644236 1 0.951247
0.752041 1 1
0.805585 1 0.959701
0.74995 0.831495 0.743832
0.816037 0.831388 0.742641
0.884443 0.864729 0.776501
0.917678 0.882338 0.800488
0.618585 1 0.938277
0.689616 1 0.998489
0.764858 1 1
0.914031 1 1
0.853681 1 0.93846
0.809857 0.901534 0.789868
0.849515 0.892149 0.781964
0.894484 0.904097 0.7944
0.927062 0.916518 0.813275
0.679271 1 0.994659
0.74699 1 1
0.841138 1 1
1 1 1
0.856046 1 0.884794
0.849928 0.940826 0.814847
0.870756 0.927306 0.807675
0.903426 0.931502 0.813031
0.942123 0.950469 0.828321
0.224506 0.218402 0.547341
0.301457 0.246403 0.596475
0.381537 0.264546 0.623041
0.432181 0.25597 0.600687
0.504021 0.243488 0.548012
0.6103 0.265873 0.535729
0.723659 0.309148 0.554925
0.828458 0.357946 0.596613
0.88658 0.386023 0.621195
0.224765 0.27306 0.552697
0.310475 0.321675 0.68014
0.422751 0.361181 0.757748
0.50779 0.353613 0.735698
0.591669 0.335225 0.664866
0.70248 0.355688 0.63537
0.799496 0.386618 0.628855
0.915373 0.443961 0.674083
0.987106 0.484306 0.708492
0.251164 0.372 0.598535
0.310643 0.404257 0.680018
0.401389 0.45745 0.798733
0.558053 0.50634 0.891005
0.718868 0.499046 0.869688
0.891386 0.528695 0.845533
1 0.563027 0.829709
1 0.620157 0.86566
1 0.665156 0.905226
0.298314 0.50045 0.670634
0.34963 0.535271 0.725917
0.400122 0.554147 0.797589
0.536629 0.648386 0.922148
0.693233 0.617533 0.894881
0.899138 0.638819 0.901061
1 0.712276 0.946929
1 0.796658 1
1 0.856977 1
0.362051 0.652918 0.748913
0.401083 0.674708 0.780011
0.437598 0.696452 0.82742
0.511818 0.755703 0.906874
0.64152 0.774197 0.88777
0.699275 0.629801 0.72987
0.860929 0.689693 0.794369
0.987808 0.773434 0.86363
1 0.815503 0.892348
0.434546 0.806088 0.822629
0.471687 0.830228 0.847303
0.514672 0.87303 0.892424
0.588434 0.959121 0.975311
0.695354 0.993332 0.992706
0.679866 0.737057 0.739467
0.7449 0.715236 0.717098
0.818357 0.754025 0.753368
0.863218 0.787747 0.78201
0.511406 0.955718 0.890028
0.563058 1 0.929442
0.626673 1 0.995956
0.720134 1 1
0.816312 1 1
0.732952 0.880934 0.821546
0.773724 0.795575 0.758007
0.820752 0.808865 0.773068
0.849928 0.825452 0.791318
0.636515 1 1
0.704372 1 1
0.768063 1 1
0.87422 1 1
0.917891 1 1
0.788251 0.937209 0.856092
0.799496 0.845808 0.78703
0.831693 0.845197 0.786969
0.860227 0.855573 0.800183
0.703609 1 1
0.768856 1 1
0.832197 1 1
0.97821 1 1
0.921447 1 1
0.806821 0.918898 0.837903
0.8215 0.875929 0.806348
0.846265 0.875013 0.804562
0.869749 0.879591 0.80853
0.284718 0.280354 0.678462
0.36939 0.311345 0.731838
0.435813 0.323018 0.746899
0.476707 0.310948 0.719966
0.542229 0.29453 0.673136
0.63653 0.303761 0.648127
0.738308 0.33254 0.648173
0.82739 0.364691 0.65919
0.882246 0.389334 0.681453
0.278035 0.328481 0.668025
0.368765 0.380865 0.804654
0.463752 0.412284 0.86952
0.545144 0.411353 0.856092
0.64065 0.401068 0.806836
0.76173 0.422309 0.78555
0.85008 0.443732 0.769055
0.910719 0.454063 0.748943
0.975723 0.487541 0.775799
0.31989 0.442863 0.737774
0.36965 0.456092 0.796445
0.466148 0.51577 0.936858
0.612863 0.571435 1
0.787503 0.584192 1
0.949554 0.605097 1
1 0.631876 0.996841
1 0.634104 0.96257
1 0.668421 0.986511
0.371145 0.571618 0.812924
0.420447 0.594842 0.859846
0.474052 0.614862 0.937621
0.625727 0.730968 1
0.799771 0.734081 1
0.966003 0.723156 1
1 0.768353 1
1 0.805493 1
1 0.855161 1
0.424765 0.704875 0.875196
0.470863 0.731243 0.916732
0.515892 0.757824 0.972793
0.605722 0.831388 1
0.754208 0.879927 1
0.757748 0.701823 0.857237
0.882826 0.729885 0.889021
1 0.788296 0.948623
1 0.826596 0.973602
0.490181 0.849546 0.941924
0.534936 0.881987 0.97731
0.582391 0.924117 1
0.651286 0.998657 1
0.769268 1 1
0.721813 0.78294 0.837171
0.756039 0.729198 0.771206
0.820386 0.746929 0.795346
0.861997 0.774426 0.815717
0.569894 1 1
0.620432 1 1
0.674144 1 1
0.745907 1 1
0.849363 1 1
0.771893 0.944427 0.935607
0.762264 0.792493 0.789334
0.798993 0.790387 0.786038
0.829404 0.803296 0.801129
0.640803 1 1
0.701762 1 1
0.759533 1 1
0.84387 1 1
0.944488 1 1
0.825879 1 0.975967
0.779126 0.845365 0.816159
0.8177 0.830259 0.80441
0.834897 0.834852 0.811505
0.719966 1 1
0.782895 1 1
0.833143 1 1
0.943145 1 1
1 1 1
0.830365 0.996948 0.935225
0.802365 0.870192 0.827619
0.825925 0.85214 0.818433
0.841749 0.850172 0.8168
0.322591 0.317052 0.757183
0.408255 0.347509 0.807385
0.465568 0.354253 0.8112
0.505364 0.339544 0.786542
0.573495 0.330877 0.752056
0.662699 0.335393 0.726619
0.755199 0.3552 0.716747
0.835279 0.380377 0.719051
0.878523 0.394934 0.721462
0.312535 0.36318 0.743191
0.399344 0.410468 0.874815
0.486397 0.436286 0.925444
0.563317 0.437583 0.914687
0.671595 0.44062 0.88748
0.801907 0.468299 0.880217
0.898207 0.49247 0.873091
0.946075 0.494682 0.842802
0.971328 0.494011 0.82855
0.362417 0.488746 0.825895
0.404791 0.487694 0.868894
0.498039 0.551553 1
0.636454 0.595499 1
0.814603 0.62324 1
0.982757 0.65124 1
1 0.684581 1
1 0.687373 1
1 0.680232 1
0.417258 0.617914 0.903487
0.461891 0.633555 0.944045
0.517876 0.651255 1
0.673579 0.77232 1
0.861814 0.79794 1
1 0.782727 1
1 0.81883 1
1 0.853056 1
1 0.867643 1
0.466865 0.740612 0.960555
0.516258 0.769482 1
0.565362 0.798016 1
0.667597 0.884825 1
0.828336 0.936568 1
0.822736 0.762982 0.951888
0.916716 0.771649 0.957748
1 0.815061 1
1 0.849485 1
0.52546 0.877379 1
0.57908 0.918944 1
0.629435 0.960174 1
0.701579 1 1
0.83946 1 1
0.757061 0.808194 0.883314
0.77937 0.755627 0.823606
0.829923 0.76376 0.833814
0.872557 0.780453 0.852689
0.601877 1 1
0.659937 1 1
0.713756 1 1
0.779095 1 1
0.897307 1 1
0.802167 0.955596 0.984771
0.774929 0.805798 0.823987
0.804608 0.796231 0.813748
0.828794 0.8 0.820447
0.675258 1 1
0.735042 1 1
0.782437 1 1
0.857343 1 1
0.976623 1 1
0.851835 1 1
0.787045 0.856458 0.848035
0.812375 0.828443 0.822248
0.829938 0.829175 0.821347
0.719738 1 1
0.782269 1 1
0.823392 1 1
0.907759 1 1
1 1 1
0.882078 1 1
0.801358 0.882094 0.863401
0.818463 0.844968 0.828107
0.838392 0.84686 0.829923
