public/LUTS/Cinematic/Cinematic_05.cube
TITLE "Generated by Resolve"
LUT_3D_SIZE 5
0.0126192 0.06804 0.0865187
0.313954 0.0543832 0.0728618
0.615305 0.0407416 0.0592203
0.916655 0.0270848 0.0455634
1 0.0134432 0.0319219
0 0.33753 0.0410163
0.268452 0.323873 0.0273747
0.569802 0.310231 0.0137179
0.871168 0.296574 6.10361e-05
1 0.282918 0
0 0.607034 0
0.22295 0.593378 0
0.524315 0.579736 0
0.825666 0.566079 0
1 0.552422 0
0 0.876539 0
0.177447 0.862882 0
0.478813 0.849241 0
0.780163 0.835584 0
1 0.821927 0
0 1 0
0.131945 1 0
0.43331 1 0
0.734661 1 0
1 1 0
0.00675975 0.0621958 0.395651
0.308095 0.0485389 0.38201
0.609461 0.0348974 0.368353
0.910811 0.0212406 0.354696
1 0.00758373 0.341054
0 0.331685 0.350149
0.262608 0.318029 0.336507
0.563958 0.304372 0.32285
0.865309 0.29073 0.309209
1 0.277073 0.295552
0 0.60119 0.304646
0.217105 0.587533 0.291005
0.518456 0.573877 0.277348
0.819806 0.560235 0.263706
1 0.546578 0.25005
0 0.870695 0.259159
0.171603 0.857038 0.245502
0.472953 0.843381 0.231846
0.774319 0.82974 0.218204
1 0.816083 0.204547
0 1 0.213657
0.126101 1 0.2
0.427451 1 0.186343
0.728817 1 0.172702
1 1 0.159045
0.000915541 0.0563363 0.704814
0.302251 0.0426947 0.691157
0.603601 0.0290379 0.677516
0.904967 0.0153964 0.663859
1 0.00173953 0.650202
0 0.325826 0.659312
0.256748 0.312184 0.645655
0.558114 0.298528 0.632013
0.859464 0.284871 0.618357
1 0.271229 0.604715
0 0.595331 0.613809
0.211261 0.581689 0.600153
0.512612 0.568032 0.586511
0.813962 0.554376 0.572854
1 0.540734 0.559213
0 0.864836 0.568307
0.165759 0.851194 0.55465
0.467109 0.837537 0.541009
0.76846 0.82388 0.527352
1 0.810239 0.51371
0 1 0.522805
0.120256 1 0.509163
0.421607 1 0.495506
0.722957 1 0.481849
1 1 0.468208
0 0.0504921 1
0.296407 0.0368505 1
0.597757 0.0231937 0.986664
0.899107 0.00953689 0.973007
1 0 0.959365
0 0.319982 0.96846
0.250904 0.306325 0.954818
0.552254 0.292683 0.941161
0.85362 0.279026 0.92752
1 0.265385 0.913863
0 0.589487 0.922957
0.205402 0.57583 0.909316
0.506752 0.562188 0.895659
0.808118 0.548531 0.882017
1 0.534874 0.86836
0 0.858991 0.87747
0.159899 0.845335 0.863813
0.461265 0.831693 0.850156
0.762615 0.818036 0.836515
1 0.804379 0.822858
0 1 0.831968
0.114397 1 0.818311
0.415763 1 0.804654
0.717113 1 0.791012
1 1 0.777356
0 0.0446479 1
0.290547 0.0309911 1
0.591913 0.0173495 1
0.893263 0.00369268 1
1 0 1
0 0.314137 1
0.24506 0.300481 1
0.54641 0.286839 1
0.847761 0.273182 1
1 0.259525 1
0 0.583642 1
0.199557 0.569986 1
0.500908 0.556329 1
0.802258 0.542687 1
1 0.52903 1
0 0.853147 1
0.154055 0.83949 1
0.455406 0.825833 1
0.756756 0.812192 1
1 0.798535 1
0 1 1
0.108553 1 1
0.409903 1 1
0.711254 1 1
1 1 1
