public/LUTS/Cinematic/Cinematic_12.cube
TITLE "Generated by Resolve"
LUT_3D_SIZE 5
0.0979171 0.0829328 0.0818952
0.219364 0.11249 0.104402
0.361059 0.157137 0.141711
0.502708 0.211032 0.189197
0.602655 0.255207 0.227268
0.120562 0.181811 0.10251
0.284977 0.245472 0.148821
0.466407 0.317998 0.214221
0.6112 0.385443 0.27068
0.696483 0.446189 0.313497
0.150607 0.302846 0.134066
0.359915 0.437446 0.227039
0.538705 0.493111 0.289006
0.689296 0.582055 0.357275
0.768673 0.647639 0.406592
0.243854 0.496818 0.212818
0.456474 0.628458 0.310643
0.614984 0.659434 0.365148
0.720394 0.68986 0.405112
0.788052 0.733639 0.450126
0.346502 0.693675 0.299077
0.524559 0.735073 0.362997
0.658457 0.750072 0.408179
0.741924 0.761578 0.437995
0.787945 0.772244 0.456031
0.118257 0.1066 0.178592
0.212726 0.106554 0.162142
0.318685 0.133303 0.17612
0.447608 0.172183 0.209186
0.556939 0.209857 0.242161
0.113695 0.196612 0.187884
0.297658 0.299306 0.273899
0.508354 0.325628 0.277623
0.658289 0.36614 0.307698
0.730282 0.427802 0.360922
0.167208 0.351034 0.24239
0.325414 0.517143 0.334936
0.593027 0.577432 0.411826
0.725231 0.623514 0.450996
0.784207 0.678874 0.528939
0.246189 0.550729 0.312215
0.492317 0.707515 0.458976
0.666209 0.728664 0.528954
0.754971 0.74168 0.549462
0.807797 0.771054 0.603861
0.313069 0.705013 0.363378
0.597055 0.776455 0.50425
0.711025 0.791135 0.563745
0.773785 0.799115 0.59942
0.811795 0.804669 0.611215
0.129534 0.127474 0.280751
0.244587 0.152117 0.314092
0.355154 0.157183 0.263554
0.451667 0.176944 0.270024
0.536767 0.204929 0.292348
0.14966 0.244343 0.308431
0.24773 0.293919 0.38497
0.464637 0.305592 0.384466
0.623178 0.326543 0.379492
0.706828 0.378546 0.423453
0.187076 0.367727 0.343557
0.241184 0.432868 0.38819
0.604639 0.629175 0.592004
0.712383 0.650339 0.608499
0.771618 0.696681 0.658351
0.264729 0.548257 0.420676
0.351019 0.647395 0.479896
0.673808 0.751995 0.675151
0.763928 0.767529 0.69572
0.810468 0.789303 0.727062
0.312123 0.658656 0.458747
0.491356 0.767346 0.587015
0.749767 0.811399 0.720241
0.794858 0.819364 0.738979
0.819593 0.822553 0.739956
0.152712 0.154635 0.397147
0.259083 0.179919 0.426337
0.355718 0.180392 0.373312
0.449546 0.184771 0.343664
0.527733 0.206485 0.359167
0.17705 0.269154 0.412802
0.245808 0.294697 0.504051
0.478538 0.348257 0.555581
0.607919 0.343969 0.508232
0.685512 0.371817 0.524208
0.218875 0.402991 0.456168
0.261326 0.431708 0.503319
0.543633 0.604868 0.647044
0.693889 0.631159 0.668956
0.754162 0.671855 0.700771
0.268849 0.537926 0.495705
0.326528 0.602838 0.551522
0.542504 0.707408 0.663294
0.781292 0.790967 0.774655
0.818524 0.808545 0.793103
0.338415 0.66453 0.564797
0.41149 0.739834 0.631205
0.689296 0.802289 0.751369
0.810895 0.831403 0.803037
0.831327 0.835294 0.806409
0.179294 0.18262 0.492897
0.266896 0.196658 0.501915
0.373816 0.205631 0.473625
0.476539 0.219409 0.447578
0.51989 0.214221 0.42359
0.197772 0.287861 0.499382
0.268528 0.31545 0.605737
0.49099 0.370916 0.645457
0.633326 0.39765 0.633249
0.670893 0.383307 0.608392
0.240467 0.417639 0.54229
0.289006 0.446174 0.598032
0.573434 0.62385 0.712245
0.716182 0.661906 0.733501
0.75433 0.662882 0.737392
0.297078 0.556954 0.5841
0.347463 0.608011 0.635584
0.541176 0.70837 0.721447
0.781033 0.794232 0.801144
0.815518 0.80444 0.811612
0.342916 0.652522 0.620859
0.392447 0.712047 0.673793
0.601343 0.781445 0.753521
0.794949 0.82742 0.818616
0.8392 0.843107 0.835294
