public/LUTS/Cinematic/Cinematic_08.cube
TITLE "Generated by Resolve"
LUT_3D_SIZE 5
0 0.000640879 0.0167697
0.23006 0 0.0115206
0.499809 0 0.00627146
0.769558 0 0.00102235
1 0 0
0 0.258122 0
0.212558 0.252872 0
0.482307 0.247623 0
0.752056 0.242374 0
1 0.237125 0
0 0.515633 0
0.195056 0.510384 0
0.464805 0.505135 0
0.734554 0.49987 0
1 0.494621 0
0 0.773129 0
0.177554 0.76788 0
0.447303 0.762631 0
0.717067 0.757382 0
0.986816 0.752132 0
0 1 0
0.160052 1 0
0.429801 1 0
0.699565 1 0
0.969314 1 0
0 0 0.289509
0.227802 0 0.28426
0.497551 0 0.279011
0.767315 0 0.273762
1 0 0.268498
0 0.255879 0.272007
0.2103 0.250629 0.266758
0.480064 0.24538 0.261509
0.749813 0.240131 0.25626
1 0.234867 0.251011
0 0.513375 0.254505
0.192798 0.508125 0.249256
0.462562 0.502876 0.244007
0.732311 0.497627 0.238758
1 0.492378 0.233509
0 0.770886 0.237003
0.175311 0.765637 0.231754
0.44506 0.760388 0.226505
0.714809 0.755138 0.221256
0.984573 0.749874 0.216007
0 1 0.219501
0.157809 1 0.214252
0.427558 1 0.209003
0.697307 1 0.203754
0.967071 1 0.198505
0 0 0.562264
0.225559 0 0.557015
0.495308 0 0.551766
0.765057 0 0.546517
1 0 0.541253
0 0.253635 0.544762
0.208057 0.248371 0.539513
0.477806 0.243122 0.534264
0.747555 0.237873 0.529015
1 0.232624 0.523766
0 0.511131 0.52726
0.190555 0.505882 0.522011
0.460304 0.500633 0.516762
0.730068 0.495384 0.511513
0.999817 0.490135 0.506264
0 0.768643 0.509758
0.173053 0.763378 0.504509
0.442802 0.758129 0.49926
0.712566 0.75288 0.494011
0.982315 0.747631 0.488762
0 1 0.492256
0.15555 1 0.487007
0.425299 1 0.481758
0.695064 1 0.476509
0.964813 1 0.47126
0 0 0.835019
0.223301 0 0.82977
0.49305 0 0.824521
0.762814 0 0.819272
1 0 0.814008
0 0.251377 0.817517
0.205798 0.246128 0.812268
0.475563 0.240879 0.807019
0.745312 0.23563 0.80177
1 0.230381 0.796521
0 0.508888 0.800015
0.188296 0.503639 0.794766
0.458061 0.498375 0.789517
0.72781 0.493126 0.784268
0.997559 0.487877 0.779019
0 0.766384 0.782513
0.170809 0.761135 0.777264
0.440558 0.755886 0.772015
0.710307 0.750637 0.766766
0.980072 0.745388 0.761517
0 1 0.765011
0.153307 1 0.759762
0.423056 1 0.754513
0.692805 1 0.749264
0.96257 1 0.744015
0 0 1
0.221057 0 1
0.490806 0 1
0.760555 0 1
1 0 1
0 0.249134 1
0.203555 0.243885 1
0.473304 0.238636 1
0.743069 0.233371 1
1 0.228122 1
0 0.50663 1
0.186053 0.501381 1
0.455802 0.496132 1
0.725567 0.490883 1
0.995315 0.485634 1
0 0.764141 1
0.168551 0.758892 1
0.4383 0.753643 1
0.708064 0.748379 1
0.977813 0.74313 1
0 1 1
0.151049 1 1
0.420813 1 1
0.690562 1 1
0.960311 1 1
