public/LUTS/Cinematic/Cinematic_21.cube
TITLE "Generated by Resolve"
LUT_3D_SIZE 9
0.0552529 0.0821393 0.0895247
0.0969863 0.0893568 0.0881514
0.182834 0.109041 0.0865644
0.321065 0.107286 0.046479
0.540429 0.135424 0.0793164
0.72401 0.199756 0.114
0.837674 0.276448 0.139803
0.910872 0.369192 0.161227
0.911803 0.434806 0.169207
0.0556649 0.112352 0.0975814
0.101793 0.108507 0.0903182
0.186831 0.126116 0.0839399
0.321782 0.144228 0.0493019
0.554223 0.177188 0.0847181
0.738994 0.207385 0.117082
0.846738 0.254597 0.139483
0.910582 0.348486 0.158999
0.91162 0.421698 0.167483
0.0587015 0.160525 0.112673
0.0984054 0.160723 0.110887
0.18941 0.158465 0.0989242
0.339254 0.180301 0.0584726
0.584802 0.243168 0.0959029
0.75436 0.298344 0.127977
0.854841 0.339452 0.148959
0.911223 0.396963 0.164462
0.911833 0.435325 0.169192
0.0598459 0.224292 0.134798
0.0949722 0.228199 0.126833
0.170108 0.263584 0.123842
0.357107 0.241947 0.0862745
0.628565 0.300496 0.109102
0.791913 0.37435 0.142824
0.882994 0.450065 0.166751
0.913451 0.522118 0.181476
0.914092 0.549966 0.185794
0.0749065 0.349203 0.171969
0.106691 0.358709 0.160891
0.169162 0.396353 0.152316
0.371572 0.473503 0.18143
0.657664 0.415152 0.129442
0.819455 0.468894 0.159976
0.913695 0.545846 0.185061
0.915602 0.613336 0.196201
0.915831 0.62092 0.197498
0.109972 0.505577 0.213184
0.139788 0.517815 0.201541
0.194934 0.546563 0.186526
0.379797 0.620935 0.212741
0.674434 0.69131 0.247196
0.833326 0.594232 0.182132
0.915923 0.625513 0.198276
0.917296 0.674876 0.207111
0.917403 0.678157 0.20766
0.148684 0.659068 0.246555
0.174624 0.670619 0.235721
0.229252 0.687663 0.218051
0.399847 0.743801 0.240726
0.671443 0.805661 0.281102
0.828443 0.82652 0.311162
0.919234 0.737331 0.218677
0.919097 0.732967 0.217853
0.919173 0.735805 0.218402
0.184955 0.794049 0.281743
0.214801 0.804852 0.267597
0.277302 0.81593 0.253971
0.431373 0.845731 0.276799
0.6551 0.892668 0.321599
0.811002 0.927565 0.363882
0.928313 0.937484 0.394308
0.922591 0.832319 0.23743
0.921691 0.808377 0.232532
0.247898 0.914153 0.326101
0.27808 0.925093 0.31545
0.346136 0.933577 0.310231
0.472313 0.940703 0.328588
0.639704 0.944213 0.351751
0.778042 0.947188 0.370672
0.906737 0.951049 0.396597
0.952407 0.952407 0.404807
0.951949 0.947341 0.401816
0.0425879 0.124086 0.149706
0.0756847 0.121065 0.136248
0.136156 0.123095 0.120516
0.24303 0.167041 0.14464
0.493935 0.202991 0.10959
0.721843 0.239628 0.116915
0.840574 0.284184 0.141024
0.910872 0.370169 0.161379
0.911803 0.434638 0.169146
0.0429847 0.126131 0.13959
0.0785229 0.130129 0.144152
0.151263 0.138079 0.134524
0.296849 0.154345 0.110903
0.539712 0.190005 0.084123
0.731914 0.226886 0.117494
0.840269 0.278737 0.140475
0.91075 0.362051 0.160464
0.911772 0.432883 0.168917
0.0396277 0.169085 0.153094
0.0649729 0.173175 0.150591
0.165408 0.1664 0.137621
0.317494 0.186313 0.105867
0.564767 0.235203 0.0920577
0.747784 0.270237 0.124071
0.846189 0.308415 0.14432
0.910826 0.368673 0.161196
0.911635 0.422553 0.16759
0.0475166 0.255741 0.183886
0.0571603 0.239887 0.165011
0.132082 0.251667 0.148699
0.333211 0.248554 0.119677
0.59617 0.303548 0.104845
0.774792 0.377035 0.14052
0.86537 0.443885 0.163287
0.912963 0.497658 0.177844
0.913619 0.528374 0.182422
0.0766308 0.380392 0.218952
0.0786755 0.365423 0.198352
0.145281 0.383886 0.175723
0.316579 0.451469 0.184634
0.625345 0.417014 0.125582
0.802762 0.472633 0.158129
0.90164 0.548852 0.183886
0.915511 0.608728 0.195438
0.915831 0.623087 0.197879
0.11519 0.531731 0.256611
0.117357 0.521309 0.236332
0.180728 0.541772 0.208652
0.334279 0.598077 0.216159
0.640314 0.683711 0.25098
0.815213 0.599985 0.18085
0.915999 0.631464 0.199298
0.91754 0.682094 0.208423
0.918227 0.682933 0.208667
0.153307 0.676677 0.289311
0.156374 0.672221 0.268971
0.217899 0.691035 0.237949
0.363516 0.725795 0.24506
0.627024 0.792172 0.281117
0.812329 0.823133 0.315022
0.919036 0.744305 0.219959
0.91928 0.738506 0.218936
0.91928 0.738994 0.219028
0.187488 0.803601 0.326619
0.199832 0.8056 0.301289
0.261189 0.818387 0.268818
0.398688 0.832227 0.280583
0.621042 0.879393 0.321019
0.78941 0.915053 0.363134
0.909133 0.928252 0.394217
0.92253 0.831769 0.237293
0.92166 0.806867 0.232258
0.217929 0.912428 0.3879
0.265614 0.924468 0.345281
0.323568 0.933989 0.321492
0.445533 0.937758 0.334798
0.614069 0.945068 0.362646
0.75555 0.948058 0.381567
0.881666 0.951019 0.399435
0.952758 0.952758 0.409018
0.952117 0.946303 0.40415
0.034699 0.177371 0.22858
0.0393683 0.172946 0.206714
0.0872511 0.173754 0.19057
0.193912 0.179416 0.164874
0.389013 0.251209 0.20032
0.669474 0.301534 0.186282
0.822507 0.355825 0.164233
0.911315 0.400839 0.164935
0.912016 0.445167 0.170535
0.0365606 0.181888 0.217227
0.0357824 0.181262 0.224552
0.0905623 0.181827 0.205432
0.218952 0.186084 0.171328
0.438209 0.255619 0.201404
0.701381 0.300893 0.17435
0.832578 0.349752 0.150149
0.911223 0.396262 0.164355
0.912016 0.444938 0.17052
0.0377508 0.183398 0.207813
0.0382239 0.189792 0.213825
0.087541 0.201053 0.230793
0.252872 0.214557 0.202518
0.529244 0.248341 0.175906
0.732403 0.294438 0.141299
0.840131 0.329473 0.145418
0.910994 0.381125 0.162585
0.911818 0.434974 0.169177
0.0472267 0.25333 0.242405
0.0516518 0.27631 0.247868
0.0569772 0.27512 0.235172
0.28687 0.271534 0.196536
0.562936 0.318456 0.171557
0.750134 0.383001 0.145373
0.849088 0.424277 0.15816
0.912322 0.461204 0.172686
0.913008 0.498344 0.177935
0.0932021 0.446204 0.332235
0.0878004 0.42504 0.291936
0.0873579 0.40206 0.258671
0.234699 0.436027 0.221332
0.589426 0.438148 0.174304
0.777935 0.484657 0.15761
0.882643 0.556542 0.182498
0.915618 0.611887 0.195972
0.91603 0.629725 0.199023
0.129015 0.584817 0.37113
0.124254 0.566583 0.326406
0.133516 0.552422 0.289296
0.273991 0.584131 0.247486
0.574792 0.666606 0.273686
0.78883 0.609155 0.179141
0.900801 0.637858 0.198459
0.917678 0.68751 0.209384
0.9178 0.692119 0.210254
0.162493 0.711055 0.404181
0.159411 0.699687 0.357748
0.183856 0.697917 0.314473
0.322759 0.718898 0.275135
0.569314 0.776272 0.302373
0.788754 0.817792 0.334661
0.900526 0.748043 0.218509
0.919539 0.747005 0.220554
0.919493 0.745495 0.220264
0.191791 0.819348 0.439261
0.190616 0.81503 0.393622
0.234638 0.821759 0.341665
0.369406 0.833234 0.309483
0.577508 0.865309 0.337377
0.759731 0.903243 0.378531
0.891112 0.922667 0.40882
0.92256 0.832227 0.237415
0.921584 0.804883 0.23183
0.218555 0.917357 0.489265
0.218387 0.91664 0.448875
0.298756 0.93312 0.384955
0.420218 0.940826 0.362325
0.585458 0.947143 0.387259
0.730556 0.95021 0.408774
0.855528 0.952392 0.418051
0.954177 0.954177 0.424674
0.953353 0.946853 0.417288
0.0512551 0.266865 0.359152
0.0496223 0.262089 0.327184
0.0486152 0.260563 0.297612
0.0788891 0.26363 0.265354
0.301518 0.275914 0.200061
0.561135 0.340414 0.232883
0.765194 0.433433 0.277867
0.902403 0.480018 0.282612
0.93225 0.527443 0.307637
0.0524147 0.273213 0.3505
0.0523079 0.271473 0.362768
0.0510414 0.269017 0.324956
0.0895399 0.272419 0.285985
0.329015 0.281025 0.225193
0.58201 0.355138 0.252964
0.78201 0.435645 0.283513
0.91191 0.482231 0.283787
0.930358 0.519875 0.287709
0.0526131 0.275135 0.341375
0.0550393 0.285344 0.354192
0.0564584 0.289769 0.377386
0.105852 0.289525 0.325551
0.37435 0.298863 0.259022
0.622995 0.379477 0.290776
0.807431 0.434821 0.291615
0.927062 0.483726 0.287861
0.927443 0.506035 0.260838
0.0532998 0.279377 0.332235
0.0560006 0.291173 0.343374
0.0603647 0.309514 0.361975
0.122301 0.332784 0.393317
0.450416 0.356817 0.332219
0.70811 0.406928 0.334936
0.845502 0.440238 0.305715
0.928191 0.473167 0.271061
0.921248 0.485496 0.216037
0.0805219 0.395377 0.406348
0.0874037 0.423239 0.412238
0.0975662 0.463401 0.426871
0.106752 0.474174 0.412085
0.521798 0.484398 0.339574
0.749416 0.530541 0.355962
0.866285 0.583291 0.323415
0.93286 0.617548 0.300755
0.927153 0.626474 0.251286
0.144854 0.644785 0.566979
0.14226 0.63505 0.52285
0.139116 0.623194 0.478767
0.146807 0.60531 0.425956
0.471122 0.651804 0.379019
0.76643 0.64155 0.302037
0.884611 0.664332 0.296986
0.928023 0.706279 0.253132
0.918685 0.707286 0.214237
0.173205 0.750835 0.600671
0.171176 0.743542 0.552026
0.169116 0.735698 0.502403
0.213367 0.732662 0.438529
0.498314 0.762585 0.387182
0.737881 0.807706 0.40734
0.881407 0.759854 0.250553
0.920897 0.756756 0.225269
0.919997 0.759411 0.222934
0.197467 0.840146 0.629007
0.196506 0.836591 0.581872
0.195407 0.832593 0.529244
0.284932 0.841398 0.45095
0.521324 0.8542 0.41059
0.709361 0.888197 0.439841
0.866255 0.916564 0.458228
0.922713 0.834806 0.237949
0.921767 0.811048 0.233066
0.219104 0.919295 0.655528
0.219104 0.919295 0.612634
0.219104 0.919295 0.563561
0.35346 0.942397 0.478904
0.550225 0.951736 0.450172
0.697124 0.954482 0.46949
0.8271 0.955871 0.469505
0.957244 0.957244 0.462013
0.956085 0.946029 0.452995
0.0842756 0.401755 0.533776
0.0821698 0.395743 0.493858
0.0802167 0.390906 0.448707
0.0782177 0.386358 0.395682
0.153796 0.39469 0.322148
0.489128 0.384222 0.207034
0.713252 0.424659 0.222293
0.865599 0.539117 0.428382
0.953033 0.626612 0.595728
0.0848096 0.404593 0.528405
0.0843671 0.401663 0.540658
0.0818799 0.395132 0.487098
0.0795605 0.389975 0.423682
0.171649 0.399481 0.340642
0.506004 0.387366 0.230762
0.725963 0.436362 0.246525
0.874205 0.548989 0.456199
0.952621 0.624872 0.589929
0.0851911 0.40676 0.52076
0.086656 0.412055 0.532067
0.0865949 0.410468 0.552621
0.0837415 0.403555 0.481407
0.20412 0.411505 0.384543
0.532815 0.400916 0.285451
0.741787 0.46627 0.327825
0.886213 0.566384 0.503792
0.951034 0.615793 0.565789
0.0850843 0.406928 0.513603
0.0878462 0.418051 0.52343
0.0920577 0.434699 0.542138
0.0945754 0.44303 0.573571
0.257099 0.440131 0.473289
0.583597 0.446876 0.386664
0.783032 0.516762 0.456397
0.912779 0.587106 0.54284
0.947311 0.59762 0.509056
0.0872206 0.416587 0.506783
0.0903182 0.429358 0.514336
0.0952468 0.449104 0.530694
0.103395 0.481636 0.557015
0.331411 0.529915 0.61178
0.667247 0.570626 0.567742
0.841138 0.612131 0.588876
0.948989 0.617288 0.549004
0.943191 0.5879 0.445655
0.11754 0.538079 0.58587
0.123323 0.561669 0.588754
0.130541 0.590249 0.59852
0.141115 0.630716 0.6206
0.301534 0.680308 0.633738
0.723857 0.675868 0.562036
0.861723 0.716731 0.580606
0.952438 0.735393 0.541527
0.948425 0.726055 0.479118
0.170428 0.740658 0.735836
0.177996 0.768765 0.740764
0.179538 0.774487 0.716838
0.17789 0.768246 0.67277
0.351934 0.778683 0.607462
0.67509 0.79855 0.564797
0.870405 0.782467 0.451194
0.948287 0.781811 0.444923
0.945342 0.783612 0.39939
0.203021 0.860517 0.80061
0.202213 0.857343 0.767575
0.201465 0.854719 0.730465
0.200198 0.850095 0.680903
0.421607 0.865888 0.588495
0.668299 0.875166 0.556298
0.827176 0.903655 0.553597
0.943313 0.847639 0.342443
0.939223 0.830671 0.311681
0.219104 0.919295 0.803403
0.219104 0.919295 0.772274
0.219104 0.919295 0.737591
0.219104 0.919295 0.68925
0.49456 0.954559 0.580102
0.673945 0.960372 0.564446
0.794369 0.961898 0.567117
0.956329 0.962203 0.535271
0.961059 0.950454 0.522362
0.120119 0.541817 0.687266
0.117952 0.535225 0.651576
0.114595 0.525063 0.601297
0.111482 0.515572 0.547845
0.106355 0.497627 0.475303
0.350027 0.51931 0.410422
0.670604 0.501076 0.371221
0.839887 0.549477 0.43563
0.95761 0.657847 0.672847
0.119005 0.537133 0.682841
0.118364 0.534035 0.6907
0.114946 0.52343 0.641932
0.111528 0.51368 0.580468
0.106645 0.495338 0.495918
0.371481 0.520333 0.433768
0.676341 0.507897 0.400595
0.844404 0.554788 0.461585
0.957977 0.661006 0.683482
0.118166 0.534173 0.676982
0.117983 0.533211 0.682521
0.116991 0.528069 0.695506
0.113832 0.518959 0.641566
0.115999 0.503868 0.547677
0.409339 0.523857 0.488243
0.687312 0.525399 0.459113
0.855985 0.571832 0.519173
0.958495 0.665797 0.698924
0.117678 0.532616 0.67187
0.119036 0.537926 0.67747
0.120714 0.544182 0.687694
0.121035 0.54377 0.710002
0.165469 0.537545 0.64715
0.469993 0.532128 0.58027
0.726528 0.551431 0.540017
0.877134 0.611795 0.615808
0.959823 0.679484 0.728313
0.117708 0.53312 0.666804
0.119844 0.541787 0.671611
0.123659 0.556848 0.681712
0.130694 0.583932 0.703395
0.226658 0.607492 0.747829
0.554009 0.592386 0.698558
0.784375 0.621607 0.653727
0.909743 0.684474 0.73167
0.961639 0.701671 0.73106
0.121141 0.547448 0.664958
0.124315 0.560296 0.669001
0.128511 0.576928 0.677531
0.135637 0.604578 0.697414
0.230411 0.654017 0.739361
0.63006 0.699489 0.766705
0.823606 0.732921 0.753079
0.952499 0.755917 0.759762
0.963699 0.738399 0.717693
0.149706 0.658671 0.736233
0.154437 0.67744 0.739086
0.159472 0.696895 0.745007
0.166247 0.722957 0.756619
0.175296 0.755077 0.766003
0.57792 0.810681 0.773144
0.848371 0.804334 0.711818
0.963363 0.819684 0.710842
0.963317 0.816312 0.679362
0.189593 0.808759 0.844938
0.194324 0.827268 0.845899
0.200122 0.849699 0.847929
0.205814 0.870665 0.840726
0.203693 0.862821 0.793332
0.599512 0.886015 0.727535
0.798932 0.892393 0.697246
0.957259 0.860578 0.579629
0.958618 0.850889 0.556146
0.219104 0.919295 0.919249
0.219104 0.919295 0.899977
0.219104 0.919295 0.868803
0.219104 0.919295 0.834257
0.233478 0.92282 0.781888
0.640406 0.964691 0.697704
0.779416 0.969192 0.688502
0.914427 0.96875 0.65182
0.967849 0.958953 0.629129
0.153597 0.669581 0.794736
0.152483 0.666316 0.780468
0.150118 0.658579 0.756481
0.146944 0.647868 0.728862
0.143114 0.63476 0.69543
0.274632 0.634012 0.683207
0.612512 0.624781 0.664912
0.826032 0.64126 0.662531
0.958755 0.669276 0.694148
0.151293 0.660334 0.794232
0.15111 0.659113 0.798627
0.14905 0.652461 0.779812
0.145983 0.64239 0.74934
0.142321 0.630793 0.70956
0.291005 0.632761 0.698619
0.626093 0.61976 0.676646
0.829816 0.639948 0.671992
0.958831 0.669703 0.703548
0.149416 0.652689 0.792782
0.148699 0.649516 0.795972
0.147829 0.64538 0.801846
0.145434 0.637385 0.781842
0.141939 0.627008 0.738155
0.315343 0.629679 0.725032
0.643122 0.612543 0.698161
0.836027 0.636988 0.68629
0.959213 0.672953 0.724514
0.148135 0.647791 0.790616
0.148409 0.648524 0.793957
0.148455 0.64828 0.798764
0.147189 0.642237 0.807141
0.144549 0.633844 0.783093
0.35729 0.635218 0.769711
0.671443 0.614832 0.736263
0.8477 0.641855 0.718059
0.960708 0.687633 0.762432
0.147402 0.644984 0.787823
0.148623 0.649577 0.791379
0.150835 0.658122 0.796811
0.154131 0.670726 0.806317
0.155016 0.67277 0.82179
0.433845 0.673213 0.826642
0.725124 0.661418 0.797818
0.871244 0.680797 0.770169
0.964401 0.723735 0.807904
0.147677 0.646281 0.78613
0.149889 0.654856 0.789548
0.152697 0.665843 0.794415
0.157458 0.684062 0.804608
0.164904 0.712749 0.821118
0.489296 0.734676 0.857282
0.771344 0.737926 0.838254
0.900511 0.751461 0.812543
0.969635 0.775219 0.842344
0.15227 0.664607 0.789563
0.155169 0.675975 0.792233
0.158312 0.68835 0.796201
0.162875 0.705806 0.804883
0.169146 0.72987 0.817823
0.48423 0.774273 0.851118
0.795758 0.814847 0.855909
0.922499 0.828443 0.853178
0.975952 0.830594 0.852293
0.175738 0.754009 0.843061
0.178988 0.766674 0.845136
0.182391 0.779873 0.848432
0.186664 0.796521 0.853574
0.192081 0.817594 0.856565
0.383505 0.862333 0.873869
0.758907 0.895796 0.853971
0.934508 0.887236 0.81091
0.975525 0.894514 0.80502
0.204181 0.861158 0.916899
0.208576 0.878325 0.917601
0.213703 0.898421 0.91841
0.21854 0.917113 0.919203
0.219104 0.919295 0.914397
0.38117 0.94548 0.873442
0.754772 0.97351 0.813107
0.882551 0.977569 0.78764
0.976822 0.970413 0.7617
0.182803 0.779995 0.869108
0.182818 0.780362 0.865019
0.181674 0.776547 0.857191
0.179522 0.768566 0.849073
0.176699 0.757885 0.842405
0.179278 0.747097 0.838422
0.547494 0.741909 0.858763
0.810101 0.720775 0.849012
0.961563 0.73196 0.845792
0.180407 0.770123 0.872984
0.180621 0.770748 0.876158
0.179797 0.767971 0.870695
0.177722 0.760525 0.859159
0.175082 0.750957 0.847608
0.183352 0.743847 0.843839
0.562432 0.737987 0.863111
0.814511 0.716976 0.851713
0.961883 0.73019 0.848371
0.177829 0.759686 0.875578
0.177127 0.756451 0.878584
0.176562 0.753918 0.881727
0.175174 0.749035 0.875486
0.172702 0.740612 0.85893
0.193347 0.738521 0.853834
0.580224 0.732082 0.870649
0.818814 0.712764 0.857038
0.962402 0.727184 0.851637
0.175967 0.752132 0.8766
0.175189 0.748623 0.879377
0.17438 0.745235 0.882338
0.173159 0.739864 0.886809
0.171115 0.732372 0.878523
0.210391 0.734173 0.871077
0.607324 0.726986 0.882643
0.827405 0.710323 0.866346
0.963653 0.726177 0.858137
0.174533 0.746487 0.875914
0.174395 0.74548 0.878614
0.174701 0.746624 0.881636
0.175357 0.74873 0.886702
0.174228 0.743709 0.894697
0.243351 0.744839 0.900236
0.638865 0.739086 0.905165
0.841062 0.726635 0.883665
0.96669 0.741466 0.873472
0.173678 0.743145 0.874434
0.174166 0.744884 0.876799
0.175341 0.749157 0.879606
0.177661 0.758007 0.885801
0.181048 0.770962 0.897307
0.278645 0.775937 0.920134
0.687922 0.773144 0.928939
0.865721 0.767239 0.906233
0.970275 0.775784 0.892103
0.173968 0.744289 0.874556
0.175067 0.748394 0.876204
0.176715 0.754864 0.879149
0.17937 0.765011 0.884718
0.183688 0.781476 0.896025
0.29601 0.806348 0.920195
0.731121 0.820569 0.939254
0.88893 0.820035 0.92163
0.975998 0.825895 0.909453
0.177661 0.758556 0.879362
0.179522 0.765789 0.880964
0.181552 0.773907 0.883711
0.184131 0.783642 0.888472
0.187823 0.797772 0.896239
0.323735 0.821347 0.917494
0.725429 0.854002 0.929198
0.89575 0.892454 0.920226
0.984726 0.899428 0.924758
0.193256 0.818051 0.915999
0.19556 0.827161 0.91664
0.198077 0.83711 0.917433
0.201297 0.849729 0.917372
0.205554 0.866529 0.917281
0.300221 0.89807 0.935531
0.671305 0.948653 0.944305
0.877089 0.981491 0.924147
0.986664 0.97792 0.881239
0.195178 0.826459 0.903319
0.195392 0.827375 0.902083
0.19469 0.824887 0.898894
0.192874 0.817899 0.896147
0.190265 0.807584 0.895811
0.188006 0.79823 0.899153
0.504189 0.78996 0.926543
0.803159 0.781826 0.928283
0.961318 0.757656 0.916579
0.192645 0.816022 0.909682
0.193042 0.817334 0.912779
0.192615 0.815885 0.910597
0.190936 0.809583 0.904646
0.188678 0.800839 0.899886
0.186801 0.79324 0.901732
0.518975 0.785199 0.92987
0.804196 0.778088 0.930159
0.96257 0.755245 0.917647
0.189899 0.804852 0.914626
0.18912 0.801694 0.914611
0.188693 0.800031 0.91458
0.188006 0.797101 0.914488
0.18613 0.789975 0.909072
0.18471 0.784527 0.906676
0.535866 0.777676 0.935836
0.807355 0.772381 0.933654
0.963958 0.751003 0.920363
0.187701 0.795895 0.914427
0.186496 0.791287 0.914214
0.185626 0.787625 0.914153
0.184558 0.783566 0.913985
0.183139 0.77792 0.913787
0.1823 0.77467 0.913664
0.556924 0.768383 0.944747
0.813306 0.765835 0.939574
0.964599 0.748669 0.926055
0.186053 0.789456 0.914199
0.18529 0.786282 0.914107
0.184939 0.785 0.914
0.184604 0.783719 0.914
0.183169 0.777951 0.913787
0.181949 0.773358 0.913619
0.573114 0.768933 0.953719
0.823957 0.76968 0.950195
0.967041 0.757092 0.937819
0.184939 0.784955 0.914
0.184695 0.783902 0.914
0.185031 0.785321 0.914031
0.186099 0.789624 0.914199
0.187747 0.796246 0.914427
0.191302 0.7935 0.915373
0.630045 0.787137 0.957977
0.849302 0.790112 0.959503
0.971679 0.781826 0.94876
0.18436 0.782895 0.91397
0.184695 0.784146 0.914
0.185473 0.787182 0.914107
0.187152 0.793835 0.914336
0.190066 0.805524 0.914794
0.215946 0.819211 0.921294
0.703304 0.824491 0.964324
0.878019 0.829023 0.961608
0.976226 0.823484 0.95494
0.185443 0.786862 0.914107
0.186389 0.790845 0.914199
0.187594 0.795514 0.914412
0.18941 0.802762 0.914672
0.192325 0.814328 0.915099
0.253864 0.832883 0.928588
0.695003 0.859281 0.962554
0.88925 0.89604 0.960922
0.984192 0.892912 0.958373
0.189944 0.804944 0.915923
0.191669 0.81181 0.915007
0.19353 0.819089 0.915282
0.19588 0.828428 0.915602
0.199145 0.841459 0.916136
0.294713 0.863142 0.934539
0.689006 0.894575 0.956146
0.879179 0.938033 0.953384
0.986252 0.982208 0.948058
