public/LUTS/Cinematic/Cinematic_01.cube
TITLE "Generated by Resolve"
LUT_3D_SIZE 5
0.0102235 0.0221256 0.0391394
0.291814 0.0137331 0.0307317
0.573419 0.0053254 0.0223392
0.855024 0 0.0139315
1 0 0.00553903
0 0.284123 0.0111391
0.263813 0.275715 0.00273136
0.545419 0.267308 0
0.827024 0.258915 0
1 0.250507 0
0 0.54612 0
0.235813 0.537713 0
0.517418 0.52932 0
0.799023 0.520912 0
1 0.51252 0
0 0.808118 0
0.207813 0.799725 0
0.489418 0.791318 0
0.771023 0.782925 0
1 0.774517 0
0 1 0
0.179812 1 0
0.461418 1 0
0.743023 1 0
1 1 0
0.00662242 0.0185245 0.325521
0.288212 0.010132 0.317128
0.569818 0.00172427 0.308721
0.851423 0 0.300328
1 0 0.29192
0 0.280522 0.29752
0.260212 0.272114 0.289128
0.541817 0.263722 0.28072
0.823423 0.255314 0.272328
1 0.246906 0.26392
0 0.542519 0.26952
0.232212 0.534127 0.261128
0.513817 0.525719 0.25272
0.795422 0.517311 0.244327
1 0.508919 0.23592
0 0.804532 0.24152
0.204211 0.796124 0.233127
0.485817 0.787717 0.22472
0.767422 0.779324 0.216327
1 0.770916 0.207919
0 1 0.213519
0.176211 1 0.205127
0.457816 1 0.196719
0.739422 1 0.188327
1 1 0.179919
0.00302129 0.0149233 0.611933
0.284611 0.00653086 0.603525
0.566217 0 0.595132
0.847822 0 0.586725
1 0 0.578332
0 0.276921 0.583932
0.256611 0.268513 0.575525
0.538216 0.260121 0.567132
0.819821 0.251713 0.558724
1 0.24332 0.550332
0 0.538918 0.555932
0.228611 0.530526 0.547524
0.510216 0.522118 0.539132
0.791821 0.513726 0.530724
1 0.505318 0.522332
0 0.800931 0.527932
0.20061 0.792523 0.519524
0.482216 0.784131 0.511131
0.763821 0.775723 0.502724
1 0.767315 0.494331
0 1 0.499931
0.17261 1 0.491524
0.454215 1 0.483131
0.735821 1 0.474723
1 1 0.466331
0 0.0113375 0.898329
0.28101 0.00292973 0.889937
0.562615 0 0.881529
0.844221 0 0.873137
1 0 0.864729
0 0.27332 0.870329
0.25301 0.264912 0.861936
0.534615 0.256519 0.853529
0.81622 0.248112 0.845136
1 0.239719 0.836728
0 0.535317 0.842329
0.22501 0.526925 0.833936
0.506615 0.518517 0.825528
0.78822 0.510124 0.817136
1 0.501717 0.808728
0 0.79733 0.814328
0.197009 0.788922 0.805936
0.478614 0.780529 0.797528
0.76022 0.772122 0.789136
1 0.763729 0.780728
0 1 0.786328
0.169009 1 0.777935
0.450614 1 0.769528
0.732219 1 0.761135
1 1 0.752728
0 0.00773632 1
0.277409 0 1
0.559014 0 1
0.84062 0 1
1 0 1
0 0.269718 1
0.249409 0.261326 1
0.531014 0.252918 1
0.812619 0.244511 1
1 0.236118 1
0 0.531731 1
0.221408 0.523323 1
0.503014 0.514916 1
0.784619 0.506523 1
1 0.498116 1
0 0.793729 1
0.193408 0.785321 1
0.475013 0.776928 1
0.756619 0.768521 1
1 0.760128 1
0 1 1
0.165408 1 1
0.447013 1 1
0.728618 1 1
1 1 1
