public/LUTS/Cinematic/Cinematic_21.cube
TITLE "Generated by Resolve"
LUT_3D_SIZE 5
0.0552529 0.0821393 0.0895247
0.182834 0.109041 0.0865644
0.540429 0.135424 0.0793164
0.837674 0.276448 0.139803
0.911803 0.434806 0.169207
0.0587015 0.160525 0.112673
0.18941 0.158465 0.0989242
0.584802 0.243168 0.0959029
0.854841 0.339452 0.148959
0.911833 0.435325 0.169192
0.0749065 0.349203 0.171969
0.169162 0.396353 0.152316
0.657664 0.415152 0.129442
0.913695 0.545846 0.185061
0.915831 0.62092 0.197498
0.148684 0.659068 0.246555
0.229252 0.687663 0.218051
0.671443 0.805661 0.281102
0.919234 0.737331 0.218677
0.919173 0.735805 0.218402
0.247898 0.914153 0.326101
0.346136 0.933577 0.310231
0.639704 0.944213 0.351751
0.906737 0.951049 0.396597
0.951949 0.947341 0.401816
0.034699 0.177371 0.22858
0.0872511 0.173754 0.19057
0.389013 0.251209 0.20032
0.822507 0.355825 0.164233
0.912016 0.445167 0.170535
0.0377508 0.183398 0.207813
0.087541 0.201053 0.230793
0.529244 0.248341 0.175906
0.840131 0.329473 0.145418
0.911818 0.434974 0.169177
0.0932021 0.446204 0.332235
0.0873579 0.40206 0.258671
0.589426 0.438148 0.174304
0.882643 0.556542 0.182498
0.91603 0.629725 0.199023
0.162493 0.711055 0.404181
0.183856 0.697917 0.314473
0.569314 0.776272 0.302373
0.900526 0.748043 0.218509
0.919493 0.745495 0.220264
0.218555 0.917357 0.489265
0.298756 0.93312 0.384955
0.585458 0.947143 0.387259
0.855528 0.952392 0.418051
0.953353 0.946853 0.417288
0.0842756 0.401755 0.533776
0.0802167 0.390906 0.448707
0.153796 0.39469 0.322148
0.713252 0.424659 0.222293
0.953033 0.626612 0.595728
0.0851911 0.40676 0.52076
0.0865949 0.410468 0.552621
0.20412 0.411505 0.384543
0.741787 0.46627 0.327825
0.951034 0.615793 0.565789
0.0872206 0.416587 0.506783
0.0952468 0.449104 0.530694
0.331411 0.529915 0.61178
0.841138 0.612131 0.588876
0.943191 0.5879 0.445655
0.170428 0.740658 0.735836
0.179538 0.774487 0.716838
0.351934 0.778683 0.607462
0.870405 0.782467 0.451194
0.945342 0.783612 0.39939
0.219104 0.919295 0.803403
0.219104 0.919295 0.737591
0.49456 0.954559 0.580102
0.794369 0.961898 0.567117
0.961059 0.950454 0.522362
0.153597 0.669581 0.794736
0.150118 0.658579 0.756481
0.143114 0.63476 0.69543
0.612512 0.624781 0.664912
0.958755 0.669276 0.694148
0.149416 0.652689 0.792782
0.147829 0.64538 0.801846
0.141939 0.627008 0.738155
0.643122 0.612543 0.698161
0.959213 0.672953 0.724514
0.147402 0.644984 0.787823
0.150835 0.658122 0.796811
0.155016 0.67277 0.82179
0.725124 0.661418 0.797818
0.964401 0.723735 0.807904
0.15227 0.664607 0.789563
0.158312 0.68835 0.796201
0.169146 0.72987 0.817823
0.795758 0.814847 0.855909
0.975952 0.830594 0.852293
0.204181 0.861158 0.916899
0.213703 0.898421 0.91841
0.219104 0.919295 0.914397
0.754772 0.97351 0.813107
0.976822 0.970413 0.7617
0.195178 0.826459 0.903319
0.19469 0.824887 0.898894
0.190265 0.807584 0.895811
0.504189 0.78996 0.926543
0.961318 0.757656 0.916579
0.189899 0.804852 0.914626
0.188693 0.800031 0.91458
0.18613 0.789975 0.909072
0.535866 0.777676 0.935836
0.963958 0.751003 0.920363
0.186053 0.789456 0.914199
0.184939 0.785 0.914
0.183169 0.777951 0.913787
0.573114 0.768933 0.953719
0.967041 0.757092 0.937819
0.18436 0.782895 0.91397
0.185473 0.787182 0.914107
0.190066 0.805524 0.914794
0.703304 0.824491 0.964324
0.976226 0.823484 0.95494
0.189944 0.804944 0.915923
0.19353 0.819089 0.915282
0.199145 0.841459 0.916136
0.689006 0.894575 0.956146
0.986252 0.982208 0.948058
