public/LUTS/Cinematic/Cinematic_20.cube
TITLE "Generated by Resolve"
LUT_3D_SIZE 9
0.100816 0.116365 0.125582
0.187396 0.147997 0.0774548
0.30013 0.190692 0
0.46659 0.22974 0
0.596521 0.258991 0
0.675776 0.294697 0
0.733166 0.360006 0
0.747112 0.438865 0
0.743175 0.488548 0
0.0959487 0.179278 0.159304
0.188418 0.190188 0.10367
0.316075 0.238148 0.0133059
0.48304 0.308858 0
0.603204 0.367514 0
0.671656 0.407767 0
0.729671 0.448646 0
0.742672 0.495048 0.0015259
0.740841 0.519203 0.0113985
0.0841535 0.257389 0.19826
0.156893 0.305867 0.169833
0.33167 0.310414 0.0530861
0.509728 0.37435 0.00584421
0.626291 0.446601 0.00779736
0.691188 0.511452 0.0194553
0.736965 0.572412 0.0338903
0.733806 0.624201 0.0563058
0.73312 0.635782 0.0614023
0.0943313 0.36994 0.254444
0.153368 0.418494 0.226246
0.34052 0.516777 0.204303
0.519249 0.477638 0.0464637
0.638575 0.525628 0.0373541
0.703151 0.592432 0.050248
0.732235 0.650599 0.0679942
0.729961 0.691157 0.086183
0.729778 0.69366 0.0872816
0.110369 0.499001 0.313756
0.164553 0.539925 0.280644
0.332799 0.633799 0.263264
0.531624 0.708019 0.228748
0.638987 0.634897 0.0844434
0.71075 0.664836 0.07953
0.728908 0.710918 0.0951553
0.727535 0.738994 0.108125
0.727443 0.740383 0.108751
0.12639 0.624872 0.368521
0.180591 0.654398 0.329809
0.336843 0.734829 0.310964
0.529122 0.809873 0.284901
0.645274 0.838041 0.26865
0.703212 0.76759 0.127443
0.726085 0.768582 0.121782
0.725322 0.784421 0.129168
0.725277 0.785687 0.129747
0.14345 0.741817 0.417823
0.201907 0.765957 0.376822
0.347585 0.821241 0.354833
0.517723 0.877684 0.33785
0.645197 0.916579 0.334218
0.715557 0.921431 0.321675
0.722408 0.854078 0.16202
0.723125 0.83624 0.153552
0.723308 0.832029 0.151553
0.170672 0.84062 0.461738
0.236606 0.860182 0.42388
0.369039 0.897795 0.405692
0.511879 0.946365 0.400534
0.621286 0.983627 0.401877
0.712856 0.997482 0.395254
0.782879 1 0.382925
0.71986 0.925185 0.196338
0.720562 0.904692 0.186343
0.211368 0.932998 0.51136
0.278859 0.949844 0.479881
0.391104 0.961959 0.455726
0.505913 0.974365 0.435645
0.603387 0.985275 0.414435
0.688167 0.994842 0.398917
0.782559 1 0.383612
0.782361 1 0.382971
0.782116 1 0.382391
0.0814069 0.157443 0.246983
0.144884 0.166354 0.189258
0.256214 0.211688 0.153048
0.43003 0.269749 0.0827039
0.576974 0.331762 0.0138552
0.658412 0.374517 0
0.722026 0.415747 0
0.744579 0.47013 0
0.741863 0.505455 0.00572213
0.074052 0.172381 0.236835
0.162432 0.196689 0.221759
0.3205 0.230121 0.112276
0.480629 0.282826 0.00709545
0.601892 0.322057 0
0.675792 0.35494 0
0.72958 0.400717 0
0.745693 0.456306 0
0.742535 0.496071 0.00192264
0.0827039 0.294835 0.315618
0.132708 0.289128 0.249683
0.318425 0.322515 0.143542
0.487999 0.38024 0.0585946
0.600153 0.457145 0.0179751
0.673152 0.517189 0.0258335
0.72668 0.564767 0.0331426
0.735424 0.598489 0.0451057
0.734356 0.615106 0.0523384
0.0982834 0.402396 0.363424
0.139742 0.408103 0.294362
0.280949 0.485237 0.248142
0.490639 0.489815 0.0890364
0.613291 0.533104 0.0465095
0.685512 0.59881 0.0571756
0.731823 0.65774 0.0711681
0.729656 0.696239 0.0885176
0.729519 0.699229 0.0898146
0.116594 0.521355 0.416205
0.15613 0.536141 0.342016
0.285328 0.602426 0.301595
0.496284 0.691859 0.261601
0.612116 0.64271 0.0949416
0.692103 0.668345 0.0858015
0.728496 0.718685 0.0987411
0.726925 0.750835 0.113527
0.726986 0.748989 0.112734
0.134264 0.635752 0.465034
0.174365 0.658488 0.386755
0.301823 0.708278 0.345281
0.480995 0.782498 0.317128
0.628931 0.827237 0.29366
0.684001 0.771008 0.134203
0.725887 0.773098 0.123903
0.724941 0.794018 0.133623
0.724971 0.792447 0.132891
0.151751 0.742443 0.512505
0.194278 0.769329 0.428809
0.319554 0.800931 0.38735
0.478676 0.855924 0.364858
0.618982 0.899123 0.353582
0.710033 0.917372 0.350057
0.722194 0.859144 0.164446
0.723049 0.838178 0.154482
0.723095 0.836362 0.153552
0.17116 0.829908 0.566705
0.224506 0.860136 0.471351
0.344137 0.879622 0.43534
0.483207 0.924498 0.420539
0.60206 0.964492 0.420905
0.694331 0.994461 0.419211
0.785595 1 0.404852
0.719936 0.922866 0.195193
0.720714 0.901183 0.184665
0.20032 0.911223 0.625284
0.263813 0.945907 0.521767
0.374777 0.959426 0.490913
0.487953 0.971511 0.469688
0.588098 0.982467 0.450874
0.672877 0.992096 0.428717
0.773449 1 0.402625
0.787121 1 0.396262
0.78648 1 0.394339
0.106645 0.221271 0.390494
0.0958419 0.222736 0.345968
0.173419 0.245838 0.270085
0.341527 0.28806 0.188647
0.508721 0.374685 0.174929
0.646113 0.439124 0.138552
0.728069 0.488106 0.105837
0.774899 0.537728 0.0994888
0.760815 0.552361 0.0727398
0.103624 0.237217 0.382498
0.112505 0.244755 0.411261
0.212985 0.268147 0.307057
0.406683 0.326863 0.228336
0.572854 0.395178 0.185275
0.680354 0.441108 0.124041
0.744366 0.490883 0.0979171
0.765332 0.527718 0.0693523
0.751705 0.543893 0.0467231
0.101213 0.260075 0.376669
0.107729 0.280415 0.398505
0.260761 0.330892 0.372992
0.493858 0.378729 0.243595
0.630991 0.425605 0.164034
0.699519 0.464485 0.104173
0.745373 0.505135 0.0619669
0.749218 0.546731 0.0429999
0.738338 0.571832 0.0358587
0.151995 0.455665 0.538796
0.140658 0.452705 0.501396
0.232624 0.464897 0.405386
0.485222 0.512932 0.260349
0.63061 0.552773 0.206607
0.696513 0.616648 0.161471
0.744579 0.67332 0.123369
0.737194 0.701274 0.105882
0.730343 0.700374 0.0918441
0.173861 0.574395 0.602136
0.155108 0.559701 0.541207
0.248219 0.587198 0.429053
0.448508 0.663066 0.362295
0.615228 0.661891 0.200458
0.69514 0.684504 0.162844
0.739025 0.735332 0.128328
0.726192 0.765881 0.120562
0.726406 0.761364 0.11841
0.1897 0.67042 0.645685
0.16968 0.66038 0.58027
0.273243 0.700282 0.44567
0.445533 0.754971 0.402213
0.616053 0.813642 0.364248
0.672084 0.778912 0.165057
0.725765 0.784573 0.1299
0.7243 0.808148 0.140261
0.724437 0.804822 0.138705
0.204685 0.756771 0.686381
0.184161 0.753353 0.618677
0.29688 0.797833 0.474006
0.449744 0.832441 0.438102
0.593317 0.876356 0.418982
0.707439 0.907042 0.402274
0.72047 0.864302 0.1673
0.722667 0.847532 0.158907
0.722713 0.845945 0.158129
0.220493 0.832105 0.729915
0.20087 0.83238 0.66479
0.327474 0.879347 0.514153
0.461463 0.901473 0.484459
0.583368 0.941665 0.475547
0.683299 0.975952 0.464897
0.775631 0.993957 0.441749
0.719997 0.920485 0.194003
0.720775 0.898543 0.183307
0.235325 0.893263 0.771893
0.24303 0.911864 0.699931
0.359289 0.955108 0.560586
0.476417 0.967697 0.534554
0.578119 0.978668 0.513069
0.666636 0.988891 0.486244
0.754314 0.99971 0.447715
0.797925 1 0.426841
0.796719 1 0.421805
0.157046 0.308354 0.556527
0.13901 0.309514 0.499275
0.124514 0.310414 0.429664
0.228687 0.350683 0.305928
0.443671 0.373739 0.187854
0.589731 0.450401 0.166583
0.716915 0.536385 0.243168
0.824414 0.593378 0.311849
0.834333 0.614801 0.313695
0.1552 0.326116 0.551339
0.166522 0.329473 0.587488
0.162814 0.333242 0.499779
0.299367 0.370825 0.331472
0.495064 0.403433 0.248814
0.633082 0.481834 0.233188
0.750484 0.553948 0.304646
0.831632 0.594156 0.294652
0.82269 0.60708 0.275898
0.152224 0.332753 0.542214
0.162234 0.358282 0.574716
0.204776 0.380636 0.604303
0.392996 0.41973 0.435386
0.579782 0.474937 0.362509
0.708507 0.535637 0.353063
0.785534 0.568368 0.306752
0.826032 0.599039 0.281041
0.805997 0.596017 0.220813
0.152224 0.365347 0.542916
0.161044 0.394324 0.57113
0.187289 0.430915 0.600793
0.453391 0.513481 0.553948
0.656229 0.566262 0.471778
0.754879 0.599802 0.416907
0.811215 0.624659 0.357168
0.822324 0.644953 0.29778
0.803265 0.654246 0.247669
0.206394 0.547921 0.712337
0.214633 0.592172 0.735912
0.205417 0.593713 0.705074
0.423926 0.638819 0.568444
0.641978 0.670817 0.420371
0.747021 0.702541 0.423529
0.801175 0.746151 0.364279
0.798795 0.771099 0.303731
0.777584 0.766094 0.238514
0.24802 0.69279 0.836789
0.23209 0.689372 0.784405
0.215305 0.681422 0.724529
0.431281 0.737591 0.563317
0.604028 0.789136 0.508354
0.713176 0.7879 0.351934
0.791409 0.794965 0.318807
0.779553 0.818555 0.275044
0.766415 0.817792 0.2383
0.260258 0.764446 0.869383
0.24361 0.764782 0.814267
0.232639 0.764431 0.744228
0.442481 0.82031 0.566796
0.584085 0.853391 0.532753
0.710048 0.891905 0.496895
0.753353 0.868833 0.271641
0.753475 0.860655 0.228504
0.745815 0.860059 0.210117
0.271992 0.83299 0.900221
0.255238 0.834577 0.844648
0.273854 0.848173 0.761074
0.45893 0.895705 0.592813
0.578576 0.917784 0.568383
0.679469 0.953216 0.542626
0.774044 0.981643 0.502693
0.728862 0.923262 0.209995
0.721492 0.900908 0.184237
0.279454 0.879545 0.919585
0.263752 0.884428 0.867002
0.321309 0.919387 0.769848
0.479194 0.963821 0.615793
0.580423 0.974472 0.596994
0.666423 0.984527 0.567147
0.748135 0.995422 0.517311
0.815549 1 0.477317
0.813138 1 0.467948
0.207858 0.405554 0.720226
0.185595 0.401389 0.649393
0.160052 0.400183 0.567987
0.194537 0.420905 0.470817
0.353063 0.455985 0.270756
0.54905 0.468376 0.178256
0.68925 0.536706 0.250553
0.827375 0.616251 0.420356
0.906828 0.681147 0.573663
0.205325 0.416266 0.712261
0.213275 0.41297 0.737408
0.187167 0.410529 0.654459
0.245441 0.432547 0.536889
0.434928 0.455879 0.292714
0.593515 0.486793 0.270924
0.731624 0.55639 0.339971
0.854963 0.63595 0.483391
0.903105 0.679438 0.559853
0.203449 0.423423 0.706294
0.211536 0.442512 0.731945
0.22237 0.448402 0.766232
0.322835 0.462242 0.649851
0.525597 0.503914 0.471336
0.671809 0.537713 0.412787
0.791348 0.60827 0.487327
0.889464 0.665232 0.53846
0.886763 0.668788 0.504494
0.201831 0.431571 0.701259
0.209705 0.455177 0.726085
0.221317 0.489281 0.762463
0.392325 0.531899 0.756939
0.609888 0.570245 0.596017
0.746227 0.630335 0.582696
0.840604 0.676173 0.588083
0.892088 0.689143 0.532204
0.875776 0.676463 0.475898
0.202747 0.466743 0.703624
0.210483 0.495583 0.727703
0.220691 0.527337 0.759564
0.384894 0.593835 0.764569
0.661738 0.671748 0.681376
0.782147 0.708125 0.636225
0.853574 0.732235 0.595972
0.884565 0.74136 0.540475
0.868955 0.735988 0.490532
0.254231 0.624872 0.863066
0.259876 0.656947 0.879606
0.267994 0.694255 0.902892
0.33489 0.719081 0.858091
0.628901 0.767987 0.677974
0.761013 0.788708 0.574029
0.840055 0.805142 0.559014
0.854276 0.823743 0.497734
0.839368 0.819333 0.450568
0.298863 0.760403 0.997711
0.292683 0.771664 0.976089
0.278813 0.76997 0.930282
0.352438 0.792355 0.850294
0.605295 0.839246 0.666423
0.719112 0.871031 0.621927
0.795682 0.864485 0.455711
0.821485 0.858763 0.417182
0.812055 0.859937 0.38999
0.3122 0.835996 1
0.300221 0.836439 0.993393
0.285649 0.836622 0.944945
0.397253 0.871977 0.831907
0.596887 0.910353 0.668528
0.690349 0.929915 0.643824
0.779004 0.963516 0.595254
0.782238 0.923934 0.337682
0.775769 0.909331 0.312016
0.314366 0.868681 1
0.302892 0.872251 0.998032
0.288746 0.876646 0.950698
0.442267 0.934569 0.809781
0.596536 0.97081 0.682902
0.679606 0.979461 0.670512
0.752682 0.9897 0.619989
0.840894 1 0.551232
0.838209 0.999863 0.541482
0.251194 0.501472 0.857191
0.23357 0.494285 0.801343
0.213657 0.490379 0.738079
0.190768 0.479973 0.665202
0.34464 0.522255 0.575906
0.555734 0.533578 0.409522
0.696452 0.573449 0.394354
0.810269 0.618875 0.439124
0.914183 0.687999 0.601953
0.248753 0.502342 0.849424
0.253132 0.495644 0.863294
0.237705 0.491447 0.814466
0.225757 0.489204 0.735561
0.398825 0.52137 0.62771
0.592828 0.549661 0.491661
0.727489 0.580377 0.444022
0.839261 0.637186 0.510201
0.919921 0.692042 0.623255
0.24773 0.508202 0.846128
0.252628 0.517723 0.861433
0.260029 0.516976 0.884733
0.292103 0.521508 0.831388
0.478309 0.535027 0.703136
0.658274 0.569619 0.565744
0.773388 0.607706 0.526421
0.877211 0.666407 0.597818
0.928862 0.705974 0.66009
0.246677 0.512291 0.842634
0.252171 0.530663 0.859693
0.261387 0.556512 0.888228
0.343755 0.577264 0.900572
0.557107 0.590356 0.783062
0.724361 0.619486 0.658396
0.82266 0.668879 0.643671
0.914336 0.717632 0.683848
0.93196 0.730465 0.68127
0.246677 0.523934 0.842451
0.251789 0.543359 0.858152
0.26096 0.572137 0.886427
0.337362 0.61857 0.904952
0.613275 0.669673 0.833173
0.766735 0.700465 0.731441
0.856336 0.746334 0.732067
0.934676 0.769879 0.708415
0.926711 0.763684 0.677745
0.25124 0.564446 0.855909
0.256397 0.587655 0.871427
0.26421 0.613703 0.895323
0.33254 0.65539 0.91104
0.600519 0.724926 0.844877
0.78526 0.782238 0.775647
0.867903 0.807843 0.7514
0.927062 0.814481 0.706584
0.918395 0.807584 0.677928
0.293217 0.691798 0.983963
0.296773 0.714382 0.99411
0.300771 0.739361 1
0.302968 0.764782 1
0.516701 0.81854 0.917632
0.751888 0.851148 0.771069
0.843885 0.861494 0.67863
0.899016 0.86833 0.655833
0.890272 0.870314 0.630854
0.325917 0.796597 1
0.329046 0.827604 1
0.323537 0.840787 1
0.310735 0.838087 1
0.539651 0.891463 0.887053
0.720882 0.917281 0.758206
0.794614 0.940627 0.716701
0.850141 0.917952 0.531945
0.848127 0.90782 0.520958
0.345434 0.859022 1
0.335027 0.862257 1
0.323522 0.865827 1
0.319341 0.874235 1
0.567803 0.946242 0.859174
0.703792 0.976471 0.760113
0.768948 0.984588 0.733211
0.871962 0.999939 0.648722
0.871397 0.998428 0.639384
0.286305 0.596658 0.96553
0.277897 0.590402 0.939284
0.266484 0.583062 0.903426
0.254597 0.576638 0.866148
0.342748 0.590707 0.821805
0.552605 0.605356 0.721294
0.730007 0.627161 0.6159
0.836774 0.66331 0.607446
0.918456 0.692622 0.61854
0.284718 0.588296 0.960693
0.286671 0.582116 0.967041
0.279774 0.575311 0.945571
0.267063 0.570809 0.905715
0.379583 0.588846 0.849882
0.591348 0.598886 0.741955
0.752132 0.621988 0.638437
0.848692 0.659861 0.623194
0.927184 0.697215 0.650584
0.284108 0.589624 0.958755
0.286381 0.591791 0.965866
0.289387 0.58587 0.97528
0.283879 0.58024 0.958297
0.433616 0.601083 0.891554
0.644694 0.610361 0.778546
0.78407 0.629129 0.67924
0.868467 0.668696 0.654551
0.938613 0.712505 0.696239
0.283604 0.591867 0.957137
0.286809 0.603174 0.966857
0.291554 0.616342 0.981369
0.295689 0.615457 0.994385
0.491753 0.6374 0.928038
0.701198 0.656046 0.823362
0.819684 0.666392 0.735821
0.892989 0.704875 0.705409
0.947311 0.739254 0.737087
0.283314 0.596109 0.9561
0.286641 0.610269 0.966308
0.29221 0.630945 0.983001
0.298192 0.652369 1
0.525582 0.688334 0.954223
0.739391 0.714595 0.85716
0.845304 0.726986 0.783291
0.918425 0.761318 0.761822
0.953994 0.778271 0.775647
0.284489 0.609277 0.959518
0.287678 0.624659 0.968933
0.292714 0.643763 0.984176
0.29807 0.665385 1
0.514397 0.724392 0.960998
0.757397 0.774868 0.880659
0.858366 0.79205 0.818265
0.939132 0.818357 0.807141
0.957458 0.822751 0.803998
0.289647 0.645579 0.974441
0.292821 0.662882 0.983795
0.297215 0.681559 0.996872
0.30074 0.699229 1
0.503914 0.75581 0.968338
0.743374 0.813504 0.888258
0.858137 0.853773 0.840116
0.940612 0.872221 0.813764
0.949508 0.870527 0.799146
0.322133 0.742931 1
0.324514 0.759655 1
0.327092 0.778744 1
0.32845 0.800107 1
0.398215 0.84538 1
0.680201 0.901396 0.938979
0.826825 0.920439 0.838621
0.917983 0.921233 0.749432
0.920562 0.920165 0.744091
0.343725 0.826047 1
0.346029 0.851682 1
0.3467 0.858625 1
0.343664 0.859571 1
0.417823 0.892683 1
0.679454 0.954574 0.916533
0.798459 0.982361 0.83447
0.873274 0.992737 0.779568
0.909667 0.997528 0.751369
0.314443 0.686244 1
0.31104 0.682322 1
0.305531 0.67483 1
0.300923 0.668055 1
0.298024 0.661128 0.99913
0.543984 0.686015 0.925063
0.751308 0.695933 0.832639
0.866529 0.696544 0.765438
0.951263 0.729381 0.746303
0.313817 0.671244 1
0.31487 0.666117 1
0.311894 0.660655 1
0.30573 0.655146 1
0.314046 0.656031 1
0.572717 0.679911 0.927138
0.768444 0.691005 0.836454
0.875257 0.692683 0.771725
0.953597 0.726207 0.752743
0.313359 0.666697 1
0.314427 0.663996 1
0.315862 0.656886 1
0.313649 0.650416 1
0.339025 0.657435 1
0.602396 0.679469 0.935699
0.786877 0.692668 0.846693
0.886198 0.695949 0.78468
0.956146 0.72845 0.762493
0.312917 0.665827 1
0.314641 0.669596 1
0.317006 0.672938 1
0.319066 0.667521 1
0.374838 0.67451 1
0.636973 0.697337 0.953689
0.810224 0.713893 0.866377
0.898741 0.716197 0.806149
0.959487 0.745571 0.781109
0.312398 0.666102 1
0.314427 0.673747 1
0.317876 0.68513 1
0.321874 0.695491 1
0.395575 0.705882 1
0.672709 0.728405 0.969894
0.835828 0.751308 0.890471
0.914809 0.75407 0.831998
0.96289 0.776181 0.804868
0.31249 0.669825 1
0.31458 0.679042 1
0.318044 0.691691 1
0.322499 0.70721 1
0.394751 0.734829 1
0.703731 0.770459 0.978195
0.85362 0.795392 0.910033
0.930022 0.800275 0.855283
0.968078 0.815991 0.837049
0.314183 0.681682 1
0.316136 0.691997 1
0.319203 0.704005 1
0.322805 0.717571 1
0.409064 0.74757 1
0.69633 0.801709 0.981628
0.857572 0.84741 0.923339
0.93315 0.855756 0.877241
0.973083 0.866743 0.871839
0.318471 0.708446 1
0.320516 0.720119 1
0.323308 0.733242 1
0.325582 0.746044 1
0.414923 0.777111 1
0.689326 0.832074 0.982757
0.844327 0.880674 0.923476
0.918364 0.918013 0.891173
0.966949 0.929488 0.878676
0.3393 0.776547 1
0.340627 0.79147 1
0.342153 0.807828 1
0.343664 0.825071 1
0.370062 0.85391 1
0.621241 0.924788 1
0.807095 0.966567 0.974227
0.895689 0.990051 0.898619
0.946105 0.993927 0.852506
0.336782 0.751461 1
0.335546 0.74905 1
0.333043 0.743008 1
0.331289 0.736019 1
0.331167 0.730175 1
0.49543 0.742168 1
0.750088 0.757305 0.969848
0.883284 0.760281 0.907408
0.980056 0.757671 0.855772
0.335607 0.733211 1
0.335378 0.730419 1
0.334997 0.726741 1
0.334157 0.721569 1
0.332662 0.717891 1
0.519234 0.732906 1
0.765866 0.75079 0.969421
0.887861 0.753735 0.909377
0.98291 0.752544 0.857847
0.334874 0.724804 1
0.334478 0.72047 1
0.334081 0.715663 1
0.333623 0.710307 1
0.33341 0.708095 1
0.534112 0.724178 1
0.780972 0.746242 0.972412
0.894926 0.749737 0.913176
0.983886 0.751369 0.865705
0.334569 0.72134 1
0.334462 0.720195 1
0.334386 0.719326 1
0.333898 0.713832 1
0.333547 0.709194 1
0.543847 0.727825 1
0.796536 0.751659 0.980255
0.904036 0.756191 0.921096
0.986908 0.759365 0.878843
0.334401 0.719554 1
0.3346 0.721508 1
0.33492 0.725856 1
0.335332 0.730022 1
0.334966 0.726116 1
0.581384 0.743893 1
0.821485 0.769848 0.982986
0.917525 0.774578 0.930251
0.989242 0.778134 0.89366
0.334417 0.719387 1
0.334737 0.723201 1
0.335317 0.730327 1
0.336141 0.740139 1
0.336797 0.746929 1
0.647211 0.773526 1
0.847654 0.80061 0.981186
0.933577 0.80383 0.932296
0.989532 0.808072 0.906004
0.334615 0.721935 1
0.335088 0.727306 1
0.335744 0.735439 1
0.336614 0.74583 1
0.338262 0.75642 1
0.655207 0.80441 1
0.855558 0.842817 0.984573
0.938506 0.850019 0.942596
0.988937 0.853941 0.920668
0.335454 0.731533 1
0.335973 0.73817 1
0.336736 0.746807 1
0.337621 0.756527 1
0.340017 0.766201 1
0.661601 0.818616 1
0.840665 0.872984 0.990662
0.932311 0.916213 0.958938
0.987198 0.922194 0.939147
0.337026 0.75021 1
0.337835 0.759472 1
0.338796 0.770169 1
0.339666 0.780819 1
0.371618 0.799115 1
0.655619 0.851423 1
0.830732 0.904204 0.995102
0.919249 0.949722 0.963134
0.975784 0.991028 0.944564
