public/LUTS/Cinematic/Cinematic_08.cube
TITLE "Generated by Resolve"
LUT_3D_SIZE 33
0 0.000640879 0.0167697
0 0 0.0161135
0.0277409 0 0.0154574
0.0614633 0 0.0148013
0.0951705 0 0.0141451
0.128893 0 0.013489
0.162615 0 0.0128328
0.196338 0 0.0121767
0.23006 0 0.0115206
0.263767 0 0.0108644
0.29749 0 0.0102083
0.331212 0 0.00955215
0.364935 0 0.00889601
0.398642 0 0.00823987
0.432364 0 0.00758373
0.466087 0 0.0069276
0.499809 0 0.00627146
0.533532 0 0.00561532
0.567239 0 0.00495918
0.600961 0 0.00430304
0.634684 0 0.00364691
0.668406 0 0.00299077
0.702129 0 0.00233463
0.735836 0 0.00167849
0.769558 0 0.00102235
0.803281 0 0.000366217
0.837003 0 0
0.870726 0 0
0.904433 0 0
0.938155 0 0
0.971878 0 0
1 0 0
1 0 0
0 0.0328069 0.0145876
0 0.0321508 0.0139315
0.0255436 0.0314946 0.0132753
0.059266 0.0308385 0.0126192
0.0929885 0.0301823 0.0119631
0.126711 0.0295262 0.0112917
0.160433 0.0288701 0.0106355
0.194141 0.0282139 0.0099794
0.227863 0.0275578 0.00932326
0.261585 0.0269017 0.00866712
0.295308 0.0262455 0.00801099
0.32903 0.0255894 0.00735485
0.362737 0.0249332 0.00669871
0.39646 0.0242771 0.00604257
0.430182 0.023621 0.00538643
0.463905 0.0229648 0.0047303
0.497627 0.0223087 0.00407416
0.531334 0.0216526 0.00341802
0.565057 0.0209964 0.00276188
0.598779 0.0203403 0.00210575
0.632502 0.0196841 0.00144961
0.666224 0.019028 0.000793469
0.699931 0.0183719 0.000137331
0.733654 0.0177157 0
0.767376 0.0170596 0
0.801099 0.0164034 0
0.834806 0.0157473 0
0.868528 0.0150912 0
0.902251 0.014435 0
0.935973 0.0137789 0
0.969696 0.0131228 0
1 0.0124666 0
1 0.0118105 0
0 0.0650034 0.0123903
0 0.0643473 0.0117342
0.0233616 0.0636912 0.0110781
0.057084 0.063035 0.0104219
0.0908064 0.0623789 0.00976577
0.124514 0.0617227 0.00910964
0.158236 0.0610666 0.0084535
0.191959 0.0604105 0.00779736
0.225681 0.0597543 0.00714122
0.259403 0.0590982 0.00648508
0.293111 0.0584421 0.00582895
0.326833 0.0577707 0.00517281
0.360555 0.0571145 0.00451667
0.394278 0.0564584 0.00386053
0.428 0.0558022 0.00320439
0.461707 0.0551461 0.00254826
0.49543 0.05449 0.00189212
0.529152 0.0538338 0.00123598
0.562875 0.0531777 0.000579843
0.596597 0.0525216 0
0.630304 0.0518654 0
0.664027 0.0512093 0
0.697749 0.0505531 0
0.731472 0.049897 0
0.765194 0.0492409 0
0.798901 0.0485847 0
0.832624 0.0479286 0
0.866346 0.0472725 0
0.900069 0.0466163 0
0.933791 0.0459602 0
0.967498 0.045304 0
1 0.0446479 0
1 0.0439918 0
0 0.0971847 0.0102083
0 0.0965286 0.00955215
0.0211795 0.0958724 0.00889601
0.054902 0.0952163 0.00823987
0.0886091 0.0945602 0.00758373
0.122332 0.093904 0.0069276
0.156054 0.0932479 0.00627146
0.189776 0.0925917 0.00561532
0.223499 0.0919356 0.00495918
0.257206 0.0912795 0.00430304
0.290929 0.0906233 0.00364691
0.324651 0.0899672 0.00299077
0.358373 0.0893111 0.00233463
0.392081 0.0886549 0.00167849
0.425803 0.0879988 0.00102235
0.459525 0.0873426 0.000366217
0.493248 0.0866865 0
0.52697 0.0860304 0
0.560678 0.0853742 0
0.5944 0.0847181 0
0.628122 0.084062 0
0.661845 0.0834058 0
0.695567 0.0827497 0
0.729274 0.0820935 0
0.762997 0.0814374 0
0.796719 0.0807813 0
0.830442 0.0801251 0
0.864164 0.079469 0
0.897871 0.0788128 0
0.931594 0.0781567 0
0.965316 0.0775006 0
0.999039 0.0768444 0
1 0.0761883 0
0 0.129381 0.00801099
0 0.128725 0.00735485
0.0189822 0.128069 0.00669871
0.0527047 0.127413 0.00604257
0.0864271 0.126757 0.00538643
0.12015 0.126085 0.0047303
0.153872 0.125429 0.00407416
0.187579 0.124773 0.00341802
0.221302 0.124117 0.00276188
0.255024 0.123461 0.00210575
0.288746 0.122805 0.00144961
0.322469 0.122148 0.000793469
0.356176 0.121492 0.000137331
0.389899 0.120836 0
0.423621 0.12018 0
0.457343 0.119524 0
0.491051 0.118868 0
0.524773 0.118212 0
0.558495 0.117556 0
0.592218 0.116899 0
0.62594 0.116243 0
0.659648 0.115587 0
0.69337 0.114931 0
0.727092 0.114275 0
0.760815 0.113619 0
0.794537 0.112963 0
0.828244 0.112306 0
0.861967 0.11165 0
0.895689 0.110994 0
0.929412 0.110338 0
0.963134 0.109682 0
0.996841 0.109026 0
1 0.10837 0
0 0.161563 0.00582895
0 0.160906 0.00517281
0.0168002 0.16025 0.00451667
0.0505226 0.159594 0.00386053
0.0842451 0.158938 0.00320439
0.117952 0.158282 0.00254826
0.151675 0.157626 0.00189212
0.185397 0.15697 0.00123598
0.21912 0.156313 0.000579843
0.252842 0.155657 0
0.286549 0.155001 0
0.320272 0.154345 0
0.353994 0.153689 0
0.387717 0.153033 0
0.421439 0.152377 0
0.455146 0.15172 0
0.488869 0.151064 0
0.522591 0.150408 0
0.556313 0.149752 0
0.590021 0.149096 0
0.623743 0.14844 0
0.657465 0.147784 0
0.691188 0.147127 0
0.72491 0.146471 0
0.758618 0.145815 0
0.79234 0.145159 0
0.826062 0.144503 0
0.859785 0.143847 0
0.893507 0.143191 0
0.927214 0.142535 0
0.960937 0.141863 0
0.994659 0.141207 0
1 0.140551 0
0 0.193744 0.00364691
0 0.193088 0.00299077
0.0146181 0.192432 0.00233463
0.0483253 0.191775 0.00167849
0.0820478 0.191119 0.00102235
0.11577 0.190463 0.000366217
0.149493 0.189807 0
0.183215 0.189151 0
0.216922 0.188495 0
0.250645 0.187839 0
0.284367 0.187182 0
0.31809 0.186526 0
0.351812 0.18587 0
0.385519 0.185214 0
0.419242 0.184558 0
0.452964 0.183902 0
0.486686 0.183246 0
0.520409 0.182589 0
0.554116 0.181933 0
0.587839 0.181277 0
0.621561 0.180621 0
0.655283 0.179965 0
0.689006 0.179309 0
0.722713 0.178653 0
0.756436 0.177996 0
0.790158 0.17734 0
0.82388 0.176684 0
0.857588 0.176028 0
0.89131 0.175372 0
0.925032 0.174716 0
0.958755 0.17406 0
0.992477 0.173404 0
1 0.172747 0
0 0.22594 0.00144961
0 0.225284 0.000793469
0.0124208 0.224628 0.000137331
0.0461433 0.223972 0
0.0798657 0.223316 0
0.113588 0.22266 0
0.147295 0.222004 0
0.181018 0.221347 0
0.21474 0.220691 0
0.248463 0.220035 0
0.282185 0.219379 0
0.315892 0.218723 0
0.349615 0.218067 0
0.383337 0.217411 0
0.41706 0.216754 0
0.450782 0.216098 0
0.484489 0.215442 0
0.518212 0.214786 0
0.551934 0.21413 0
0.585657 0.213474 0
0.619379 0.212818 0
0.653086 0.212161 0
0.686809 0.211505 0
0.720531 0.210834 0
0.754253 0.210178 0
0.787976 0.209522 0
0.821683 0.208865 0
0.855406 0.208209 0
0.889128 0.207553 0
0.92285 0.206897 0
0.956558 0.206241 0
0.99028 0.205585 0
1 0.204929 0
0 0.258122 0
0 0.257465 0
0.0102388 0.256809 0
0.0439612 0.256153 0
0.0776837 0.255497 0
0.111391 0.254841 0
0.145113 0.254185 0
0.178836 0.253529 0
0.212558 0.252872 0
0.246281 0.252216 0
0.279988 0.25156 0
0.31371 0.250904 0
0.347433 0.250248 0
0.381155 0.249592 0
0.414862 0.248936 0
0.448585 0.24828 0
0.482307 0.247623 0
0.51603 0.246967 0
0.549752 0.246311 0
0.583459 0.245655 0
0.617182 0.244999 0
0.650904 0.244343 0
0.684627 0.243687 0
0.718349 0.24303 0
0.752056 0.242374 0
0.785779 0.241718 0
0.819501 0.241062 0
0.853223 0.240406 0
0.886946 0.23975 0
0.920653 0.239094 0
0.954376 0.238437 0
0.988098 0.237781 0
1 0.237125 0
0 0.290318 0
0 0.289662 0
0.00805676 0.289006 0
0.0417639 0.28835 0
0.0754864 0.287694 0
0.109209 0.287037 0
0.142931 0.286381 0
0.176654 0.285725 0
0.210361 0.285069 0
0.244083 0.284413 0
0.277806 0.283757 0
0.311528 0.283101 0
0.345251 0.282445 0
0.378958 0.281788 0
0.41268 0.281132 0
0.446403 0.280476 0
0.480125 0.27982 0
0.513832 0.279149 0
0.547555 0.278492 0
0.581277 0.277836 0
0.615 0.27718 0
0.648722 0.276524 0
0.682429 0.275868 0
0.716152 0.275212 0
0.749874 0.274556 0
0.783597 0.273899 0
0.817319 0.273243 0
0.851026 0.272587 0
0.884749 0.271931 0
0.918471 0.271275 0
0.952193 0.270619 0
0.985916 0.269963 0
1 0.269306 0
0 0.322499 0
0 0.321843 0
0.00585946 0.321187 0
0.0395819 0.320531 0
0.0733043 0.319875 0
0.107027 0.319219 0
0.140734 0.318563 0
0.174456 0.317906 0
0.208179 0.31725 0
0.241901 0.316594 0
0.275624 0.315938 0
0.309331 0.315282 0
0.343053 0.314626 0
0.376776 0.31397 0
0.410498 0.313313 0
0.444221 0.312657 0
0.477928 0.312001 0
0.51165 0.311345 0
0.545373 0.310689 0
0.579095 0.310033 0
0.612802 0.309377 0
0.646525 0.308721 0
0.680247 0.308064 0
0.71397 0.307408 0
0.747692 0.306752 0
0.781399 0.306096 0
0.815122 0.30544 0
0.848844 0.304784 0
0.882567 0.304128 0
0.916289 0.303471 0
0.949996 0.302815 0
0.983719 0.302159 0
1 0.301503 0
0 0.354696 0
0 0.35404 0
0.00367742 0.353384 0
0.0373999 0.352728 0
0.071107 0.352071 0
0.104829 0.351415 0
0.138552 0.350759 0
0.172274 0.350103 0
0.205997 0.349447 0
0.239704 0.348791 0
0.273426 0.348119 0
0.307149 0.347463 0
0.340871 0.346807 0
0.374594 0.346151 0
0.408301 0.345495 0
0.442023 0.344839 0
0.475746 0.344182 0
0.509468 0.343526 0
0.543191 0.34287 0
0.576898 0.342214 0
0.61062 0.341558 0
0.644343 0.340902 0
0.678065 0.340246 0
0.711788 0.33959 0
0.745495 0.338933 0
0.779217 0.338277 0
0.81294 0.337621 0
0.846662 0.336965 0
0.880369 0.336309 0
0.914092 0.335653 0
0.947814 0.334997 0
0.981537 0.33434 0
1 0.333684 0
0 0.386877 0
0 0.386221 0
0.00149538 0.385565 0
0.0352026 0.384909 0
0.068925 0.384253 0
0.102647 0.383597 0
0.13637 0.38294 0
0.170077 0.382284 0
0.2038 0.381628 0
0.237522 0.380972 0
0.271244 0.380316 0
0.304967 0.37966 0
0.338674 0.379004 0
0.372396 0.378347 0
0.406119 0.377691 0
0.439841 0.377035 0
0.473564 0.376379 0
0.507271 0.375723 0
0.540993 0.375067 0
0.574716 0.374411 0
0.608438 0.373754 0
0.642161 0.373098 0
0.675868 0.372442 0
0.70959 0.371786 0
0.743313 0.37113 0
0.777035 0.370474 0
0.810758 0.369818 0
0.844465 0.369162 0
0.878187 0.368505 0
0.91191 0.367849 0
0.945632 0.367193 0
0.979339 0.366537 0
1 0.365881 0
0 0.419074 0
0 0.418418 0
0 0.417762 0
0.0330205 0.41709 0
0.066743 0.416434 0
0.100465 0.415778 0
0.134173 0.415122 0
0.167895 0.414466 0
0.201617 0.413809 0
0.23534 0.413153 0
0.269047 0.412497 0
0.30277 0.411841 0
0.336492 0.411185 0
0.370214 0.410529 0
0.403937 0.409873 0
0.437644 0.409216 0
0.471366 0.40856 0
0.505089 0.407904 0
0.538811 0.407248 0
0.572534 0.406592 0
0.606241 0.405936 0
0.639963 0.40528 0
0.673686 0.404623 0
0.707408 0.403967 0
0.741131 0.403311 0
0.774838 0.402655 0
0.80856 0.401999 0
0.842283 0.401343 0
0.876005 0.400687 0
0.909728 0.400031 0
0.943435 0.399374 0
0.977157 0.398718 0
1 0.398062 0
0 0.451255 0
0 0.450599 0
0 0.449943 0
0.0308385 0.449287 0
0.0645457 0.448631 0
0.0982681 0.447974 0
0.131991 0.447318 0
0.165713 0.446662 0
0.199435 0.446006 0
0.233143 0.44535 0
0.266865 0.444694 0
0.300587 0.444038 0
0.33431 0.443381 0
0.368032 0.442725 0
0.40174 0.442069 0
0.435462 0.441413 0
0.469184 0.440757 0
0.502907 0.440101 0
0.536614 0.439445 0
0.570336 0.438788 0
0.604059 0.438132 0
0.637781 0.437476 0
0.671504 0.43682 0
0.705211 0.436164 0
0.738933 0.435508 0
0.772656 0.434852 0
0.806378 0.434195 0
0.840101 0.433539 0
0.873808 0.432868 0
0.90753 0.432212 0
0.941253 0.431556 0
0.974975 0.4309 0
1 0.430243 0
0 0.483436 0
0 0.48278 0
0 0.482124 0
0.0286412 0.481468 0
0.0623636 0.480812 0
0.0960861 0.480156 0
0.129809 0.4795 0
0.163516 0.478843 0
0.197238 0.478187 0
0.230961 0.477531 0
0.264683 0.476875 0
0.298405 0.476219 0
0.332113 0.475563 0
0.365835 0.474907 0
0.399558 0.47425 0
0.43328 0.473594 0
0.467002 0.472938 0
0.50071 0.472282 0
0.534432 0.471626 0
0.568154 0.47097 0
0.601877 0.470314 0
0.635584 0.469657 0
0.669306 0.469001 0
0.703029 0.468345 0
0.736751 0.467689 0
0.770474 0.467033 0
0.804181 0.466377 0
0.837903 0.465721 0
0.871626 0.465064 0
0.905348 0.464408 0
0.939071 0.463752 0
0.972778 0.463096 0
1 0.46244 0
0 0.515633 0
0 0.514977 0
0 0.514321 0
0.0264591 0.513664 0
0.0601816 0.513008 0
0.0938888 0.512352 0
0.127611 0.511696 0
0.161334 0.51104 0
0.195056 0.510384 0
0.228779 0.509728 0
0.262486 0.509071 0
0.296208 0.508415 0
0.329931 0.507759 0
0.363653 0.507103 0
0.397375 0.506447 0
0.431083 0.505791 0
0.464805 0.505135 0
0.498527 0.504479 0
0.53225 0.503822 0
0.565972 0.503166 0
0.59968 0.50251 0
0.633402 0.501854 0
0.667124 0.501183 0
0.700847 0.500526 0
0.734554 0.49987 0
0.768277 0.499214 0
0.801999 0.498558 0
0.835721 0.497902 0
0.869444 0.497246 0
0.903151 0.49659 0
0.936873 0.495933 0
0.970596 0.495277 0
1 0.494621 0
0 0.547814 0
0 0.547158 0
0 0.546502 0
0.0242771 0.545846 0
0.0579843 0.54519 0
0.0917067 0.544533 0
0.125429 0.543877 0
0.159152 0.543221 0
0.192859 0.542565 0
0.226581 0.541909 0
0.260304 0.541253 0
0.294026 0.540597 0
0.327749 0.53994 0
0.361456 0.539284 0
0.395178 0.538628 0
0.428901 0.537972 0
0.462623 0.537316 0
0.496345 0.53666 0
0.530053 0.536004 0
0.563775 0.535348 0
0.597498 0.534691 0
0.63122 0.534035 0
0.664942 0.533379 0
0.69865 0.532723 0
0.732372 0.532067 0
0.766094 0.531411 0
0.799817 0.530755 0
0.833539 0.530098 0
0.867247 0.529442 0
0.900969 0.528786 0
0.934691 0.52813 0
0.968414 0.527474 0
1 0.526818 0
0 0.580011 0
0 0.579355 0
0 0.578698 0
0.0220798 0.578042 0
0.0558022 0.577386 0
0.0895247 0.57673 0
0.123247 0.576074 0
0.156954 0.575418 0
0.190677 0.574762 0
0.224399 0.574105 0
0.258122 0.573449 0
0.291829 0.572793 0
0.325551 0.572137 0
0.359274 0.571481 0
0.392996 0.570825 0
0.426719 0.570153 0
0.460426 0.569497 0
0.494148 0.568841 0
0.527871 0.568185 0
0.561593 0.567529 0
0.595315 0.566873 0
0.629023 0.566217 0
0.662745 0.56556 0
0.696468 0.564904 0
0.73019 0.564248 0
0.763912 0.563592 0
0.79762 0.562936 0
0.831342 0.56228 0
0.865064 0.561624 0
0.898787 0.560967 0
0.932509 0.560311 0
0.966217 0.559655 0
0.999939 0.558999 0
0 0.612192 0
0 0.611536 0
0 0.61088 0
0.0198978 0.610224 0
0.0536202 0.609567 0
0.0873274 0.608911 0
0.12105 0.608255 0
0.154772 0.607599 0
0.188495 0.606943 0
0.222217 0.606287 0
0.255924 0.605631 0
0.289647 0.604974 0
0.323369 0.604318 0
0.357092 0.603662 0
0.390814 0.603006 0
0.424521 0.60235 0
0.458244 0.601694 0
0.491966 0.601038 0
0.525689 0.600381 0
0.559396 0.599725 0
0.593118 0.599069 0
0.626841 0.598413 0
0.660563 0.597757 0
0.694286 0.597101 0
0.727993 0.596445 0
0.761715 0.595789 0
0.795438 0.595132 0
0.82916 0.594476 0
0.862882 0.59382 0
0.89659 0.593164 0
0.930312 0.592508 0
0.964034 0.591852 0
0.997757 0.591196 0
0 0.644388 0
0 0.643732 0
0 0.643076 0
0.0177005 0.64242 0
0.0514229 0.641764 0
0.0851453 0.641108 0
0.118868 0.640452 0
0.15259 0.639796 0
0.186297 0.639124 0
0.22002 0.638468 0
0.253742 0.637812 0
0.287465 0.637156 0
0.321187 0.6365 0
0.354894 0.635843 0
0.388617 0.635187 0
0.422339 0.634531 0
0.456062 0.633875 0
0.489784 0.633219 0
0.523491 0.632563 0
0.557214 0.631907 0
0.590936 0.631251 0
0.624659 0.630594 0
0.658366 0.629938 0
0.692088 0.629282 0
0.725811 0.628626 0
0.759533 0.62797 0
0.793256 0.627314 0
0.826963 0.626657 0
0.860685 0.626001 0
0.894408 0.625345 0
0.92813 0.624689 0
0.961852 0.624033 0
0.99556 0.623377 0
0 0.67657 0
0 0.675914 0
0 0.675258 0
0.0155184 0.674601 0
0.0492409 0.673945 0
0.0829633 0.673289 0
0.11667 0.672633 0
0.150393 0.671977 0
0.184115 0.671321 0
0.217838 0.670665 0
0.25156 0.670008 0
0.285267 0.669352 0
0.31899 0.668696 0
0.352712 0.66804 0
0.386435 0.667384 0
0.420157 0.666728 0
0.453864 0.666072 0
0.487587 0.665415 0
0.521309 0.664759 0
0.555032 0.664103 0
0.588754 0.663447 0
0.622461 0.662791 0
0.656184 0.662135 0
0.689906 0.661479 0
0.723629 0.660822 0
0.757336 0.660166 0
0.791058 0.65951 0
0.824781 0.658854 0
0.858503 0.658198 0
0.892226 0.657542 0
0.925933 0.656886 0
0.959655 0.656229 0
0.993378 0.655573 0
0 0.708766 0
0 0.70811 0
0 0.707439 0
0.0133364 0.706783 0
0.0470588 0.706127 0
0.080766 0.70547 0
0.114488 0.704814 0
0.148211 0.704158 0
0.181933 0.703502 0
0.215641 0.702846 0
0.249363 0.70219 0
0.283085 0.701534 0
0.316808 0.700877 0
0.35053 0.700221 0
0.384237 0.699565 0
0.41796 0.698909 0
0.451682 0.698253 0
0.485405 0.697597 0
0.519127 0.696941 0
0.552834 0.696284 0
0.586557 0.695628 0
0.620279 0.694972 0
0.654002 0.694316 0
0.687724 0.69366 0
0.721431 0.693004 0
0.755154 0.692348 0
0.788876 0.691691 0
0.822599 0.691035 0
0.856321 0.690379 0
0.890028 0.689723 0
0.923751 0.689067 0
0.957473 0.688411 0
0.991196 0.687755 0
0 0.740948 0
0 0.740291 0
0 0.739635 0
0.0111391 0.738979 0
0.0448615 0.738323 0
0.078584 0.737667 0
0.112306 0.737011 0
0.146029 0.736355 0
0.179736 0.735698 0
0.213458 0.735042 0
0.247181 0.734386 0
0.280903 0.73373 0
0.314611 0.733074 0
0.348333 0.732418 0
0.382055 0.731762 0
0.415778 0.731106 0
0.4495 0.730449 0
0.483207 0.729793 0
0.51693 0.729137 0
0.550652 0.728481 0
0.584375 0.727825 0
0.618097 0.727169 0
0.651804 0.726513 0
0.685527 0.725856 0
0.719249 0.7252 0
0.752972 0.724544 0
0.786694 0.723888 0
0.820401 0.723217 0
0.854124 0.72256 0
0.887846 0.721904 0
0.921569 0.721248 0
0.955291 0.720592 0
0.988998 0.719936 0
0 0.773129 0
0 0.772473 0
0 0.771817 0
0.00895705 0.77116 0
0.0426795 0.770504 0
0.0764019 0.769848 0
0.110109 0.769192 0
0.143832 0.768536 0
0.177554 0.76788 0
0.211276 0.767224 0
0.244999 0.766567 0
0.278706 0.765911 0
0.312428 0.765255 0
0.346151 0.764599 0
0.379873 0.763943 0
0.413581 0.763287 0
0.447303 0.762631 0
0.481025 0.761975 0
0.514748 0.761318 0
0.54847 0.760662 0
0.582177 0.760006 0
0.6159 0.75935 0
0.649622 0.758694 0
0.683345 0.758038 0
0.717067 0.757382 0
0.750774 0.756725 0
0.784497 0.756069 0
0.818219 0.755413 0
0.851942 0.754757 0
0.885664 0.754101 0
0.919371 0.753445 0
0.953094 0.752789 0
0.986816 0.752132 0
0 0.805325 0
0 0.804669 0
0 0.804013 0
0.00677501 0.803357 0
0.0404822 0.802701 0
0.0742046 0.802045 0
0.107927 0.801389 0
0.141649 0.800732 0
0.175372 0.800076 0
0.209079 0.79942 0
0.242802 0.798764 0
0.276524 0.798108 0
0.310246 0.797452 0
0.343969 0.796796 0
0.377676 0.796139 0
0.411399 0.795483 0
0.445121 0.794827 0
0.478843 0.794171 0
0.512566 0.793515 0
0.546273 0.792859 0
0.579995 0.792187 0
0.613718 0.791531 0
0.64744 0.790875 0
0.681147 0.790219 0
0.71487 0.789563 0
0.748592 0.788907 0
0.782315 0.788251 0
0.816037 0.787594 0
0.849744 0.786938 0
0.883467 0.786282 0
0.917189 0.785626 0
0.950912 0.78497 0
0.984634 0.784314 0
0 0.837507 0
0 0.836851 0
0 0.836194 0
0.00457771 0.835538 0
0.0383001 0.834882 0
0.0720226 0.834226 0
0.105745 0.83357 0
0.139452 0.832914 0
0.173175 0.832258 0
0.206897 0.831601 0
0.24062 0.830945 0
0.274342 0.830289 0
0.308049 0.829633 0
0.341772 0.828977 0
0.375494 0.828321 0
0.409216 0.827665 0
0.442939 0.827008 0
0.476646 0.826352 0
0.510369 0.825696 0
0.544091 0.82504 0
0.577813 0.824384 0
0.611536 0.823728 0
0.645243 0.823072 0
0.678965 0.822416 0
0.712688 0.821759 0
0.74641 0.821103 0
0.780118 0.820447 0
0.81384 0.819791 0
0.847562 0.819135 0
0.881285 0.818479 0
0.915007 0.817823 0
0.948714 0.817166 0
0.982437 0.81651 0
0 0.869703 0
0 0.869047 0
0 0.868391 0
0.00239567 0.867735 0
0.0361181 0.867079 0
0.0698253 0.866423 0
0.103548 0.865766 0
0.13727 0.86511 0
0.170993 0.864454 0
