public/LUTS/Cinematic/Cinematic_13.cube
TITLE "Generated by Resolve"
LUT_3D_SIZE 5
0.0688029 0.0594797 0.0594797
0.161486 0.0779431 0.0758068
0.282017 0.114122 0.107897
0.423514 0.163119 0.15201
0.555184 0.210513 0.192355
0.0831922 0.131258 0.0710155
0.199268 0.172244 0.103578
0.38146 0.251377 0.167102
0.555062 0.326741 0.228733
0.654414 0.389639 0.27805
0.104173 0.220676 0.0950027
0.275227 0.332204 0.170687
0.443839 0.402335 0.23032
0.630579 0.511955 0.313802
0.733455 0.594247 0.370672
0.174517 0.377188 0.160174
0.3794 0.543526 0.26305
0.544747 0.598459 0.32108
0.669871 0.638132 0.364874
0.761929 0.698863 0.411826
0.299168 0.634531 0.274571
0.473747 0.706355 0.337057
0.618921 0.731594 0.380194
0.709163 0.736049 0.405798
0.765789 0.746731 0.425132
0.0872053 0.0761883 0.137942
0.158068 0.078706 0.127306
0.255024 0.103777 0.14612
0.376104 0.139361 0.176822
0.498878 0.174121 0.211383
0.0859846 0.145113 0.142947
0.241428 0.231434 0.213825
0.456596 0.269245 0.227192
0.622522 0.314504 0.26508
0.712123 0.371557 0.31342
0.131472 0.27982 0.190982
0.264714 0.443183 0.266484
0.54725 0.518822 0.343572
0.70869 0.57937 0.394263
0.777508 0.647486 0.474311
0.209857 0.477958 0.270146
0.419318 0.673381 0.379339
0.632731 0.705684 0.471397
0.746914 0.727123 0.504433
0.807462 0.763622 0.565438
0.288884 0.662455 0.3402
0.535958 0.762783 0.438697
0.686625 0.781338 0.5093
0.770474 0.7953 0.559213
0.811322 0.800855 0.575006
0.102754 0.0962234 0.233036
0.206378 0.121904 0.266163
0.304006 0.126482 0.22768
0.415045 0.151003 0.244266
0.50692 0.176257 0.265751
0.117662 0.184924 0.251148
0.207279 0.240604 0.340337
0.412695 0.245777 0.330114
0.581323 0.270176 0.325994
0.685725 0.319722 0.367987
0.157305 0.320592 0.303593
0.208637 0.381277 0.347921
0.557229 0.585092 0.543267
0.695033 0.606165 0.556466
0.763088 0.664775 0.618936
0.234195 0.511955 0.386252
0.308019 0.611276 0.432715
0.637003 0.736233 0.641001
0.751827 0.754162 0.668864
0.807431 0.78291 0.707271
0.285527 0.633722 0.42623
0.422049 0.75201 0.526253
0.732052 0.806394 0.693782
0.788128 0.816831 0.719219
0.817945 0.818753 0.722728
0.129015 0.125002 0.341238
0.228519 0.153414 0.383551
0.315389 0.151217 0.343114
0.4271 0.161227 0.318883
0.507118 0.180438 0.333913
0.147723 0.22388 0.366659
0.211978 0.2477 0.465064
0.422736 0.289982 0.513817
0.565957 0.290318 0.45391
0.653483 0.319112 0.468467
0.191882 0.369192 0.42771
0.240208 0.39556 0.474174
0.481621 0.552865 0.61384
0.669551 0.581292 0.635248
0.741146 0.631662 0.670954
0.238926 0.50454 0.465263
0.302907 0.566537 0.518273
0.478737 0.678614 0.627726
0.771832 0.782147 0.764416
0.815 0.803494 0.787457
0.313375 0.647959 0.539467
0.381643 0.724056 0.606607
0.651667 0.795682 0.731701
0.80528 0.830793 0.798184
0.830701 0.835294 0.802075
0.160235 0.156481 0.455406
0.250202 0.176684 0.478477
0.329793 0.173663 0.444709
0.435904 0.179522 0.411261
0.500008 0.186374 0.398154
0.172412 0.254475 0.473457
0.236988 0.272404 0.577417
0.431952 0.312825 0.617075
0.596857 0.346181 0.596613
0.633692 0.33283 0.558984
0.214893 0.385519 0.522606
0.26981 0.412787 0.575265
0.513298 0.572335 0.69572
0.695781 0.621637 0.716747
0.742519 0.622477 0.719783
0.269398 0.527901 0.566186
0.332753 0.58233 0.617273
0.483406 0.676509 0.700984
0.772076 0.786664 0.795239
0.811399 0.79794 0.807492
0.322103 0.6383 0.605417
0.377783 0.695384 0.660075
0.550973 0.770855 0.738918
0.786938 0.824933 0.816144
0.8392 0.843107 0.835294
