public/LUTS/Cinematic/Cinematic_20.cube
TITLE "Generated by Resolve"
LUT_3D_SIZE 5
0.100816 0.116365 0.125582
0.30013 0.190692 0
0.596521 0.258991 0
0.733166 0.360006 0
0.743175 0.488548 0
0.0841535 0.257389 0.19826
0.33167 0.310414 0.0530861
0.626291 0.446601 0.00779736
0.736965 0.572412 0.0338903
0.73312 0.635782 0.0614023
0.110369 0.499001 0.313756
0.332799 0.633799 0.263264
0.638987 0.634897 0.0844434
0.728908 0.710918 0.0951553
0.727443 0.740383 0.108751
0.14345 0.741817 0.417823
0.347585 0.821241 0.354833
0.645197 0.916579 0.334218
0.722408 0.854078 0.16202
0.723308 0.832029 0.151553
0.211368 0.932998 0.51136
0.391104 0.961959 0.455726
0.603387 0.985275 0.414435
0.782559 1 0.383612
0.782116 1 0.382391
0.106645 0.221271 0.390494
0.173419 0.245838 0.270085
0.508721 0.374685 0.174929
0.728069 0.488106 0.105837
0.760815 0.552361 0.0727398
0.101213 0.260075 0.376669
0.260761 0.330892 0.372992
0.630991 0.425605 0.164034
0.745373 0.505135 0.0619669
0.738338 0.571832 0.0358587
0.173861 0.574395 0.602136
0.248219 0.587198 0.429053
0.615228 0.661891 0.200458
0.739025 0.735332 0.128328
0.726406 0.761364 0.11841
0.204685 0.756771 0.686381
0.29688 0.797833 0.474006
0.593317 0.876356 0.418982
0.72047 0.864302 0.1673
0.722713 0.845945 0.158129
0.235325 0.893263 0.771893
0.359289 0.955108 0.560586
0.578119 0.978668 0.513069
0.754314 0.99971 0.447715
0.796719 1 0.421805
0.207858 0.405554 0.720226
0.160052 0.400183 0.567987
0.353063 0.455985 0.270756
0.68925 0.536706 0.250553
0.906828 0.681147 0.573663
0.203449 0.423423 0.706294
0.22237 0.448402 0.766232
0.525597 0.503914 0.471336
0.791348 0.60827 0.487327
0.886763 0.668788 0.504494
0.202747 0.466743 0.703624
0.220691 0.527337 0.759564
0.661738 0.671748 0.681376
0.853574 0.732235 0.595972
0.868955 0.735988 0.490532
0.298863 0.760403 0.997711
0.278813 0.76997 0.930282
0.605295 0.839246 0.666423
0.795682 0.864485 0.455711
0.812055 0.859937 0.38999
0.314366 0.868681 1
0.288746 0.876646 0.950698
0.596536 0.97081 0.682902
0.752682 0.9897 0.619989
0.838209 0.999863 0.541482
0.286305 0.596658 0.96553
0.266484 0.583062 0.903426
0.342748 0.590707 0.821805
0.730007 0.627161 0.6159
0.918456 0.692622 0.61854
0.284108 0.589624 0.958755
0.289387 0.58587 0.97528
0.433616 0.601083 0.891554
0.78407 0.629129 0.67924
0.938613 0.712505 0.696239
0.283314 0.596109 0.9561
0.29221 0.630945 0.983001
0.525582 0.688334 0.954223
0.845304 0.726986 0.783291
0.953994 0.778271 0.775647
0.289647 0.645579 0.974441
0.297215 0.681559 0.996872
0.503914 0.75581 0.968338
0.858137 0.853773 0.840116
0.949508 0.870527 0.799146
0.343725 0.826047 1
0.3467 0.858625 1
0.417823 0.892683 1
0.798459 0.982361 0.83447
0.909667 0.997528 0.751369
0.336782 0.751461 1
0.333043 0.743008 1
0.331167 0.730175 1
0.750088 0.757305 0.969848
0.980056 0.757671 0.855772
0.334874 0.724804 1
0.334081 0.715663 1
0.33341 0.708095 1
0.780972 0.746242 0.972412
0.983886 0.751369 0.865705
0.334401 0.719554 1
0.33492 0.725856 1
0.334966 0.726116 1
0.821485 0.769848 0.982986
0.989242 0.778134 0.89366
0.334615 0.721935 1
0.335744 0.735439 1
0.338262 0.75642 1
0.855558 0.842817 0.984573
0.988937 0.853941 0.920668
0.337026 0.75021 1
0.338796 0.770169 1
0.371618 0.799115 1
0.830732 0.904204 0.995102
0.975784 0.991028 0.944564
