public/LUTS/Cinematic/Cinematic_14.cube
TITLE "Generated by Resolve"
LUT_3D_SIZE 5
0.0588846 0.0498054 0.0498207
0.139147 0.0649424 0.0639506
0.246418 0.096788 0.0924239
0.38088 0.140002 0.131228
0.530816 0.190753 0.174426
0.0688945 0.114107 0.0603799
0.159777 0.139406 0.0830701
0.336797 0.21767 0.143175
0.527108 0.298054 0.208286
0.63537 0.361624 0.258885
0.0884108 0.19263 0.0806134
0.23444 0.28394 0.144884
0.396826 0.356115 0.199496
0.604166 0.477882 0.293004
0.716884 0.569497 0.358618
0.151492 0.337942 0.140398
0.344488 0.504967 0.240665
0.515099 0.574456 0.304753
0.65449 0.621851 0.355154
0.756283 0.689433 0.405371
0.290196 0.623499 0.270604
0.451453 0.696757 0.330632
0.603998 0.72781 0.37525
0.702785 0.733303 0.403067
0.764706 0.745098 0.423499
0.0726482 0.0641947 0.121386
0.13521 0.0661326 0.112108
0.229786 0.0913863 0.132616
0.342428 0.122591 0.162448
0.469749 0.158755 0.195438
0.073228 0.123507 0.121874
0.213214 0.196445 0.180194
0.427497 0.24033 0.203357
0.601022 0.292256 0.248371
0.697551 0.345907 0.294377
0.112551 0.24477 0.165148
0.235004 0.401602 0.233967
0.519646 0.484672 0.310124
0.696223 0.554101 0.368277
0.772747 0.628595 0.445686
0.19292 0.443732 0.248051
0.381552 0.647471 0.339117
0.611276 0.69308 0.440574
0.740581 0.717357 0.480812
0.804929 0.75819 0.545083
0.284245 0.650996 0.330983
0.49984 0.75555 0.405386
0.671214 0.775647 0.482475
0.764797 0.791348 0.536171
0.808637 0.799741 0.554009
0.0901808 0.0838788 0.21088
0.184482 0.106188 0.238544
0.276265 0.111543 0.211307
0.397681 0.139116 0.232471
0.492638 0.163165 0.255314
0.100587 0.156573 0.221698
0.189395 0.214893 0.315923
0.386862 0.216373 0.300816
0.553643 0.244511 0.30071
0.670604 0.294499 0.34258
0.140948 0.291402 0.279683
0.193256 0.355093 0.327474
0.528664 0.557351 0.514046
0.685145 0.577493 0.523369
0.758572 0.641657 0.590707
0.221866 0.495827 0.36997
0.290257 0.591119 0.409491
0.607385 0.725216 0.613947
0.745739 0.745953 0.652018
0.807111 0.778454 0.695308
0.279103 0.628168 0.414343
0.394598 0.742199 0.497444
0.72134 0.802777 0.679347
0.784039 0.814923 0.706828
0.815702 0.817517 0.712856
0.115831 0.111467 0.314641
0.212512 0.139605 0.362066
0.298558 0.13959 0.334035
0.421439 0.151476 0.310414
0.502419 0.170199 0.32694
0.132189 0.198947 0.341146
0.199023 0.22594 0.444862
0.393561 0.262806 0.488655
0.536843 0.264424 0.424002
0.63064 0.295933 0.439719
0.177951 0.349554 0.410956
0.230091 0.378836 0.459831
0.446494 0.52105 0.595575
0.657526 0.553262 0.617166
0.735744 0.604791 0.652247
0.230579 0.493919 0.455146
0.292485 0.550408 0.503578
0.446174 0.662394 0.60882
0.767422 0.778058 0.759823
0.812955 0.801022 0.784649
0.307271 0.644511 0.532586
0.371801 0.713298 0.59292
0.628489 0.791394 0.719463
0.80322 0.830457 0.79559
0.83032 0.835187 0.799863
0.146593 0.142672 0.429435
0.240772 0.166323 0.469474
0.30927 0.159945 0.434821
0.416876 0.163729 0.396933
0.494392 0.177081 0.3888
0.159594 0.236591 0.458122
0.225589 0.251408 0.563195
0.403006 0.286122 0.597375
0.574655 0.321874 0.574151
0.609155 0.308736 0.530846
0.203326 0.370764 0.51313
0.259312 0.397269 0.563699
0.478126 0.540887 0.686336
0.683833 0.596536 0.707988
0.735622 0.596353 0.7084
0.2589 0.516426 0.560906
0.324666 0.569314 0.607675
0.453101 0.659724 0.690074
0.767025 0.782544 0.792691
0.808835 0.794125 0.804929
0.317601 0.635294 0.603906
0.373129 0.688182 0.652888
0.522881 0.763622 0.730388
0.782757 0.823636 0.814847
0.838911 0.842954 0.835142
