public/LUTS/Cinematic/Cinematic_15.cube
TITLE "Generated by Resolve"
LUT_3D_SIZE 9
0.054902 0.0431067 0.0431067
0.0817426 0.0509957 0.0509957
0.124636 0.0573434 0.0573434
0.175463 0.0715953 0.0697642
0.230793 0.0890974 0.0855726
0.294575 0.10959 0.104341
0.368093 0.132921 0.125109
0.467369 0.166003 0.154528
0.529397 0.188205 0.172503
0.058793 0.0691691 0.0484169
0.0806287 0.0688334 0.0511788
0.127108 0.0810254 0.0611276
0.188312 0.10251 0.0785534
0.26273 0.130144 0.10277
0.349325 0.159426 0.130816
0.439506 0.191196 0.155566
0.52575 0.223331 0.18378
0.574823 0.244678 0.199603
0.0638437 0.102937 0.0560159
0.0912337 0.10901 0.0605325
0.138338 0.119341 0.0730297
0.211124 0.152285 0.0975814
0.307317 0.191455 0.128817
0.411017 0.235477 0.161669
0.507378 0.274113 0.194263
0.582544 0.310048 0.226673
0.623224 0.333898 0.246738
0.0718547 0.141711 0.0639811
0.105852 0.154742 0.0753948
0.168292 0.18024 0.0967117
0.234699 0.206729 0.117906
0.338918 0.25684 0.153429
0.455619 0.312627 0.196353
0.550408 0.359396 0.23476
0.624002 0.406027 0.273213
0.667216 0.441337 0.299626
0.0856794 0.184421 0.0778058
0.121782 0.205753 0.0939345
0.20502 0.257496 0.130114
0.280919 0.291325 0.155154
0.367895 0.328618 0.18439
0.491569 0.397147 0.234897
0.58909 0.455207 0.280903
0.661982 0.509682 0.322621
0.711147 0.551492 0.350347
0.107393 0.234363 0.0995346
0.150713 0.273899 0.120836
0.252583 0.353414 0.17116
0.345373 0.405097 0.208652
0.425528 0.436683 0.236896
0.523613 0.480842 0.273869
0.625223 0.548318 0.324453
0.696864 0.597971 0.35906
0.739635 0.635889 0.382742
0.146197 0.326986 0.136126
0.192203 0.370703 0.160937
0.309819 0.473335 0.222202
0.411872 0.534874 0.266972
0.495048 0.560876 0.295537
0.575326 0.583429 0.320851
0.645975 0.611521 0.349279
0.715251 0.658824 0.384024
0.755917 0.685435 0.403952
0.215503 0.479362 0.20206
0.265415 0.517479 0.225849
0.374487 0.596643 0.27834
0.472541 0.644312 0.316396
0.558785 0.667842 0.346059
0.625742 0.676081 0.364706
0.676326 0.682826 0.38024
0.718013 0.690959 0.392447
0.7608 0.721279 0.415854
0.290196 0.623499 0.270604
0.335225 0.648142 0.2869
0.429694 0.68864 0.32369
0.515236 0.712474 0.347707
0.591775 0.726436 0.37145
0.654566 0.729397 0.389166
0.699062 0.733303 0.402289
0.736294 0.737301 0.411765
0.764706 0.745098 0.423499
0.0590066 0.0509957 0.0702525
0.0816052 0.0509957 0.0698711
0.122393 0.0585489 0.076051
0.170993 0.072755 0.0866102
0.222339 0.0855268 0.0990158
0.281575 0.103899 0.116243
0.347616 0.124254 0.134325
0.438544 0.14995 0.158419
0.497566 0.168582 0.176501
0.058793 0.0690623 0.0690471
0.0893263 0.0747234 0.0739452
0.149279 0.0896925 0.0851148
0.216815 0.105577 0.0977798
0.295659 0.129595 0.118517
0.374731 0.158404 0.143069
0.457511 0.18677 0.170855
0.542092 0.219059 0.1991
0.588769 0.240711 0.217044
0.0627146 0.105058 0.0729381
0.104601 0.128939 0.0871901
0.174716 0.14435 0.0968032
0.259007 0.173236 0.119585
0.351553 0.210925 0.153399
0.447608 0.248356 0.185183
0.533745 0.281636 0.21471
0.60209 0.314809 0.24239
0.641291 0.337255 0.26125
0.0710613 0.145281 0.0793774
0.10808 0.175067 0.092958
0.198276 0.219028 0.120104
0.285389 0.247471 0.148028
0.392721 0.295125 0.188495
0.498756 0.339971 0.226719
0.5841 0.381704 0.261311
0.652506 0.426139 0.295094
0.694301 0.45951 0.317296
0.0852979 0.192218 0.0923629
0.118257 0.230152 0.10576
0.227909 0.305898 0.153582
0.328588 0.347219 0.189883
0.42742 0.383215 0.224201
0.543557 0.440375 0.271672
0.629557 0.491737 0.310674
0.698497 0.543069 0.345098
0.740261 0.580163 0.370703
0.109514 0.251911 0.116075
0.148455 0.307866 0.133883
0.271962 0.411521 0.194659
0.385626 0.472404 0.243198
0.482567 0.500191 0.276356
0.582773 0.538811 0.312383
0.668223 0.590143 0.35227
0.7308 0.633875 0.383749
0.768612 0.665751 0.406424
0.15082 0.350774 0.155001
0.196262 0.410941 0.176135
0.328817 0.524681 0.244984
0.444434 0.588098 0.294804
0.539101 0.611185 0.325948
0.621073 0.628748 0.352758
0.687938 0.652873 0.37818
0.74638 0.690211 0.408957
0.780758 0.715831 0.428336
0.217548 0.503304 0.219608
0.270909 0.561425 0.241779
0.387121 0.6327 0.291951
0.49305 0.672908 0.333043
0.584497 0.692576 0.362493
0.65626 0.703365 0.386954
0.707439 0.712306 0.404028
0.743709 0.720272 0.41561
0.78265 0.74638 0.441886
0.274464 0.635584 0.271107
0.330571 0.679591 0.290929
0.434058 0.714488 0.325338
0.528954 0.731533 0.35874
0.609186 0.740642 0.383749
0.672602 0.746502 0.403922
0.722103 0.751431 0.420294
0.756634 0.757778 0.432319
0.780774 0.765072 0.443732
0.0666972 0.0575418 0.109728
0.0909133 0.0593423 0.107042
0.119936 0.0595407 0.100832
0.165774 0.072221 0.10985
0.215396 0.0854505 0.121828
0.268513 0.100328 0.136095
0.331167 0.117876 0.153689
0.411078 0.141039 0.174304
0.468956 0.156893 0.189136
0.0649119 0.0764782 0.108339
0.100801 0.0863813 0.120287
0.14464 0.0856641 0.115175
0.201953 0.0975204 0.122896
0.266316 0.113375 0.135119
0.335698 0.132311 0.151415
0.417014 0.157839 0.172854
0.506035 0.186542 0.199786
0.567163 0.205859 0.218219
0.0673381 0.109438 0.109255
0.0951553 0.127001 0.122866
0.183429 0.164141 0.149737
0.281315 0.186862 0.163699
0.389181 0.209491 0.178515
0.487984 0.237446 0.202762
0.570413 0.265309 0.22945
0.636912 0.299901 0.257633
0.677775 0.32314 0.277424
0.0776379 0.155856 0.12076
0.100954 0.181933 0.131426
0.198413 0.260563 0.184192
0.329381 0.296727 0.201984
0.446677 0.321843 0.222293
0.548028 0.349905 0.250996
0.625071 0.381949 0.279194
0.685206 0.422324 0.310597
0.722362 0.451606 0.332906
0.102358 0.220462 0.143526
0.118837 0.253635 0.151629
0.2038 0.351019 0.197314
0.361074 0.428168 0.253925
0.485298 0.444312 0.274556
0.599054 0.481559 0.309728
0.677577 0.522805 0.341466
0.734783 0.569345 0.383825
0.765988 0.603403 0.41503
0.1355 0.307485 0.180987
0.154177 0.349538 0.184848
0.259236 0.485893 0.241489
0.414359 0.566247 0.311788
0.534279 0.579461 0.34641
0.633478 0.596643 0.369024
0.713954 0.637552 0.407355
0.766674 0.676951 0.448356
0.793286 0.704143 0.486229
0.179583 0.414145 0.222034
0.199191 0.461891 0.223636
0.33666 0.609094 0.294102
0.47982 0.664958 0.364614
0.585168 0.676295 0.405295
0.662776 0.681132 0.426337
0.732174 0.705715 0.452537
0.779019 0.733043 0.485985
0.803845 0.751431 0.519326
0.237522 0.55024 0.275914
0.257877 0.602884 0.271534
0.408774 0.699031 0.337621
0.533776 0.723827 0.394949
0.624842 0.735241 0.436057
0.692729 0.74287 0.466056
0.746044 0.753735 0.487144
0.781506 0.76466 0.500771
0.807797 0.777356 0.530907
0.282628 0.653895 0.317693
0.296269 0.699489 0.302953
0.45861 0.747112 0.371313
0.570077 0.75938 0.419638
0.651331 0.76817 0.452247
0.713314 0.778302 0.484306
0.759747 0.787167 0.509239
0.790265 0.792203 0.521614
0.807355 0.79556 0.528511
0.0738994 0.0666972 0.153063
0.104036 0.0704204 0.154788
0.143282 0.0754253 0.151095
0.171862 0.0768902 0.141131
0.22678 0.0903639 0.15201
0.283803 0.105608 0.166644
0.345312 0.122087 0.181796
0.418723 0.141772 0.20119
0.468132 0.155261 0.212131
0.073579 0.0865187 0.155169
0.110307 0.0991073 0.178546
0.169039 0.105943 0.185138
0.213031 0.103731 0.164385
0.26923 0.116213 0.169741
0.328542 0.13402 0.182162
0.399451 0.154971 0.199207
0.479957 0.178958 0.222065
0.531762 0.196857 0.236988
0.0782788 0.122148 0.156344
0.10312 0.140017 0.181125
0.180713 0.179538 0.221469
0.258015 0.170367 0.207858
0.348486 0.181888 0.207126
0.443595 0.20058 0.21651
0.54313 0.224201 0.23537
0.625605 0.257267 0.263096
0.677897 0.280507 0.282673
0.0907149 0.172183 0.168276
0.111711 0.198566 0.190967
0.155535 0.239597 0.222461
0.318318 0.322789 0.296376
0.43476 0.332097 0.293538
0.559518 0.348653 0.297368
0.643305 0.37258 0.314916
0.702464 0.410971 0.344808
0.733745 0.447486 0.377691
0.120333 0.248585 0.202182
0.13814 0.276631 0.219104
0.173922 0.335561 0.244953
0.31986 0.447028 0.329656
0.494804 0.490242 0.373083
0.60911 0.498436 0.367163
0.681987 0.523308 0.391165
0.73463 0.567514 0.432242
0.763027 0.602243 0.475151
0.16144 0.359319 0.254139
0.183169 0.3888 0.265949
0.218601 0.461067 0.281514
0.365164 0.580087 0.373938
0.55288 0.631525 0.456291
0.643549 0.63035 0.459846
0.717968 0.654429 0.482094
0.768017 0.689525 0.524544
0.79292 0.71191 0.566537
0.207446 0.471443 0.300237
0.228397 0.499916 0.30779
0.291142 0.600473 0.336812
0.469032 0.686458 0.453376
0.605447 0.712566 0.514855
0.678294 0.711116 0.529229
0.734676 0.721538 0.539269
0.782895 0.746914 0.574716
0.806195 0.763317 0.607996
0.249744 0.569024 0.336309
0.271183 0.608713 0.343191
0.363439 0.702953 0.386267
0.561837 0.748455 0.505531
0.653407 0.760845 0.547448
0.708339 0.764019 0.567773
0.750134 0.768231 0.580591
0.785748 0.776165 0.59144
0.807797 0.787671 0.618204
0.284596 0.642908 0.36556
0.302342 0.684779 0.365805
0.424216 0.753719 0.421683
0.610788 0.778912 0.52221
0.681453 0.787945 0.554772
0.729656 0.794171 0.585855
0.765545 0.798932 0.606119
0.791745 0.80322 0.615885
0.811795 0.80531 0.620356
0.0842756 0.078172 0.19939
0.113756 0.0835889 0.205432
0.16492 0.0965133 0.218814
0.213916 0.102373 0.2177
0.255604 0.102724 0.197894
0.323278 0.118517 0.209461
0.384817 0.134051 0.223438
0.447837 0.149813 0.237598
0.487526 0.1608 0.247608
0.0855421 0.0987716 0.203632
0.11606 0.110887 0.234714
0.179507 0.124575 0.258991
0.244495 0.132219 0.251225
0.297795 0.133394 0.223468
0.353658 0.145052 0.225727
0.413977 0.161151 0.236881
0.483085 0.181277 0.253269
0.526696 0.194308 0.266499
0.0930495 0.137377 0.20621
0.116548 0.15993 0.244617
0.171756 0.185672 0.289189
0.272206 0.197528 0.306752
0.354894 0.189502 0.273472
0.435752 0.200153 0.267796
0.516808 0.219318 0.275731
0.591562 0.24828 0.29781
0.644312 0.268788 0.316884
0.110307 0.196643 0.227237
0.133608 0.230411 0.261891
0.164157 0.253498 0.295796
0.282963 0.320607 0.360006
0.402365 0.316991 0.353246
0.519234 0.32192 0.3411
0.616342 0.342718 0.350332
0.685206 0.37586 0.376425
0.719753 0.408392 0.407645
0.132067 0.270741 0.261006
0.154253 0.29781 0.281987
0.178408 0.32871 0.305486
0.244038 0.384054 0.343679
0.498817 0.526833 0.48365
0.593973 0.520073 0.472175
0.675486 0.54548 0.485801
0.72636 0.580957 0.518822
0.753964 0.61738 0.557671
0.170916 0.374914 0.308476
0.193179 0.398627 0.32462
0.221927 0.443824 0.344869
0.286061 0.521798 0.383566
0.511772 0.631601 0.525734
0.654017 0.660533 0.57435
0.716777 0.674159 0.578317
0.761395 0.698116 0.607813
0.786557 0.724575 0.647272
0.216678 0.486717 0.357763
0.238956 0.509087 0.36997
0.272526 0.566018 0.386328
0.369085 0.646906 0.4495
0.580606 0.71429 0.588266
0.696834 0.738247 0.633326
0.73785 0.736309 0.630289
0.780941 0.75552 0.654871
0.806577 0.773129 0.681666
0.253193 0.571572 0.38735
0.274388 0.594232 0.398886
0.318669 0.667628 0.426688
0.49218 0.734325 0.541344
0.669093 0.773083 0.645655
0.729046 0.784024 0.666087
0.760967 0.784207 0.671199
0.786709 0.785245 0.670726
0.81178 0.797024 0.692042
0.278401 0.628992 0.405188
0.302068 0.651087 0.416556
0.3673 0.730831 0.462776
0.579324 0.779995 0.596674
0.707698 0.799161 0.659266
0.751247 0.807767 0.679408
0.779217 0.812634 0.693568
0.799954 0.813916 0.698009
0.815702 0.816129 0.701305
0.0945907 0.0892958 0.245808
0.125536 0.0980697 0.258076
0.180301 0.114122 0.280766
0.233173 0.12401 0.292546
0.288975 0.123781 0.270619
0.351415 0.131106 0.258366
0.409659 0.143755 0.265995
0.467063 0.157137 0.275883
0.500923 0.167544 0.286244
0.0983139 0.113939 0.252338
0.125948 0.123751 0.295888
0.187259 0.141497 0.324605
0.249042 0.152087 0.329656
0.306691 0.151019 0.294835
0.372122 0.157839 0.276295
0.423499 0.1664 0.277501
0.486564 0.183001 0.288869
0.524742 0.194125 0.299855
0.109667 0.160403 0.263233
0.131838 0.177584 0.304677
0.174533 0.19266 0.356329
0.268284 0.214817 0.392676
0.363424 0.217502 0.372717
0.441489 0.216495 0.337209
0.506371 0.225162 0.328161
0.572351 0.247471 0.341375
0.621088 0.267262 0.359792
0.12694 0.223774 0.291203
0.153765 0.2551 0.327733
0.178622 0.268177 0.364874
0.25214 0.307485 0.417151
0.406546 0.341665 0.453422
0.513405 0.327062 0.42359
0.602609 0.334371 0.41352
0.667674 0.362325 0.431174
0.705394 0.392264 0.457481
0.154879 0.311101 0.334279
0.179156 0.336828 0.35848
0.202655 0.353689 0.380896
0.236194 0.374014 0.409781
0.439567 0.497719 0.524804
0.569406 0.507256 0.530694
0.644007 0.515953 0.530831
0.698436 0.547997 0.554971
0.730282 0.586862 0.592081
0.179416 0.387304 0.360937
0.198718 0.402029 0.373434
0.225879 0.424277 0.391333
0.262104 0.477943 0.426459
0.398032 0.569314 0.506859
0.671 0.688319 0.65742
0.71632 0.691875 0.659983
0.756817 0.715129 0.683116
0.785214 0.733944 0.705776
0.222766 0.490272 0.405722
0.247272 0.512306 0.422812
0.280705 0.551293 0.446677
0.324987 0.61001 0.48365
0.469673 0.675837 0.569604
0.694987 0.74757 0.696056
0.750591 0.758144 0.707744
0.786221 0.772778 0.723049
0.807248 0.785534 0.741558
0.26453 0.579782 0.445701
0.285786 0.59736 0.460304
0.32311 0.648096 0.490288
0.407141 0.706401 0.550149
0.594202 0.757061 0.654078
0.740887 0.793759 0.731426
0.776898 0.800671 0.739345
0.797757 0.801038 0.740917
0.817548 0.810575 0.753567
0.291798 0.637217 0.468315
0.312535 0.651133 0.479423
0.3523 0.708553 0.519982
0.482155 0.765087 0.603967
0.687816 0.799802 0.708568
0.768643 0.817456 0.746685
0.793072 0.82327 0.756817
0.810346 0.824628 0.76025
0.823423 0.826429 0.760006
0.110124 0.106218 0.303853
0.144427 0.116014 0.321614
0.196902 0.131579 0.346731
0.241657 0.139834 0.35642
0.286229 0.136538 0.33312
0.351781 0.139528 0.310109
0.417838 0.14902 0.305058
0.471077 0.161349 0.315496
0.502007 0.168597 0.323537
0.113512 0.12845 0.306935
0.139666 0.13994 0.362036
0.202121 0.158541 0.391867
0.257679 0.168215 0.390768
0.306737 0.164813 0.360052
0.3682 0.166888 0.332433
0.424063 0.171054 0.321172
0.483986 0.18587 0.329366
0.520348 0.19649 0.338506
0.125246 0.180224 0.325795
0.146349 0.192462 0.360876
0.18555 0.203433 0.423163
0.268376 0.226902 0.471717
0.361273 0.235325 0.459388
0.45095 0.241657 0.426734
0.504372 0.240345 0.391928
0.560281 0.251911 0.392386
0.602777 0.270649 0.407874
0.144793 0.248402 0.359396
0.168841 0.269963 0.388998
0.192416 0.273884 0.426169
0.25185 0.308064 0.487556
0.397955 0.352056 0.539788
0.526482 0.358709 0.529091
0.597162 0.349813 0.496742
0.655344 0.36437 0.498009
0.694759 0.388434 0.516732
0.171328 0.331792 0.397894
0.194553 0.349157 0.418509
0.219486 0.361517 0.443778
0.246937 0.37377 0.478843
0.406485 0.485145 0.574395
0.580606 0.528542 0.604501
0.6421 0.516747 0.592813
0.694408 0.535668 0.603021
0.730114 0.572366 0.629328
0.200732 0.414527 0.428885
0.218906 0.427726 0.441306
0.247639 0.444877 0.461509
0.273457 0.475212 0.494713
0.36495 0.543893 0.555093
0.637003 0.674525 0.678691
0.703899 0.682795 0.688823
0.743374 0.700389 0.704372
0.772107 0.721492 0.7234
0.226215 0.485191 0.447868
0.24538 0.501915 0.46125
0.280186 0.530129 0.485924
0.314931 0.578759 0.524895
0.410346 0.642206 0.585992
0.624735 0.721477 0.684855
0.762814 0.774563 0.75491
0.791516 0.785077 0.765866
0.811276 0.797574 0.780636
0.273762 0.582071 0.495903
0.296498 0.600198 0.513039
0.33489 0.641535 0.548165
0.37995 0.687709 0.587793
0.504494 0.73344 0.649088
0.68867 0.779889 0.732296
0.784436 0.809064 0.776745
0.806043 0.811017 0.781109
0.823407 0.821363 0.792798
0.305882 0.643107 0.528145
0.327855 0.658686 0.542153
0.361852 0.701045 0.578607
0.429984 0.749111 0.627771
0.603479 0.787152 0.705486
0.753307 0.816602 0.771069
0.800793 0.828855 0.792554
0.81857 0.832929 0.796063
0.829084 0.8336 0.797848
0.129137 0.125231 0.375402
0.167773 0.136492 0.399954
0.218891 0.150698 0.420905
0.253574 0.153719 0.420569
0.291035 0.147143 0.395743
0.347601 0.147631 0.36788
0.410132 0.156069 0.355856
0.467475 0.164889 0.354269
0.497993 0.172503 0.361501
0.127611 0.147585 0.369818
0.159121 0.159686 0.433158
0.216403 0.175448 0.457481
0.262898 0.18146 0.452064
0.314687 0.180819 0.427314
0.383459 0.185489 0.405081
0.437537 0.190127 0.387793
0.480461 0.190051 0.37351
0.515221 0.200153 0.381033
0.142138 0.203784 0.39646
0.161486 0.205005 0.41857
0.199496 0.218601 0.497078
0.273274 0.235843 0.543572
0.367605 0.250126 0.531975
0.464805 0.264881 0.508675
0.525078 0.27245 0.484733
0.553231 0.263752 0.451362
0.589059 0.275776 0.460563
0.163333 0.272587 0.433387
0.184649 0.283818 0.454475
0.208789 0.282872 0.487465
0.26389 0.319646 0.564904
0.400366 0.361288 0.609796
0.537148 0.380346 0.604578
0.611841 0.387503 0.589426
0.648264 0.378408 0.567712
0.684306 0.391791 0.576745
0.18735 0.346883 0.462943
0.207446 0.358801 0.481315
0.236789 0.37023 0.507027
0.265812 0.383536 0.552163
0.414237 0.491203 0.635981
0.585016 0.540917 0.655177
0.656687 0.544488 0.658961
0.695308 0.539925 0.652873
0.726772 0.562951 0.667857
0.214817 0.424125 0.488945
0.23357 0.435355 0.502358
0.265843 0.455344 0.525551
0.290288 0.479759 0.560723
0.37467 0.543374 0.616876
0.635355 0.676585 0.711986
0.715602 0.696117 0.725093
0.743832 0.695949 0.727855
0.76968 0.715084 0.743999
0.245899 0.503136 0.513634
0.264225 0.51722 0.526284
0.299779 0.543648 0.550622
0.326909 0.579248 0.585611
0.402502 0.630503 0.632486
0.596918 0.709514 0.707668
0.757397 0.773175 0.771084
0.786648 0.780423 0.779263
0.806073 0.792706 0.792996
0.274723 0.574395 0.536049
0.295705 0.58941 0.550561
0.333761 0.619989 0.579446
0.364981 0.662928 0.616373
0.457008 0.709957 0.664454
0.634348 0.763195 0.732799
0.762325 0.801205 0.784863
0.814725 0.818982 0.807019
0.827451 0.827131 0.815061
0.317601 0.64651 0.577295
0.336904 0.658137 0.58851
0.369619 0.695338 0.621973
0.412695 0.736355 0.661479
0.534401 0.770733 0.710018
0.705745 0.806973 0.771481
0.790829 0.826291 0.805325
0.825025 0.837552 0.821027
0.83505 0.839124 0.822019
0.141207 0.137301 0.423499
0.183932 0.14992 0.449241
0.231388 0.161181 0.466697
0.261646 0.1608 0.45919
0.297597 0.156893 0.435859
0.351995 0.156893 0.410605
0.409674 0.1608 0.396124
0.463737 0.16907 0.388205
0.494102 0.176501 0.388205
0.137789 0.159045 0.415763
0.173556 0.173846 0.483192
0.230961 0.186496 0.499184
0.270527 0.188434 0.489067
0.321859 0.191699 0.470924
0.39292 0.198581 0.45478
0.450462 0.205112 0.438956
0.487938 0.205051 0.421225
0.51223 0.204318 0.413169
0.153689 0.217365 0.445853
0.170336 0.216083 0.461433
0.213397 0.230182 0.547005
0.277119 0.245274 0.581857
0.368963 0.258488 0.56936
0.473136 0.279377 0.554482
0.544503 0.295628 0.545617
0.572625 0.291798 0.52079
0.581308 0.283207 0.498833
0.175372 0.289891 0.485252
0.196216 0.296773 0.49984
0.220859 0.292332 0.53077
0.278187 0.331777 0.615061
0.406058 0.369299 0.652308
0.543557 0.393973 0.648585
0.622065 0.409903 0.643305
0.661479 0.408362 0.631449
0.677821 0.398306 0.618753
0.199268 0.357076 0.509071
0.219898 0.37026 0.525887
0.249454 0.379675 0.550256
0.280583 0.395651 0.602457
0.439429 0.505959 0.678294
0.59826 0.555596 0.690791
0.67013 0.566186 0.69723
0.708461 0.568795 0.699687
0.727565 0.564858 0.695109
0.223941 0.428885 0.530968
0.246662 0.443793 0.545266
0.279301 0.464591 0.570031
0.304204 0.487205 0.608469
0.410513 0.565911 0.668132
0.653605 0.687999 0.742107
0.725811 0.707164 0.750301
0.754803 0.712505 0.756893
0.771832 0.711238 0.759518
0.256062 0.509316 0.558053
0.278294 0.526116 0.571344
0.314061 0.554086 0.59646
0.339071 0.585321 0.630991
0.420737 0.639796 0.677241
0.622919 0.721172 0.743328
0.76202 0.777829 0.790677
0.794507 0.789014 0.798413
0.805875 0.789578 0.801968
0.292073 0.58703 0.585122
0.312276 0.599893 0.597421
0.346731 0.628305 0.62327
0.374685 0.662654 0.657038
0.464332 0.712001 0.70219
0.639918 0.765515 0.760143
0.765774 0.804852 0.80145
0.814664 0.822492 0.819379
0.827131 0.826246 0.823133
0.317601 0.635294 0.603906
0.336812 0.646952 0.615213
0.368841 0.679698 0.644404
0.397757 0.716609 0.677409
0.495949 0.754986 0.721523
0.666758 0.797635 0.775296
0.77673 0.822141 0.811917
0.821347 0.835157 0.827344
0.838575 0.842756 0.834943
