public/LUTS/Cinematic/Cinematic_06.cube
TITLE "Generated by Resolve"
LUT_3D_SIZE 9
0 0.000457771 0.000457771
0.111131 0 0
0.246006 0 0
0.38088 0 0
0.515755 0 0
0.650645 0 0
0.785519 0 0
0.920394 0 0
1 0 0
0 0.129198 0
0.102373 0.126574 0
0.237263 0.123949 0
0.372137 0.121324 0
0.507012 0.1187 0
0.641886 0.116075 0
0.776761 0.113451 0
0.911635 0.110826 0
1 0.108186 0
0 0.257954 0
0.0936294 0.255329 0
0.228504 0.252705 0
0.363378 0.25008 0
0.498268 0.247456 0
0.633143 0.244816 0
0.768017 0.242191 0
0.902892 0.239567 0
1 0.236942 0
0 0.386709 0
0.0848859 0.38407 0
0.21976 0.381445 0
0.354635 0.37882 0
0.489509 0.376196 0
0.624384 0.373571 0
0.759258 0.370947 0
0.894148 0.368322 0
1 0.365698 0
0 0.51545 0
0.0761273 0.512825 0
0.211002 0.510201 0
0.345876 0.507576 0
0.480766 0.504952 0
0.615641 0.502327 0
0.750515 0.499702 0
0.88539 0.497078 0
1 0.494453 0
0 0.644205 0
0.0673838 0.641581 0
0.202258 0.638956 0
0.337133 0.636332 0
0.472007 0.633707 0
0.606882 0.631083 0
0.741772 0.628458 0
0.876646 0.625834 0
1 0.623209 0
0 0.772961 0
0.0586252 0.770336 0
0.1935 0.767712 0
0.328389 0.765087 0
0.463264 0.762463 0
0.598138 0.759838 0
0.733013 0.757198 0
0.867887 0.754574 0
1 0.751949 0
0 0.901717 0
0.0498817 0.899092 0
0.184756 0.896452 0
0.319631 0.893828 0
0.454505 0.891203 0
0.589395 0.888579 0
0.724269 0.885954 0
0.859144 0.88333 0
0.994018 0.880705 0
0 1 0
0.0411231 1 0
0.176013 1 0
0.310887 1 0
0.445762 1 0
0.580636 1 0
0.715511 1 0
0.850385 1 0
0.985275 1 0
0 0 0.136828
0.110002 0 0.134203
0.244877 0 0.131579
0.379751 0 0.128954
0.514641 0 0.126329
0.649516 0 0.123705
0.78439 0 0.121065
0.919264 0 0.118441
1 0 0.115816
0 0.128069 0.128069
0.101259 0.125444 0.125444
0.236133 0.12282 0.12282
0.371008 0.120195 0.120195
0.505882 0.117571 0.117571
0.640757 0.114946 0.114946
0.775647 0.112322 0.112322
0.910521 0.109697 0.109697
1 0.107073 0.107073
0 0.256825 0.119326
0.0925002 0.2542 0.116701
0.227375 0.251575 0.114076
0.362264 0.248951 0.111452
0.497139 0.246326 0.108827
0.632013 0.243702 0.106203
0.766888 0.241077 0.103578
0.901762 0.238453 0.100954
1 0.235828 0.0983291
0 0.38558 0.110567
0.0837568 0.382956 0.107942
0.218631 0.380331 0.105318
0.353506 0.377707 0.102693
0.48838 0.375082 0.100069
0.62327 0.372457 0.0974441
0.758144 0.369818 0.0948196
0.893019 0.367193 0.092195
1 0.364569 0.0895705
0 0.514336 0.101823
0.0749981 0.511711 0.0991989
0.209888 0.509087 0.0965744
0.344762 0.506447 0.0939498
0.479637 0.503822 0.0913252
0.614511 0.501198 0.0887007
0.749386 0.498573 0.0860761
0.88426 0.495949 0.0834516
1 0.493324 0.080827
0 0.643076 0.0930648
0.0662547 0.640452 0.0904402
0.201129 0.637827 0.0878157
0.336004 0.635203 0.0851911
0.470878 0.632578 0.0825666
0.605768 0.629953 0.079942
0.740642 0.627329 0.0773175
0.875517 0.624704 0.0746929
1 0.62208 0.0720684
0 0.771832 0.0843214
0.0575113 0.769207 0.0816968
0.192386 0.766583 0.0790723
0.32726 0.763958 0.0764477
0.462135 0.761334 0.0738231
0.597009 0.758709 0.0711986
0.731884 0.756085 0.068574
0.866773 0.75346 0.0659495
1 0.750835 0.0633249
0 0.900587 0.0755779
0.0487526 0.897963 0.0729534
0.183627 0.895338 0.0703136
0.318502 0.892714 0.067689
0.453391 0.890089 0.0650645
0.588266 0.887465 0.0624399
0.72314 0.88484 0.0598154
0.858015 0.8822 0.0571908
0.992889 0.879576 0.0545663
0 1 0.0668193
0.0400092 1 0.0641947
0.174884 1 0.0615702
0.309758 1 0.0589456
0.444633 1 0.0563211
0.579507 1 0.0536965
0.714397 1 0.0510719
0.849271 1 0.0484474
0.984146 1 0.0458228
0 0 0.273198
0.108873 0 0.270573
0.243763 0 0.267948
0.378637 0 0.265324
0.513512 0 0.262699
0.648386 0 0.260075
0.783261 0 0.25745
0.918135 0 0.254826
1 0 0.252201
0 0.126955 0.264454
0.10013 0.124331 0.26183
0.235004 0.121706 0.259205
0.369879 0.119066 0.25658
0.504768 0.116442 0.253956
0.639643 0.113817 0.251331
0.774517 0.111192 0.248707
0.909392 0.108568 0.246082
1 0.105943 0.243458
0 0.255695 0.255695
0.0913863 0.253071 0.253071
0.226261 0.250446 0.250446
0.361135 0.247822 0.247822
0.49601 0.245197 0.245197
0.630884 0.242573 0.242573
0.765759 0.239948 0.239948
0.900649 0.237324 0.237324
1 0.234699 0.234699
0 0.384451 0.246952
0.0826276 0.381826 0.244327
0.217502 0.379202 0.241703
0.352377 0.376577 0.239078
0.487266 0.373953 0.236454
0.622141 0.371328 0.233829
0.757015 0.368704 0.231205
0.89189 0.366079 0.22858
1 0.363455 0.225956
0 0.513207 0.238193
0.0738842 0.510582 0.235569
0.208759 0.507958 0.232944
0.343633 0.505333 0.23032
0.478508 0.502708 0.227695
0.613382 0.500084 0.225071
0.748272 0.497459 0.222446
0.883146 0.49482 0.219821
1 0.492195 0.217197
0 0.641962 0.22945
0.0651255 0.639338 0.226825
0.2 0.636713 0.224201
0.33489 0.634089 0.221576
0.469764 0.631449 0.218952
0.604639 0.628824 0.216327
0.739513 0.6262 0.213703
0.874388 0.623575 0.211078
1 0.620951 0.208453
0 0.770703 0.220691
0.0563821 0.768078 0.218067
0.191257 0.765454 0.215442
0.326131 0.762829 0.212818
0.461006 0.760204 0.210193
0.59588 0.75758 0.207568
0.73077 0.754955 0.204944
0.865644 0.752331 0.202319
1 0.749706 0.199695
0 0.899458 0.211948
0.0476234 0.896834 0.209323
0.182513 0.894209 0.206699
0.317388 0.891585 0.204074
0.452262 0.88896 0.20145
0.587137 0.886336 0.198825
0.722011 0.883711 0.196201
0.856886 0.881086 0.193576
0.991775 0.878462 0.190951
0 1 0.203204
0.03888 1 0.20058
0.173754 1 0.197955
0.308629 1 0.195315
0.443503 1 0.192691
0.578393 1 0.190066
0.713268 1 0.187442
0.848142 1 0.184817
0.983017 1 0.182193
0 0 0.409583
0.107759 0 0.406958
0.242634 0 0.404334
0.377508 0 0.401709
0.512383 0 0.399084
0.647257 0 0.39646
0.782147 0 0.39382
0.917021 0 0.391196
1 0 0.388571
0 0.125826 0.400824
0.0990005 0.123201 0.398199
0.233875 0.120577 0.395575
0.368765 0.117952 0.39295
0.503639 0.115328 0.390326
0.638514 0.112703 0.387701
0.773388 0.110079 0.385077
0.908263 0.107439 0.382452
1 0.104814 0.379828
0 0.254582 0.392081
0.0902571 0.251957 0.389456
0.225132 0.249332 0.386831
0.360006 0.246708 0.384207
0.494881 0.244068 0.381582
0.62977 0.241443 0.378958
0.764645 0.238819 0.376333
0.899519 0.236194 0.373709
1 0.23357 0.371084
0 0.383322 0.383322
0.0814984 0.380697 0.380697
0.216388 0.378073 0.378073
0.351263 0.375448 0.375448
0.486137 0.372824 0.372824
0.621012 0.370199 0.370199
0.755886 0.367575 0.367575
0.890761 0.36495 0.36495
1 0.362325 0.362325
0 0.512078 0.374578
0.072755 0.509453 0.371954
0.20763 0.506828 0.369329
0.342504 0.504204 0.366705
0.477378 0.501579 0.36408
0.612268 0.498955 0.361456
0.747143 0.49633 0.358831
0.882017 0.493706 0.356207
1 0.491081 0.353582
0 0.640833 0.36582
0.0640116 0.638209 0.363195
0.198886 0.635584 0.360571
0.333761 0.632959 0.357946
0.468635 0.630335 0.355322
0.60351 0.62771 0.352697
0.738384 0.625086 0.350072
0.873274 0.622461 0.347448
1 0.619821 0.344823
0 0.769589 0.357076
0.0552529 0.766964 0.354452
0.190127 0.76434 0.351827
0.325002 0.761715 0.349203
0.459892 0.759091 0.346578
0.594766 0.756451 0.343954
0.729641 0.753826 0.341329
0.864515 0.751202 0.338704
0.99939 0.748577 0.33608
0 0.898344 0.348333
0.0465095 0.895705 0.345708
0.181384 0.89308 0.343069
0.316258 0.890455 0.340444
0.451133 0.887831 0.337819
0.586007 0.885206 0.335195
0.720882 0.882582 0.33257
0.855772 0.879957 0.329946
0.990646 0.877333 0.327321
0 1 0.339574
0.0377508 1 0.33695
0.172625 1 0.334325
0.307515 1 0.331701
0.44239 1 0.329076
0.577264 1 0.326452
0.712139 1 0.323827
0.847013 1 0.321202
0.981888 1 0.318578
0 0 0.545953
0.10663 0 0.543328
0.241505 0 0.540703
0.376379 0 0.538079
0.511254 0 0.535454
0.646143 0 0.53283
0.781018 0 0.530205
0.915892 0 0.527581
1 0 0.524956
0 0.124697 0.537209
0.0978866 0.122072 0.534585
0.232761 0.119448 0.53196
0.367636 0.116823 0.529335
0.50251 0.114199 0.526711
0.637385 0.111574 0.524086
0.772259 0.108949 0.521462
0.907149 0.106325 0.518837
1 0.1037 0.516213
0 0.253452 0.52845
0.089128 0.250828 0.525826
0.224002 0.248203 0.523201
0.358877 0.245579 0.520577
0.493767 0.242954 0.517952
0.628641 0.24033 0.515328
0.763516 0.237705 0.512703
0.89839 0.23508 0.510079
1 0.232441 0.507454
0 0.382208 0.519707
0.0803845 0.379583 0.517082
0.215259 0.376959 0.514458
0.350134 0.374334 0.511833
0.485008 0.37171 0.509209
0.619883 0.36907 0.506584
0.754772 0.366445 0.50396
0.889647 0.363821 0.501335
1 0.361196 0.498711
0 0.510964 0.510948
0.0716259 0.508324 0.508324
0.2065 0.505699 0.505699
0.34139 0.503075 0.503075
0.476265 0.50045 0.50045
0.611139 0.497826 0.497826
0.746014 0.495201 0.495201
0.880888 0.492576 0.492576
1 0.489952 0.489952
0 0.639704 0.502205
0.0628824 0.637079 0.49958
0.197757 0.634455 0.496956
0.332631 0.63183 0.494331
0.467506 0.629206 0.491707
0.60238 0.626581 0.489082
0.73727 0.623957 0.486458
0.872145 0.621332 0.483833
1 0.618708 0.481209
0 0.76846 0.493446
0.0541238 0.765835 0.490822
0.189014 0.76321 0.488197
0.323888 0.760586 0.485573
0.458762 0.757961 0.482948
0.593637 0.755337 0.480323
0.728511 0.752712 0.477699
0.863386 0.750088 0.475074
0.998276 0.747463 0.47245
0 0.897215 0.484703
0.0453803 0.894591 0.482078
0.180255 0.891966 0.479454
0.315129 0.889342 0.476829
0.450004 0.886717 0.474205
0.584894 0.884092 0.47158
0.719768 0.881453 0.468956
0.854643 0.878828 0.466331
0.989517 0.876204 0.463706
0 1 0.475959
0.0366217 1 0.473335
0.171511 1 0.47071
0.306386 1 0.468071
0.44126 1 0.465446
0.576135 1 0.462821
0.711009 1 0.460197
0.845884 1 0.457572
0.980774 1 0.454948
0 0 0.682338
0.105501 0 0.679713
0.240375 0 0.677089
0.375265 0 0.674464
0.51014 0 0.671839
0.645014 0 0.669215
0.779889 0 0.666575
0.914763 0 0.663951
1 0 0.661326
0 0.123583 0.673579
0.0967575 0.120943 0.670954
0.231632 0.118318 0.66833
0.366506 0.115694 0.665705
0.501381 0.113069 0.663081
0.636271 0.110445 0.660456
0.771145 0.10782 0.657832
0.90602 0.105196 0.655207
1 0.102571 0.652583
0 0.252323 0.664836
0.0879988 0.249699 0.662211
0.222889 0.247074 0.659586
0.357763 0.24445 0.656962
0.492638 0.241825 0.654337
0.627512 0.2392 0.651713
0.762387 0.236576 0.649088
0.897261 0.233951 0.646464
1 0.231327 0.643839
0 0.381079 0.656077
0.0792554 0.378454 0.653452
0.21413 0.37583 0.650828
0.349004 0.373205 0.648203
0.483879 0.370581 0.645579
0.618769 0.367956 0.642954
0.753643 0.365332 0.64033
0.888518 0.362707 0.637705
1 0.360082 0.635081
0 0.509834 0.647334
0.0705119 0.50721 0.644709
0.205386 0.504585 0.642084
0.340261 0.501961 0.63946
0.475135 0.499336 0.636835
0.61001 0.496712 0.634211
0.744884 0.494072 0.631586
0.879774 0.491447 0.628962
1 0.488823 0.626337
0 0.63859 0.638575
0.0617533 0.635966 0.63595
0.196628 0.633326 0.633326
0.331502 0.630701 0.630701
0.466392 0.628077 0.628077
0.601267 0.625452 0.625452
0.736141 0.622827 0.622827
0.871015 0.620203 0.620203
1 0.617578 0.617578
0 0.76733 0.629831
0.0530098 0.764706 0.627207
0.187884 0.762081 0.624582
0.322759 0.759457 0.621958
0.457633 0.756832 0.619333
0.592508 0.754208 0.616709
0.727382 0.751583 0.614084
0.862272 0.748959 0.61146
0.997147 0.746334 0.608835
0 0.896086 0.621088
0.0442512 0.893462 0.618463
0.179126 0.890837 0.615824
0.314015 0.888212 0.613199
0.44889 0.885588 0.610574
0.583764 0.882963 0.60795
0.718639 0.880339 0.605325
0.853513 0.877714 0.602701
0.988388 0.87509 0.600076
0 1 0.612329
0.0355077 1 0.609705
0.170382 1 0.60708
0.305257 1 0.604456
0.440131 1 0.601831
0.575006 1 0.599207
0.709895 1 0.596582
0.84477 1 0.593957
0.979644 1 0.591333
0 0 0.818708
0.104372 0 0.816083
0.239261 0 0.813458
0.374136 0 0.810834
0.50901 0 0.808209
0.643885 0 0.805585
0.778759 0 0.80296
0.913634 0 0.800336
1 0 0.797711
0 0.122454 0.809964
0.0956283 0.119829 0.80734
0.230503 0.117205 0.804715
0.365377 0.11458 0.80209
0.500267 0.111955 0.799466
0.635142 0.109331 0.796841
0.770016 0.106691 0.794217
0.904891 0.104067 0.791592
1 0.101442 0.788968
0 0.251209 0.801205
0.0868849 0.248585 0.798581
0.221759 0.245945 0.795956
0.356634 0.24332 0.793332
0.491508 0.240696 0.790707
0.626383 0.238071 0.788083
0.761273 0.235447 0.785458
0.896147 0.232822 0.782834
1 0.230198 0.780209
0 0.37995 0.792462
0.0781262 0.377325 0.789837
0.213001 0.374701 0.787213
0.34789 0.372076 0.784588
0.482765 0.369451 0.781964
0.617639 0.366827 0.779339
0.752514 0.364202 0.776715
0.887388 0.361578 0.77409
1 0.358953 0.771466
0 0.508705 0.783703
0.0693828 0.506081 0.781079
0.204257 0.503456 0.778454
0.339132 0.500832 0.77583
0.474006 0.498207 0.773205
0.608881 0.495583 0.770581
0.74377 0.492958 0.767956
0.878645 0.490333 0.765332
1 0.487709 0.762707
0 0.637461 0.77496
0.0606241 0.634836 0.772335
0.195514 0.632212 0.769711
0.330388 0.629587 0.767086
0.465263 0.626963 0.764462
0.600137 0.624338 0.761837
0.735012 0.621714 0.759213
0.869886 0.619074 0.756588
1 0.616449 0.753964
0 0.766217 0.766201
0.0518807 0.763592 0.763577
0.186755 0.760967 0.760952
0.32163 0.758328 0.758328
0.456504 0.755703 0.755703
0.591394 0.753079 0.753079
0.726268 0.750454 0.750454
0.861143 0.747829 0.747829
0.996017 0.745205 0.745205
0 0.894957 0.757458
0.043122 0.892332 0.754833
0.178012 0.889708 0.752209
0.312886 0.887083 0.749584
0.447761 0.884459 0.74696
0.582635 0.881834 0.744335
0.71751 0.87921 0.741711
0.852384 0.876585 0.739086
0.987274 0.87396 0.736461
0 1 0.748714
0.0343786 1 0.74609
0.169253 1 0.743465
0.304128 1 0.740826
0.439017 1 0.738201
0.573892 1 0.735576
0.708766 1 0.732952
0.843641 1 0.730327
0.978515 1 0.727703
0 0 0.955093
0.103258 0 0.952468
0.238132 0 0.949844
0.373007 0 0.947219
0.507881 0 0.944595
0.642756 0 0.94197
0.777646 0 0.93933
0.91252 0 0.936706
1 0 0.934081
0 0.121324 0.946334
0.0944991 0.1187 0.943709
0.229389 0.116075 0.941085
0.364263 0.113451 0.93846
0.499138 0.110826 0.935836
0.634012 0.108202 0.933211
0.768887 0.105577 0.930587
0.903761 0.102953 0.927962
1 0.100328 0.925338
0 0.25008 0.937591
0.0857557 0.247456 0.934966
0.22063 0.244831 0.932342
0.355505 0.242206 0.929717
0.490379 0.239582 0.927092
0.625269 0.236957 0.924468
0.760143 0.234333 0.921843
0.895018 0.231693 0.919219
1 0.229068 0.916594
0 0.378836 0.928832
0.076997 0.376211 0.926207
0.211887 0.373587 0.923583
0.346761 0.370947 0.920958
0.481636 0.368322 0.918334
0.61651 0.365698 0.915709
0.751385 0.363073 0.913085
0.886275 0.360449 0.91046
1 0.357824 0.907835
0 0.507576 0.920089
0.0682536 0.504952 0.917464
0.203128 0.502327 0.914839
0.338003 0.499702 0.912215
0.472892 0.497078 0.90959
0.607767 0.494453 0.906966
0.742641 0.491829 0.904341
0.877516 0.489204 0.901717
1 0.48658 0.899092
0 0.636332 0.91133
0.0595102 0.633707 0.908705
0.194385 0.631083 0.906081
0.329259 0.628458 0.903456
0.464134 0.625834 0.900832
0.599008 0.623209 0.898207
0.733883 0.620584 0.895582
0.868772 0.61796 0.892958
1 0.615335 0.890333
0 0.765087 0.902586
0.0507515 0.762463 0.899962
0.185626 0.759838 0.897337
0.320516 0.757214 0.894713
0.45539 0.754589 0.892088
0.590265 0.751965 0.889464
0.725139 0.74934 0.886839
0.860014 0.746715 0.884215
0.994888 0.744076 0.88159
0 0.893843 0.893843
0.0420081 0.891218 0.891218
0.176883 0.888594 0.888579
0.311757 0.885969 0.885954
0.446632 0.88333 0.88333
0.581506 0.880705 0.880705
0.716396 0.87808 0.87808
0.85127 0.875456 0.875456
0.986145 0.872831 0.872831
0 1 0.885084
0.0332494 1 0.88246
0.168124 1 0.879835
0.303014 1 0.877211
0.437888 1 0.874586
0.572763 1 0.871962
0.707637 1 0.869337
0.842512 1 0.866712
0.977386 1 0.864088
0 0 1
0.102129 0 1
0.237003 0 1
0.371878 0 1
0.506767 0 1
0.641642 0 1
0.776516 0 1
0.911391 0 1
1 0 1
0 0.120195 1
0.0933852 0.117571 1
0.22826 0.114946 1
0.363134 0.112322 1
0.498009 0.109697 1
0.632883 0.107073 1
0.767758 0.104448 1
0.902647 0.101823 1
1 0.0991989 1
0 0.248951 1
0.0846265 0.246326 1
0.219501 0.243702 1
0.354391 0.241077 1
0.489265 0.238453 1
0.62414 0.235828 1
0.759014 0.233204 1
0.893889 0.230579 1
1 0.227955 1
0 0.377707 1
0.0758831 0.375082 1
0.210758 0.372457 1
0.345632 0.369833 1
0.480507 0.367208 1
0.615381 0.364584 1
0.750271 0.361959 1
0.885145 0.359335 1
1 0.356695 1
0 0.506462 1
0.0671244 0.503838 1
0.201999 0.501213 1
0.336889 0.498589 1
0.471763 0.495949 1
0.606638 0.493324 1
0.741512 0.4907 1
0.876387 0.488075 1
1 0.485451 1
0 0.635218 1
0.058381 0.632578 1
0.193256 0.629953 1
0.32813 0.627329 1
0.463004 0.624704 1
0.597894 0.62208 1
0.732769 0.619455 1
0.867643 0.616831 1
1 0.614206 1
0 0.763958 1
0.0496223 0.761334 1
0.184512 0.758709 1
0.319387 0.756085 1
0.454261 0.75346 1
0.589136 0.750835 1
0.72401 0.748211 1
0.858885 0.745586 1
0.993774 0.742962 1
0 0.892714 1
0.0408789 0.890089 1
0.175753 0.887465 1
0.310628 0.88484 1
0.445518 0.882216 1
0.580392 0.879591 1
0.715267 0.876967 1
0.850141 0.874342 1
0.985016 0.871717 1
0 1 1
0.0321355 1 1
0.16701 1 1
0.301885 1 1
0.436759 1 1
0.571633 1 1
0.706508 1 1
0.841398 1 1
0.976272 1 1
