public/LUTS/Cinematic/Cinematic_25.cube
TITLE "Generated by Resolve"
LUT_3D_SIZE 9
0.043473 0.0606546 0.0658427
0.0744945 0.0673381 0.0664378
0.148516 0.0884871 0.0707713
0.250645 0.0954147 0.0376135
0.432044 0.118227 0.0616159
0.653712 0.160937 0.0994278
0.79733 0.245441 0.130114
0.899931 0.336202 0.155978
0.911803 0.433478 0.168994
0.0462654 0.0853437 0.0744793
0.0762951 0.0836194 0.0698405
0.147005 0.100954 0.0682231
0.248371 0.116381 0.041474
0.437766 0.142153 0.0644083
0.66601 0.170916 0.102129
0.807019 0.227192 0.130388
0.90367 0.328756 0.155901
0.911711 0.429465 0.168444
0.0550088 0.132326 0.0908827
0.0790875 0.13019 0.0893263
0.146639 0.131304 0.0817578
0.257069 0.14345 0.0517433
0.464347 0.193103 0.0730755
0.68748 0.241871 0.111574
0.820798 0.279698 0.137224
0.910506 0.343709 0.15848
0.911437 0.410697 0.16611
0.0606394 0.186786 0.113481
0.0835737 0.186404 0.109834
0.134981 0.208835 0.113695
0.266163 0.1935 0.0800183
0.507362 0.238575 0.0842451
0.730495 0.312413 0.12575
0.842435 0.383963 0.151995
0.912322 0.463004 0.172946
0.913146 0.505104 0.178943
0.0620737 0.284398 0.145281
0.0813306 0.288701 0.138567
0.120974 0.314488 0.130831
0.267384 0.377966 0.15198
0.535393 0.335119 0.101274
0.767269 0.397147 0.142046
0.874678 0.478233 0.169482
0.914305 0.558785 0.187213
0.915084 0.593072 0.192752
0.0939956 0.439628 0.191928
0.111879 0.447333 0.185657
0.148409 0.467216 0.175265
0.278874 0.538598 0.186587
0.574441 0.62594 0.225757
0.786023 0.528389 0.164691
0.898833 0.570657 0.186999
0.916182 0.636149 0.200122
0.916716 0.65388 0.203357
0.13373 0.602762 0.229587
0.146059 0.61091 0.226169
0.184573 0.628809 0.211826
0.309255 0.684276 0.218692
0.571496 0.75697 0.255711
0.789441 0.79118 0.288182
0.9066 0.694301 0.209277
0.918318 0.708049 0.213169
0.918486 0.714839 0.21445
0.173861 0.753445 0.262242
0.183413 0.761654 0.261097
0.225864 0.777874 0.24303
0.346578 0.8056 0.252049
0.573312 0.854307 0.290608
0.776471 0.894224 0.337224
0.896773 0.90869 0.372305
0.921828 0.812238 0.233341
0.921004 0.780957 0.227146
0.225376 0.878447 0.307225
0.245975 0.890196 0.302358
0.292119 0.903578 0.290089
0.404334 0.916625 0.305684
0.581369 0.942412 0.339086
0.742229 0.945937 0.36083
0.872312 0.94992 0.3888
0.952407 0.952407 0.404791
0.947951 0.923049 0.371084
0.0379644 0.103716 0.125093
0.0607919 0.100374 0.114611
0.106538 0.100053 0.100633
0.187304 0.139086 0.125948
0.379507 0.16466 0.0923171
0.647456 0.198169 0.101213
0.801404 0.250034 0.131258
0.901854 0.337896 0.156497
0.911803 0.434363 0.1691
0.0383154 0.104036 0.117037
0.0622873 0.104952 0.117021
0.115007 0.107973 0.106813
0.220432 0.134325 0.109911
0.418631 0.153262 0.065919
0.653284 0.19443 0.101839
0.801373 0.248402 0.13109
0.900252 0.336492 0.156085
0.911742 0.431724 0.168795
0.037995 0.13283 0.12491
0.0554818 0.139116 0.123125
0.123964 0.133272 0.114473
0.238666 0.150362 0.0957504
0.445335 0.184466 0.0695506
0.677607 0.218051 0.10779
0.81033 0.254322 0.13315
0.90518 0.3196 0.155215
0.91133 0.40351 0.165209
0.0420386 0.209644 0.154772
0.0517586 0.196429 0.139422
0.112551 0.197971 0.132876
0.246708 0.197803 0.107698
0.47219 0.238148 0.079469
0.706554 0.311208 0.12192
0.82414 0.373587 0.147829
0.91043 0.427863 0.168063
0.912596 0.478172 0.175036
0.0588388 0.307347 0.184237
0.057435 0.293812 0.167697
0.108446 0.303716 0.150469
0.224567 0.354452 0.15198
0.498756 0.332677 0.0990158
0.744762 0.395743 0.138552
0.860578 0.475929 0.166995
0.914061 0.54934 0.185672
0.915068 0.592813 0.192721
0.0969253 0.460914 0.225818
0.0942855 0.450538 0.211002
0.141131 0.465537 0.191196
0.239933 0.511452 0.186221
0.522423 0.606119 0.221714
0.76643 0.530922 0.1626
0.88304 0.57229 0.185077
0.916243 0.635966 0.200107
0.916823 0.658732 0.204166
0.138125 0.619532 0.261891
0.136568 0.613474 0.247456
0.178408 0.62884 0.227039
0.272984 0.658595 0.218952
0.519951 0.735729 0.250965
0.768444 0.785443 0.286381
0.886275 0.701808 0.208148
0.918288 0.706737 0.212924
0.918593 0.718074 0.215061
0.176944 0.764767 0.296696
0.176394 0.762814 0.281941
0.218143 0.775876 0.2589
0.312459 0.787808 0.252537
0.530144 0.837659 0.285466
0.749355 0.88159 0.331853
0.877577 0.899535 0.367407
0.921767 0.810498 0.23299
0.920699 0.780972 0.227131
0.208423 0.880217 0.353811
0.232441 0.887404 0.327703
0.277333 0.897704 0.303792
0.374731 0.906432 0.306401
0.550195 0.940139 0.340414
0.715557 0.946319 0.367681
0.847501 0.949599 0.388144
0.952544 0.952544 0.406653
0.945769 0.918425 0.355825
0.0344091 0.158465 0.203357
0.0371405 0.153292 0.186145
0.0728771 0.151476 0.16997
0.142672 0.152117 0.148302
0.285176 0.204959 0.172061
0.579126 0.2589 0.164157
0.778012 0.314549 0.137972
0.898116 0.360357 0.158282
0.911818 0.435401 0.169238
0.0357214 0.159289 0.192782
0.0357214 0.156558 0.193759
0.0755932 0.155367 0.177661
0.157595 0.155764 0.152682
0.310201 0.213931 0.180545
0.611154 0.259541 0.153323
0.791669 0.309224 0.136095
0.899275 0.358083 0.15816
0.911757 0.432074 0.168811
0.0366674 0.158755 0.183673
0.0372015 0.161349 0.182162
0.0740215 0.168978 0.19472
0.182803 0.171603 0.167605
0.389044 0.208148 0.159945
0.653544 0.256641 0.121889
0.801755 0.293065 0.13521
0.897353 0.348501 0.156878
0.911665 0.425528 0.167971
0.0407874 0.193851 0.194644
0.0416876 0.204974 0.195636
0.0461585 0.221134 0.200671
0.204517 0.215366 0.1776
0.439231 0.245182 0.146181
0.680339 0.301076 0.117266
0.813794 0.337209 0.141955
0.901289 0.382513 0.161181
0.912001 0.445167 0.17055
0.0747082 0.372656 0.289723
0.0694743 0.35137 0.252155
0.0635233 0.327001 0.22211
0.161273 0.339117 0.192538
0.464103 0.351064 0.152956
0.711437 0.404135 0.135225
0.841535 0.482094 0.165164
0.914046 0.54844 0.185565
0.915145 0.593545 0.192844
0.112093 0.519783 0.333379
0.107057 0.500496 0.291341
0.101717 0.478965 0.258762
0.194324 0.501091 0.218738
0.444205 0.58085 0.234928
0.729229 0.541543 0.159716
0.862913 0.577493 0.18323
0.916411 0.641779 0.201129
0.917098 0.667033 0.205707
0.14905 0.660822 0.370901
0.145541 0.64715 0.326757
0.144091 0.634897 0.293553
0.237613 0.658045 0.244999
0.458732 0.714107 0.264622
0.733028 0.77702 0.298848
0.864851 0.707042 0.206531
0.918379 0.710399 0.213642
0.918837 0.724697 0.216297
0.182437 0.785122 0.405112
0.180819 0.779187 0.360983
0.184588 0.77615 0.327489
0.285069 0.794705 0.276127
0.48249 0.821729 0.29691
0.708415 0.867872 0.339666
0.859876 0.893996 0.377523
0.921798 0.812543 0.233417
0.92076 0.782193 0.227344
0.211673 0.892042 0.45687
0.211109 0.889784 0.417014
0.249393 0.898039 0.370947
0.345449 0.909133 0.32755
0.511681 0.92343 0.350835
0.685664 0.947967 0.388235
0.821271 0.950729 0.404166
0.953765 0.953765 0.419654
0.944839 0.915663 0.349218
0.0457313 0.242863 0.326909
0.0441291 0.237629 0.302724
0.0429999 0.234775 0.274617
0.0511025 0.232929 0.24622
0.182223 0.247868 0.200916
0.457984 0.295415 0.214282
0.7028 0.391073 0.260365
0.864836 0.440879 0.256031
0.928252 0.502205 0.268803
0.0459602 0.245045 0.318059
0.0454871 0.242145 0.322744
0.0440833 0.238911 0.290471
0.0548714 0.238514 0.260075
0.198962 0.252369 0.206058
0.478935 0.306813 0.226825
0.718502 0.395972 0.262974
0.872282 0.444572 0.256779
0.92755 0.500511 0.262608
0.0457923 0.245243 0.308186
0.0471199 0.251423 0.312505
0.0479744 0.253666 0.330968
0.059968 0.251942 0.290867
0.239414 0.26302 0.227115
0.517143 0.326482 0.253132
0.748363 0.394934 0.265187
0.885542 0.445563 0.256077
0.92517 0.493523 0.242573
0.0458076 0.246494 0.299077
0.0474708 0.254124 0.302892
0.0507515 0.268574 0.318898
0.061799 0.280827 0.343801
0.298665 0.291676 0.278416
0.589899 0.356161 0.296101
0.794171 0.393744 0.265614
0.90251 0.442771 0.249058
0.921035 0.480262 0.21416
0.0583352 0.303258 0.328115
0.0620279 0.319905 0.330663
0.06804 0.345251 0.341848
0.0765698 0.380118 0.357366
0.3608 0.395361 0.319707
0.66685 0.442069 0.313008
0.820951 0.491142 0.287984
0.916701 0.527886 0.259663
0.922744 0.563729 0.223789
0.123217 0.562661 0.508583
0.127489 0.578897 0.486641
0.123537 0.564019 0.440162
0.118441 0.544411 0.393317
0.324453 0.566064 0.332799
0.690105 0.58294 0.279011
0.843122 0.605081 0.266529
0.92398 0.661555 0.232654
0.91754 0.682292 0.208469
0.162539 0.711254 0.573617
0.159823 0.701167 0.522423
0.157107 0.690974 0.471061
0.15314 0.675319 0.416205
0.378271 0.702892 0.34226
0.659693 0.76083 0.365454
0.841718 0.722011 0.238911
0.918761 0.723064 0.216007
0.919295 0.739483 0.219104
0.189502 0.810956 0.605051
0.188235 0.806317 0.554406
0.186877 0.801389 0.500542
0.1879 0.794553 0.442969
0.42417 0.817807 0.364446
0.643915 0.851011 0.394232
0.828305 0.884382 0.423178
0.922087 0.818448 0.234592
0.92108 0.791516 0.229206
0.21593 0.907759 0.638422
0.215198 0.904936 0.592355
0.21445 0.902327 0.541405
0.261997 0.909865 0.480156
0.469139 0.924941 0.408972
0.642985 0.947631 0.438865
0.789044 0.954559 0.456062
0.940154 0.956283 0.453651
0.946258 0.913054 0.359762
0.080766 0.388037 0.515282
0.0791333 0.383291 0.487098
0.0771801 0.377966 0.444068
0.0759899 0.37612 0.401419
0.0734112 0.367071 0.336477
0.314778 0.387701 0.229435
0.635523 0.388037 0.208225
0.813764 0.496696 0.338476
0.950027 0.600931 0.553826
0.0808576 0.38883 0.510979
0.0807355 0.387518 0.517922
0.0783246 0.381094 0.470329
0.0767224 0.377691 0.421836
0.0763256 0.369467 0.348913
0.337667 0.390433 0.233494
0.642893 0.393469 0.220951
0.822263 0.50425 0.358526
0.950484 0.604944 0.560601
0.0807813 0.389013 0.502663
0.0819562 0.393484 0.510643
0.0817578 0.391257 0.528984
0.0794537 0.386053 0.470008
0.0877852 0.377386 0.382101
0.384039 0.391501 0.249607
0.657908 0.40885 0.258061
0.833982 0.51664 0.39852
0.950301 0.605463 0.556619
0.0803845 0.387823 0.495628
0.0826123 0.396979 0.5028
0.0854353 0.408011 0.518608
0.0870832 0.412757 0.549569
0.122011 0.406119 0.458335
0.453162 0.402808 0.320256
0.6907 0.450416 0.339223
0.853788 0.546044 0.478218
0.948806 0.601053 0.532998
0.0809033 0.390738 0.488609
0.08336 0.400931 0.494316
0.0872816 0.416754 0.508049
0.0940719 0.443992 0.532784
0.166033 0.476646 0.577813
0.530571 0.487953 0.474495
0.757977 0.550011 0.528634
0.898909 0.582879 0.527733
0.946334 0.599084 0.492714
0.0948348 0.448264 0.517327
0.0992599 0.466758 0.519539
0.104891 0.489815 0.527428
0.113176 0.522606 0.546365
0.141436 0.569604 0.577173
0.601221 0.625299 0.585321
0.80827 0.664225 0.592447
0.922393 0.68835 0.569879
0.948623 0.685222 0.497993
0.150774 0.66627 0.683116
0.157809 0.693584 0.685466
0.166217 0.725032 0.692302
0.169268 0.736416 0.673106
0.169314 0.723629 0.61825
0.577371 0.751507 0.559442
0.82298 0.756725 0.484962
0.94667 0.758999 0.481849
0.945586 0.768765 0.412177
0.196246 0.835645 0.802838
0.195438 0.832715 0.769635
0.194507 0.829328 0.731685
0.193622 0.826154 0.687984
0.212741 0.821118 0.620813
0.587503 0.843458 0.535622
0.778424 0.870756 0.54229
0.934279 0.834363 0.384573
0.940063 0.814069 0.324376
0.219028 0.919142 0.812314
0.218662 0.917769 0.779904
0.218433 0.916884 0.744503
0.218265 0.916243 0.702037
0.31191 0.930205 0.628931
0.610178 0.944762 0.542336
0.74963 0.95877 0.561151
0.896559 0.961471 0.536843
0.953735 0.918059 0.436728
0.120714 0.544259 0.685405
0.119875 0.542458 0.663615
0.117159 0.534508 0.618418
0.11426 0.525704 0.568353
0.110475 0.513451 0.510597
0.210285 0.516762 0.454749
0.56408 0.496727 0.336751
0.783307 0.531441 0.399313
0.933898 0.619623 0.591104
0.120378 0.54284 0.685863
0.120668 0.543679 0.692149
0.117556 0.534035 0.647349
0.11397 0.522911 0.592554
0.11017 0.51165 0.526207
0.221637 0.518303 0.4692
0.576486 0.497429 0.361227
0.787991 0.533425 0.4112
0.939254 0.625528 0.606332
0.119326 0.538659 0.6804
0.119173 0.537774 0.685145
0.118257 0.533227 0.695247
0.11487 0.522911 0.64416
0.110979 0.512276 0.567254
0.24303 0.519829 0.503166
0.589761 0.503777 0.414496
0.797147 0.5364 0.4383
0.94667 0.635706 0.634089
0.118441 0.53547 0.675746
0.118929 0.537179 0.679652
0.119524 0.539055 0.687327
0.118776 0.534829 0.703441
0.115328 0.525154 0.642084
0.284199 0.526696 0.57055
0.611109 0.529397 0.49955
0.813977 0.553048 0.504295
0.956603 0.650492 0.676219
0.117525 0.532158 0.670298
0.118868 0.537362 0.673823
0.121462 0.547646 0.681636
0.125612 0.563729 0.696666
0.128527 0.57322 0.725994
0.363592 0.564614 0.68452
0.679179 0.571054 0.608865
0.848219 0.620554 0.645945
0.960922 0.691234 0.746181
0.118135 0.535012 0.666377
0.12047 0.544335 0.669551
0.123735 0.557366 0.676081
0.129244 0.578882 0.69041
0.138979 0.616678 0.718242
0.4448 0.65742 0.769985
0.743862 0.666789 0.71696
0.884886 0.72192 0.760906
0.964904 0.735195 0.746731
0.129854 0.581857 0.68423
0.134035 0.598688 0.686336
0.138857 0.617929 0.690822
0.14493 0.641581 0.702571
0.153323 0.673915 0.724468
0.431525 0.735241 0.769314
0.783475 0.775143 0.759045
0.909804 0.798367 0.762753
0.966369 0.793744 0.733227
0.175174 0.754253 0.814115
0.17966 0.771801 0.815717
0.184634 0.791196 0.818845
0.190433 0.813626 0.822583
0.198123 0.842618 0.821363
0.355398 0.855543 0.782101
0.754314 0.862364 0.718334
0.915053 0.855085 0.647761
0.961471 0.843259 0.62208
0.212009 0.892348 0.908553
0.21767 0.914153 0.908644
0.219104 0.919295 0.892546
0.219104 0.919295 0.860075
0.219104 0.919295 0.81796
0.45687 0.948989 0.748455
0.738598 0.954376 0.685481
0.855955 0.966842 0.672267
0.96376 0.927291 0.58027
0.157946 0.68629 0.80267
0.15787 0.686671 0.79469
0.156634 0.683284 0.777615
0.154192 0.675258 0.755428
0.151003 0.663966 0.732738
0.145617 0.644388 0.702419
0.44303 0.647288 0.707881
0.755871 0.638392 0.678798
0.917357 0.67129 0.708492
0.157061 0.68246 0.804776
0.157824 0.685283 0.808972
0.156283 0.6804 0.793027
0.15349 0.671244 0.770535
0.150149 0.659922 0.742351
0.145739 0.643824 0.710552
0.456977 0.646189 0.716915
0.761288 0.637217 0.684901
0.918593 0.671046 0.713848
0.155138 0.674632 0.804593
0.154681 0.672709 0.807858
0.154192 0.670222 0.812924
0.152224 0.663661 0.796658
0.148821 0.652781 0.763943
0.153704 0.643015 0.730282
0.480262 0.64123 0.73312
0.769985 0.633112 0.697765
0.920913 0.668116 0.720195
0.153414 0.668116 0.803494
0.152972 0.665827 0.806775
0.152468 0.663508 0.810483
0.151369 0.658335 0.816632
0.148638 0.649149 0.797452
0.165759 0.643946 0.763134
0.512947 0.63743 0.760372
0.783413 0.630671 0.721904
0.92752 0.667185 0.733089
0.151873 0.661906 0.801038
0.152087 0.662608 0.80441
0.153063 0.666178 0.808621
0.154253 0.670512 0.814298
0.153689 0.667155 0.825513
0.215061 0.668284 0.818463
0.575067 0.657023 0.807874
0.807813 0.647776 0.767849
0.94258 0.686183 0.767834
0.15079 0.657816 0.798611
0.151919 0.662043 0.801831
0.153918 0.669856 0.806134
0.157259 0.682567 0.812863
0.16286 0.703914 0.826566
0.260914 0.7196 0.853819
0.64097 0.716182 0.852628
0.841077 0.710185 0.819699
0.964431 0.744167 0.822309
0.151949 0.662409 0.799405
0.154101 0.670893 0.802502
0.156771 0.681254 0.805692
0.160235 0.694865 0.811795
0.166278 0.717723 0.824689
0.262562 0.755764 0.850431
0.681437 0.785183 0.872023
0.866911 0.789059 0.84831
0.973922 0.811444 0.864958
0.160342 0.695384 0.809079
0.163897 0.709285 0.811734
0.167452 0.723308 0.815
0.171298 0.738277 0.82005
0.17673 0.759091 0.829923
0.260105 0.790768 0.847639
0.668666 0.832044 0.865019
0.873121 0.867658 0.855512
0.979812 0.877012 0.856825
0.193103 0.818051 0.907439
0.196262 0.830396 0.909285
0.199924 0.844755 0.911131
0.204623 0.86302 0.912947
0.211261 0.889082 0.914229
0.21799 0.915206 0.903761
0.594186 0.956909 0.869398
0.849744 0.956725 0.822309
0.976822 0.945098 0.773938
0.189029 0.803861 0.881559
0.189471 0.805539 0.879698
0.189288 0.805158 0.875349
0.188373 0.80177 0.871275
0.185931 0.792432 0.869429
0.18323 0.781582 0.870085
0.357351 0.777371 0.887846
0.730343 0.764279 0.893202
0.907225 0.739666 0.880735
0.1879 0.798917 0.886076
0.188983 0.802853 0.889525
0.188785 0.80235 0.886076
0.18732 0.797009 0.879698
0.184771 0.787411 0.873167
0.182376 0.778119 0.87158
0.364584 0.77528 0.890822
0.731762 0.762768 0.895171
0.907683 0.737835 0.88217
0.185672 0.789624 0.890501
0.185595 0.788952 0.894926
0.185382 0.788052 0.897917
0.184649 0.785275 0.894179
0.182406 0.777325 0.883055
0.180453 0.770031 0.876616
0.382559 0.768994 0.89688
0.739345 0.758724 0.899001
0.90988 0.734768 0.88452
0.18378 0.782071 0.893629
0.182818 0.777829 0.898512
0.181994 0.774182 0.901411
0.181079 0.770535 0.90483
0.179782 0.765423 0.899519
0.177981 0.759167 0.887129
0.404929 0.759686 0.906172
0.752117 0.753933 0.906432
0.914565 0.73077 0.889647
0.181918 0.774411 0.895094
0.181094 0.770809 0.899367
0.180484 0.768078 0.90222
0.180056 0.766186 0.906035
0.178744 0.760479 0.911955
0.177005 0.753887 0.907027
0.422202 0.753902 0.921386
0.764355 0.752529 0.918059
0.922728 0.734447 0.900374
0.180285 0.767941 0.89427
0.179919 0.766308 0.897887
0.180026 0.766461 0.900587
0.180972 0.769924 0.904814
0.182605 0.775876 0.91281
0.181842 0.772839 0.913542
0.456764 0.768277 0.944427
0.790295 0.773251 0.937469
0.935347 0.758862 0.916793
0.179248 0.76379 0.894026
0.179492 0.764523 0.896437
0.18027 0.767544 0.898894
0.181796 0.773342 0.902861
0.184833 0.784772 0.912261
0.188388 0.798795 0.914488
0.536828 0.8038 0.952224
0.825376 0.812985 0.955444
0.956802 0.801801 0.935042
0.179767 0.765728 0.896345
0.18088 0.770047 0.898375
0.182208 0.775326 0.900267
0.184039 0.782269 0.903792
0.187121 0.793683 0.911849
0.190906 0.808835 0.914748
0.550347 0.835355 0.953719
0.840101 0.869795 0.953552
0.965179 0.865873 0.940597
0.184665 0.78468 0.90483
0.186725 0.79263 0.907042
0.188815 0.800855 0.909514
0.191073 0.809628 0.912688
0.194354 0.822278 0.915175
0.197986 0.836683 0.915877
0.556725 0.868116 0.945571
0.831479 0.908721 0.938811
0.954116 0.951766 0.927474
0.1953 0.8271 0.898543
0.195651 0.828595 0.897505
0.195392 0.82797 0.894926
0.194522 0.824521 0.892882
0.192248 0.815549 0.893614
0.189746 0.805127 0.898131
0.319966 0.799649 0.916747
0.714366 0.785168 0.928923
0.903502 0.76112 0.919478
0.193805 0.821103 0.903441
0.194903 0.825193 0.906661
0.194827 0.824918 0.904616
0.193423 0.819791 0.900649
0.191073 0.810697 0.896941
0.188647 0.80087 0.898344
0.32546 0.797162 0.919173
0.718898 0.783459 0.930373
0.904173 0.759213 0.920119
0.191638 0.811963 0.909239
0.191379 0.810758 0.913512
0.191211 0.810132 0.914885
0.190661 0.807797 0.91368
0.188663 0.800397 0.906111
0.186648 0.792599 0.902525
0.341695 0.790768 0.924636
0.726848 0.779049 0.934096
0.906233 0.755077 0.92224
0.189425 0.802899 0.913237
0.188357 0.798505 0.914504
0.187396 0.794858 0.914397
0.186633 0.79173 0.914305
0.185489 0.787091 0.914107
0.184054 0.78146 0.91194
0.364599 0.780606 0.93312
0.736645 0.772686 0.940307
0.910353 0.750179 0.926268
0.187533 0.795178 0.914397
0.186328 0.790555 0.914199
0.185382 0.786557 0.914107
0.184649 0.78381 0.914
0.18323 0.778317 0.913802
0.181735 0.772305 0.913603
0.373587 0.772992 0.939956
0.753338 0.770657 0.950454
0.915908 0.750774 0.934493
0.185916 0.788891 0.914199
0.185092 0.785657 0.914107
0.184833 0.784604 0.914
0.185153 0.785855 0.914092
0.185916 0.788846 0.914168
0.184985 0.785122 0.914046
0.406714 0.783444 0.942824
0.776577 0.785138 0.964996
0.928481 0.769589 0.947326
0.18471 0.784222 0.914
0.184497 0.783398 0.914
0.18471 0.784253 0.914
0.185779 0.788128 0.914183
0.187884 0.796689 0.914427
0.190799 0.808316 0.9149
0.504021 0.808698 0.950393
0.819455 0.816281 0.967025
0.952804 0.80296 0.951782
0.184436 0.783108 0.914
0.184985 0.785245 0.914061
0.185885 0.788815 0.914199
0.187243 0.794171 0.914397
0.189731 0.804059 0.914717
0.193179 0.817777 0.915236
0.529397 0.840146 0.953033
0.835477 0.870665 0.96405
0.963745 0.865263 0.95523
0.187243 0.794141 0.914656
0.188754 0.800107 0.914565
0.190433 0.806806 0.914839
0.192248 0.814054 0.915084
0.194858 0.824567 0.915511
0.197925 0.836561 0.915938
0.546212 0.863355 0.954833
0.825284 0.905119 0.957656
0.954849 0.955673 0.952117
