public/LUTS/Cinematic/Cinematic_07.cube
TITLE "Generated by Resolve"
LUT_3D_SIZE 33
0 0.000335698 0.0164645
0.00984207 0 0.0158083
0.0435645 0 0.0151522
0.0772717 0 0.0144961
0.110994 0 0.0138399
0.144717 0 0.0131838
0.178439 0 0.0125277
0.212161 0 0.0118715
0.245869 0 0.0112154
0.279591 0 0.0105592
0.313313 0 0.0099031
0.347036 0 0.00924697
0.380758 0 0.00859083
0.414466 0 0.00793469
0.448188 0 0.00727855
0.48191 0 0.00662242
0.515633 0 0.00596628
0.54934 0 0.00529488
0.583062 0 0.00463874
0.616785 0 0.0039826
0.650507 0 0.00332647
0.68423 0 0.00267033
0.717937 0 0.00201419
0.751659 0 0.00135805
0.785382 0 0.000701915
0.819104 0 4.57771e-05
0.852827 0 0
0.886534 0 0
0.920256 0 0
0.953979 0 0
0.987701 0 0
1 0 0
1 0 0
0 0.0325017 0.0142672
0.00766003 0.0318456 0.013611
0.0413672 0.0311894 0.0129549
0.0750896 0.0305333 0.0122988
0.108812 0.0298772 0.0116426
0.142535 0.029221 0.0109865
0.176242 0.0285649 0.0103304
0.209964 0.0279088 0.00967422
0.243687 0.0272526 0.00901808
0.277409 0.0265965 0.00836194
0.311131 0.0259403 0.00770581
0.344839 0.0252842 0.00704967
0.378561 0.0246281 0.00639353
0.412284 0.0239719 0.00573739
0.446006 0.0233158 0.00508125
0.479728 0.0226596 0.00442512
0.513436 0.0220035 0.00376898
0.547158 0.0213474 0.00311284
0.58088 0.0206912 0.0024567
0.614603 0.0200351 0.00180056
0.648325 0.019379 0.00114443
0.682033 0.0187228 0.000488289
0.715755 0.0180667 0
0.749477 0.0174105 0
0.7832 0.0167544 0
0.816922 0.0160983 0
0.850629 0.0154421 0
0.884352 0.014786 0
0.918074 0.0141299 0
0.951797 0.0134737 0
0.985504 0.0128176 0
1 0.0121614 0
1 0.0115053 0
0 0.064683 0.0120851
0.00546273 0.0640269 0.011429
0.0391852 0.0633707 0.0107729
0.0729076 0.0627146 0.0101167
0.10663 0.0620584 0.00946059
0.140337 0.0614023 0.00880446
0.17406 0.0607462 0.00814832
0.207782 0.06009 0.00749218
0.241505 0.0594339 0.00683604
0.275212 0.0587778 0.0061799
0.308934 0.0581216 0.00552377
0.342657 0.0574655 0.00486763
0.376379 0.0568093 0.00421149
0.410101 0.0561532 0.00355535
0.443809 0.0554971 0.00289921
0.477531 0.0548409 0.00224308
0.511254 0.0541848 0.00158694
0.544976 0.0535286 0.0009308
0.578698 0.0528725 0.000274662
0.612406 0.0522164 0
0.646128 0.0515602 0
0.67985 0.0509041 0
0.713573 0.050248 0
0.747295 0.0495918 0
0.781003 0.0489357 0
0.814725 0.0482795 0
0.848447 0.0476234 0
0.88217 0.0469673 0
0.915892 0.0463111 0
0.949599 0.045655 0
0.983322 0.0449989 0
1 0.0443427 0
1 0.0436866 0
0 0.0968795 0.0099031
0.00328069 0.0962234 0.00924697
0.0370031 0.0955673 0.00859083
0.0707103 0.0949111 0.00793469
0.104433 0.094255 0.00727855
0.138155 0.0935988 0.00662242
0.171878 0.0929427 0.00596628
0.2056 0.0922866 0.00531014
0.239307 0.0916304 0.004654
0.27303 0.0909743 0.00399786
0.306752 0.0903182 0.00334173
0.340475 0.089662 0.00268559
0.374197 0.0890059 0.00202945
0.407904 0.0883497 0.00137331
0.441627 0.0876936 0.000717174
0.475349 0.0870375 4.57771e-05
0.509071 0.0863813 0
0.542779 0.0857252 0
0.576501 0.085069 0
0.610224 0.0844129 0
0.643946 0.0837568 0
0.677668 0.0831006 0
0.711376 0.0824445 0
0.745098 0.0817884 0
0.77882 0.0811322 0
0.812543 0.0804761 0
0.846265 0.0798047 0
0.879973 0.0791485 0
0.913695 0.0784924 0
0.947417 0.0778363 0
0.98114 0.0771801 0
1 0.076524 0
1 0.0758679 0
0 0.129061 0.00770581
0.00108339 0.128405 0.00704967
0.0348058 0.127749 0.00639353
0.0685283 0.127092 0.00573739
0.102251 0.126436 0.00508125
0.135973 0.12578 0.00442512
0.16968 0.125124 0.00376898
0.203403 0.124468 0.00311284
0.237125 0.123812 0.0024567
0.270848 0.123156 0.00180056
0.30457 0.122499 0.00114443
0.338277 0.121843 0.000488289
0.372 0.121187 0
0.405722 0.120531 0
0.439445 0.119875 0
0.473167 0.119219 0
0.506874 0.118563 0
0.540597 0.117906 0
0.574319 0.11725 0
0.608042 0.116594 0
0.641749 0.115938 0
0.675471 0.115282 0
0.709194 0.114626 0
0.742916 0.11397 0
0.776638 0.113313 0
0.810346 0.112657 0
0.844068 0.112001 0
0.877791 0.111345 0
0.911513 0.110689 0
0.945235 0.110033 0
0.978943 0.109377 0
1 0.108721 0
1 0.108064 0
0 0.161257 0.00552377
0 0.160601 0.00486763
0.0326238 0.159945 0.00421149
0.0663462 0.159289 0.00355535
0.100053 0.158633 0.00289921
0.133776 0.157977 0.00224308
0.167498 0.157321 0.00158694
0.201221 0.156664 0.0009308
0.234943 0.156008 0.000274662
0.26865 0.155352 0
0.302373 0.154696 0
0.336095 0.15404 0
0.369818 0.153384 0
0.40354 0.152728 0
0.437247 0.152071 0
0.47097 0.151415 0
0.504692 0.150759 0
0.538415 0.150103 0
0.572137 0.149447 0
0.605844 0.148775 0
0.639567 0.148119 0
0.673289 0.147463 0
0.707012 0.146807 0
0.740734 0.146151 0
0.774441 0.145495 0
0.808164 0.144839 0
0.841886 0.144183 0
0.875608 0.143526 0
0.909316 0.14287 0
0.943038 0.142214 0
0.976761 0.141558 0
1 0.140902 0
1 0.140246 0
0 0.193439 0.00334173
0 0.192782 0.00268559
0.0304417 0.192126 0.00202945
0.0641489 0.19147 0.00137331
0.0978714 0.190814 0.000717174
0.131594 0.190158 4.57771e-05
0.165316 0.189502 0
0.199023 0.188846 0
0.232746 0.18819 0
0.266468 0.187533 0
0.300191 0.186877 0
0.333913 0.186221 0
0.36762 0.185565 0
0.401343 0.184909 0
0.435065 0.184253 0
0.468788 0.183597 0
0.50251 0.18294 0
0.536217 0.182284 0
0.56994 0.181628 0
0.603662 0.180972 0
0.637385 0.180316 0
0.671107 0.17966 0
0.704814 0.179004 0
0.738537 0.178347 0
0.772259 0.177691 0
0.805982 0.177035 0
0.839704 0.176379 0
0.873411 0.175723 0
0.907134 0.175067 0
0.940856 0.174411 0
0.974578 0.173754 0
1 0.173098 0
1 0.172442 0
0 0.225635 0.00114443
0 0.224979 0.000488289
0.0282444 0.224323 0
0.0619669 0.223667 0
0.0956893 0.223011 0
0.129412 0.222354 0
0.163119 0.221698 0
0.196841 0.221042 0
0.230564 0.220386 0
0.264286 0.21973 0
0.297993 0.219074 0
0.331716 0.218418 0
0.365438 0.217762 0
0.399161 0.21709 0
0.432883 0.216434 0
0.46659 0.215778 0
0.500313 0.215122 0
0.534035 0.214466 0
0.567758 0.213809 0
0.60148 0.213153 0
0.635187 0.212497 0
0.66891 0.211841 0
0.702632 0.211185 0
0.736355 0.210529 0
0.770077 0.209873 0
0.803784 0.209216 0
0.837507 0.20856 0
0.871229 0.207904 0
0.904952 0.207248 0
0.938674 0.206592 0
0.972381 0.205936 0
1 0.20528 0
1 0.204623 0
0 0.257816 0
0 0.25716 0
0.0260624 0.256504 0
0.0597848 0.255848 0
0.093492 0.255192 0
0.127214 0.254536 0
0.160937 0.25388 0
0.194659 0.253223 0
0.228382 0.252567 0
0.262089 0.251911 0
0.295811 0.251255 0
0.329534 0.250599 0
0.363256 0.249943 0
0.396979 0.249287 0
0.430686 0.248631 0
0.464408 0.247974 0
0.498131 0.247318 0
0.531853 0.246662 0
0.56556 0.246006 0
0.599283 0.24535 0
0.633005 0.244694 0
0.666728 0.244038 0
0.70045 0.243381 0
0.734157 0.242725 0
0.76788 0.242069 0
0.801602 0.241413 0
0.835325 0.240757 0
0.869047 0.240101 0
0.902754 0.239445 0
0.936477 0.238788 0
0.970199 0.238132 0
1 0.237476 0
1 0.23682 0
0 0.290013 0
0 0.289357 0
0.0238651 0.288701 0
0.0575875 0.288045 0
0.09131 0.287388 0
0.125032 0.286732 0
0.158755 0.286061 0
0.192462 0.285405 0
0.226184 0.284749 0
0.259907 0.284092 0
0.293629 0.283436 0
0.327352 0.28278 0
0.361059 0.282124 0
0.394781 0.281468 0
0.428504 0.280812 0
0.462226 0.280156 0
0.495949 0.2795 0
0.529656 0.278843 0
0.563378 0.278187 0
0.597101 0.277531 0
0.630823 0.276875 0
0.66453 0.276219 0
0.698253 0.275563 0
0.731975 0.274907 0
0.765698 0.27425 0
0.79942 0.273594 0
0.833127 0.272938 0
0.86685 0.272282 0
0.900572 0.271626 0
0.934295 0.27097 0
0.968017 0.270314 0
1 0.269657 0
1 0.269001 0
0 0.322194 0
0 0.321538 0
0.0216831 0.320882 0
0.0554055 0.320226 0
0.089128 0.31957 0
0.122835 0.318914 0
0.156558 0.318257 0
0.19028 0.317601 0
0.224002 0.316945 0
0.257725 0.316289 0
0.291432 0.315633 0
0.325154 0.314977 0
0.358877 0.314321 0
0.392599 0.313664 0
0.426322 0.313008 0
0.460029 0.312352 0
0.493751 0.311696 0
0.527474 0.31104 0
0.561196 0.310384 0
0.594919 0.309728 0
0.628626 0.309071 0
0.662348 0.308415 0
0.696071 0.307759 0
0.729793 0.307103 0
0.763516 0.306447 0
0.797223 0.305791 0
0.830945 0.305135 0
0.864668 0.304479 0
0.89839 0.303822 0
0.932097 0.303166 0
0.96582 0.30251 0
0.999542 0.301839 0
1 0.301183 0
0 0.354376 0
0 0.353719 0
0.019501 0.353063 0
0.0532235 0.352407 0
0.0869306 0.351751 0
0.120653 0.351095 0
0.154376 0.350439 0
0.188098 0.349783 0
0.221805 0.349126 0
0.255528 0.34847 0
0.28925 0.347814 0
0.322972 0.347158 0
0.356695 0.346502 0
0.390402 0.345846 0
0.424125 0.34519 0
0.457847 0.344533 0
0.491569 0.343877 0
0.525292 0.343221 0
0.558999 0.342565 0
0.592721 0.341909 0
0.626444 0.341253 0
0.660166 0.340597 0
0.693889 0.33994 0
0.727596 0.339284 0
0.761318 0.338628 0
0.795041 0.337972 0
0.828763 0.337316 0
0.862486 0.33666 0
0.896193 0.336004 0
0.929915 0.335348 0
0.963638 0.334691 0
0.99736 0.334035 0
1 0.333379 0
0 0.386572 0
0 0.385916 0
0.0173037 0.38526 0
0.0510262 0.384604 0
0.0847486 0.383948 0
0.118471 0.383291 0
0.152193 0.382635 0
0.185901 0.381979 0
0.219623 0.381323 0
0.253346 0.380667 0
0.287068 0.380011 0
0.320775 0.379355 0
0.354498 0.378698 0
0.38822 0.378042 0
0.421942 0.377386 0
0.455665 0.37673 0
0.489372 0.376074 0
0.523095 0.375418 0
0.556817 0.374762 0
0.590539 0.374105 0
0.624262 0.373449 0
0.657969 0.372793 0
0.691691 0.372137 0
0.725414 0.371481 0
0.759136 0.370825 0
0.792859 0.370153 0
0.826566 0.369497 0
0.860288 0.368841 0
0.894011 0.368185 0
0.927733 0.367529 0
0.961456 0.366873 0
0.995163 0.366217 0
1 0.36556 0
0 0.418753 0
0 0.418097 0
0.0151217 0.417441 0
0.0488441 0.416785 0
0.0825666 0.416129 0
0.116274 0.415473 0
0.149996 0.414816 0
0.183719 0.41416 0
0.217441 0.413504 0
0.251164 0.412848 0
0.284871 0.412192 0
0.318593 0.411536 0
0.352316 0.41088 0
0.386038 0.410224 0
0.419745 0.409567 0
0.453468 0.408911 0
0.48719 0.408255 0
0.520912 0.407599 0
0.554635 0.406943 0
0.588342 0.406287 0
0.622065 0.405631 0
0.655787 0.404974 0
0.689509 0.404318 0
0.723232 0.403662 0
0.756939 0.403006 0
0.790661 0.40235 0
0.824384 0.401694 0
0.858106 0.401038 0
0.891829 0.400381 0
0.925536 0.399725 0
0.959258 0.399069 0
0.992981 0.398413 0
1 0.397757 0
0 0.45095 0
0 0.450294 0
0.0129397 0.449638 0
0.0466468 0.448981 0
0.0803693 0.448325 0
0.114092 0.447669 0
0.147814 0.447013 0
0.181537 0.446357 0
0.215244 0.445701 0
0.248966 0.445045 0
0.282689 0.444389 0
0.316411 0.443732 0
0.350134 0.443076 0
0.383841 0.44242 0
0.417563 0.441764 0
0.451286 0.441108 0
0.485008 0.440452 0
0.51873 0.439796 0
0.552438 0.439124 0
0.58616 0.438468 0
0.619883 0.437812 0
0.653605 0.437156 0
0.687312 0.4365 0
0.721035 0.435843 0
0.754757 0.435187 0
0.788479 0.434531 0
0.822202 0.433875 0
0.855909 0.433219 0
0.889632 0.432563 0
0.923354 0.431907 0
0.957076 0.43125 0
0.990799 0.430594 0
1 0.429938 0
0 0.483131 0
0 0.482475 0
0.0107424 0.481819 0
0.0444648 0.481163 0
0.0781872 0.480507 0
0.11191 0.47985 0
0.145617 0.479194 0
0.179339 0.478538 0
0.213062 0.477882 0
0.246784 0.477226 0
0.280507 0.47657 0
0.314214 0.475914 0
0.347936 0.475257 0
0.381659 0.474601 0
0.415381 0.473945 0
0.449104 0.473289 0
0.482811 0.472633 0
0.516533 0.471977 0
0.550256 0.471321 0
0.583978 0.470665 0
0.6177 0.470008 0
0.651408 0.469352 0
0.68513 0.468696 0
0.718853 0.46804 0
0.752575 0.467384 0
0.786282 0.466728 0
0.820005 0.466072 0
0.853727 0.465415 0
0.887449 0.464759 0
0.921172 0.464103 0
0.954879 0.463447 0
0.988602 0.462791 0
1 0.462135 0
0 0.515328 0
0 0.514672 0
0.00856031 0.514015 0
0.0422827 0.513359 0
0.0759899 0.512703 0
0.109712 0.512047 0
0.143435 0.511391 0
0.177157 0.510735 0
0.21088 0.510079 0
0.244587 0.509422 0
0.278309 0.508766 0
0.312032 0.508095 0
0.345754 0.507439 0
0.379477 0.506783 0
0.413184 0.506127 0
0.446906 0.50547 0
0.480629 0.504814 0
0.514351 0.504158 0
0.548074 0.503502 0
0.581781 0.502846 0
0.615503 0.50219 0
0.649226 0.501534 0
0.682948 0.500877 0
0.71667 0.500221 0
0.750378 0.499565 0
0.7841 0.498909 0
0.817823 0.498253 0
0.851545 0.497597 0
0.885267 0.496941 0
0.918975 0.496284 0
0.952697 0.495628 0
0.986419 0.494972 0
1 0.494316 0
0 0.547509 0
0 0.546853 0
0.00637827 0.546197 0
0.0400854 0.545541 0
0.0738079 0.544884 0
0.10753 0.544228 0
0.141253 0.543572 0
0.174975 0.542916 0
0.208682 0.54226 0
0.242405 0.541604 0
0.276127 0.540948 0
0.30985 0.540291 0
0.343557 0.539635 0
0.377279 0.538979 0
0.411002 0.538323 0
0.444724 0.537667 0
0.478447 0.537011 0
0.512154 0.536355 0
0.545876 0.535698 0
0.579599 0.535042 0
0.613321 0.534386 0
0.647044 0.53373 0
0.680751 0.533074 0
0.714473 0.532418 0
0.748196 0.531762 0
0.781918 0.531106 0
0.815641 0.530449 0
0.849348 0.529793 0
0.88307 0.529137 0
0.916793 0.528481 0
0.950515 0.527825 0
0.984237 0.527169 0
1 0.526513 0
0 0.579705 0
0 0.579049 0
0.00418097 0.578393 0
0.0379034 0.577737 0
0.0716259 0.577066 0
0.105348 0.57641 0
0.139055 0.575753 0
0.172778 0.575097 0
0.2065 0.574441 0
0.240223 0.573785 0
0.273945 0.573129 0
0.307652 0.572473 0
0.341375 0.571817 0
0.375097 0.57116 0
0.40882 0.570504 0
0.442527 0.569848 0
0.476249 0.569192 0
0.509972 0.568536 0
0.543694 0.56788 0
0.577417 0.567224 0
0.611124 0.566567 0
0.644846 0.565911 0
0.678569 0.565255 0
0.712291 0.564599 0
0.746014 0.563943 0
0.779721 0.563287 0
0.813443 0.562631 0
0.847166 0.561975 0
0.880888 0.561318 0
0.914611 0.560662 0
0.948318 0.560006 0
0.98204 0.55935 0
1 0.558694 0
0 0.611887 0
0 0.611231 0
0.00199893 0.610574 0
0.0357214 0.609918 0
0.0694285 0.609262 0
0.103151 0.608606 0
0.136873 0.60795 0
0.170596 0.607294 0
0.204318 0.606638 0
0.238025 0.605982 0
0.271748 0.605325 0
0.30547 0.604669 0
0.339193 0.604013 0
0.372915 0.603357 0
0.406622 0.602701 0
0.440345 0.602045 0
0.474067 0.601389 0
0.50779 0.600732 0
0.541512 0.600076 0
0.575219 0.59942 0
0.608942 0.598764 0
0.642664 0.598108 0
0.676387 0.597452 0
0.710094 0.596796 0
0.743816 0.596139 0
0.777539 0.595483 0
0.811261 0.594827 0
0.844984 0.594171 0
0.878691 0.593515 0
0.912413 0.592859 0
0.946136 0.592187 0
0.979858 0.591531 0
1 0.590875 0
0 0.644068 0
0 0.643412 0
0 0.642756 0
0.0335241 0.6421 0
0.0672465 0.641443 0
0.100969 0.640787 0
0.134691 0.640131 0
0.168399 0.639475 0
0.202121 0.638819 0
0.235843 0.638163 0
0.269566 0.637507 0
0.303288 0.636851 0
0.336996 0.636194 0
0.370718 0.635538 0
0.40444 0.634882 0
0.438163 0.634226 0
0.471885 0.63357 0
0.505592 0.632914 0
0.539315 0.632258 0
0.573037 0.631601 0
0.60676 0.630945 0
0.640482 0.630289 0
0.674189 0.629633 0
0.707912 0.628977 0
0.741634 0.628321 0
0.775357 0.627665 0
0.809064 0.627008 0
0.842786 0.626352 0
0.876509 0.625696 0
0.910231 0.62504 0
0.943954 0.624384 0
0.977661 0.623728 0
1 0.623072 0
0 0.676265 0
0 0.675608 0
0 0.674952 0
0.031342 0.674296 0
0.0650645 0.67364 0
0.0987716 0.672984 0
0.132494 0.672328 0
0.166217 0.671672 0
0.199939 0.671016 0
0.233661 0.670359 0
0.267369 0.669703 0
0.301091 0.669047 0
0.334813 0.668391 0
0.368536 0.667735 0
0.402258 0.667079 0
0.435966 0.666423 0
0.469688 0.665766 0
0.50341 0.66511 0
0.537133 0.664454 0
0.570855 0.663798 0
0.604562 0.663142 0
0.638285 0.662486 0
0.672007 0.66183 0
0.70573 0.661158 0
0.739452 0.660502 0
0.773159 0.659846 0
0.806882 0.65919 0
0.840604 0.658534 0
0.874327 0.657877 0
0.908049 0.657221 0
0.941756 0.656565 0
0.975479 0.655909 0
1 0.655253 0
0 0.708446 0
0 0.70779 0
0 0.707134 0
0.02916 0.706477 0
0.0628672 0.705821 0
0.0965896 0.705165 0
0.130312 0.704509 0
0.164034 0.703853 0
0.197757 0.703197 0
0.231464 0.702541 0
0.265187 0.701885 0
0.298909 0.701228 0
0.332631 0.700572 0
0.366339 0.699916 0
0.400061 0.69926 0
0.433783 0.698604 0
0.467506 0.697948 0
0.501228 0.697292 0
0.534936 0.696635 0
0.568658 0.695979 0
0.60238 0.695323 0
0.636103 0.694667 0
0.669825 0.694011 0
0.703532 0.693355 0
0.737255 0.692699 0
0.770977 0.692042 0
0.8047 0.691386 0
0.838422 0.69073 0
0.872129 0.690074 0
0.905852 0.689418 0
0.939574 0.688762 0
0.973297 0.688106 0
1 0.687449 0
0 0.740642 0
0 0.739986 0
0 0.73933 0
0.0269627 0.738674 0
0.0606851 0.738018 0
0.0944076 0.737362 0
0.12813 0.736706 0
0.161837 0.736049 0
0.19556 0.735393 0
0.229282 0.734737 0
0.263005 0.734081 0
0.296727 0.733425 0
0.330434 0.732769 0
0.364157 0.732113 0
0.397879 0.731456 0
0.431601 0.7308 0
0.465309 0.730144 0
0.499031 0.729473 0
0.532753 0.728817 0
0.566476 0.728161 0
0.600198 0.727504 0
0.633906 0.726848 0
0.667628 0.726192 0
0.70135 0.725536 0
0.735073 0.72488 0
0.768795 0.724224 0
0.802502 0.723568 0
0.836225 0.722911 0
0.869947 0.722255 0
0.90367 0.721599 0
0.937392 0.720943 0
0.971099 0.720287 0
1 0.719631 0
0 0.772824 0
0 0.772168 0
0 0.771511 0
0.0247807 0.770855 0
0.0585031 0.770199 0
0.0922103 0.769543 0
0.125933 0.768887 0
0.159655 0.768231 0
0.193378 0.767575 0
0.2271 0.766918 0
0.260807 0.766262 0
0.29453 0.765606 0
0.328252 0.76495 0
0.361975 0.764294 0
0.395697 0.763638 0
0.429404 0.762982 0
0.463127 0.762325 0
0.496849 0.761669 0
0.530571 0.761013 0
0.564294 0.760357 0
0.598001 0.759701 0
0.631724 0.759045 0
0.665446 0.758389 0
0.699168 0.757733 0
0.732876 0.757076 0
0.766598 0.75642 0
0.80032 0.755764 0
0.834043 0.755108 0
0.867765 0.754452 0
0.901473 0.753796 0
0.935195 0.75314 0
0.968917 0.752483 0
1 0.751827 0
0 0.80502 0
0 0.804364 0
0 0.803708 0
0.0225834 0.803052 0
0.0563058 0.802396 0
0.0900282 0.80174 0
0.123751 0.801083 0
0.157473 0.800427 0
0.19118 0.799771 0
0.224903 0.799115 0
0.258625 0.798444 0
0.292348 0.797787 0
0.32607 0.797131 0
0.359777 0.796475 0
0.3935 0.795819 0
0.427222 0.795163 0
0.460945 0.794507 0
0.494667 0.793851 0
0.528374 0.793194 0
0.562097 0.792538 0
0.595819 0.791882 0
0.629541 0.791226 0
0.663264 0.79057 0
0.696971 0.789914 0
0.730694 0.789258 0
0.764416 0.788602 0
0.798138 0.787945 0
0.831846 0.787289 0
0.865568 0.786633 0
0.89929 0.785977 0
0.933013 0.785321 0
0.966735 0.784665 0
1 0.784009 0
0 0.837201 0
0 0.836545 0
0 0.835889 0
0.0204013 0.835233 0
0.0541238 0.834577 0
0.0878462 0.833921 0
0.121553 0.833265 0
0.155276 0.832609 0
0.188998 0.831952 0
0.222721 0.831296 0
0.256443 0.83064 0
0.29015 0.829984 0
0.323873 0.829328 0
0.357595 0.828672 0
0.391318 0.828016 0
0.42504 0.827359 0
0.458747 0.826703 0
0.49247 0.826047 0
0.526192 0.825391 0
0.559915 0.824735 0
0.593637 0.824079 0
0.627344 0.823423 0
0.661067 0.822766 0
0.694789 0.82211 0
0.728511 0.821454 0
0.762234 0.820798 0
0.795941 0.820142 0
0.829664 0.819486 0
0.863386 0.81883 0
0.897108 0.818173 0
0.930831 0.817517 0
0.964538 0.816861 0
0.99826 0.816205 0
0 0.869398 0
0 0.868742 0
0 0.868086 0
0.0182193 0.867414 0
0.0519417 0.866758 0
0.0856489 0.866102 0
0.119371 0.865446 0
0.153094 0.86479 0
0.186816 0.864134 0
