public/LUTS/Cinematic/Cinematic_02.cube
TITLE "Generated by Resolve"
LUT_3D_SIZE 5
0.00836194 0.0372778 0.0542916
0.289952 0.0288853 0.0458991
0.571557 0.0204776 0.0374914
0.853162 0.0120851 0.029099
1 0.00367742 0.0206912
0 0.299275 0.0262913
0.261952 0.290867 0.0178988
0.543557 0.282475 0.00949111
0.825162 0.274067 0.00109865
1 0.26566 0
0 0.561273 0
0.233951 0.55288 0
0.515557 0.544472 0
0.797162 0.536065 0
1 0.527672 0
0 0.823285 0
0.205951 0.814878 0
0.487556 0.806485 0
0.769162 0.798077 0
1 0.78967 0
0 1 0
0.177951 1 0
0.459556 1 0
0.741161 1 0
1 1 0
0.00477607 0.0336919 0.340673
0.286351 0.0252842 0.33228
0.567956 0.0168765 0.323873
0.849561 0.00848402 0.31548
1 7.62951e-05 0.307073
0 0.295674 0.312688
0.25835 0.287266 0.30428
0.539956 0.278874 0.295888
0.821561 0.270466 0.28748
1 0.262074 0.279072
0 0.557671 0.284672
0.23035 0.549279 0.27628
0.511955 0.540871 0.267872
0.793561 0.532479 0.25948
1 0.524071 0.251072
0 0.819684 0.256672
0.20235 0.811276 0.24828
0.483955 0.802884 0.239872
0.76556 0.794476 0.231479
1 0.786084 0.223072
0 1 0.228672
0.17435 1 0.220279
0.455955 1 0.211872
0.73756 1 0.203479
1 1 0.195071
0.00117494 0.0300908 0.627085
0.28275 0.0216831 0.618692
0.564355 0.0132906 0.610285
0.84596 0.00488289 0.601892
1 0 0.593484
0 0.292073 0.599084
0.254749 0.28368 0.590692
0.536355 0.275273 0.582284
0.81796 0.266865 0.573892
1 0.258473 0.565484
0 0.554086 0.571084
0.226749 0.545678 0.562692
0.508354 0.53727 0.554284
0.78996 0.528878 0.545892
1 0.52047 0.537484
0 0.816083 0.543084
0.198749 0.807675 0.534691
0.480354 0.799283 0.526284
0.761959 0.790875 0.517876
1 0.782483 0.509483
0 1 0.515084
0.170748 1 0.506676
0.452354 1 0.498283
0.733959 1 0.489876
1 1 0.481483
0 0.0264897 0.913497
0.279149 0.0180819 0.905089
0.560754 0.00968948 0.896696
0.842359 0.00128176 0.888289
1 0 0.879896
0 0.288472 0.885496
0.251164 0.280079 0.877089
0.532769 0.271672 0.868696
0.814359 0.263264 0.860288
1 0.254871 0.851896
0 0.550484 0.857496
0.223163 0.542077 0.849088
0.504753 0.533684 0.840696
0.786358 0.525277 0.832288
1 0.516869 0.823896
0 0.812482 0.829496
0.195163 0.804089 0.821088
0.476753 0.795682 0.812696
0.758358 0.787274 0.804288
1 0.778881 0.795895
0 1 0.801495
0.167163 1 0.793088
0.448753 1 0.784695
0.730358 1 0.776287
1 1 0.76788
0 0.0228885 1
0.275563 0.0144808 1
0.557153 0.00608835 1
0.838758 0 1
1 0 1
0 0.284871 1
0.247562 0.276478 1
0.529168 0.26807 1
0.810773 0.259678 1
1 0.25127 1
0 0.546883 1
0.219562 0.538476 1
0.501167 0.530083 1
0.782773 0.521675 1
1 0.513268 1
0 0.808881 1
0.191562 0.800488 1
0.473167 0.792081 1
0.754772 0.783688 1
1 0.77528 1
0 1 1
0.163561 1 1
0.445167 1 1
0.726757 1 1
1 1 1
