public/LUTS/Cinematic/Cinematic_03.cube
TITLE "Generated by Resolve"
LUT_3D_SIZE 5
0.0180819 0.0520943 0.0691081
0.299657 0.0436866 0.0607004
0.581262 0.0352941 0.0523079
0.862867 0.0268864 0.0439002
1 0.0184939 0.0355077
0 0.314076 0.0411078
0.271672 0.305684 0.0327001
0.553262 0.297276 0.0243076
0.834867 0.288884 0.0158999
1 0.280476 0.00750744
0 0.576089 0.0131075
0.243671 0.567681 0.00469978
0.525261 0.559289 0
0.806867 0.550881 0
1 0.542489 0
0 0.838087 0
0.215671 0.829694 0
0.497261 0.821286 0
0.778866 0.812894 0
1 0.804486 0
0 1 0
0.187671 1 0
0.469261 1 0
0.750866 1 0
1 1 0
0.0144808 0.0484932 0.355489
0.296071 0.0401007 0.347097
0.577661 0.031693 0.338689
0.859266 0.0232853 0.330297
1 0.0148928 0.321889
0 0.310491 0.327489
0.26807 0.302083 0.319097
0.549676 0.293675 0.310689
0.831281 0.285283 0.302296
1 0.276875 0.293889
0 0.572488 0.299489
0.24007 0.56408 0.291096
0.521675 0.555688 0.282689
0.803265 0.54728 0.274296
1 0.538888 0.265888
0 0.834485 0.271489
0.21207 0.826093 0.263096
0.493675 0.817685 0.254688
0.775265 0.809293 0.246296
1 0.800885 0.237888
0 1 0.243488
0.18407 1 0.23508
0.465675 1 0.226688
0.747265 1 0.21828
1 1 0.209888
0.0108797 0.044892 0.641901
0.29247 0.0364996 0.633494
0.574075 0.0280919 0.625101
0.855665 0.0196994 0.616693
1 0.0112917 0.608301
0 0.306889 0.613901
0.264469 0.298482 0.605493
0.546075 0.290089 0.597101
0.82768 0.281682 0.588693
1 0.273274 0.580301
0 0.568887 0.585901
0.236469 0.560494 0.577493
0.518074 0.552087 0.5691
0.79968 0.543679 0.560693
1 0.535286 0.5523
0 0.8309 0.5579
0.208469 0.822492 0.549493
0.490074 0.814084 0.5411
0.771679 0.805692 0.532692
1 0.797284 0.5243
0 1 0.5299
0.180468 1 0.521492
0.462074 1 0.5131
0.743679 1 0.504692
1 1 0.4963
0.00727855 0.0412909 0.928298
0.288869 0.0328985 0.919905
0.570474 0.0244907 0.911498
0.852079 0.0160983 0.903105
1 0.00769055 0.894697
0 0.303288 0.900298
0.260868 0.294881 0.891905
0.542473 0.286488 0.883497
0.824079 0.27808 0.875105
1 0.269688 0.866697
0 0.565286 0.872297
0.232868 0.556893 0.863905
0.514473 0.548486 0.855497
0.796078 0.540093 0.847105
1 0.531685 0.838697
0 0.827298 0.844297
0.204868 0.818891 0.835904
0.486473 0.810498 0.827497
0.768078 0.80209 0.819104
1 0.793683 0.810697
0 1 0.816297
0.176867 1 0.807904
0.458473 1 0.799496
0.740078 1 0.791104
1 1 0.782696
0.00367742 0.037705 1
0.285267 0.0292973 1
0.566873 0.0208896 1
0.848478 0.0124971 1
1 0.00408942 1
0 0.299687 1
0.257267 0.291279 1
0.538872 0.282887 1
0.820478 0.274479 1
1 0.266087 1
0 0.561685 1
0.229267 0.553292 1
0.510872 0.544884 1
0.792477 0.536492 1
1 0.528084 1
0 0.823697 1
0.201266 0.81529 1
0.482872 0.806897 1
0.764477 0.798489 1
1 0.790097 1
0 1 1
0.173266 1 1
0.454871 1 1
0.736477 1 1
1 1 1
