public/LUTS/Cinematic/Cinematic_07.cube
TITLE "Generated by Resolve"
LUT_3D_SIZE 9
0 0.000335698 0.0164645
0.110994 0 0.0138399
0.245869 0 0.0112154
0.380758 0 0.00859083
0.515633 0 0.00596628
0.650507 0 0.00332647
0.785382 0 0.000701915
0.920256 0 0
1 0 0
0 0.129061 0.00770581
0.102251 0.126436 0.00508125
0.237125 0.123812 0.0024567
0.372 0.121187 0
0.506874 0.118563 0
0.641749 0.115938 0
0.776638 0.113313 0
0.911513 0.110689 0
1 0.108064 0
0 0.257816 0
0.093492 0.255192 0
0.228382 0.252567 0
0.363256 0.249943 0
0.498131 0.247318 0
0.633005 0.244694 0
0.76788 0.242069 0
0.902754 0.239445 0
1 0.23682 0
0 0.386572 0
0.0847486 0.383948 0
0.219623 0.381323 0
0.354498 0.378698 0
0.489372 0.376074 0
0.624262 0.373449 0
0.759136 0.370825 0
0.894011 0.368185 0
1 0.36556 0
0 0.515328 0
0.0759899 0.512703 0
0.21088 0.510079 0
0.345754 0.507439 0
0.480629 0.504814 0
0.615503 0.50219 0
0.750378 0.499565 0
0.885267 0.496941 0
1 0.494316 0
0 0.644068 0
0.0672465 0.641443 0
0.202121 0.638819 0
0.336996 0.636194 0
0.471885 0.63357 0
0.60676 0.630945 0
0.741634 0.628321 0
0.876509 0.625696 0
1 0.623072 0
0 0.772824 0
0.0585031 0.770199 0
0.193378 0.767575 0
0.328252 0.76495 0
0.463127 0.762325 0
0.598001 0.759701 0
0.732876 0.757076 0
0.867765 0.754452 0
1 0.751827 0
0 0.901579 0
0.0497444 0.898955 0
0.184619 0.89633 0
0.319509 0.893706 0
0.454383 0.891081 0
0.589258 0.888457 0
0.724132 0.885832 0
0.859007 0.883207 0
0.993881 0.880568 0
0 1 0
0.041001 1 0
0.175875 1 0
0.31075 1 0
0.445624 1 0
0.580499 1 0
0.715389 1 0
0.850263 1 0
0.985138 1 0
0 0 0.152819
0.109865 0 0.150195
0.244755 0 0.14757
0.379629 0 0.144945
0.514504 0 0.142321
0.649378 0 0.139696
0.784253 0 0.137072
0.919127 0 0.134447
1 0 0.131823
0 0.127947 0.144076
0.101122 0.125322 0.141451
0.235996 0.122698 0.138827
0.370871 0.120058 0.136202
0.50576 0.117433 0.133577
0.640635 0.114809 0.130938
0.775509 0.112184 0.128313
0.910384 0.10956 0.125689
1 0.106935 0.123064
0 0.256687 0.135317
0.0923781 0.254063 0.132692
0.227253 0.251438 0.130068
0.362127 0.248814 0.127443
0.497002 0.246189 0.124819
0.631876 0.243565 0.122194
0.766766 0.24094 0.11957
0.90164 0.238315 0.116945
1 0.235691 0.114321
0 0.385443 0.126574
0.0836194 0.382818 0.123949
0.218494 0.380194 0.121324
0.353384 0.377569 0.1187
0.488258 0.374945 0.116075
0.623133 0.37232 0.113451
0.758007 0.369696 0.110826
0.892882 0.367071 0.108186
1 0.364446 0.105562
0 0.514199 0.117815
0.074876 0.511574 0.11519
0.209751 0.508949 0.112566
0.344625 0.506325 0.109941
0.4795 0.5037 0.107317
0.614374 0.501076 0.104692
0.749264 0.498451 0.102068
0.884138 0.495827 0.099443
1 0.493187 0.0968185
0 0.642954 0.109071
0.0661173 0.64033 0.106447
0.201007 0.637705 0.103822
0.335882 0.635081 0.101198
0.470756 0.632441 0.0985733
0.605631 0.629816 0.0959487
0.740505 0.627192 0.0933242
0.87538 0.624567 0.0906996
1 0.621942 0.0880751
0 0.77171 0.100313
0.0573739 0.76907 0.0976883
0.192248 0.766445 0.0950637
0.327123 0.763821 0.0924392
0.461997 0.761196 0.0898146
0.596887 0.758572 0.0871901
0.731762 0.755947 0.0845655
0.866636 0.753323 0.0819409
1 0.750698 0.0793164
0 0.90045 0.0915694
0.0486152 0.897826 0.0889448
0.183505 0.895201 0.0863203
0.318379 0.892576 0.0836957
0.453254 0.889952 0.0810712
0.588129 0.887327 0.0784466
0.723003 0.884703 0.0758221
0.857877 0.882078 0.0731975
0.992767 0.879454 0.070573
0 1 0.0828107
0.0398718 1 0.0801862
0.174746 1 0.0775616
0.309621 1 0.0749371
0.444511 1 0.0723125
0.579385 1 0.069688
0.71426 1 0.0670634
0.849134 1 0.0644388
0.984009 1 0.0618143
0 0 0.289204
0.108751 0 0.28658
0.243626 0 0.28394
0.3785 0 0.281315
0.513375 0 0.278691
0.648249 0 0.276066
0.783139 0 0.273442
0.918013 0 0.270817
1 0 0.268193
0 0.126818 0.280446
0.0999924 0.124193 0.277821
0.234882 0.121569 0.275196
0.369757 0.118944 0.272572
0.504631 0.11632 0.269947
0.639506 0.113695 0.267323
0.77438 0.11107 0.264698
0.909255 0.108446 0.262074
1 0.105806 0.259449
0 0.255573 0.271702
0.091249 0.252949 0.269078
0.226123 0.250324 0.266453
0.360998 0.2477 0.263828
0.495872 0.24506 0.261204
0.630762 0.242435 0.258579
0.765637 0.239811 0.25594
0.900511 0.237186 0.253315
1 0.234562 0.25069
0 0.384329 0.262943
0.0824903 0.381689 0.260319
0.21738 0.379065 0.257694
0.352255 0.37644 0.25507
0.487129 0.373816 0.252445
0.622003 0.371191 0.249821
0.756878 0.368566 0.247196
0.891768 0.365942 0.244572
1 0.363317 0.241947
0 0.513069 0.2542
0.0737469 0.510445 0.251575
0.208621 0.50782 0.248951
0.343496 0.505196 0.246326
0.478386 0.502571 0.243702
0.61326 0.499947 0.241077
0.748135 0.497322 0.238453
0.883009 0.494697 0.235828
1 0.492073 0.233188
0 0.641825 0.245441
0.0650034 0.6392 0.242817
0.199878 0.636576 0.240192
0.334752 0.633951 0.237568
0.469627 0.631327 0.234943
0.604501 0.628702 0.232319
0.739376 0.626078 0.229694
0.874266 0.623453 0.22707
1 0.620829 0.224445
0 0.770581 0.236698
0.0562448 0.767956 0.234073
0.191119 0.765332 0.231449
0.326009 0.762707 0.228824
0.460883 0.760082 0.2262
0.595758 0.757443 0.223575
0.730632 0.754818 0.220951
0.865507 0.752194 0.218326
1 0.749569 0.215702
0 0.899336 0.227939
0.0475013 0.896712 0.225315
0.182376 0.894072 0.22269
0.31725 0.891447 0.220066
0.452125 0.888823 0.217441
0.586999 0.886198 0.214817
0.721889 0.883574 0.212192
0.856764 0.880949 0.209567
0.991638 0.878325 0.206943
0 1 0.219196
0.0387427 1 0.216571
0.173617 1 0.213947
0.308507 1 0.211322
0.443381 1 0.208698
0.578256 1 0.206073
0.71313 1 0.203449
0.848005 1 0.200824
0.982879 1 0.198199
0 0 0.425574
0.107622 0 0.42295
0.242496 0 0.420325
0.377371 0 0.4177
0.512261 0 0.415076
0.647135 0 0.412451
0.78201 0 0.409827
0.916884 0 0.407202
1 0 0.404578
0 0.125689 0.416831
0.0988785 0.123064 0.414206
0.233753 0.120439 0.411582
0.368627 0.117815 0.408957
0.503502 0.11519 0.406332
0.638376 0.112566 0.403693
0.773251 0.109941 0.401068
0.908141 0.107317 0.398444
1 0.104692 0.395819
0 0.254444 0.408072
0.0901198 0.25182 0.405447
0.224994 0.249195 0.402823
0.359884 0.246571 0.400198
0.494759 0.243946 0.397574
0.629633 0.241321 0.394949
0.764508 0.238697 0.392325
0.899382 0.236072 0.3897
1 0.233448 0.387076
0 0.3832 0.399329
0.0813764 0.380575 0.396704
0.216251 0.377951 0.39408
0.351125 0.375326 0.391455
0.486 0.372702 0.38883
0.620874 0.370062 0.386206
0.755764 0.367437 0.383581
0.890639 0.364813 0.380941
1 0.362188 0.378317
0 0.511955 0.39057
0.0726177 0.509331 0.387945
0.207492 0.506691 0.385321
0.342382 0.504067 0.382696
0.477256 0.501442 0.380072
0.612131 0.498817 0.377447
0.747005 0.496193 0.374823
0.88188 0.493568 0.372198
1 0.490944 0.369574
0 0.640696 0.381826
0.0638743 0.638071 0.379202
0.198749 0.635447 0.376577
0.333623 0.632822 0.373953
0.468498 0.630198 0.371328
0.603387 0.627573 0.368704
0.738262 0.624949 0.366079
0.873137 0.622324 0.363455
1 0.619699 0.36083
0 0.769451 0.373068
0.0551156 0.766827 0.370443
0.190005 0.764202 0.367819
0.32488 0.761578 0.365194
0.459754 0.758953 0.36257
0.594629 0.756329 0.359945
0.729503 0.753704 0.357321
0.864378 0.75108 0.354696
0.999268 0.748455 0.352071
0 0.898207 0.364324
0.0463722 0.895582 0.3617
0.181247 0.892958 0.359075
0.316121 0.890333 0.356451
0.451011 0.887709 0.353826
0.585885 0.885084 0.351202
0.72076 0.882445 0.348577
0.855634 0.87982 0.345953
0.990509 0.877195 0.343328
0 1 0.355566
0.0376287 1 0.352941
0.172503 1 0.350317
0.307378 1 0.347692
0.442252 1 0.345068
0.577127 1 0.342443
0.712001 1 0.339818
0.846891 1 0.337194
0.981765 1 0.334569
0 0 0.561959
0.106493 0 0.559335
0.241367 0 0.556695
0.376257 0 0.55407
0.511131 0 0.551446
0.646006 0 0.548821
0.78088 0 0.546197
0.915755 0 0.543572
1 0 0.540948
0 0.124575 0.553201
0.0977493 0.12195 0.550576
0.232624 0.11931 0.547951
0.367498 0.116686 0.545327
0.502373 0.114061 0.542702
0.637263 0.111437 0.540078
0.772137 0.108812 0.537453
0.907012 0.106188 0.534829
1 0.103563 0.532204
0 0.253315 0.544457
0.0889906 0.25069 0.541833
0.22388 0.248066 0.539208
0.358755 0.245441 0.536583
0.493629 0.242817 0.533959
0.628504 0.240192 0.531334
0.763378 0.237568 0.528695
0.898253 0.234943 0.52607
1 0.232319 0.523445
0 0.382071 0.535698
0.0802472 0.379446 0.533074
0.215122 0.376822 0.530449
0.349996 0.374197 0.527825
0.484886 0.371572 0.5252
0.61976 0.368948 0.522576
0.754635 0.366323 0.519951
0.889509 0.363699 0.517327
1 0.361074 0.514702
0 0.510826 0.526955
0.0715038 0.508202 0.52433
0.206378 0.505577 0.521706
0.341253 0.502953 0.519081
0.476127 0.500328 0.516457
0.611002 0.497704 0.513832
0.745876 0.495064 0.511208
0.880766 0.492439 0.508583
1 0.489815 0.505943
0 0.639582 0.518196
0.0627451 0.636957 0.515572
0.19762 0.634333 0.512947
0.332494 0.631693 0.510323
0.467384 0.629068 0.507698
0.602258 0.626444 0.505074
0.737133 0.623819 0.502449
0.872007 0.621195 0.499825
1 0.61857 0.4972
0 0.768322 0.509453
0.0540017 0.765698 0.506828
0.188876 0.763073 0.504204
0.323751 0.760449 0.501579
0.458625 0.757824 0.498955
0.5935 0.755199 0.49633
0.728389 0.752575 0.493706
0.863264 0.74995 0.491081
0.998138 0.747326 0.488457
0 0.897078 0.500694
0.045243 0.894453 0.49807
0.180117 0.891829 0.495445
0.315007 0.889204 0.492821
0.449882 0.88658 0.490196
0.584756 0.883955 0.487572
0.719631 0.881331 0.484947
0.854505 0.878706 0.482322
0.98938 0.876081 0.479698
0 1 0.491951
0.0364996 1 0.489326
0.171374 1 0.486702
0.306249 1 0.484077
0.441123 1 0.481453
0.576013 1 0.478828
0.710887 1 0.476204
0.845762 1 0.473579
0.980636 1 0.470954
0 0 0.698329
0.105379 0 0.695705
0.240253 0 0.69308
0.375128 0 0.690455
0.510002 0 0.687831
0.644877 0 0.685206
0.779751 0 0.682582
0.914641 0 0.679957
1 0 0.677333
0 0.123445 0.689586
0.0966201 0.120821 0.686961
0.231495 0.118196 0.684337
0.366384 0.115572 0.681712
0.501259 0.112947 0.679088
0.636133 0.110323 0.676448
0.771008 0.107683 0.673823
0.905882 0.105058 0.671199
1 0.102434 0.668574
0 0.252201 0.680827
0.0878767 0.249577 0.678203
0.222751 0.246952 0.675578
0.357626 0.244312 0.672953
0.4925 0.241688 0.670329
0.627375 0.239063 0.667704
0.762264 0.236439 0.66508
0.897139 0.233814 0.662455
1 0.231189 0.659831
0 0.380941 0.672084
0.079118 0.378317 0.669459
0.213993 0.375692 0.666835
0.348882 0.373068 0.66421
0.483757 0.370443 0.661585
0.618631 0.367819 0.658961
0.753506 0.365194 0.656336
0.88838 0.36257 0.653696
1 0.359945 0.651072
0 0.509697 0.663325
0.0703746 0.507073 0.6607
0.205249 0.504448 0.658076
0.340124 0.501823 0.655451
0.474998 0.499199 0.652827
0.609888 0.496574 0.650202
0.744762 0.49395 0.647578
0.879637 0.491325 0.644953
1 0.488701 0.642329
0 0.638453 0.654582
0.0616159 0.635828 0.651957
0.196506 0.633204 0.649332
0.33138 0.630579 0.646708
0.466255 0.627955 0.644083
0.601129 0.62533 0.641459
0.736004 0.622705 0.638834
0.870878 0.620081 0.63621
1 0.617441 0.633585
0 0.767208 0.645823
0.0528725 0.764584 0.643198
0.187747 0.761959 0.640574
0.322621 0.759335 0.637949
0.457496 0.756695 0.635325
0.592386 0.75407 0.6327
0.72726 0.751446 0.630076
0.862135 0.748821 0.627451
0.997009 0.746197 0.624826
0 0.895949 0.637079
0.0441291 0.893324 0.634455
0.179004 0.8907 0.63183
0.313878 0.888075 0.629206
0.448753 0.885451 0.626581
0.583627 0.882826 0.623957
0.718502 0.880201 0.621332
0.853391 0.877577 0.618708
0.988266 0.874952 0.616083
0 1 0.628321
0.0353704 1 0.625696
0.170245 1 0.623072
0.305119 1 0.620447
0.440009 1 0.617823
0.574884 1 0.615198
0.709758 1 0.612573
0.844633 1 0.609949
0.979507 1 0.607324
0 0 0.834714
0.10425 0 0.83209
0.239124 0 0.829465
0.373999 0 0.826825
0.508873 0 0.824201
0.643748 0 0.821576
0.778637 0 0.818952
0.913512 0 0.816327
1 0 0.813703
0 0.122316 0.825956
0.095491 0.119692 0.823331
0.230381 0.117067 0.820706
0.365255 0.114443 0.818082
0.50013 0.111818 0.815457
0.635004 0.109194 0.812833
0.769879 0.106569 0.810208
0.904753 0.103944 0.807584
1 0.10132 0.804959
0 0.251072 0.817212
0.0867475 0.248447 0.814588
0.221622 0.245823 0.811963
0.356497 0.243198 0.809339
0.491386 0.240574 0.806714
0.626261 0.237949 0.804089
0.761135 0.235325 0.80145
0.89601 0.232685 0.798825
1 0.23006 0.796201
0 0.379828 0.808454
0.0780041 0.377203 0.805829
0.212879 0.374578 0.803204
0.347753 0.371954 0.80058
0.482628 0.369314 0.797955
0.617502 0.36669 0.795331
0.752377 0.364065 0.792706
0.887266 0.36144 0.790082
1 0.358816 0.787457
0 0.508568 0.79971
0.0692454 0.505943 0.797086
0.20412 0.503319 0.794461
0.338994 0.500694 0.791836
0.473884 0.49807 0.789212
0.608759 0.495445 0.786587
0.743633 0.492821 0.783963
0.878508 0.490196 0.781338
1 0.487572 0.778698
0 0.637324 0.790951
0.060502 0.634699 0.788327
0.195377 0.632074 0.785702
0.330251 0.62945 0.783078
0.465126 0.626825 0.780453
0.6 0.624201 0.777829
0.73489 0.621576 0.775204
0.869764 0.618952 0.77258
1 0.616327 0.769955
0 0.766079 0.782208
0.0517433 0.763455 0.779583
0.186618 0.76083 0.776959
0.321508 0.758206 0.774334
0.456382 0.755581 0.77171
0.591257 0.752956 0.769085
0.726131 0.750332 0.766461
0.861006 0.747707 0.763836
0.99588 0.745068 0.761212
0 0.894835 0.773449
0.0429999 0.89221 0.770825
0.177874 0.889586 0.7682
0.312749 0.886961 0.765576
0.447623 0.884337 0.762951
0.582498 0.881697 0.760327
0.717388 0.879072 0.757702
0.852262 0.876448 0.755077
0.987137 0.873823 0.752453
0 1 0.764706
0.0342412 1 0.762081
0.169131 1 0.759457
0.304006 1 0.756832
0.43888 1 0.754208
0.573754 1 0.751583
0.708629 1 0.748959
0.843503 1 0.746334
0.978393 1 0.743709
0 0 0.971084
0.10312 0 0.96846
0.237995 0 0.965835
0.372869 0 0.963211
0.507759 0 0.960586
0.642634 0 0.957961
0.777508 0 0.955337
0.912383 0 0.952712
1 0 0.950088
0 0.121202 0.962341
0.094377 0.118563 0.959716
0.229252 0.115938 0.957092
0.364126 0.113313 0.954467
0.499001 0.110689 0.951843
0.633875 0.108064 0.949203
0.768765 0.10544 0.946578
0.903639 0.102815 0.943954
1 0.100191 0.941329
0 0.249943 0.953582
0.0856184 0.247318 0.950957
0.220493 0.244694 0.948333
0.355383 0.242069 0.945708
0.490257 0.239445 0.943084
0.625132 0.23682 0.940459
0.760006 0.234195 0.937835
0.894881 0.231571 0.93521
1 0.228946 0.932586
0 0.378698 0.944839
0.0768749 0.376074 0.942214
0.211749 0.373449 0.93959
0.346624 0.370825 0.936965
0.481498 0.3682 0.93434
0.616388 0.365576 0.931716
0.751263 0.362951 0.929091
0.886137 0.360327 0.926452
1 0.357687 0.923827
0 0.507454 0.93608
0.0681163 0.504829 0.933455
0.203006 0.502205 0.930831
0.337881 0.49958 0.928206
0.472755 0.496956 0.925582
0.60763 0.494316 0.922957
0.742504 0.491691 0.920333
0.877379 0.489067 0.917708
1 0.486442 0.915084
0 0.63621 0.927337
0.0593729 0.633585 0.924712
0.194247 0.630945 0.922087
0.329122 0.628321 0.919463
0.463996 0.625696 0.916838
0.598886 0.623072 0.914214
0.733761 0.620447 0.911589
0.868635 0.617823 0.908965
1 0.615198 0.90634
0 0.76495 0.918578
0.0506294 0.762325 0.915953
0.185504 0.759701 0.913329
0.320378 0.757076 0.910704
0.455253 0.754452 0.90808
0.590127 0.751827 0.905455
0.725002 0.749203 0.902831
0.859892 0.746578 0.900206
0.994766 0.743954 0.897581
0 0.893706 0.909834
0.0418708 0.891081 0.90721
0.176745 0.888457 0.904585
0.31162 0.885832 0.901961
0.44651 0.883207 0.899336
0.581384 0.880583 0.896712
0.716258 0.877958 0.894087
0.851133 0.875334 0.891463
0.986007 0.872709 0.888838
0 1 0.901076
0.0331273 1 0.898451
0.168002 1 0.895827
0.302876 1 0.893202
0.437751 1 0.890578
0.572625 1 0.887953
0.7075 1 0.885328
0.84239 1 0.882704
0.977264 1 0.880079
0 0 1
0.101991 0 1
0.236881 0 1
0.371756 0 1
0.50663 0 1
0.641505 0 1
0.776379 0 1
0.911254 0 1
1 0 1
0 0.120073 1
0.0932479 0.117449 1
0.228122 0.114824 1
0.362997 0.1122 1
0.497887 0.109575 1
0.632761 0.106935 1
0.767636 0.104311 1
0.90251 0.101686 1
1 0.0990616 1
0 0.248829 1
0.0845045 0.246204 1
0.219379 0.243565 1
0.354253 0.24094 1
0.489128 0.238315 1
0.624002 0.235691 1
0.758877 0.233066 1
0.893767 0.230442 1
1 0.227817 1
0 0.377569 1
0.0757458 0.374945 1
0.21062 0.37232 1
0.345495 0.369696 1
0.480385 0.367071 1
0.615259 0.364446 1
0.750134 0.361822 1
0.885008 0.359197 1
1 0.356573 1
0 0.506325 1
0.0670024 0.5037 1
0.201877 0.501076 1
0.336751 0.498451 1
0.471626 0.495827 1
0.6065 0.493202 1
0.74139 0.490578 1
0.876265 0.487953 1
1 0.485328 1
0 0.635081 1
0.0582437 0.632456 1
0.193118 0.629831 1
0.328008 0.627207 1
0.462882 0.624582 1
0.597757 0.621958 1
0.732631 0.619318 1
0.867506 0.616693 1
1 0.614069 1
0 0.763836 1
0.0495003 0.761212 1
0.184375 0.758587 1
0.319249 0.755947 1
0.454124 0.753323 1
0.588998 0.750698 1
0.723888 0.748074 1
0.858763 0.745449 1
0.993637 0.742824 1
0 0.892576 1
0.0407416 0.889952 1
0.175631 0.887327 1
0.310506 0.884703 1
0.44538 0.882078 1
0.580255 0.879454 1
0.715129 0.876829 1
0.850004 0.874205 1
0.984894 0.87158 1
0 1 1
0.0319982 1 1
0.166873 1 1
0.301747 1 1
0.436622 1 1
0.571511 1 1
0.706386 1 1
0.84126 1 1
0.976135 1 1
