public/LUTS/Cinematic/Cinematic_01.cube
TITLE "Generated by Resolve"
LUT_3D_SIZE 9
0.0102235 0.0221256 0.0391394
0.151003 0.0179294 0.0349432
0.291814 0.0137331 0.0307317
0.432609 0.00952163 0.0265354
0.573419 0.0053254 0.0223392
0.714214 0.00112917 0.018143
0.855024 0 0.0139315
0.995819 0 0.00973526
1 0 0.00553903
0 0.153109 0.0251316
0.137011 0.148913 0.0209354
0.277806 0.144717 0.0167391
0.418616 0.140505 0.0125429
0.559411 0.136309 0.00833143
0.700221 0.132113 0.0041352
0.841016 0.127916 0
0.981826 0.123705 0
1 0.119509 0
0 0.284123 0.0111391
0.123003 0.279911 0.00694286
0.263813 0.275715 0.00273136
0.404608 0.271519 0
0.545419 0.267308 0
0.686213 0.263111 0
0.827024 0.258915 0
0.967819 0.254719 0
1 0.250507 0
0 0.415122 0
0.10901 0.410925 0
0.249805 0.406714 0
0.390616 0.402518 0
0.531411 0.398322 0
0.672221 0.39411 0
0.813016 0.389914 0
0.953826 0.385718 0
1 0.381506 0
0 0.54612 0
0.0950027 0.541924 0
0.235813 0.537713 0
0.376608 0.533516 0
0.517418 0.52932 0
0.658213 0.525124 0
0.799023 0.520912 0
0.939818 0.516716 0
1 0.51252 0
0 0.677119 0
0.0810101 0.672923 0
0.221805 0.668727 0
0.362615 0.664515 0
0.50341 0.660319 0
0.644221 0.656123 0
0.785016 0.651926 0
0.925826 0.647715 0
1 0.643519 0
0 0.808118 0
0.0670024 0.803922 0
0.207813 0.799725 0
0.348608 0.795529 0
0.489418 0.791318 0
0.630213 0.787121 0
0.771023 0.782925 0
0.911818 0.778714 0
1 0.774517 0
0 0.939132 0
0.0530098 0.93492 0
0.193805 0.930724 0
0.334615 0.926528 0
0.47541 0.922332 0
0.61622 0.91812 0
0.757015 0.913924 0
0.897826 0.909728 0
1 0.905516 0
0 1 0
0.0390021 1 0
0.179812 1 0
0.320607 1 0
0.461418 1 0
0.602213 1 0
0.743023 1 0
0.883818 1 0
1 1 0
0.00842298 0.020325 0.182315
0.149203 0.0161288 0.178119
0.290013 0.0119326 0.173922
0.430808 0.00772107 0.169726
0.571618 0.00352483 0.165515
0.712413 0 0.161318
0.853223 0 0.157122
0.994018 0 0.152926
1 0 0.148714
0 0.151308 0.168322
0.13521 0.147112 0.164126
0.276005 0.142916 0.15993
0.416815 0.13872 0.155718
0.55761 0.134508 0.151522
0.698421 0.130312 0.147326
0.839216 0.126116 0.14313
0.980026 0.121904 0.138918
1 0.117708 0.134722
0 0.282322 0.15433
0.121202 0.278111 0.150118
0.262013 0.273915 0.145922
0.402808 0.269718 0.141726
0.543618 0.265522 0.13753
0.684413 0.261311 0.133318
0.825223 0.257115 0.129122
0.966018 0.252918 0.124926
1 0.248707 0.120714
0 0.413321 0.140322
0.10721 0.409125 0.136126
0.248005 0.404913 0.13193
0.388815 0.400717 0.127718
0.52961 0.396521 0.123522
0.67042 0.392309 0.119326
0.811215 0.388113 0.115114
0.952026 0.383917 0.110918
1 0.379721 0.106722
0 0.54432 0.126314
0.0932021 0.540124 0.122118
0.234012 0.535927 0.117922
0.374807 0.531716 0.113725
0.515618 0.52752 0.109514
0.656413 0.523323 0.105318
0.797223 0.519112 0.101122
0.938018 0.514916 0.0969253
1 0.510719 0.0927138
0 0.675319 0.112322
0.0792096 0.671122 0.108125
0.220005 0.666926 0.103914
0.360815 0.662715 0.0997177
0.50161 0.658518 0.0955215
0.64242 0.654322 0.0913252
0.783215 0.650126 0.0871138
0.924025 0.645914 0.0829175
1 0.641718 0.0787213
0 0.806332 0.0983139
0.0652018 0.802121 0.0941176
0.206012 0.797925 0.0899214
0.346807 0.793729 0.0857252
0.487617 0.789517 0.0815137
0.628412 0.785321 0.0773175
0.769223 0.781125 0.0731212
0.910018 0.776928 0.068925
1 0.772717 0.0647135
0 0.937331 0.0843214
0.0512093 0.93312 0.0801251
0.192004 0.928923 0.0759136
0.332815 0.924727 0.0717174
0.47361 0.920531 0.0675212
0.61442 0.91632 0.0633249
0.755215 0.912123 0.0591135
0.896025 0.907927 0.0549172
1 0.903716 0.050721
0 1 0.0703136
0.0372015 1 0.0661173
0.178012 1 0.0619211
0.318807 1 0.0577249
0.459617 1 0.0535134
0.600412 1 0.0493172
0.741222 1 0.0451209
0.882017 1 0.0409247
1 1 0.0367132
0.00662242 0.0185245 0.325521
0.147402 0.0143282 0.321324
0.288212 0.010132 0.317128
0.429007 0.0059205 0.312932
0.569818 0.00172427 0.308721
0.710613 0 0.304524
0.851423 0 0.300328
0.992218 0 0.296117
1 0 0.29192
0 0.149508 0.311528
0.13341 0.145312 0.307332
0.274205 0.141115 0.30312
0.415015 0.136919 0.298924
0.55581 0.132708 0.294728
0.69662 0.128511 0.290532
0.837415 0.124315 0.28632
0.978225 0.120104 0.282124
1 0.115908 0.277928
0 0.280522 0.29752
0.119402 0.27631 0.293324
0.260212 0.272114 0.289128
0.401007 0.267918 0.284932
0.541817 0.263722 0.28072
0.682612 0.25951 0.276524
0.823423 0.255314 0.272328
0.964218 0.251118 0.268132
1 0.246906 0.26392
0 0.411521 0.283528
0.105409 0.407324 0.279332
0.246204 0.403113 0.27512
0.387015 0.398917 0.270924
0.52781 0.39472 0.266728
0.66862 0.390524 0.262531
0.809415 0.386313 0.25832
0.950225 0.382116 0.254124
1 0.37792 0.249928
0 0.542519 0.26952
0.0914015 0.538323 0.265324
0.232212 0.534127 0.261128
0.373007 0.529915 0.256931
0.513817 0.525719 0.25272
0.654612 0.521523 0.248524
0.795422 0.517311 0.244327
0.936217 0.513115 0.240116
1 0.508919 0.23592
0 0.673518 0.255528
0.077409 0.669322 0.251331
0.218204 0.665125 0.24712
0.359014 0.660929 0.242924
0.499809 0.656718 0.238727
0.64062 0.652522 0.234516
0.781415 0.648325 0.23032
0.922225 0.644114 0.226123
1 0.639918 0.221927
0 0.804532 0.24152
0.0634012 0.80032 0.237324
0.204211 0.796124 0.233127
0.345006 0.791928 0.228916
0.485817 0.787717 0.22472
0.626612 0.78352 0.220523
0.767422 0.779324 0.216327
0.908217 0.775128 0.212116
1 0.770916 0.207919
0 0.935531 0.227527
0.0494087 0.931334 0.223316
0.190204 0.927123 0.21912
0.331014 0.922927 0.214923
0.471809 0.91873 0.210727
0.612619 0.914519 0.206516
0.753414 0.910323 0.202319
0.894224 0.906126 0.198123
1 0.90193 0.193927
0 1 0.213519
0.0354009 1 0.209323
0.176211 1 0.205127
0.317006 1 0.200916
0.457816 1 0.196719
0.598611 1 0.192523
0.739422 1 0.188327
0.880217 1 0.184115
1 1 0.179919
0.00482185 0.0167239 0.468727
0.145602 0.0125277 0.46453
0.286412 0.00833143 0.460334
0.427207 0.0041352 0.456123
0.568017 0 0.451926
0.708812 0 0.44773
0.849622 0 0.443534
0.990417 0 0.439323
1 0 0.435126
0 0.147723 0.454734
0.131609 0.143511 0.450523
0.272404 0.139315 0.446326
0.413214 0.135119 0.44213
0.554009 0.130907 0.437934
0.69482 0.126711 0.433722
0.835615 0.122515 0.429526
0.976425 0.118318 0.42533
1 0.114107 0.421134
0 0.278721 0.440726
0.117601 0.274525 0.43653
0.258412 0.270314 0.432334
0.399207 0.266117 0.428122
0.540017 0.261921 0.423926
0.680812 0.25771 0.41973
0.821622 0.253513 0.415534
0.962417 0.249317 0.411322
1 0.245106 0.407126
0 0.40972 0.426734
0.103609 0.405524 0.422522
0.244404 0.401312 0.418326
0.385214 0.397116 0.41413
0.526009 0.39292 0.409934
0.666819 0.388724 0.405722
0.807614 0.384512 0.401526
0.948425 0.380316 0.39733
1 0.37612 0.393133
0 0.540719 0.412726
0.089601 0.536522 0.40853
0.230411 0.532326 0.404334
0.371206 0.528115 0.400122
0.512016 0.523919 0.395926
0.652811 0.519722 0.39173
0.793622 0.515526 0.387533
0.934417 0.511315 0.383322
1 0.507118 0.379126
0 0.671717 0.398733
0.0756085 0.667521 0.394522
0.216403 0.663325 0.390326
0.357214 0.659129 0.38613
0.498009 0.654917 0.381933
0.638819 0.650721 0.377722
0.779614 0.646525 0.373526
0.920424 0.642313 0.369329
1 0.638117 0.365118
0 0.802731 0.384726
0.0616007 0.79852 0.380529
0.202411 0.794324 0.376333
0.343206 0.790127 0.372122
0.484016 0.785931 0.367926
0.624811 0.78172 0.363729
0.765621 0.777523 0.359518
0.906416 0.773327 0.355322
1 0.769116 0.351125
0 0.93373 0.370718
0.0476081 0.929534 0.366522
0.188403 0.925322 0.362325
0.329213 0.921126 0.358129
0.470008 0.91693 0.353918
0.610819 0.912718 0.349722
0.751614 0.908522 0.345525
0.892424 0.904326 0.341329
1 0.90013 0.337118
0 1 0.356725
0.0336004 1 0.352529
0.174411 1 0.348318
0.315206 1 0.344121
0.456016 1 0.339925
0.596811 1 0.335729
0.737621 1 0.331518
0.878416 1 0.327321
1 1 0.323125
0.00302129 0.0149233 0.611933
0.143801 0.0107271 0.607736
0.284611 0.00653086 0.603525
0.425406 0.00233463 0.599329
0.566217 0 0.595132
0.707012 0 0.590936
0.847822 0 0.586725
0.988617 0 0.582528
1 0 0.578332
0 0.145922 0.597925
0.129809 0.141711 0.593729
0.270604 0.137514 0.589532
0.411414 0.133318 0.585336
0.552209 0.129107 0.581125
0.693019 0.12491 0.576928
0.833814 0.120714 0.572732
0.974624 0.116518 0.568536
1 0.112306 0.564324
0 0.276921 0.583932
0.115801 0.272725 0.579736
0.256611 0.268513 0.575525
0.397406 0.264317 0.571328
0.538216 0.260121 0.567132
0.679011 0.255909 0.562936
0.819821 0.251713 0.558724
0.960616 0.247517 0.554528
1 0.24332 0.550332
0 0.407919 0.569924
0.101808 0.403723 0.565728
0.242603 0.399527 0.561532
0.383413 0.395315 0.557336
0.524208 0.391119 0.553124
0.665019 0.386923 0.548928
0.805814 0.382712 0.544732
0.946624 0.378515 0.540536
1 0.374319 0.536324
0 0.538918 0.555932
0.0878004 0.534722 0.551736
0.228611 0.530526 0.547524
0.369406 0.526314 0.543328
0.510216 0.522118 0.539132
0.651011 0.517922 0.534936
0.791821 0.513726 0.530724
0.932616 0.509514 0.526528
1 0.505318 0.522332
0 0.669932 0.541924
0.0738079 0.665721 0.537728
0.214603 0.661524 0.533532
0.355413 0.657328 0.529335
0.496208 0.653117 0.525124
0.637018 0.64892 0.520928
0.777813 0.644724 0.516732
0.918624 0.640528 0.512535
1 0.636316 0.508324
0 0.800931 0.527932
0.0598001 0.796719 0.523735
0.20061 0.792523 0.519524
0.341405 0.788327 0.515328
0.482216 0.784131 0.511131
0.623011 0.779919 0.506935
0.763821 0.775723 0.502724
0.904616 0.771527 0.498527
1 0.767315 0.494331
0 0.93193 0.513924
0.0458076 0.927733 0.509728
0.186603 0.923522 0.505531
0.327413 0.919326 0.501335
0.468208 0.915129 0.497124
0.609018 0.910933 0.492927
0.749813 0.906722 0.488731
0.890623 0.902525 0.48452
1 0.898329 0.480323
0 1 0.499931
0.0317998 1 0.495735
0.17261 1 0.491524
0.313405 1 0.487327
0.454215 1 0.483131
0.59501 1 0.47892
0.735821 1 0.474723
0.876616 1 0.470527
1 1 0.466331
0.00122072 0.013138 0.755138
0.142 0.00892653 0.750927
0.282811 0.0047303 0.746731
0.423606 0.000534066 0.742535
0.564416 0 0.738338
0.705211 0 0.734127
0.846021 0 0.729931
0.986816 0 0.725734
1 0 0.721538
0 0.144121 0.741131
0.128008 0.13991 0.736934
0.268803 0.135714 0.732738
0.409613 0.131518 0.728527
0.550408 0.127321 0.72433
0.691218 0.12311 0.720134
0.832013 0.118914 0.715938
0.972824 0.114717 0.711727
1 0.110506 0.70753
0 0.27512 0.727138
0.114015 0.270924 0.722927
0.25481 0.266712 0.71873
0.395605 0.262516 0.714534
0.536416 0.25832 0.710338
0.677211 0.254108 0.706127
0.818021 0.249912 0.70193
0.958816 0.245716 0.697734
1 0.24152 0.693538
0 0.406119 0.71313
0.100008 0.401923 0.708934
0.240803 0.397726 0.704738
0.381613 0.393515 0.700526
0.522408 0.389319 0.69633
0.663218 0.385122 0.692134
0.804013 0.380911 0.687938
0.944823 0.376715 0.683726
1 0.372519 0.67953
0 0.537118 0.699138
0.0860151 0.532921 0.694926
0.22681 0.528725 0.69073
0.367605 0.524529 0.686534
0.508415 0.520317 0.682338
0.64921 0.516121 0.678126
0.790021 0.511925 0.67393
0.930816 0.507713 0.669734
1 0.503517 0.665537
0 0.668132 0.68513
0.0720073 0.66392 0.680934
0.212802 0.659724 0.676738
0.353613 0.655528 0.672526
0.494408 0.651316 0.66833
0.635218 0.64712 0.664134
0.776013 0.642924 0.659937
0.916823 0.638727 0.655726
1 0.634516 0.65153
0 0.79913 0.671138
0.0580148 0.794934 0.666926
0.19881 0.790722 0.66273
0.339605 0.786526 0.658534
0.480415 0.78233 0.654337
0.62121 0.778119 0.650126
0.76202 0.773922 0.64593
0.902815 0.769726 0.641733
1 0.76553 0.637537
0 0.930129 0.65713
0.044007 0.925933 0.652934
0.184802 0.921721 0.648737
0.325612 0.917525 0.644526
0.466407 0.913329 0.64033
0.607217 0.909133 0.636133
0.748012 0.904921 0.631937
0.888823 0.900725 0.627726
1 0.896529 0.623529
0 1 0.643137
0.0299992 1 0.638926
0.170809 1 0.63473
0.311604 1 0.630533
0.452415 1 0.626337
0.59321 1 0.622126
0.73402 1 0.617929
0.874815 1 0.613733
1 1 0.609522
0 0.0113375 0.898329
0.1402 0.00712596 0.894133
0.28101 0.00292973 0.889937
0.421805 0 0.88574
0.562615 0 0.881529
0.70341 0 0.877333
0.844221 0 0.873137
0.985016 0 0.86894
1 0 0.864729
0 0.142321 0.884337
0.126207 0.138125 0.88014
0.267018 0.133913 0.875929
0.407813 0.129717 0.871733
0.548608 0.125521 0.867536
0.689418 0.121309 0.86334
0.830213 0.117113 0.859129
0.971023 0.112917 0.854932
1 0.108705 0.850736
0 0.27332 0.870329
0.112215 0.269123 0.866133
0.25301 0.264912 0.861936
0.393805 0.260716 0.85774
0.534615 0.256519 0.853529
0.67541 0.252323 0.849332
0.81622 0.248112 0.845136
0.957015 0.243915 0.84094
1 0.239719 0.836728
0 0.404318 0.856336
0.0982071 0.400122 0.85214
0.239017 0.395926 0.847929
0.379812 0.391714 0.843732
0.520607 0.387518 0.839536
0.661418 0.383322 0.83534
0.802213 0.37911 0.831128
0.943023 0.374914 0.826932
1 0.370718 0.822736
0 0.535317 0.842329
0.0842145 0.531121 0.838132
0.22501 0.526925 0.833936
0.365805 0.522728 0.82974
0.506615 0.518517 0.825528
0.64741 0.514321 0.821332
0.78822 0.510124 0.817136
0.929015 0.505913 0.81294
1 0.501717 0.808728
0 0.666331 0.828336
0.0702068 0.66212 0.82414
0.211017 0.657923 0.819928
0.351812 0.653727 0.815732
0.492607 0.649531 0.811536
0.633417 0.645319 0.80734
0.774212 0.641123 0.803128
0.915022 0.636927 0.798932
1 0.632715 0.794736
0 0.79733 0.814328
0.0562142 0.793133 0.810132
0.197009 0.788922 0.805936
0.337804 0.784726 0.80174
0.478614 0.780529 0.797528
0.61941 0.776318 0.793332
0.76022 0.772122 0.789136
0.901015 0.767926 0.784939
1 0.763729 0.780728
0 0.928328 0.800336
0.0422065 0.924132 0.796139
0.183017 0.919936 0.791928
0.323812 0.915724 0.787732
0.464607 0.911528 0.783536
0.605417 0.907332 0.779339
0.746212 0.90312 0.775128
0.887022 0.898924 0.770932
1 0.894728 0.766735
0 1 0.786328
0.0282139 1 0.782132
0.169009 1 0.777935
0.309804 1 0.773739
0.450614 1 0.769528
0.591409 1 0.765332
0.732219 1 0.761135
0.873014 1 0.756939
1 1 0.752728
0 0.00953689 1
0.138399 0.0053254 1
0.27921 0.00112917 1
0.420005 0 1
0.560815 0 1
0.70161 0 1
0.84242 0 1
0.983215 0 1
1 0 1
0 0.14052 1
0.124407 0.136324 1
0.265217 0.132113 1
0.406012 0.127916 1
0.546822 0.12372 1
0.687617 0.119509 1
0.828412 0.115312 1
0.969223 0.111116 0.998138
1 0.10692 0.993942
0 0.271519 1
0.110414 0.267323 1
0.251209 0.263127 1
0.39202 0.258915 1
0.532815 0.254719 0.996735
0.673609 0.250523 0.992538
0.81442 0.246311 0.988342
0.955215 0.242115 0.984131
1 0.237919 0.979934
0 0.402518 0.999542
0.0964065 0.398322 0.995331
0.237217 0.394125 0.991135
0.378012 0.389914 0.986938
0.518807 0.385718 0.982742
0.659617 0.381521 0.978531
0.800412 0.377325 0.974334
0.941222 0.373114 0.970138
1 0.368917 0.965942
0 0.533516 0.985534
0.082414 0.52932 0.981338
0.223209 0.525124 0.977142
0.364019 0.520928 0.97293
0.504814 0.516716 0.968734
0.645609 0.51252 0.964538
0.786419 0.508324 0.960342
0.927214 0.504112 0.95613
1 0.499916 0.951934
0 0.66453 0.971542
0.0684062 0.660319 0.96733
0.209216 0.656123 0.963134
0.350011 0.651926 0.958938
0.490806 0.64773 0.954742
0.631617 0.643519 0.95053
0.772412 0.639323 0.946334
0.913222 0.635126 0.942138
1 0.630915 0.937942
0 0.795529 0.957534
0.0544137 0.791333 0.953338
0.195209 0.787121 0.949142
0.336019 0.782925 0.94493
0.476814 0.778729 0.940734
0.617609 0.774533 0.936538
0.758419 0.770321 0.932342
0.899214 0.766125 0.92813
1 0.761929 0.923934
0 0.926528 0.943542
0.0404059 0.922332 0.93933
0.181216 0.918135 0.935134
0.322011 0.913924 0.930938
0.462806 0.909728 0.926741
0.603616 0.905531 0.92253
0.744411 0.90132 0.918334
0.885222 0.897124 0.914137
1 0.892927 0.909941
0 1 0.929534
0.0264134 1 0.925338
0.167208 1 0.921141
0.308019 1 0.91693
0.448814 1 0.912734
0.589609 1 0.908537
0.730419 1 0.904341
0.871214 1 0.90013
1 1 0.895933
0 0.00773632 1
0.136614 0.00352483 1
0.277409 0 1
0.418204 0 1
0.559014 0 1
0.699809 0 1
0.84062 0 1
0.981414 0 1
1 0 1
0 0.13872 1
0.122606 0.134524 1
0.263416 0.130312 1
0.404211 0.126116 1
0.545022 0.12192 1
0.685817 0.117708 1
0.826612 0.113512 1
0.967422 0.109316 1
1 0.105119 1
0 0.269718 1
0.108614 0.265522 1
0.249409 0.261326 1
0.390219 0.257115 1
0.531014 0.252918 1
0.671809 0.248722 1
0.812619 0.244511 1
0.953414 0.240314 1
1 0.236118 1
0 0.400717 1
0.0946059 0.396521 1
0.235416 0.392325 1
0.376211 0.388128 1
0.517021 0.383917 1
0.657816 0.379721 1
0.798611 0.375525 1
0.939422 0.371313 1
1 0.367117 1
0 0.531731 1
0.0806134 0.52752 1
0.221408 0.523323 1
0.362219 0.519127 1
0.503014 0.514916 1
0.643809 0.510719 1
0.784619 0.506523 1
0.925414 0.502327 1
1 0.498116 1
0 0.66273 1
0.0666056 0.658534 1
0.207416 0.654322 1
0.348211 0.650126 1
0.489021 0.64593 1
0.629816 0.641718 1
0.770611 0.637522 1
0.911421 0.633326 1
1 0.629114 1
0 0.793729 1
0.0526131 0.789532 1
0.193408 0.785321 1
0.334218 0.781125 1
0.475013 0.776928 1
0.615808 0.772732 1
0.756619 0.768521 1
0.897414 0.764324 1
1 0.760128 1
0 0.924727 1
0.0386053 0.920531 1
0.179416 0.916335 1
0.320211 0.912123 1
0.461021 0.907927 1
0.601816 0.903731 1
0.742611 0.899535 1
0.883421 0.895323 1
1 0.891127 1
0 1 1
0.0246128 1 1
0.165408 1 1
0.306218 1 1
0.447013 1 1
0.587808 1 1
0.728618 1 1
0.869413 1 1
1 1 1
