public/LUTS/Cinematic/Cinematic_16.cube
TITLE "Generated by Resolve"
LUT_3D_SIZE 9
0.0747234 0.0578775 0.0578775
0.138613 0.0597696 0.0585184
0.210575 0.0648356 0.0610971
0.287388 0.0752422 0.0677806
0.37145 0.0903487 0.079942
0.452979 0.110658 0.095613
0.546426 0.130541 0.11281
0.645609 0.156527 0.132464
0.698512 0.172702 0.144976
0.0698253 0.0983444 0.0467536
0.134264 0.0993362 0.0456245
0.219089 0.112459 0.05243
0.315526 0.135195 0.0690471
0.424109 0.16112 0.0902876
0.530266 0.189212 0.109621
0.627115 0.214984 0.130327
0.70312 0.241932 0.15314
0.745327 0.257527 0.166629
0.0574502 0.142443 0.035935
0.131868 0.15964 0.0383917
0.218769 0.171664 0.0518959
0.329625 0.202838 0.0725872
0.453239 0.23711 0.0970932
0.569329 0.272145 0.121889
0.663005 0.302785 0.148165
0.733654 0.340322 0.175875
0.771618 0.363531 0.191546
0.0467384 0.188586 0.0280308
0.132174 0.223651 0.0419776
0.234852 0.24918 0.0586709
0.332967 0.272786 0.0778058
0.466255 0.316182 0.106538
0.590173 0.360983 0.139513
0.681987 0.400214 0.16965
0.750179 0.446662 0.199283
0.788327 0.478859 0.217487
0.0451057 0.244862 0.0293736
0.137118 0.302068 0.0498207
0.252049 0.348806 0.0745403
0.356756 0.374517 0.0929885
0.473335 0.404685 0.120165
0.603006 0.457572 0.158175
0.693919 0.505547 0.190845
0.761501 0.553811 0.21912
0.803342 0.58677 0.238956
0.0574197 0.309712 0.037644
0.155627 0.389654 0.0653697
0.279103 0.461448 0.0961166
0.390845 0.491661 0.121401
0.499901 0.510735 0.144091
0.606363 0.542107 0.173297
0.70071 0.589471 0.207843
0.765042 0.628672 0.233875
0.805676 0.656977 0.252537
0.082063 0.414939 0.0584878
0.187304 0.502205 0.0893416
0.312367 0.577447 0.124468
0.427802 0.608255 0.149767
0.531258 0.617517 0.171984
0.622736 0.628519 0.194247
0.695689 0.645624 0.214618
0.761807 0.680308 0.24123
0.800687 0.702892 0.257801
0.123827 0.562707 0.0955062
0.232944 0.632013 0.124773
0.349905 0.679728 0.153262
0.46302 0.701137 0.176715
0.565621 0.708171 0.197726
0.64332 0.705776 0.214771
0.702251 0.707576 0.22884
0.750149 0.711681 0.240711
0.792508 0.734371 0.261357
0.17293 0.686107 0.135286
0.275669 0.727108 0.15761
0.387594 0.748257 0.175647
0.489815 0.757885 0.193454
0.583413 0.759258 0.210788
0.654185 0.755322 0.225727
0.710658 0.752453 0.238865
0.754788 0.753384 0.249546
0.786587 0.757153 0.260624
0.0841993 0.0630808 0.11223
0.134844 0.0589303 0.101747
0.203265 0.0624247 0.100526
0.273579 0.070161 0.104463
0.347768 0.0802777 0.109682
0.425849 0.0936141 0.119127
0.512886 0.111147 0.132784
0.611475 0.132448 0.149966
0.672831 0.147402 0.159731
0.0653849 0.0983597 0.0972
0.146044 0.110674 0.0987564
0.254307 0.120912 0.099382
0.366308 0.131685 0.102464
0.478294 0.151461 0.115419
0.575982 0.174838 0.134829
0.666484 0.200946 0.157458
0.741695 0.228717 0.180133
0.781094 0.248341 0.193622
0.0500954 0.146807 0.0819409
0.134783 0.193225 0.0937362
0.272786 0.210117 0.0913405
0.40238 0.228885 0.102144
0.525673 0.254292 0.129931
0.628687 0.27776 0.153307
0.711513 0.303792 0.177066
0.774731 0.33518 0.199252
0.811032 0.356664 0.215
0.0378576 0.200595 0.0723888
0.104463 0.267613 0.0789807
0.259403 0.318105 0.0934005
0.405142 0.331518 0.11043
0.547723 0.36199 0.144305
0.658518 0.390814 0.173999
0.738277 0.427634 0.201709
0.800076 0.470436 0.227817
0.833234 0.500221 0.245518
0.0361028 0.270008 0.0702373
0.0949874 0.360937 0.0724346
0.257374 0.441306 0.104952
0.40824 0.46392 0.134417
0.554086 0.479225 0.162112
0.672053 0.515358 0.196445
0.75491 0.557961 0.227176
0.809827 0.600855 0.258473
0.840314 0.627176 0.283589
0.0466468 0.348501 0.0785077
0.125475 0.476692 0.0839094
0.282933 0.568841 0.128405
0.431998 0.594415 0.166171
0.565133 0.595361 0.192706
0.676493 0.613779 0.220676
0.760723 0.649714 0.251423
0.810941 0.682399 0.286564
0.838636 0.70544 0.314168
0.0691081 0.46363 0.0970016
0.169787 0.594827 0.106737
0.324041 0.668467 0.154269
0.467582 0.689479 0.192859
0.588037 0.689158 0.221515
0.682231 0.693462 0.245991
0.757153 0.709316 0.271901
0.805768 0.732341 0.303471
0.832532 0.748959 0.330861
0.110826 0.609369 0.125917
0.227497 0.704372 0.142702
0.371832 0.735439 0.181384
0.50338 0.747417 0.215427
0.610956 0.750393 0.248722
0.695613 0.752926 0.275669
0.754925 0.757763 0.294514
0.794507 0.761959 0.305653
0.825711 0.778347 0.333577
0.142107 0.710933 0.152804
0.26833 0.773266 0.169451
0.406897 0.78378 0.206317
0.528847 0.785199 0.232715
0.624598 0.785916 0.259281
0.699611 0.788708 0.287922
0.755474 0.790814 0.307424
0.793942 0.793408 0.318135
0.819486 0.794919 0.329747
0.0904402 0.0709697 0.180087
0.153246 0.067277 0.173556
0.202701 0.0632792 0.148669
0.268925 0.0696269 0.148135
0.33666 0.0790112 0.151141
0.40914 0.0911421 0.157885
0.492607 0.10573 0.166949
0.585504 0.122057 0.181247
0.641382 0.133715 0.191974
0.0690166 0.106981 0.165728
0.146136 0.12314 0.186542
0.238407 0.110277 0.16379
0.335668 0.11397 0.153124
0.437034 0.124773 0.155245
0.539178 0.138506 0.160464
0.641688 0.158862 0.175784
0.732311 0.184665 0.194461
0.784955 0.201862 0.209857
0.0504311 0.154864 0.151034
0.097612 0.18587 0.168505
0.248692 0.230747 0.199161
0.400076 0.238315 0.185077
0.553155 0.245655 0.176623
0.671122 0.259083 0.187747
0.755596 0.281025 0.204883
0.816144 0.312047 0.229953
0.851072 0.336751 0.248951
0.0452735 0.217182 0.14667
0.0713664 0.266911 0.152621
0.206195 0.352651 0.196994
0.406439 0.373968 0.198016
0.579385 0.374701 0.192798
0.695018 0.387991 0.208377
0.772442 0.415015 0.231113
0.824277 0.456703 0.26389
0.852827 0.485863 0.289326
0.0532845 0.306691 0.15494
0.0695964 0.367895 0.149203
0.179232 0.477104 0.182193
0.394659 0.53373 0.226642
0.570306 0.523171 0.232593
0.697704 0.539498 0.247745
0.776745 0.571023 0.276524
0.823621 0.609598 0.32134
0.846357 0.638407 0.361471
0.0682231 0.410269 0.172869
0.0930343 0.495628 0.156039
0.224872 0.61915 0.208179
0.42208 0.660349 0.268772
0.579385 0.648981 0.293782
0.689998 0.649058 0.303151
0.77258 0.674693 0.33373
0.821637 0.704967 0.375418
0.843671 0.724956 0.419287
0.089189 0.522271 0.186572
0.129549 0.625498 0.168215
0.314031 0.717693 0.250492
0.48098 0.736141 0.311528
0.606607 0.726574 0.341283
0.691264 0.722255 0.353048
0.766659 0.734539 0.372915
0.815686 0.753155 0.406943
0.838315 0.766781 0.443381
0.119448 0.638651 0.205493
0.182956 0.730129 0.191241
0.39472 0.77557 0.277958
0.533578 0.780026 0.325124
0.629953 0.778332 0.360464
0.703243 0.775189 0.384939
0.761517 0.777966 0.40267
0.806027 0.784588 0.415534
0.828626 0.79202 0.445182
0.145785 0.716701 0.224186
0.230106 0.788083 0.211841
0.446052 0.804257 0.29247
0.565164 0.805905 0.329488
0.652613 0.805966 0.365545
0.716564 0.807568 0.40148
0.768887 0.809384 0.424399
0.805188 0.810483 0.435233
0.826688 0.809659 0.442573
0.0944533 0.078996 0.251621
0.163806 0.0816968 0.257252
0.236942 0.0822614 0.242924
0.286656 0.0765393 0.202716
0.36051 0.084947 0.200504
0.431281 0.0951095 0.20473
0.509682 0.107774 0.211719
0.591379 0.12192 0.220584
0.641215 0.130648 0.228687
0.0753338 0.116854 0.242481
0.141421 0.133944 0.282567
0.252811 0.130724 0.288396
0.347448 0.116686 0.231647
0.436027 0.121614 0.218341
0.520317 0.135546 0.21387
0.608484 0.152972 0.223407
0.695537 0.175158 0.237217
0.745724 0.190127 0.249943
0.0617685 0.172274 0.228656
0.0975967 0.198764 0.266423
0.216175 0.244709 0.30811
0.361501 0.217502 0.27718
0.50837 0.215473 0.248051
0.637125 0.223301 0.237491
0.744854 0.241123 0.245563
0.818509 0.271107 0.267201
0.857267 0.295155 0.285985
0.0564431 0.236179 0.223438
0.0780194 0.272129 0.249561
0.138979 0.317647 0.27216
0.37026 0.401434 0.337011
0.54522 0.388785 0.314031
0.692195 0.393347 0.299611
0.778744 0.412711 0.311772
0.830121 0.452979 0.342565
0.854185 0.489143 0.374334
0.0631266 0.328328 0.235981
0.0831922 0.372732 0.24889
0.123156 0.439704 0.258732
0.318837 0.54345 0.337926
0.560327 0.565972 0.374914
0.689921 0.559686 0.355505
0.769665 0.575936 0.372
0.814527 0.613565 0.415854
0.83801 0.641337 0.461463
0.0783093 0.443305 0.259358
0.10219 0.493523 0.256779
0.147204 0.575189 0.262257
0.342947 0.663157 0.362936
0.57818 0.684977 0.437018
0.68249 0.672068 0.431052
0.764645 0.685771 0.443885
0.813428 0.712322 0.485588
0.836408 0.726406 0.530282
0.0992142 0.549691 0.274037
0.126635 0.608606 0.266499
0.225711 0.695933 0.307988
0.449058 0.746075 0.435538
0.6103 0.754314 0.482612
0.694606 0.744793 0.487282
0.756146 0.743526 0.488807
0.807111 0.760891 0.520882
0.832868 0.772503 0.552407
0.120821 0.63328 0.281209
0.158618 0.706188 0.280537
0.318853 0.776364 0.361425
0.551781 0.79382 0.47631
0.650431 0.795132 0.502907
0.711177 0.790875 0.518257
0.758038 0.787411 0.524208
0.798474 0.789929 0.529427
0.823865 0.797574 0.556191
0.140108 0.693828 0.288472
0.186908 0.77145 0.293599
0.390112 0.813855 0.390616
0.598627 0.816175 0.47657
0.671977 0.81825 0.504524
0.723598 0.817639 0.531014
0.764721 0.816434 0.546365
0.798321 0.816266 0.552605
0.821073 0.816129 0.554437
0.0994278 0.0882887 0.321508
0.164538 0.0948959 0.340734
0.246265 0.101717 0.348608
0.321065 0.0982376 0.311452
0.395148 0.0954757 0.2663
0.471046 0.102876 0.261952
0.540749 0.111727 0.263249
0.610712 0.123583 0.268559
0.652308 0.132311 0.273045
0.0841993 0.13019 0.317388
0.13756 0.142916 0.372747
0.241489 0.148409 0.402548
0.357092 0.142077 0.365332
0.453071 0.136873 0.300572
0.526375 0.14284 0.282902
0.597787 0.153674 0.279255
0.677226 0.172839 0.288808
0.723262 0.18587 0.299794
0.076112 0.191775 0.305638
0.105745 0.216236 0.361593
0.183337 0.240528 0.411627
0.355062 0.240742 0.421378
0.499916 0.216861 0.359869
0.623728 0.21471 0.326101
0.72105 0.22948 0.317662
0.796536 0.25391 0.331472
0.837613 0.276341 0.350378
0.0724193 0.268727 0.312749
0.0965591 0.306218 0.35201
0.132998 0.316838 0.380865
0.308614 0.390143 0.447089
0.505638 0.375677 0.427054
0.655177 0.368231 0.393423
0.754986 0.383581 0.390265
0.813718 0.417151 0.414511
0.841245 0.448295 0.440665
0.06981 0.345281 0.316594
0.0970779 0.374212 0.336706
0.11725 0.408042 0.351873
0.220218 0.479133 0.392432
0.542397 0.592096 0.51751
0.663157 0.578576 0.502083
0.747585 0.595239 0.510033
0.797391 0.623423 0.537102
0.820371 0.652293 0.573922
0.0815747 0.447562 0.332845
0.114641 0.483482 0.346639
0.13463 0.537346 0.353735
0.232853 0.612116 0.395407
0.526375 0.688258 0.545098
0.682841 0.697292 0.57763
0.753887 0.704417 0.573693
0.799359 0.720653 0.599802
0.825605 0.740368 0.635233
0.104738 0.554025 0.350683
0.139208 0.59263 0.362112
0.172747 0.657603 0.372122
0.311543 0.718944 0.446555
0.58468 0.756771 0.591608
0.705486 0.764706 0.61593
0.755047 0.759121 0.610269
0.801022 0.770489 0.627024
0.825757 0.783093 0.651499
0.124224 0.631296 0.359319
0.158328 0.680339 0.372793
0.223774 0.750698 0.405982
0.461707 0.785443 0.536263
0.663615 0.802899 0.627436
0.725765 0.805173 0.637812
0.767376 0.8009 0.640162
0.797314 0.79942 0.637461
0.824231 0.806897 0.653452
0.138628 0.684169 0.359075
0.173785 0.736934 0.376379
0.281819 0.801785 0.446036
0.563485 0.818341 0.584298
0.695109 0.823926 0.628809
0.742687 0.827039 0.64538
0.776577 0.826596 0.656489
0.80325 0.825223 0.658183
0.822568 0.823972 0.657328
0.108248 0.0998856 0.392279
0.171038 0.108888 0.417121
0.248951 0.117174 0.430808
0.316472 0.114519 0.407202
0.40267 0.106661 0.353902
0.48632 0.108888 0.32311
0.553155 0.115831 0.318624
0.618524 0.124804 0.319203
0.653376 0.133349 0.323278
0.0953841 0.145052 0.388266
0.142473 0.152758 0.46099
0.236667 0.16286 0.500053
0.334951 0.161044 0.48069
0.443854 0.154147 0.412055
0.527779 0.153384 0.360525
0.592645 0.157549 0.341558
0.666514 0.171771 0.344274
0.710369 0.184131 0.353246
0.088014 0.213291 0.385321
0.118746 0.226642 0.445686
0.176974 0.238483 0.500526
0.329488 0.254566 0.542489
0.497063 0.242969 0.504646
0.616434 0.227985 0.437812
0.705684 0.231724 0.405997
0.778958 0.249561 0.409598
0.817578 0.27158 0.424369
0.0848707 0.291096 0.39498
0.115343 0.318288 0.436851
0.144564 0.317418 0.474357
0.263752 0.37377 0.541299
0.495293 0.394919 0.559426
0.643198 0.366293 0.511696
0.746426 0.367605 0.486229
0.805356 0.395636 0.496773
0.836393 0.426368 0.520333
0.085832 0.379553 0.405341
0.11693 0.401724 0.42884
0.135409 0.412253 0.448722
0.198718 0.453178 0.491005
0.474006 0.568933 0.591913
0.639078 0.566766 0.590311
0.721065 0.570367 0.583444
0.774609 0.59762 0.597971
0.803586 0.626154 0.628367
0.0872511 0.450004 0.398001
0.119265 0.469062 0.413535
0.142443 0.50309 0.43035
0.191577 0.568292 0.468223
0.395254 0.648127 0.552773
0.689967 0.717906 0.669001
0.747875 0.718273 0.669123
0.788266 0.735317 0.686091
0.814481 0.750759 0.70251
0.11014 0.554803 0.418479
0.148348 0.589242 0.440665
0.171115 0.634104 0.458991
0.242222 0.686702 0.499214
0.454978 0.734325 0.591791
0.70074 0.770733 0.695491
0.761593 0.774701 0.698924
0.800504 0.783749 0.708751
0.823453 0.79353 0.724224
0.134585 0.636133 0.43566
0.173266 0.673304 0.460456
0.202701 0.72752 0.486122
0.344518 0.768338 0.559777
0.582254 0.795041 0.655558
0.732876 0.810681 0.715908
0.776181 0.812238 0.719051
0.802777 0.81088 0.718212
0.825742 0.816876 0.729931
0.152102 0.690166 0.445167
0.189303 0.72668 0.469139
0.238209 0.782605 0.513176
0.440223 0.815747 0.608728
0.670497 0.824002 0.694987
0.755215 0.831876 0.725628
0.785794 0.833356 0.732738
0.808637 0.832227 0.732692
0.825467 0.832456 0.729946
0.121065 0.114473 0.46894
0.183932 0.125185 0.498894
0.256077 0.132296 0.511589
0.313649 0.127916 0.491249
0.392416 0.118669 0.438651
0.47602 0.115465 0.397955
0.550851 0.118776 0.374975
0.615045 0.12723 0.37467
0.65069 0.133471 0.376471
0.107774 0.159182 0.45684
0.153048 0.164904 0.544457
0.240742 0.176318 0.591348
0.335286 0.175341 0.57171
0.434592 0.170306 0.510048
0.523873 0.168002 0.455009
0.587488 0.164294 0.412589
0.654734 0.174334 0.408835
0.695583 0.18584 0.413108
0.101564 0.227756 0.464302
0.13518 0.232486 0.519173
0.184802 0.242664 0.594919
0.313863 0.261433 0.651469
0.480613 0.260914 0.631342
0.61706 0.257252 0.571572
0.692836 0.246799 0.511513
0.757534 0.256565 0.499016
0.799313 0.271824 0.507454
0.0990463 0.305715 0.479713
0.133959 0.32221 0.515557
0.162799 0.318715 0.565148
0.257984 0.368521 0.639292
0.475227 0.402579 0.668727
0.641749 0.394293 0.64358
0.732921 0.37731 0.600595
0.797253 0.390539 0.591989
0.831601 0.41593 0.604623
0.0997482 0.390631 0.486625
0.13431 0.405783 0.510262
0.157534 0.41323 0.542596
0.205478 0.44329 0.590707
0.438056 0.560601 0.665492
0.644404 0.581765 0.671992
0.718807 0.564279 0.658732
0.773953 0.581872 0.662684
0.802441 0.612467 0.680644
0.104601 0.468879 0.4851
0.137819 0.486473 0.503075
0.163027 0.508629 0.527337
0.196994 0.54963 0.565026
0.351141 0.624826 0.624247
0.659251 0.709133 0.711223
0.734981 0.709255 0.710872
0.777737 0.72224 0.721675
0.804807 0.740108 0.735164
0.112764 0.540795 0.477516
0.149477 0.566323 0.498802
0.177218 0.603204 0.525216
0.221118 0.655833 0.563729
0.376181 0.709407 0.624598
0.628046 0.756252 0.704799
0.766354 0.784924 0.753002
0.80235 0.792294 0.762005
0.823117 0.802472 0.773693
0.144671 0.635828 0.504662
0.185672 0.667292 0.534936
0.2094 0.712154 0.564034
0.287587 0.749371 0.604273
0.47129 0.782116 0.666941
0.676646 0.803784 0.734554
0.778744 0.817761 0.768231
0.807446 0.818799 0.769848
0.828504 0.824613 0.778164
0.166888 0.693217 0.522545
0.204822 0.723156 0.551369
0.233204 0.77026 0.586053
0.346349 0.803952 0.634943
0.574243 0.820752 0.711238
0.735607 0.830182 0.761837
0.791302 0.836927 0.778592
0.814725 0.838773 0.779843
0.82974 0.837964 0.778561
0.137087 0.132403 0.558984
0.204059 0.142443 0.588724
0.264866 0.145998 0.592721
0.314839 0.140719 0.570382
0.390768 0.131518 0.527794
0.474662 0.127947 0.486732
0.549218 0.128099 0.45568
0.608942 0.130251 0.434928
0.643397 0.134951 0.436271
0.119326 0.172793 0.532723
0.167758 0.180514 0.627176
0.241566 0.187808 0.665339
0.325978 0.187427 0.647974
0.432044 0.186206 0.602594
0.536263 0.190997 0.560494
0.601892 0.189746 0.519707
0.645136 0.181384 0.480842
0.68333 0.189639 0.481147
0.115724 0.243488 0.54995
0.150118 0.239765 0.592691
0.200381 0.251484 0.685069
0.310796 0.268803 0.741436
0.478233 0.2757 0.725292
0.62034 0.281346 0.679973
0.701015 0.279301 0.637201
0.739849 0.268299 0.591119
0.776837 0.277943 0.589197
0.115114 0.319158 0.564752
0.151598 0.328008 0.596048
0.181689 0.323919 0.649912
0.272557 0.37644 0.730388
0.476692 0.413794 0.749798
0.645197 0.415885 0.728557
0.732296 0.411765 0.704021
0.784863 0.399008 0.677958
0.821042 0.415747 0.681758
0.116854 0.396155 0.565988
0.152071 0.409766 0.593347
0.179446 0.417731 0.62945
0.231083 0.450324 0.684428
0.447761 0.563745 0.737545
0.642557 0.592279 0.732036
0.725872 0.588952 0.731426
0.775021 0.579339 0.722911
0.804685 0.600793 0.731472
0.123064 0.474205 0.564492
0.157137 0.493309 0.585641
0.185794 0.514092 0.613367
0.21767 0.547539 0.654063
0.358709 0.620066 0.701717
0.655604 0.708934 0.756252
0.742321 0.719127 0.755413
0.779339 0.715953 0.757733
0.806104 0.730938 0.766384
0.133898 0.556161 0.562539
0.170901 0.577798 0.583597
0.198337 0.606867 0.608545
0.232074 0.645579 0.645289
0.359472 0.696666 0.688624
0.600305 0.750317 0.742641
0.758373 0.784054 0.781369
0.796674 0.789395 0.785733
0.819272 0.797253 0.795422
0.149004 0.623713 0.563745
0.187762 0.650065 0.588937
0.21326 0.685908 0.616876
0.262654 0.726116 0.652232
0.406912 0.765591 0.696803
0.622278 0.795087 0.751247
0.75761 0.81355 0.788891
0.814221 0.824735 0.803082
0.829358 0.829328 0.809812
0.178607 0.689708 0.587396
0.216098 0.71667 0.613413
0.237339 0.756313 0.644465
0.310414 0.788724 0.67985
0.489494 0.812467 0.728557
0.686366 0.827619 0.775296
0.7785 0.835401 0.799695
0.819898 0.841779 0.813657
0.833738 0.840757 0.812924
0.149599 0.143679 0.613581
0.217273 0.153017 0.639399
0.271565 0.154543 0.634928
0.319768 0.145815 0.61474
0.39408 0.140856 0.580453
0.476768 0.136782 0.543175
0.54963 0.13576 0.50985
0.606378 0.137163 0.486488
0.636255 0.13817 0.474495
0.127657 0.181201 0.583032
0.177508 0.189197 0.677424
0.247044 0.194797 0.704784
0.323339 0.193225 0.686931
0.432273 0.19585 0.653254
0.542962 0.205249 0.622232
0.615961 0.207218 0.590661
0.654749 0.199664 0.550637
0.6748 0.192844 0.530632
0.124605 0.255451 0.604562
0.159808 0.245609 0.640192
0.209537 0.264439 0.737179
0.316258 0.274769 0.788602
0.474876 0.284566 0.770611
0.620859 0.295964 0.734813
0.706172 0.302663 0.705791
0.747036 0.294133 0.672267
0.764462 0.285237 0.645457
0.126528 0.330053 0.619715
0.160784 0.334081 0.647562
0.196979 0.331334 0.701274
0.28806 0.385245 0.784329
0.483436 0.422431 0.795758
0.645472 0.430854 0.777462
0.734279 0.436408 0.760754
0.785611 0.429786 0.74696
0.81239 0.420035 0.733715
0.128862 0.401251 0.620096
0.165866 0.415839 0.644419
0.195438 0.423957 0.683635
0.252003 0.462104 0.74464
0.475502 0.574823 0.782391
0.656001 0.602441 0.771756
0.734051 0.604822 0.770611
0.780224 0.602991 0.76997
0.805844 0.598932 0.766644
0.133791 0.477104 0.617411
0.17142 0.499702 0.639597
0.20206 0.518944 0.669642
0.236545 0.552224 0.714061
0.402472 0.636591 0.75697
0.67454 0.71899 0.784268
0.748425 0.727962 0.786526
0.785519 0.728664 0.788861
0.80679 0.727703 0.789731
0.14847 0.55848 0.619226
0.186404 0.585138 0.639643
0.214343 0.61239 0.668116
0.246921 0.646342 0.703532
0.384115 0.701869 0.742153
0.623117 0.756024 0.781277
0.762448 0.788632 0.804059
0.801617 0.794537 0.809339
0.819348 0.795087 0.812329
0.167773 0.631586 0.624247
0.205737 0.656275 0.644541
0.227054 0.685832 0.673243
0.269368 0.72221 0.706859
0.41384 0.765652 0.744472
0.626276 0.795651 0.7841
0.757641 0.81619 0.809094
0.812451 0.82591 0.820722
0.829084 0.828443 0.821897
0.181888 0.677867 0.626291
0.220127 0.702708 0.648829
0.237095 0.73521 0.679835
0.288304 0.768826 0.712261
0.440589 0.802548 0.749966
0.643717 0.823941 0.788693
0.763928 0.831785 0.816068
0.81648 0.838605 0.824537
0.837171 0.844221 0.830121
