public/LUTS/Cinematic/Cinematic_15.cube
TITLE "Generated by Resolve"
LUT_3D_SIZE 33
0.054902 0.0431067 0.0431067
0.0569009 0.0441138 0.0441138
0.0651713 0.0471656 0.0471656
0.0734569 0.0485237 0.0485237
0.0817426 0.0509957 0.0509957
0.0915999 0.0512398 0.0525826
0.10248 0.0530556 0.054902
0.112779 0.0553292 0.0553292
0.124636 0.0573434 0.0573434
0.137621 0.0609445 0.0609445
0.150469 0.0650492 0.0634623
0.162966 0.0691386 0.0665599
0.175463 0.0715953 0.0697642
0.189548 0.0749065 0.0733349
0.202579 0.0791333 0.0773785
0.216373 0.0833753 0.0814984
0.230793 0.0890974 0.0855726
0.245274 0.0935073 0.089601
0.261524 0.0975357 0.0936446
0.277989 0.103868 0.0999771
0.294575 0.10959 0.104341
0.311192 0.116304 0.109804
0.327794 0.120577 0.11664
0.348333 0.125978 0.120882
0.368093 0.132921 0.125109
0.389364 0.138338 0.130434
0.414191 0.145922 0.138033
0.439689 0.154864 0.146304
0.467369 0.166003 0.154528
0.491463 0.174609 0.161715
0.513497 0.182925 0.167224
0.529397 0.188205 0.172503
0.529397 0.188205 0.172503
0.054902 0.0449989 0.0440528
0.0565042 0.0456397 0.0447242
0.0641031 0.0482185 0.0471504
0.0726329 0.0497292 0.0483864
0.0814832 0.0517739 0.0509957
0.09131 0.0522316 0.052491
0.10251 0.0542153 0.0549477
0.112718 0.0565042 0.0555734
0.124392 0.0583352 0.0575265
0.137316 0.0618753 0.060914
0.150378 0.0658885 0.0636149
0.162921 0.0698711 0.0667277
0.175402 0.0724041 0.0699931
0.189487 0.0755627 0.073518
0.202762 0.0797894 0.0776379
0.21651 0.0839857 0.0816968
0.230869 0.0894484 0.0856794
0.245197 0.0937209 0.089662
0.261204 0.097612 0.0936141
0.277684 0.103792 0.099855
0.294087 0.109422 0.104219
0.310704 0.116091 0.109636
0.327184 0.120424 0.116518
0.347814 0.125795 0.120775
0.367559 0.132784 0.124971
0.388617 0.138109 0.13022
0.413443 0.145678 0.137789
0.438834 0.154513 0.146044
0.466712 0.165774 0.154314
0.490837 0.17435 0.161593
0.512764 0.182681 0.166979
0.529397 0.188205 0.172503
0.529397 0.188205 0.172503
0.054902 0.0530709 0.0471046
0.0558022 0.0529793 0.0471046
0.0613718 0.0534981 0.0471199
0.0701305 0.0558022 0.048188
0.0812085 0.0561379 0.0509957
0.0907607 0.0577859 0.0523079
0.103059 0.0611276 0.0551614
0.114366 0.0640421 0.0569009
0.125048 0.0661936 0.0594492
0.137453 0.0697642 0.0615244
0.151354 0.0736858 0.0649882
0.16492 0.0776532 0.0690318
0.178363 0.0817273 0.0731518
0.193942 0.0858167 0.0772412
0.208942 0.0908522 0.0824598
0.225132 0.0970169 0.0872206
0.243122 0.10312 0.0915541
0.260258 0.107973 0.0970932
0.276631 0.113283 0.101534
0.292927 0.119463 0.1075
0.311528 0.125032 0.11191
0.329809 0.13167 0.11725
0.349645 0.139467 0.124041
0.36997 0.144717 0.129152
0.390341 0.151492 0.136019
0.413474 0.159197 0.141054
0.437766 0.166857 0.148516
0.462074 0.174807 0.156085
0.484413 0.181048 0.161273
0.510033 0.191623 0.169238
0.528252 0.199603 0.17615
0.543069 0.205295 0.179461
0.542947 0.205142 0.1794
0.0558785 0.0610971 0.0471962
0.0568093 0.0610056 0.0473182
0.0637675 0.0609445 0.0480201
0.0703593 0.060853 0.0487526
0.080827 0.0615244 0.0510262
0.0902571 0.0641337 0.0522011
0.102632 0.0662089 0.0551308
0.115023 0.0699474 0.0568399
0.126329 0.0735943 0.0605173
0.138369 0.0775616 0.063508
0.153002 0.0817121 0.0662394
0.166552 0.086183 0.0704967
0.181323 0.0903029 0.0747997
0.197696 0.0949569 0.0791485
0.214176 0.0997635 0.0846265
0.232105 0.106752 0.0907912
0.252201 0.114717 0.0980545
0.271305 0.122759 0.103548
0.289876 0.128023 0.108934
0.310048 0.135012 0.115221
0.330785 0.141192 0.11989
0.348959 0.147631 0.125307
0.371496 0.155489 0.131716
0.392142 0.16321 0.139666
0.416556 0.171252 0.14435
0.43714 0.179263 0.152041
0.461463 0.187198 0.159899
0.485817 0.195163 0.165164
0.509499 0.203021 0.172457
0.529961 0.211383 0.180026
0.546517 0.218631 0.185367
0.559106 0.22208 0.190784
0.558984 0.221958 0.190692
0.058793 0.0691691 0.0484169
0.0592966 0.0690471 0.0486305
0.0647288 0.068986 0.0509957
0.0722515 0.068864 0.0510262
0.0806287 0.0688334 0.0511788
0.0899062 0.0698253 0.0523232
0.10219 0.0734417 0.0553445
0.114488 0.0769818 0.0572824
0.127108 0.0810254 0.0611276
0.140368 0.0854658 0.065095
0.154879 0.0902876 0.0694285
0.171466 0.0961776 0.0742046
0.188312 0.10251 0.0785534
0.205005 0.107576 0.0842298
0.222721 0.114107 0.0905013
0.241535 0.121889 0.0965438
0.26273 0.130144 0.10277
0.285084 0.138415 0.110201
0.306371 0.146593 0.116777
0.327123 0.153094 0.12311
0.349325 0.159426 0.130816
0.371542 0.167147 0.135698
0.39469 0.175296 0.143206
0.416388 0.183276 0.14815
0.439506 0.191196 0.155566
0.460075 0.199237 0.163577
0.484306 0.207111 0.168292
0.505333 0.215381 0.176013
0.52575 0.223331 0.18378
0.545693 0.230961 0.18909
0.562112 0.238788 0.19585
0.574945 0.244862 0.199664
0.574823 0.244678 0.199603
0.0589609 0.0771191 0.0509957
0.0593881 0.0770581 0.0510109
0.067277 0.0770123 0.0512245
0.0730602 0.0770428 0.0519875
0.0814984 0.0771038 0.0522774
0.0906081 0.0784466 0.0530861
0.102892 0.0808881 0.0567483
0.115129 0.0829938 0.0593423
0.127581 0.0870832 0.0616007
0.141543 0.0924086 0.0657969
0.158221 0.0991531 0.0712139
0.175097 0.105074 0.0775769
0.193545 0.112993 0.0825818
0.21239 0.120607 0.0887312
0.231327 0.127062 0.0959029
0.251987 0.134081 0.102419
0.274113 0.143633 0.109834
0.296498 0.153613 0.117891
0.319188 0.162341 0.124498
0.343175 0.170291 0.13077
0.367666 0.178714 0.13846
0.39263 0.187137 0.146715
0.415167 0.195102 0.151598
0.437797 0.202991 0.15906
0.461936 0.210986 0.167056
0.482826 0.219074 0.172061
0.506783 0.227222 0.179568
0.524468 0.235096 0.187488
0.54377 0.242969 0.192813
0.561105 0.250935 0.199542
0.576776 0.259129 0.20499
0.58732 0.26537 0.210941
0.587228 0.265217 0.210849
0.0602884 0.0851301 0.0520485
0.060441 0.0851453 0.0520638
0.0681926 0.0861219 0.0525673
0.0763409 0.086305 0.054963
0.084947 0.0865644 0.0551919
0.0940719 0.0889754 0.0565957
0.106279 0.090547 0.0592508
0.118257 0.0940871 0.0612345
0.13106 0.0986801 0.0652171
0.144839 0.103883 0.069749
0.161654 0.110811 0.0753033
0.178927 0.116823 0.0814374
0.198123 0.124865 0.0873579
0.219181 0.133349 0.0940414
0.240009 0.141665 0.100969
0.262119 0.150271 0.10901
0.286229 0.160464 0.117311
0.309743 0.170367 0.124559
0.333608 0.178759 0.130648
0.358328 0.186923 0.138079
0.382986 0.197681 0.146197
0.408148 0.20679 0.154391
0.432181 0.214786 0.162509
0.456825 0.223407 0.168872
0.478019 0.23154 0.175708
0.499001 0.23949 0.183078
0.520256 0.249866 0.19115
0.539757 0.25835 0.196078
0.556741 0.263844 0.20351
0.572946 0.27155 0.208743
0.585946 0.2795 0.216297
0.599878 0.286412 0.222766
0.599771 0.286244 0.222675
0.0626993 0.0934005 0.054902
0.0626993 0.0933394 0.054902
0.0710002 0.0969711 0.0551461
0.0791943 0.0970779 0.0560159
0.0883803 0.0980087 0.0568093
0.0974746 0.0986801 0.0591897
0.109438 0.101884 0.0610513
0.120195 0.103227 0.0650645
0.1346 0.110018 0.0691234
0.148241 0.115511 0.073579
0.165042 0.122332 0.0791028
0.183474 0.128969 0.0856641
0.204532 0.137377 0.0919203
0.225986 0.145892 0.0995499
0.248447 0.155749 0.106477
0.271611 0.16553 0.113115
0.297322 0.175692 0.122774
0.323537 0.18793 0.130709
0.348302 0.197803 0.137606
0.373175 0.206348 0.145708
0.397879 0.216693 0.153857
0.424659 0.226337 0.162036
0.448875 0.237079 0.170245
0.472023 0.245823 0.178378
0.493874 0.254414 0.186526
0.514229 0.262333 0.194568
0.537102 0.272908 0.202777
0.555428 0.281651 0.207874
0.571084 0.286809 0.215106
0.58735 0.294255 0.220172
0.599695 0.302464 0.228092
0.612085 0.313237 0.234791
0.611994 0.313024 0.234699
0.0638437 0.102937 0.0560159
0.0638132 0.102846 0.0559854
0.0721752 0.105226 0.056611
0.0804608 0.10663 0.0590677
0.0912337 0.10901 0.0605325
0.100908 0.110307 0.0609293
0.113558 0.114031 0.0649729
0.125994 0.115282 0.0690318
0.138338 0.119341 0.0730297
0.151751 0.126268 0.0773175
0.1691 0.132433 0.082948
0.188708 0.141665 0.090486
0.211124 0.152285 0.0975814
0.232486 0.161089 0.104143
0.255802 0.170016 0.112169
0.280446 0.180056 0.120363
0.307317 0.191455 0.128817
0.334066 0.203571 0.137133
0.359243 0.21471 0.145235
0.384283 0.225223 0.153353
0.411017 0.235477 0.161669
0.437354 0.245701 0.169848
0.462181 0.254398 0.177966
0.486137 0.264607 0.186069
0.507378 0.274113 0.194263
0.528023 0.284886 0.202426
0.548623 0.294148 0.211337
0.566918 0.302251 0.218708
0.582544 0.310048 0.226673
0.599176 0.318196 0.232166
0.611521 0.326101 0.239887
0.623316 0.334051 0.24683
0.623224 0.333898 0.246738
0.0666972 0.113146 0.058793
0.0666972 0.113085 0.058793
0.0749981 0.114641 0.0598611
0.0835889 0.117235 0.0606088
0.0932784 0.118654 0.0640879
0.104677 0.122301 0.0650187
0.117876 0.126406 0.0696574
0.130892 0.130159 0.0736553
0.143343 0.132097 0.0775311
0.156588 0.13695 0.0814069
0.173281 0.144854 0.0871901
0.192386 0.153903 0.0943008
0.215473 0.164981 0.102403
0.238193 0.175189 0.10959
0.262989 0.185763 0.116396
0.288197 0.196033 0.12459
0.315328 0.207645 0.134478
0.343557 0.220157 0.144747
0.370474 0.231952 0.153017
0.397009 0.242603 0.161135
0.42359 0.253254 0.169986
0.448753 0.264729 0.179583
0.473213 0.274128 0.189075
0.497383 0.284443 0.195758
0.519341 0.29398 0.204517
0.539361 0.305226 0.213764
0.559731 0.315877 0.222095
0.577432 0.325612 0.230228
0.593957 0.333913 0.238331
0.610437 0.341939 0.243809
0.62295 0.350652 0.251667
0.635142 0.361151 0.258671
0.635187 0.361196 0.258686
0.0670634 0.121172 0.0599832
0.0670481 0.12108 0.0599374
0.0771801 0.124483 0.0626841
0.0871595 0.126696 0.0639811
0.0984207 0.130678 0.0679637
0.108614 0.134722 0.069276
0.122347 0.139116 0.0761425
0.137972 0.143999 0.0805982
0.151095 0.148074 0.0845655
0.164523 0.152483 0.0869612
0.180423 0.159564 0.0932174
0.199054 0.16817 0.0992599
0.222278 0.177859 0.10721
0.245335 0.189685 0.115373
0.27013 0.201175 0.12369
0.296376 0.212848 0.132174
0.325216 0.226444 0.141985
0.354467 0.238819 0.152544
0.381216 0.250065 0.160662
0.407858 0.261326 0.168826
0.434577 0.272801 0.179126
0.460868 0.284504 0.18912
0.4851 0.295109 0.197299
0.508309 0.305272 0.205463
0.529793 0.315999 0.214374
0.550439 0.325765 0.222904
0.569314 0.336996 0.232715
0.588342 0.34583 0.239582
0.603281 0.357 0.247349
0.619028 0.36556 0.255299
0.631998 0.377142 0.263508
0.64419 0.386389 0.271427
0.644587 0.386557 0.271626
0.0687266 0.130465 0.0626993
0.0687266 0.130419 0.0626993
0.0780499 0.133623 0.0644846
0.0896773 0.137636 0.0676127
0.100862 0.142626 0.0716869
0.113176 0.147585 0.0738384
0.129 0.152148 0.0803082
0.145327 0.159777 0.0859998
0.159136 0.163973 0.0901808
0.174807 0.168719 0.0944839
0.188464 0.175097 0.0988479
0.205707 0.181811 0.105211
0.227497 0.192493 0.111299
0.25211 0.202884 0.119554
0.27689 0.215152 0.128511
0.303151 0.228412 0.138811
0.332464 0.242512 0.149126
0.362524 0.256214 0.15996
0.39089 0.26862 0.168353
0.418692 0.280415 0.177234
0.44564 0.292088 0.187442
0.472328 0.304097 0.196887
0.497154 0.316075 0.205768
0.519692 0.326772 0.216052
0.540963 0.337057 0.225269
0.56022 0.348501 0.233402
0.579156 0.359976 0.242405
0.597208 0.369238 0.250813
0.613031 0.380682 0.259052
0.629175 0.392447 0.267216
0.642023 0.402213 0.275227
0.654368 0.412634 0.283299
0.655268 0.413291 0.283864
0.0718547 0.141711 0.0639811
0.071809 0.141604 0.0639353
0.0807202 0.144671 0.0671244
0.0910353 0.148684 0.0706645
0.105852 0.154742 0.0753948
0.11902 0.161746 0.0799725
0.133333 0.167803 0.0851301
0.149752 0.175128 0.0920577
0.168292 0.18024 0.0967117
0.183383 0.187106 0.102342
0.19968 0.192889 0.106477
0.215763 0.200168 0.110887
0.234699 0.206729 0.117906
0.258 0.217456 0.125917
0.284016 0.229892 0.135134
0.309621 0.243244 0.143832
0.338918 0.25684 0.153429
0.369177 0.272755 0.165255
0.398413 0.287572 0.176043
0.42739 0.30042 0.185977
0.455619 0.312627 0.196353
0.481865 0.324239 0.20589
0.505882 0.335927 0.216098
0.529046 0.347997 0.224872
0.550408 0.359396 0.23476
0.569909 0.371618 0.244663
0.58941 0.383444 0.255253
0.607538 0.395605 0.265049
0.624002 0.406027 0.273213
0.638407 0.416464 0.282353
0.651057 0.427924 0.290578
0.665568 0.440177 0.298802
0.667216 0.441337 0.299626
0.075761 0.151476 0.0679637
0.0757305 0.151385 0.0679332
0.0828717 0.154253 0.0702983
0.0937362 0.15848 0.0730144
0.109056 0.166796 0.0792096
0.124346 0.175357 0.0847944
0.140444 0.183322 0.0899214
0.157763 0.191577 0.0979324
0.175463 0.197726 0.102693
0.193912 0.204501 0.110185
0.210834 0.212406 0.114824
0.225803 0.218219 0.119631
0.245258 0.226307 0.126467
0.263645 0.234836 0.131197
0.290806 0.246479 0.140017
0.315999 0.25948 0.15111
0.344762 0.274189 0.160662
0.376425 0.289937 0.172351
0.406348 0.304891 0.18323
0.436881 0.31931 0.194354
0.465339 0.332876 0.205249
0.492241 0.346166 0.21561
0.516915 0.358312 0.22533
0.539361 0.369665 0.235401
0.56022 0.381979 0.245426
0.580209 0.394888 0.255787
0.599313 0.407034 0.266911
0.616434 0.419471 0.277562
0.631693 0.431525 0.286305
0.647669 0.443259 0.294453
0.662257 0.455573 0.302754
0.674861 0.465629 0.310735
0.676875 0.467109 0.312001
0.078996 0.162402 0.0711833
0.078996 0.162402 0.0711833
0.0863355 0.165133 0.0728008
0.0971237 0.169329 0.0765545
0.11281 0.180041 0.0838483
0.130388 0.190738 0.0897078
0.147997 0.199588 0.0974289
0.165789 0.207675 0.105592
0.184909 0.216129 0.111879
0.202838 0.224292 0.117968
0.221881 0.232609 0.125216
0.238682 0.238483 0.130282
0.256596 0.246052 0.134386
0.274189 0.254246 0.13959
0.298634 0.263905 0.147921
0.323476 0.27863 0.157427
0.353185 0.293385 0.168246
0.385397 0.309361 0.180545
0.41529 0.324193 0.192126
0.444846 0.339162 0.203189
0.473884 0.352911 0.214343
0.501503 0.367971 0.22565
0.526909 0.381659 0.237278
0.549844 0.394644 0.248402
0.570459 0.406806 0.257954
0.590066 0.418875 0.268238
0.608865 0.433173 0.278981
0.62623 0.446647 0.289265
0.642741 0.458839 0.298222
0.65771 0.470863 0.306325
0.671962 0.482811 0.314382
0.686015 0.494804 0.322515
0.688945 0.497353 0.324239
0.08159 0.17377 0.0737621
0.0815595 0.173693 0.0737316
0.0894789 0.176638 0.0767071
0.101213 0.181506 0.0810864
0.117082 0.192523 0.0882124
0.135027 0.20502 0.0965438
0.155184 0.216693 0.105028
0.175479 0.226108 0.113191
0.194385 0.235996 0.119432
0.214099 0.245075 0.12668
0.232074 0.254307 0.134005
0.250278 0.261051 0.139208
0.268116 0.266529 0.143282
0.287129 0.276127 0.150881
0.309438 0.286427 0.158679
0.331075 0.295445 0.165301
0.360006 0.310933 0.175998
0.393683 0.328756 0.189471
0.422827 0.343984 0.200488
0.452827 0.359701 0.212222
0.483085 0.373816 0.223407
0.510384 0.388098 0.235813
0.536156 0.40322 0.247807
0.55935 0.417578 0.258625
0.580743 0.431067 0.269337
0.599695 0.445121 0.280339
0.61915 0.458213 0.291051
0.637293 0.470588 0.302098
0.652598 0.483925 0.31191
0.666941 0.496422 0.32015
0.682826 0.510002 0.328283
0.696345 0.522698 0.336461
0.699275 0.52549 0.338384
0.0856794 0.184421 0.0778058
0.0856489 0.184329 0.0777752
0.0931716 0.188449 0.08159
0.106004 0.195193 0.0868544
0.121782 0.205753 0.0939345
0.141405 0.218891 0.102525
0.162875 0.234592 0.112535
0.185 0.247639 0.121874
0.20502 0.257496 0.130114
0.225406 0.266545 0.137774
0.246143 0.277546 0.143648
0.264103 0.28542 0.150729
0.280919 0.291325 0.155154
0.300923 0.299199 0.161151
0.322728 0.310185 0.168734
0.343771 0.31902 0.17557
0.367895 0.328618 0.18439
0.400717 0.34696 0.197559
0.430549 0.363851 0.209964
0.462196 0.381582 0.222522
0.491569 0.397147 0.234897
0.519265 0.410758 0.246754
0.545083 0.426032 0.258854
0.567941 0.440101 0.270161
0.58909 0.455207 0.280903
0.609796 0.469566 0.292103
0.62916 0.483818 0.302403
0.646754 0.497688 0.31249
0.661982 0.509682 0.322621
0.677897 0.522133 0.331853
0.691585 0.534249 0.340093
0.706538 0.547585 0.348089
0.711147 0.551492 0.350347
0.0897231 0.196567 0.0819257
0.0896925 0.196475 0.0818952
0.0974746 0.201328 0.0857252
0.111284 0.210254 0.0921035
0.128466 0.221317 0.0999619
0.148104 0.236484 0.108675
0.170932 0.252872 0.120012
0.195285 0.268849 0.131838
0.217029 0.281453 0.140902
0.237842 0.291814 0.148226
0.259464 0.302281 0.1561
0.279255 0.312367 0.163043
0.297932 0.319341 0.168841
0.316396 0.326757 0.17464
0.337926 0.336187 0.181033
0.358862 0.346273 0.188861
0.381765 0.356237 0.196933
0.40853 0.367086 0.205402
0.438422 0.385275 0.218097
0.470054 0.404364 0.233524
0.501991 0.421103 0.246281
0.52958 0.436683 0.258534
0.553994 0.450996 0.270436
0.576883 0.466407 0.281941
0.599771 0.48098 0.292424
0.62031 0.494743 0.303624
0.639307 0.510857 0.315114
0.657328 0.525292 0.326085
0.673579 0.537438 0.335195
0.686976 0.549615 0.343603
0.70161 0.561563 0.351614
0.715297 0.573587 0.35967
0.719417 0.577691 0.362387
0.094377 0.208652 0.0865644
0.0943008 0.208515 0.0865034
0.102617 0.21413 0.0904707
0.117494 0.225254 0.097673
0.135271 0.23772 0.1066
0.153948 0.252766 0.115953
0.17789 0.269963 0.127428
0.204715 0.289204 0.139864
0.228656 0.304845 0.149874
0.250462 0.317357 0.159442
0.272953 0.328374 0.167803
0.294224 0.338323 0.175067
0.314351 0.346578 0.182254
0.332952 0.354955 0.187259
0.352026 0.362707 0.194629
0.373861 0.372183 0.200946
0.396185 0.381994 0.209003
0.422797 0.392676 0.217456
0.444846 0.404685 0.22652
0.476707 0.420966 0.241535
0.509071 0.440589 0.25568
0.538918 0.458503 0.269673
0.564675 0.47602 0.282078
0.586572 0.489632 0.293111
0.607263 0.504204 0.303181
0.628397 0.51812 0.315129
0.648585 0.534356 0.325826
0.667109 0.548669 0.335958
0.681895 0.560815 0.344182
0.695583 0.570993 0.351217
0.709987 0.581659 0.359457
0.722911 0.593668 0.367544
0.727352 0.597971 0.370459
0.100343 0.220706 0.0925154
0.100328 0.220661 0.0924849
0.107836 0.227329 0.0959182
0.123781 0.240192 0.103517
0.14255 0.255451 0.112917
0.162768 0.271702 0.123262
0.187533 0.29073 0.135073
0.21532 0.311116 0.148882
0.240024 0.328359 0.160449
0.263981 0.342397 0.170642
0.286366 0.355886 0.179934
0.309163 0.366598 0.188144
0.330037 0.374762 0.19498
0.348409 0.384192 0.201007
0.368429 0.392157 0.208545
0.389151 0.400381 0.214939
0.409888 0.408316 0.222629
0.437613 0.420111 0.232532
0.458747 0.429984 0.240864
0.484474 0.441306 0.250294
0.51606 0.460853 0.265187
0.546136 0.480308 0.278553
0.573709 0.496696 0.292836
0.596948 0.511971 0.303136
0.617166 0.525368 0.313756
0.635721 0.539284 0.323888
0.655756 0.554681 0.334432
0.674388 0.568368 0.344228
0.689647 0.579873 0.353628
0.702892 0.590707 0.359808
0.715846 0.601862 0.367086
0.729427 0.611887 0.375219
0.735378 0.615824 0.378576
0.107393 0.234363 0.0995346
0.107301 0.23418 0.099443
0.114549 0.241733 0.103014
0.13106 0.256779 0.111177
0.150713 0.273899 0.120836
0.172152 0.292042 0.13167
0.197467 0.312383 0.143618
0.226368 0.334844 0.157977
0.252583 0.353414 0.17116
0.276478 0.369894 0.181842
0.300618 0.384024 0.192538
0.324346 0.39649 0.20148
0.345373 0.405097 0.208652
0.364996 0.413214 0.216648
0.38468 0.421088 0.222812
0.404685 0.428855 0.228901
0.425528 0.436683 0.236896
0.451347 0.448066 0.245045
0.473991 0.459449 0.254444
0.498451 0.467994 0.264485
0.523613 0.480842 0.273869
0.552789 0.500237 0.288731
0.581003 0.519326 0.301335
0.604623 0.533608 0.313527
0.625223 0.548318 0.324453
0.644755 0.560678 0.333349
0.662837 0.573968 0.342092
0.681651 0.587167 0.350729
0.696864 0.597971 0.35906
0.709377 0.609262 0.366583
0.721752 0.619516 0.374716
0.734203 0.63064 0.380941
0.739635 0.635889 0.382742
0.115358 0.251881 0.106523
0.115297 0.251728 0.106493
0.121965 0.258869 0.11017
0.139208 0.275914 0.11902
0.160403 0.294194 0.12961
0.183474 0.314153 0.141756
0.208194 0.337026 0.154513
0.2383 0.362173 0.169238
0.266209 0.382681 0.18233
0.291157 0.4 0.194446
0.315999 0.414816 0.205341
0.34078 0.428168 0.215717
0.362402 0.437934 0.224323
0.382834 0.445838 0.232349
0.403296 0.453559 0.237003
0.422248 0.460792 0.244465
0.442603 0.46865 0.252338
0.466606 0.476326 0.260273
0.488807 0.487205 0.268238
0.513298 0.49546 0.276799
0.538033 0.507668 0.288228
0.560494 0.519951 0.296849
0.587335 0.536355 0.308888
0.611627 0.55256 0.321889
0.633234 0.568063 0.332692
0.65275 0.580636 0.341756
0.669459 0.592874 0.349996
0.686168 0.604837 0.357931
0.701244 0.615686 0.366033
0.715389 0.624765 0.373205
0.727962 0.634607 0.379355
0.738949 0.644831 0.386786
0.745052 0.6495 0.390738
0.123461 0.27306 0.113985
0.1234 0.272877 0.113893
0.129885 0.278965 0.117403
0.148745 0.296742 0.127291
0.170809 0.31664 0.139193
0.195407 0.338796 0.152972
0.221347 0.363333 0.166155
0.250675 0.389471 0.180926
0.279866 0.411521 0.195224
0.306172 0.43064 0.208057
0.332952 0.447822 0.219257
0.357397 0.460365 0.230045
0.379507 0.471809 0.239231
0.400259 0.480537 0.247395
0.421103 0.488609 0.252842
0.440635 0.49369 0.260288
0.460227 0.500038 0.266453
0.483238 0.507301 0.273976
0.504051 0.515251 0.281544
0.527932 0.522988 0.291279
0.552468 0.534768 0.300008
0.572641 0.543725 0.308141
0.591318 0.552438 0.316503
0.61622 0.56817 0.328328
0.639216 0.584329 0.340139
0.659113 0.599191 0.34966
0.676249 0.611612 0.359304
0.692775 0.622492 0.365591
0.707942 0.631342 0.372534
0.720287 0.63975 0.378271
0.731579 0.64831 0.385077
0.742412 0.658259 0.391119
0.74902 0.664149 0.394827
0.133043 0.297871 0.124743
0.132952 0.297658 0.124651
0.139284 0.303166 0.127321
0.15906 0.321538 0.13727
0.180926 0.342443 0.150195
0.207004 0.367193 0.164172
0.234424 0.39176 0.178271
0.264942 0.41825 0.193729
0.295003 0.442176 0.208667
0.322362 0.461906 0.221942
0.348943 0.479103 0.233753
0.373495 0.492485 0.243351
0.396033 0.50396 0.252461
0.417227 0.512398 0.260731
0.438788 0.519921 0.268101
0.459083 0.524834 0.275456
0.477256 0.530098 0.281331
0.499107 0.536004 0.288014
0.519509 0.542916 0.295613
0.539803 0.548699 0.301823
0.563577 0.559442 0.311269
0.582834 0.567407 0.319478
0.602045 0.575509 0.327443
0.620035 0.583886 0.333623
0.642374 0.59884 0.344671
0.663066 0.611902 0.353857
0.680781 0.624491 0.36492
0.697093 0.635523 0.372396
0.71194 0.644297 0.378332
0.724208 0.652674 0.38439
0.735378 0.660777 0.38912
0.745922 0.669993 0.395453
0.752926 0.676173 0.400031
0.146197 0.326986 0.136126
0.146075 0.326757 0.136034
0.151675 0.331594 0.138949
0.170672 0.34934 0.149218
0.192203 0.370703 0.160937
0.22063 0.397009 0.175784
0.249561 0.423148 0.191516
0.279896 0.449454 0.207324
0.309819 0.473335 0.222202
0.338415 0.493111 0.235843
0.364752 0.510079 0.247456
0.389456 0.523919 0.257816
0.411872 0.534874 0.266972
0.434012 0.54342 0.275166
0.45594 0.550072 0.282963
0.47602 0.556008 0.289265
0.495048 0.560876 0.295537
0.515892 0.565484 0.301778
0.535485 0.569268 0.30782
0.554818 0.575647 0.315465
0.575326 0.583429 0.320851
0.594003 0.590906 0.328801
0.61323 0.598657 0.336736
0.630076 0.603738 0.344213
0.645975 0.611521 0.349279
0.664012 0.623652 0.36022
0.683253 0.636027 0.368627
0.700206 0.648051 0.376761
0.715251 0.658824 0.384024
0.727733 0.667124 0.388586
0.738994 0.67425 0.393851
0.748928 0.680461 0.400809
0.755917 0.685435 0.403952
0.161746 0.35877 0.149981
0.161563 0.358404 0.149798
0.166369 0.362814 0.15256
0.186175 0.382132 0.163607
0.207736 0.403174 0.174517
0.236606 0.429831 0.190967
0.265385 0.455222 0.206012
0.295171 0.480735 0.220401
0.324636 0.504417 0.235325
0.35346 0.524483 0.249027
0.379889 0.539986 0.260807
0.40444 0.553048 0.270863
0.428077 0.56379 0.280354
0.450599 0.572274 0.289143
0.471946 0.579492 0.296223
0.492683 0.584939 0.303105
0.511574 0.589517 0.308919
0.531579 0.593393 0.315358
0.551766 0.597436 0.321675
0.56849 0.601068 0.327596
0.587884 0.607126 0.332647
0.604562 0.612512 0.340383
0.624125 0.619532 0.347265
0.638132 0.623804 0.352285
0.653773 0.630793 0.357229
0.666468 0.635447 0.362051
0.683742 0.647013 0.37232
0.70219 0.658671 0.379904
0.715496 0.667552 0.385641
0.728298 0.675669 0.392508
0.740475 0.683818 0.397955
0.751476 0.691783 0.404578
0.756985 0.696406 0.407874
0.179141 0.395239 0.167407
0.178912 0.394751 0.167178
0.183047 0.398688 0.169299
0.20351 0.41883 0.179767
0.226352 0.440177 0.191196
0.254948 0.465232 0.207065
0.283024 0.48986 0.221073
0.311986 0.513603 0.235004
0.341024 0.536309 0.249729
0.368811 0.555108 0.262989
0.394858 0.569833 0.274052
0.419318 0.581247 0.283436
0.443626 0.591928 0.293446
0.46598 0.601007 0.302129
0.488197 0.607919 0.309377
0.509346 0.613596 0.315892
0.528786 0.617929 0.322866
0.549447 0.621698 0.329122
0.567407 0.625132 0.335195
0.58378 0.628351 0.3402
0.6 0.631235 0.344884
0.616785 0.635904 0.35169
0.633082 0.639704 0.355901
0.648814 0.643488 0.361028
