public/LUTS/Cinematic/Cinematic_17.cube
TITLE "Generated by Resolve"
LUT_3D_SIZE 5
0.073518 0.0581979 0.0581979
0.20116 0.0673533 0.06392
0.35668 0.0942702 0.0845655
0.530953 0.134646 0.117754
0.686336 0.175906 0.149004
0.061738 0.140581 0.0417792
0.216342 0.17174 0.05832
0.449332 0.237873 0.100908
0.665003 0.302342 0.14667
0.781338 0.361364 0.184375
0.0521706 0.241962 0.0372168
0.252384 0.348562 0.0758984
0.475151 0.404822 0.11339
0.704982 0.504417 0.16939
0.8215 0.584817 0.20473
0.0835431 0.414328 0.0601205
0.302815 0.582284 0.104723
0.528298 0.621698 0.139361
0.702831 0.6477 0.173037
0.81413 0.70428 0.204395
0.149432 0.69572 0.109346
0.36318 0.760128 0.129931
0.571481 0.768536 0.153887
0.711192 0.758389 0.178515
0.794598 0.761166 0.197299
0.0898146 0.0719921 0.171832
0.194446 0.0661326 0.144717
0.32314 0.0831159 0.150301
0.476539 0.110369 0.168307
0.625788 0.13814 0.194095
0.0559091 0.153368 0.149783
0.248234 0.230793 0.200076
0.550454 0.246311 0.178042
0.758068 0.2804 0.203754
0.862165 0.333989 0.243809
0.0588998 0.304768 0.157534
0.174289 0.479072 0.17731
0.574182 0.523903 0.213947
0.793408 0.568978 0.247715
0.867887 0.635569 0.326207
0.0816205 0.525048 0.181338
0.28777 0.72874 0.218357
0.59826 0.733257 0.299733
0.7738 0.737209 0.325399
0.850706 0.768048 0.394339
0.115724 0.728099 0.199832
0.415229 0.818494 0.242329
0.639445 0.815503 0.309865
0.768231 0.815244 0.368353
0.83328 0.813443 0.385657
0.100069 0.0898146 0.304387
0.240162 0.104814 0.335973
0.382315 0.0998398 0.260868
0.525628 0.116457 0.260975
0.637919 0.13666 0.272312
0.0814527 0.19089 0.298634
0.185046 0.240528 0.406561
0.496986 0.217823 0.358862
0.719799 0.229847 0.317739
0.844114 0.274495 0.349615
0.0731365 0.34435 0.316106
0.115969 0.408423 0.351919
0.539025 0.593698 0.51165
0.761685 0.592309 0.497566
0.83888 0.648264 0.55938
0.0918593 0.558206 0.347143
0.147601 0.666224 0.360861
0.566674 0.763836 0.574624
0.756252 0.760998 0.588144
0.833249 0.783169 0.628702
0.109911 0.694026 0.345937
0.237293 0.817594 0.420554
0.679988 0.831113 0.602213
0.771634 0.830762 0.629709
0.824582 0.826246 0.628885
0.12253 0.116426 0.445365
0.252232 0.135241 0.493736
0.383124 0.122591 0.427115
0.537774 0.123262 0.369055
0.638132 0.137575 0.372747
0.106493 0.227329 0.45388
0.187015 0.243076 0.58436
0.480705 0.260868 0.63151
0.695308 0.245945 0.512627
0.806821 0.269398 0.509453
0.0997635 0.390631 0.486625
0.154925 0.413779 0.544747
0.42945 0.562127 0.6757
0.731228 0.559991 0.664668
0.820813 0.606714 0.683558
0.100114 0.544427 0.478737
0.157031 0.609094 0.526329
0.347494 0.718029 0.623713
0.764172 0.786023 0.748455
0.82652 0.802029 0.76791
0.134615 0.703182 0.518822
0.18941 0.783902 0.579995
0.543847 0.83061 0.703197
0.785183 0.839612 0.770031
0.829313 0.839139 0.768093
0.151446 0.145907 0.586038
0.268757 0.157443 0.614404
0.38706 0.144442 0.565621
0.53962 0.13962 0.501167
0.625544 0.141955 0.468498
0.129015 0.25536 0.592493
0.211505 0.265019 0.725689
0.475517 0.284153 0.772869
0.714153 0.299489 0.713771
0.773114 0.282078 0.651179
0.127718 0.401465 0.621393
0.191852 0.424491 0.688869
0.46714 0.575372 0.801541
0.745052 0.599985 0.786084
0.824689 0.591913 0.780606
0.133074 0.562387 0.625971
0.192584 0.617914 0.67747
0.355779 0.709102 0.753887
0.758556 0.789425 0.807614
0.822675 0.793881 0.814343
0.151034 0.68658 0.630884
0.198093 0.746242 0.685328
0.400305 0.814115 0.753994
0.753994 0.834745 0.816037
0.836255 0.844724 0.827787
