public/LUTS/Cinematic/Cinematic_03.cube
TITLE "Generated by Resolve"
LUT_3D_SIZE 33
0.0180819 0.0520943 0.0691081
0.053254 0.0510414 0.0680552
0.0884565 0.0499886 0.0670024
0.123659 0.0489509 0.0659495
0.158862 0.0478981 0.0648966
0.194064 0.0468452 0.063859
0.229267 0.0457923 0.0628061
0.264469 0.0447395 0.0617533
0.299657 0.0436866 0.0607004
0.334859 0.042649 0.0596475
0.370062 0.0415961 0.0586099
0.405264 0.0405432 0.057557
0.440467 0.0394903 0.0565042
0.47567 0.0384375 0.0554513
0.510872 0.0373846 0.0543984
0.546075 0.036347 0.0533455
0.581262 0.0352941 0.0523079
0.616464 0.0342412 0.0512551
0.651667 0.0331884 0.0502022
0.68687 0.0321355 0.0491493
0.722072 0.0310979 0.0480964
0.757275 0.030045 0.0470588
0.792477 0.0289921 0.0460059
0.827665 0.0279393 0.0449531
0.862867 0.0268864 0.0439002
0.89807 0.0258335 0.0428473
0.933272 0.0247959 0.0418097
0.968475 0.023743 0.0407568
1 0.0226902 0.039704
1 0.0216373 0.0386511
1 0.0205844 0.0375982
1 0.0195468 0.0365454
1 0.0184939 0.0355077
0.0145724 0.0848249 0.0655985
0.0497597 0.083772 0.0645609
0.0849622 0.0827344 0.063508
0.120165 0.0816815 0.0624552
0.155367 0.0806287 0.0614023
0.19057 0.0795758 0.0603494
0.225757 0.0785229 0.0593118
0.26096 0.0774853 0.0582589
0.296162 0.0764324 0.0572061
0.331365 0.0753796 0.0561532
0.366567 0.0743267 0.0551003
0.40177 0.0732738 0.0540475
0.436973 0.072221 0.0530098
0.472175 0.0711833 0.051957
0.507362 0.0701305 0.0509041
0.542565 0.0690776 0.0498512
0.577768 0.0680247 0.0487984
0.61297 0.0669718 0.0477607
0.648173 0.065919 0.0467079
0.683375 0.0648814 0.045655
0.718578 0.0638285 0.0446021
0.753765 0.0627756 0.0435492
0.788968 0.0617227 0.0424964
0.82417 0.0606699 0.0414588
0.859373 0.0596323 0.0404059
0.894575 0.0585794 0.039353
0.929778 0.0575265 0.0383001
0.964981 0.0564736 0.0372473
1 0.0554208 0.0362097
1 0.0543679 0.0351568
1 0.0533303 0.0341039
1 0.0522774 0.033051
1 0.0512245 0.0319982
0.0110781 0.117586 0.0621042
0.0462654 0.116533 0.0610513
0.0814679 0.11548 0.0599985
0.116655 0.114427 0.0589609
0.151858 0.113375 0.057908
0.18706 0.112322 0.0568551
0.222263 0.111284 0.0558022
0.257465 0.110231 0.0547494
0.292668 0.109178 0.0537118
0.327871 0.108125 0.0526589
0.363073 0.107073 0.051606
0.39826 0.106035 0.0505531
0.433463 0.104982 0.0495003
0.468666 0.103929 0.0484474
0.503868 0.102876 0.0474098
0.539071 0.101823 0.0463569
0.574273 0.100771 0.045304
0.609476 0.099733 0.0442512
0.644663 0.0986801 0.0431983
0.679866 0.0976272 0.0421607
0.715068 0.0965744 0.0411078
0.750271 0.0955215 0.0400549
0.785473 0.0944686 0.0390021
0.820676 0.093431 0.0379492
0.855879 0.0923781 0.0368963
0.891081 0.0913252 0.0358587
0.926268 0.0902724 0.0348058
0.961471 0.0892195 0.033753
0.996674 0.0881819 0.0327001
1 0.087129 0.0316472
1 0.0860761 0.0306096
1 0.0850233 0.0295567
1 0.0839704 0.0285039
0.00758373 0.150332 0.0586099
0.0427558 0.149279 0.057557
0.0779583 0.148226 0.0565042
0.113161 0.147173 0.0554513
0.148363 0.146136 0.0543984
0.183566 0.145083 0.0533608
0.218769 0.14403 0.0523079
0.253971 0.142977 0.0512551
0.289158 0.141924 0.0502022
0.324361 0.140871 0.0491493
0.359564 0.139834 0.0481117
0.394766 0.138781 0.0470588
0.429969 0.137728 0.0460059
0.465171 0.136675 0.0449531
0.500374 0.135622 0.0439002
0.535561 0.134585 0.0428473
0.570764 0.133532 0.0418097
0.605966 0.132479 0.0407568
0.641169 0.131426 0.039704
0.676371 0.130373 0.0386511
0.711574 0.12932 0.0375982
0.746777 0.128283 0.0365606
0.781979 0.12723 0.0355077
0.817166 0.126177 0.0344549
0.852369 0.125124 0.033402
0.887572 0.124071 0.0323491
0.922774 0.123018 0.0312963
0.957977 0.121981 0.0302586
0.993179 0.120928 0.0292058
1 0.119875 0.0281529
1 0.118822 0.0271
1 0.117769 0.0260471
1 0.116732 0.0250095
0.00407416 0.183078 0.0551003
0.0392615 0.182025 0.0540475
0.074464 0.180987 0.0530098
0.109667 0.179934 0.051957
0.144869 0.178882 0.0509041
0.180056 0.177829 0.0498512
0.215259 0.176776 0.0487984
0.250462 0.175723 0.0477607
0.285664 0.174685 0.0467079
0.320867 0.173632 0.045655
0.356069 0.17258 0.0446021
0.391272 0.171527 0.0435492
0.426474 0.170474 0.0424964
0.461662 0.169421 0.0414588
0.496864 0.168383 0.0404059
0.532067 0.16733 0.039353
0.567269 0.166278 0.0383001
0.602472 0.165225 0.0372473
0.637675 0.164172 0.0362097
0.672877 0.163134 0.0351568
0.708064 0.162081 0.0341039
0.743267 0.161028 0.033051
0.77847 0.159976 0.0319982
0.813672 0.158923 0.0309606
0.848875 0.15787 0.0299077
0.884077 0.156832 0.0288548
0.91928 0.155779 0.0278019
0.954482 0.154726 0.0267491
0.98967 0.153674 0.0256962
1 0.152621 0.0246586
1 0.151583 0.0236057
1 0.15053 0.0225528
1 0.149477 0.0215
0.000579843 0.215824 0.051606
0.0357671 0.214786 0.0505531
0.0709544 0.213733 0.0495003
0.106157 0.21268 0.0484474
0.14136 0.211627 0.0474098
0.176562 0.210575 0.0463569
0.211765 0.209537 0.045304
0.246967 0.208484 0.0442512
0.28217 0.207431 0.0431983
0.317372 0.206378 0.0421607
0.35256 0.205325 0.0411078
0.387762 0.204273 0.0400549
0.422965 0.203235 0.0390021
0.458167 0.202182 0.0379492
0.49337 0.201129 0.0368963
0.528572 0.200076 0.0358587
0.563775 0.199023 0.0348058
0.598962 0.197986 0.033753
0.634165 0.196933 0.0327001
0.669367 0.19588 0.0316472
0.70457 0.194827 0.0306096
0.739773 0.193774 0.0295567
0.774975 0.192721 0.0285039
0.810178 0.191684 0.027451
0.84538 0.190631 0.0263981
0.880568 0.189578 0.0253605
0.91577 0.188525 0.0243076
0.950973 0.187472 0.0232548
0.986175 0.186419 0.0222019
1 0.185382 0.021149
1 0.184329 0.0200961
1 0.183276 0.0190585
1 0.182223 0.0180056
0 0.248585 0.0480964
0.0322576 0.247532 0.0470588
0.0674601 0.246479 0.0460059
0.102663 0.245426 0.0449531
0.137865 0.244388 0.0439002
0.173068 0.243336 0.0428473
0.20827 0.242283 0.0418097
0.243458 0.24123 0.0407568
0.27866 0.240177 0.039704
0.313863 0.239124 0.0386511
0.349065 0.238087 0.0375982
0.384268 0.237034 0.0365606
0.419471 0.235981 0.0355077
0.454673 0.234928 0.0344549
0.48986 0.233875 0.033402
0.525063 0.232822 0.0323491
0.560265 0.231785 0.0312963
0.595468 0.230732 0.0302586
0.630671 0.229679 0.0292058
0.665873 0.228626 0.0281529
0.701076 0.227573 0.0271
0.736278 0.226535 0.0260471
0.771466 0.225483 0.0250095
0.806668 0.22443 0.0239567
0.841871 0.223377 0.0229038
0.877073 0.222324 0.0218509
0.912276 0.221271 0.020798
0.947478 0.220233 0.0197604
0.982681 0.219181 0.0187076
1 0.218128 0.0176547
1 0.217075 0.0166018
1 0.216022 0.0155489
1 0.214969 0.0144961
0 0.281331 0.0446021
0.0287633 0.280278 0.0435492
0.0639658 0.279225 0.0424964
0.0991684 0.278187 0.0414588
0.134356 0.277134 0.0404059
0.169558 0.276081 0.039353
0.204761 0.275029 0.0383001
0.239963 0.273976 0.0372473
0.275166 0.272938 0.0362097
0.310369 0.271885 0.0351568
0.345571 0.270832 0.0341039
0.380774 0.26978 0.033051
0.415961 0.268727 0.0319982
0.451164 0.267674 0.0309606
0.486366 0.266636 0.0299077
0.521569 0.265583 0.0288548
0.556771 0.26453 0.0278019
0.591974 0.263478 0.0267491
0.627176 0.262425 0.0256962
0.662364 0.261372 0.0246586
0.697566 0.260334 0.0236057
0.732769 0.259281 0.0225528
0.767971 0.258228 0.0215
0.803174 0.257176 0.0204471
0.838376 0.256123 0.0194095
0.873579 0.255085 0.0183566
0.908782 0.254032 0.0173037
0.943969 0.252979 0.0162509
0.979171 0.251926 0.015198
1 0.250874 0.0141604
1 0.249821 0.0131075
1 0.248783 0.0120546
1 0.24773 0.0110018
0 0.314076 0.0411078
0.0252537 0.313039 0.0400549
0.0604562 0.311986 0.0390021
0.0956588 0.310933 0.0379492
0.130861 0.30988 0.0368963
0.166064 0.308827 0.0358587
0.201266 0.307774 0.0348058
0.236469 0.306737 0.033753
0.271672 0.305684 0.0327001
0.306859 0.304631 0.0316472
0.342061 0.303578 0.0306096
0.377264 0.302525 0.0295567
0.412467 0.301488 0.0285039
0.447669 0.300435 0.027451
0.482872 0.299382 0.0263981
0.518074 0.298329 0.0253605
0.553262 0.297276 0.0243076
0.588464 0.296223 0.0232548
0.623667 0.295186 0.0222019
0.658869 0.294133 0.021149
0.694072 0.29308 0.0200961
0.729274 0.292027 0.0190585
0.764477 0.290974 0.0180056
0.79968 0.289921 0.0169528
0.834867 0.288884 0.0158999
0.870069 0.287831 0.014847
0.905272 0.286778 0.0138094
0.940475 0.285725 0.0127565
0.975677 0.284672 0.0117037
1 0.283635 0.0106508
1 0.282582 0.00959792
1 0.281529 0.00854505
1 0.280476 0.00750744
0 0.346838 0.0375982
0.0217594 0.345785 0.0365606
0.0569619 0.344732 0.0355077
0.0921645 0.343679 0.0344549
0.127367 0.342626 0.033402
0.16257 0.341588 0.0323491
0.197757 0.340536 0.0312963
0.232959 0.339483 0.0302586
0.268162 0.33843 0.0292058
0.303365 0.337377 0.0281529
0.338567 0.336324 0.0271
0.37377 0.335286 0.0260471
0.408972 0.334234 0.0250095
0.444175 0.333181 0.0239567
0.479362 0.332128 0.0229038
0.514565 0.331075 0.0218509
0.549767 0.330037 0.020798
0.58497 0.328984 0.0197604
0.620172 0.327932 0.0187076
0.655375 0.326879 0.0176547
0.690578 0.325826 0.0166018
0.725765 0.324773 0.0155489
0.760967 0.323735 0.0144961
0.79617 0.322683 0.0134585
0.831373 0.32163 0.0124056
0.866575 0.320577 0.0113527
0.901778 0.319524 0.0102998
0.93698 0.318486 0.00924697
0.972183 0.317433 0.00820935
1 0.316381 0.00715648
1 0.315328 0.00610361
1 0.314275 0.00505074
1 0.313222 0.00399786
0 0.379583 0.0341039
0.018265 0.378531 0.033051
0.0534676 0.377478 0.0319982
0.0886549 0.37644 0.0309606
0.123857 0.375387 0.0299077
0.15906 0.374334 0.0288548
0.194263 0.373281 0.0278019
0.229465 0.372229 0.0267491
0.264668 0.371176 0.0256962
0.29987 0.370138 0.0246586
0.335073 0.369085 0.0236057
0.37026 0.368032 0.0225528
0.405463 0.366979 0.0215
0.440665 0.365927 0.0204471
0.475868 0.364889 0.0194095
0.51107 0.363836 0.0183566
0.546273 0.362783 0.0173037
0.581476 0.36173 0.0162509
0.616663 0.360678 0.015198
0.651865 0.359625 0.0141604
0.687068 0.358587 0.0131075
0.722271 0.357534 0.0120546
0.757473 0.356481 0.0110018
0.792676 0.355428 0.00994888
0.827878 0.354376 0.00889601
0.863081 0.353323 0.0078584
0.898268 0.352285 0.00680552
0.933471 0.351232 0.00575265
0.968673 0.350179 0.00469978
1 0.349126 0.00364691
1 0.348074 0.00260929
1 0.347036 0.00155642
1 0.345983 0.000503548
0 0.412329 0.0306096
0.0147555 0.411292 0.0295567
0.049958 0.410239 0.0285039
0.0851606 0.409186 0.027451
0.120363 0.408133 0.0263981
0.155566 0.40708 0.0253605
0.190768 0.406027 0.0243076
0.225971 0.40499 0.0232548
0.261158 0.403937 0.0222019
0.296361 0.402884 0.021149
0.331563 0.401831 0.0200961
0.366766 0.400778 0.0190585
0.401968 0.399725 0.0180056
0.437171 0.398688 0.0169528
0.472374 0.397635 0.0158999
0.507561 0.396582 0.014847
0.542763 0.395529 0.0138094
0.577966 0.394476 0.0127565
0.613169 0.393439 0.0117037
0.648371 0.392386 0.0106508
0.683574 0.391333 0.00959792
0.718776 0.39028 0.00854505
0.753979 0.389227 0.00750744
0.789166 0.388174 0.00645457
0.824369 0.387137 0.00540169
0.859571 0.386084 0.00434882
0.894774 0.385031 0.00329595
0.929976 0.383978 0.00225834
0.965179 0.382925 0.00120546
1 0.381872 0.00015259
1 0.380835 0
1 0.379782 0
1 0.378729 0
0 0.44509 0.0271
0.0112612 0.444038 0.0260471
0.0464637 0.442985 0.0250095
0.0816663 0.441932 0.0239567
0.116869 0.440879 0.0229038
0.152056 0.439841 0.0218509
0.187259 0.438788 0.020798
0.222461 0.437736 0.0197604
0.257664 0.436683 0.0187076
0.292866 0.43563 0.0176547
0.328069 0.434577 0.0166018
0.363272 0.433539 0.0155489
0.398474 0.432486 0.0144961
0.433661 0.431434 0.0134585
0.468864 0.430381 0.0124056
0.504067 0.429328 0.0113527
0.539269 0.428275 0.0102998
0.574472 0.427237 0.00924697
0.609674 0.426184 0.00820935
0.644877 0.425132 0.00715648
0.680064 0.424079 0.00610361
0.715267 0.423026 0.00505074
0.750469 0.421988 0.00399786
0.785672 0.420935 0.00294499
0.820874 0.419883 0.00190738
0.856077 0.41883 0.000854505
0.891279 0.417777 0
0.926482 0.416724 0
0.961669 0.415686 0
0.996872 0.414633 0
1 0.413581 0
1 0.412528 0
1 0.411475 0
0 0.477836 0.0236057
0.00776684 0.476783 0.0225528
0.0429541 0.475731 0.0215
0.0781567 0.474678 0.0204471
0.113359 0.47364 0.0194095
0.148562 0.472587 0.0183566
0.183764 0.471534 0.0173037
0.218967 0.470481 0.0162509
0.25417 0.469429 0.015198
0.289372 0.468391 0.0141604
0.324559 0.467338 0.0131075
0.359762 0.466285 0.0120546
0.394965 0.465232 0.0110018
0.430167 0.464179 0.00994888
0.46537 0.463127 0.00889601
0.500572 0.462089 0.0078584
0.535775 0.461036 0.00680552
0.570962 0.459983 0.00575265
0.606165 0.45893 0.00469978
0.641367 0.457877 0.00364691
0.67657 0.456825 0.00260929
0.711772 0.455787 0.00155642
0.746975 0.454734 0.000503548
0.782177 0.453681 0
0.81738 0.452628 0
0.852567 0.451575 0
0.88777 0.450538 0
0.922972 0.449485 0
0.958175 0.448432 0
0.993378 0.447379 0
1 0.446326 0
1 0.445274 0
1 0.444236 0
0 0.510582 0.0200961
0.00425727 0.509529 0.0190585
0.0394598 0.508492 0.0180056
0.0746624 0.507439 0.0169528
0.109865 0.506386 0.0158999
0.145068 0.505333 0.014847
0.18027 0.50428 0.0138094
0.215457 0.503227 0.0127565
0.25066 0.50219 0.0117037
0.285863 0.501137 0.0106508
0.321065 0.500084 0.00959792
0.356268 0.499031 0.00854505
0.39147 0.497978 0.00750744
0.426673 0.496941 0.00645457
0.46186 0.495888 0.00540169
0.497063 0.494835 0.00434882
0.532265 0.493782 0.00329595
0.567468 0.492729 0.00225834
0.60267 0.491676 0.00120546
0.637873 0.490639 0.00015259
0.673075 0.489586 0
0.708278 0.488533 0
0.743465 0.48748 0
0.778668 0.486427 0
0.81387 0.48539 0
0.849073 0.484337 0
0.884276 0.483284 0
0.919478 0.482231 0
0.954681 0.481178 0
0.989883 0.480125 0
1 0.479088 0
1 0.478035 0
1 0.476982 0
0 0.543343 0.0166018
0.000762951 0.54229 0.0155489
0.0359655 0.541238 0.0144961
0.0711681 0.540185 0.0134585
0.106355 0.539132 0.0124056
0.141558 0.538079 0.0113527
0.176761 0.537041 0.0102998
0.211963 0.535988 0.00924697
0.247166 0.534936 0.00820935
0.282368 0.533883 0.00715648
0.317571 0.53283 0.00610361
0.352773 0.531792 0.00505074
0.387961 0.530739 0.00399786
0.423163 0.529686 0.00294499
0.458366 0.528634 0.00190738
0.493568 0.527581 0.000854505
0.528771 0.526528 0
0.563973 0.52549 0
0.599176 0.524437 0
0.634363 0.523384 0
0.669566 0.522332 0
0.704768 0.521279 0
0.739971 0.520226 0
0.775174 0.519188 0
0.810376 0.518135 0
0.845579 0.517082 0
0.880781 0.51603 0
0.915969 0.514977 0
0.951171 0.513939 0
0.986374 0.512886 0
1 0.511833 0
1 0.510781 0
1 0.509728 0
0 0.576089 0.0131075
0 0.575036 0.0120546
0.0324559 0.573983 0.0110018
0.0676585 0.572931 0.00994888
0.102861 0.571893 0.00889601
0.138064 0.57084 0.0078584
0.173266 0.569787 0.00680552
0.208469 0.568734 0.00575265
0.243671 0.567681 0.00469978
0.278859 0.566629 0.00364691
0.314061 0.565591 0.00260929
0.349264 0.564538 0.00155642
0.384466 0.563485 0.000503548
0.419669 0.562432 0
0.454871 0.561379 0
0.490074 0.560342 0
0.525261 0.559289 0
0.560464 0.558236 0
0.595666 0.557183 0
0.630869 0.55613 0
0.666072 0.555077 0
0.701274 0.55404 0
0.736477 0.552987 0
0.771679 0.551934 0
0.806867 0.550881 0
0.842069 0.549828 0
0.877272 0.548775 0
0.912474 0.547738 0
0.947677 0.546685 0
0.982879 0.545632 0
1 0.544579 0
1 0.543526 0
1 0.542489 0
0 0.608835 0.00959792
0 0.607782 0.00854505
0.0289616 0.606744 0.00750744
0.0641642 0.605692 0.00645457
0.0993668 0.604639 0.00540169
0.134569 0.603586 0.00434882
0.169757 0.602533 0.00329595
0.204959 0.60148 0.00225834
0.240162 0.600443 0.00120546
0.275364 0.59939 0.00015259
0.310567 0.598337 0
0.345769 0.597284 0
0.380972 0.596231 0
0.416159 0.595178 0
0.451362 0.594141 0
0.486564 0.593088 0
0.521767 0.592035 0
0.55697 0.590982 0
0.592172 0.589929 0
0.627375 0.588891 0
0.662577 0.587839 0
0.697765 0.586786 0
0.732967 0.585733 0
0.76817 0.58468 0
0.803372 0.583627 0
0.838575 0.582589 0
0.873777 0.581537 0
0.90898 0.580484 0
0.944183 0.579431 0
0.97937 0.578378 0
1 0.577325 0
1 0.576288 0
1 0.575235 0
0 0.641581 0.00610361
0 0.640543 0.00505074
0.0254673 0.63949 0.00399786
0.0606546 0.638437 0.00294499
0.0958572 0.637385 0.00190738
0.13106 0.636332 0.000854505
0.166262 0.635294 0
0.201465 0.634241 0
0.236667 0.633188 0
0.27187 0.632136 0
0.307073 0.631083 0
0.34226 0.63003 0
0.377462 0.628992 0
0.412665 0.627939 0
0.447868 0.626886 0
0.48307 0.625834 0
0.518273 0.624781 0
0.553475 0.623728 0
0.588663 0.62269 0
0.623865 0.621637 0
0.659068 0.620584 0
0.69427 0.619532 0
0.729473 0.618479 0
0.764675 0.617441 0
0.799878 0.616388 0
0.835081 0.615335 0
0.870268 0.614282 0
0.90547 0.61323 0
0.940673 0.612177 0
0.975875 0.611139 0
1 0.610086 0
1 0.609033 0
1 0.60798 0
0 0.674342 0.00260929
0 0.673289 0.00155642
0.0219577 0.672236 0.000503548
0.0571603 0.671183 0
0.0923629 0.67013 0
0.127565 0.669093 0
0.162768 0.66804 0
0.197971 0.666987 0
0.233158 0.665934 0
0.26836 0.664881 0
0.303563 0.663844 0
0.338766 0.662791 0
0.373968 0.661738 0
0.409171 0.660685 0
0.444373 0.659632 0
0.479561 0.658579 0
0.514763 0.657542 0
0.549966 0.656489 0
0.585168 0.655436 0
0.620371 0.654383 0
0.655573 0.65333 0
0.690776 0.652277 0
0.725978 0.65124 0
0.761166 0.650187 0
0.796368 0.649134 0
0.831571 0.648081 0
0.866773 0.647028 0
0.901976 0.645991 0
0.937179 0.644938 0
0.972381 0.643885 0
1 0.642832 0
1 0.641779 0
1 0.640726 0
0 0.707088 0
0 0.706035 0
0.0184634 0.704982 0
0.053666 0.703944 0
0.0888685 0.702892 0
0.124056 0.701839 0
0.159258 0.700786 0
0.194461 0.699733 0
0.229664 0.698695 0
0.264866 0.697643 0
0.300069 0.69659 0
0.335271 0.695537 0
0.370459 0.694484 0
0.405661 0.693431 0
0.440864 0.692393 0
0.476066 0.691341 0
0.511269 0.690288 0
0.546471 0.689235 0
0.581674 0.688182 0
0.616876 0.687129 0
0.652064 0.686091 0
0.687266 0.685039 0
0.722469 0.683986 0
0.757671 0.682933 0
0.792874 0.68188 0
0.828077 0.680842 0
0.863279 0.679789 0
0.898482 0.678737 0
0.933669 0.677684 0
0.968872 0.676631 0
1 0.675578 0
1 0.67454 0
1 0.673487 0
0 0.739834 0
0 0.738796 0
0.0149538 0.737743 0
0.0501564 0.73669 0
0.085359 0.735637 0
0.120562 0.734585 0
0.155764 0.733532 0
0.190967 0.732494 0
0.226169 0.731441 0
0.261372 0.730388 0
0.296559 0.729335 0
0.331762 0.728283 0
0.366964 0.727245 0
0.402167 0.726192 0
0.437369 0.725139 0
0.472572 0.724086 0
0.507774 0.723033 0
0.542962 0.721981 0
0.578164 0.720943 0
0.613367 0.71989 0
0.648569 0.718837 0
0.683772 0.717784 0
0.718975 0.716731 0
0.754177 0.715679 0
0.78938 0.714641 0
0.824567 0.713588 0
0.85977 0.712535 0
0.894972 0.711482 0
0.930175 0.71043 0
0.965377 0.709392 0
1 0.708339 0
1 0.707286 0
1 0.706233 0
0 0.772595 0
0 0.771542 0
0.0114595 0.770489 0
0.0466621 0.769436 0
0.0818647 0.768383 0
0.117067 0.767346 0
0.15227 0.766293 0
0.187457 0.76524 0
0.22266 0.764187 0
0.257862 0.763134 0
0.293065 0.762081 0
0.328267 0.761044 0
0.36347 0.759991 0
0.398672 0.758938 0
0.43386 0.757885 0
0.469062 0.756832 0
0.504265 0.755795 0
0.539467 0.754742 0
0.57467 0.753689 0
0.609873 0.752636 0
0.645075 0.751583 0
0.680278 0.75053 0
0.715465 0.749493 0
0.750668 0.74844 0
0.78587 0.747387 0
0.821073 0.746334 0
0.856275 0.745281 0
0.891478 0.744228 0
0.92668 0.743191 0
0.961868 0.742138 0
0.99707 0.741085 0
1 0.740032 0
1 0.738979 0
0 0.805341 0
0 0.804288 0
0.00796521 0.803235 0
0.0431678 0.802197 0
0.0783551 0.801144 0
0.113558 0.800092 0
0.14876 0.799039 0
0.183963 0.797986 0
0.219165 0.796933 0
0.254368 0.795895 0
0.28957 0.794842 0
0.324773 0.79379 0
0.35996 0.792737 0
0.395163 0.791684 0
0.430365 0.790631 0
0.465568 0.789593 0
0.500771 0.78854 0
0.535973 0.787488 0
0.571176 0.786435 0
0.606363 0.785382 0
0.641566 0.784344 0
0.676768 0.783291 0
0.711971 0.782238 0
0.747173 0.781186 0
0.782376 0.780133 0
0.817578 0.77908 0
0.852781 0.778042 0
0.887968 0.776989 0
0.923171 0.775937 0
0.958373 0.774884 0
0.993576 0.773831 0
1 0.772778 0
1 0.77174 0
0 0.838087 0
0 0.837034 0
0.00445563 0.835996 0
0.0396582 0.834943 0
0.0748608 0.83389 0
0.110063 0.832837 0
0.145266 0.831785 0
0.180468 0.830747 0
0.215671 0.829694 0
0.250858 0.828641 0
0.286061 0.827588 0
0.321263 0.826535 0
0.356466 0.825483 0
0.391669 0.824445 0
0.426871 0.823392 0
0.462074 0.822339 0
0.497261 0.821286 0
0.532464 0.820233 0
0.567666 0.819181 0
0.602869 0.818143 0
0.638071 0.81709 0
0.673274 0.816037 0
0.708476 0.814984 0
0.743679 0.813931 0
0.778866 0.812894 0
0.814069 0.811841 0
0.849271 0.810788 0
0.884474 0.809735 0
0.919676 0.808682 0
0.954879 0.80763 0
0.990082 0.806592 0
1 0.805539 0
1 0.804486 0
0 0.870848 0
0 0.869795 0
0.000961318 0.868742 0
0.0361639 0.867689 0
0.0713664 0.866636 0
0.106569 0.865583 0
0.141756 0.864546 0
0.176959 0.863493 0
0.212161 0.86244 0
0.247364 0.861387 0
0.282567 0.860334 0
0.317769 0.859297 0
0.352972 0.858244 0
0.388159 0.857191 0
0.423362 0.856138 0
0.458564 0.855085 0
0.493767 0.854032 0
0.528969 0.852995 0
0.564172 0.851942 0
0.599374 0.850889 0
0.634577 0.849836 0
0.669764 0.848783 0
0.704967 0.847745 0
0.740169 0.846693 0
0.775372 0.84564 0
0.810575 0.844587 0
0.845777 0.843534 0
0.88098 0.842481 0
0.916167 0.841443 0
0.95137 0.840391 0
0.986572 0.839338 0
1 0.838285 0
1 0.837232 0
0 0.903593 0
0 0.902541 0
0 0.901488 0
0.0326543 0.900435 0
0.0678569 0.899397 0
0.103059 0.898344 0
0.138262 0.897292 0
0.173465 0.896239 0
0.208667 0.895186 0
0.24387 0.894148 0
0.279072 0.893095 0
0.31426 0.892042 0
0.349462 0.89099 0
0.384665 0.889937 0
0.419867 0.888884 0
0.45507 0.887846 0
0.490272 0.886793 0
0.525475 0.88574 0
0.560662 0.884688 0
0.595865 0.883635 0
0.631067 0.882582 0
0.66627 0.881544 0
0.701473 0.880491 0
0.736675 0.879438 0
0.771878 0.878386 0
0.80708 0.877333 0
0.842268 0.876295 0
0.87747 0.875242 0
0.912673 0.874189 0
0.947875 0.873137 0
0.983078 0.872084 0
1 0.871031 0
1 0.869993 0
0 0.936339 0
0 0.935286 0
0 0.934249 0
0.02916 0.933196 0
0.0643626 0.932143 0
0.0995651 0.93109 0
0.134768 0.930037 0
0.16997 0.928985 0
0.205158 0.927947 0
