public/LUTS/Cinematic/Cinematic_01.cube
TITLE "Generated by Resolve"
LUT_3D_SIZE 33
0.0102235 0.0221256 0.0391394
0.0454108 0.0210727 0.0380865
0.0805982 0.0200351 0.0370336
0.115801 0.0189822 0.0359808
0.151003 0.0179294 0.0349432
0.186206 0.0168765 0.0338903
0.221408 0.0158236 0.0328374
0.256611 0.0147707 0.0317845
0.291814 0.0137331 0.0307317
0.327016 0.0126802 0.0296941
0.362203 0.0116274 0.0286412
0.397406 0.0105745 0.0275883
0.432609 0.00952163 0.0265354
0.467811 0.00846876 0.0254826
0.503014 0.00743114 0.0244297
0.538216 0.00637827 0.0233921
0.573419 0.0053254 0.0223392
0.608621 0.00427253 0.0212863
0.643809 0.00321965 0.0202335
0.679011 0.00218204 0.0191806
0.714214 0.00112917 0.018143
0.749416 7.62951e-05 0.0170901
0.784619 0 0.0160372
0.819821 0 0.0149844
0.855024 0 0.0139315
0.890211 0 0.0128786
0.925414 0 0.011841
0.960616 0 0.0107881
0.995819 0 0.00973526
1 0 0.00868238
1 0 0.00762951
1 0 0.0065919
1 0 0.00553903
0.00672923 0.0548562 0.0356451
0.0419013 0.0538186 0.0345922
0.0771038 0.0527657 0.0335393
0.112306 0.0517128 0.0324865
0.147509 0.05066 0.0314336
0.182712 0.0496071 0.030396
0.217914 0.0485695 0.0293431
0.253117 0.0475166 0.0282902
0.288304 0.0464637 0.0272374
0.323507 0.0454108 0.0261845
0.358709 0.044358 0.0251316
0.393912 0.0433051 0.024094
0.429114 0.0422675 0.0230411
0.464317 0.0412146 0.0219883
0.499519 0.0401617 0.0209354
0.534707 0.0391089 0.0198825
0.569909 0.038056 0.0188449
0.605112 0.0370031 0.017792
0.640314 0.0359655 0.0167391
0.675517 0.0349126 0.0156863
0.710719 0.0338598 0.0146334
0.745922 0.0328069 0.0135805
0.781125 0.031754 0.0125429
0.816312 0.0307164 0.01149
0.851514 0.0296635 0.0104372
0.886717 0.0286107 0.0093843
0.92192 0.0275578 0.00833143
0.957122 0.0265049 0.00729381
0.992325 0.025452 0.00624094
1 0.0244144 0.00518807
1 0.0233616 0.0041352
1 0.0223087 0.00308232
1 0.0212558 0.00204471
0.00321965 0.0876173 0.0321355
0.038407 0.0865644 0.0310826
0.0736095 0.0855116 0.030045
0.108812 0.0844587 0.0289921
0.144015 0.0834058 0.0279393
0.179202 0.0823682 0.0268864
0.214405 0.0813153 0.0258335
0.249607 0.0802625 0.0247959
0.28481 0.0792096 0.023743
0.320012 0.0781567 0.0226902
0.355215 0.0771191 0.0216373
0.390417 0.0760662 0.0205844
0.42562 0.0750134 0.0195315
0.460807 0.0739605 0.0184939
0.49601 0.0729076 0.0174411
0.531212 0.0718547 0.0163882
0.566415 0.0708171 0.0153353
0.601617 0.0697642 0.0142824
0.63682 0.0687114 0.0132448
0.672023 0.0676585 0.012192
0.70721 0.0666056 0.0111391
0.742412 0.0655528 0.0100862
0.777615 0.0645151 0.00903334
0.812818 0.0634623 0.00798047
0.84802 0.0624094 0.00694286
0.883223 0.0613565 0.00588998
0.918425 0.0603037 0.00483711
0.953628 0.059266 0.00378424
0.988815 0.0582132 0.00273136
1 0.0571603 0.00169375
1 0.0561074 0.000640879
1 0.0550546 0
1 0.0540017 0
0 0.120363 0.0286412
0.0349126 0.11931 0.0275883
0.0700999 0.118257 0.0265354
0.105303 0.11722 0.0254826
0.140505 0.116167 0.024445
0.175708 0.115114 0.0233921
0.21091 0.114061 0.0223392
0.246113 0.113008 0.0212863
0.281315 0.111955 0.0202335
0.316518 0.110918 0.0191806
0.351705 0.109865 0.018143
0.386908 0.108812 0.0170901
0.42211 0.107759 0.0160372
0.457313 0.106706 0.0149844
0.492515 0.105669 0.0139315
0.527718 0.104616 0.0128939
0.562921 0.103563 0.011841
0.598108 0.10251 0.0107881
0.63331 0.101457 0.00973526
0.668513 0.100404 0.00868238
0.703716 0.0993668 0.00764477
0.738918 0.0983139 0.0065919
0.774121 0.097261 0.00553903
0.809323 0.0962081 0.00448615
0.844526 0.0951553 0.00343328
0.879713 0.0941024 0.00238041
0.914916 0.0930648 0.00134279
0.950118 0.0920119 0.000289921
0.985321 0.090959 0
1 0.0899062 0
1 0.0888533 0
1 0.0878157 0
1 0.0867628 0
0 0.153109 0.0251316
0.0314031 0.152071 0.024094
0.0666056 0.151019 0.0230411
0.101808 0.149966 0.0219883
0.137011 0.148913 0.0209354
0.172213 0.14786 0.0198825
0.207416 0.146807 0.0188449
0.242603 0.145769 0.017792
0.277806 0.144717 0.0167391
0.313008 0.143664 0.0156863
0.348211 0.142611 0.0146334
0.383413 0.141558 0.0135805
0.418616 0.140505 0.0125429
0.453819 0.139467 0.01149
0.489021 0.138415 0.0104372
0.524208 0.137362 0.0093843
0.559411 0.136309 0.00833143
0.594614 0.135256 0.00729381
0.629816 0.134218 0.00624094
0.665019 0.133165 0.00518807
0.700221 0.132113 0.0041352
0.735424 0.13106 0.00308232
0.770611 0.130007 0.00204471
0.805814 0.128954 0.000991836
0.841016 0.127916 0
0.876219 0.126864 0
0.911421 0.125811 0
0.946624 0.124758 0
0.981826 0.123705 0
1 0.122667 0
1 0.121614 0
1 0.120562 0
1 0.119509 0
0 0.18587 0.0216373
0.0279088 0.184817 0.0205844
0.0631113 0.183764 0.0195315
0.0983139 0.182712 0.0184939
0.133501 0.181659 0.0174411
0.168704 0.180621 0.0163882
0.203906 0.179568 0.0153353
0.239109 0.178515 0.0142824
0.274311 0.177462 0.0132448
0.309514 0.17641 0.012192
0.344717 0.175357 0.0111391
0.379919 0.174319 0.0100862
0.415106 0.173266 0.00903334
0.450309 0.172213 0.00798047
0.485512 0.17116 0.00694286
0.520714 0.170108 0.00588998
0.555917 0.16907 0.00483711
0.591119 0.168017 0.00378424
0.626322 0.166964 0.00273136
0.661509 0.165911 0.00169375
0.696712 0.164858 0.000640879
0.731914 0.163806 0
0.767117 0.162768 0
0.802319 0.161715 0
0.837522 0.160662 0
0.872724 0.159609 0
0.907927 0.158556 0
0.943114 0.157504 0
0.978317 0.156466 0
1 0.155413 0
1 0.15436 0
1 0.153307 0
1 0.152255 0
0 0.218616 0.018143
0.0243992 0.217563 0.0170901
0.0596017 0.21651 0.0160372
0.0948043 0.215473 0.0149844
0.130007 0.21442 0.0139315
0.165209 0.213367 0.0128939
0.200412 0.212314 0.011841
0.235615 0.211261 0.0107881
0.270817 0.210208 0.00973526
0.306004 0.209171 0.00868238
0.341207 0.208118 0.00764477
0.37641 0.207065 0.0065919
0.411612 0.206012 0.00553903
0.446815 0.204959 0.00448615
0.482017 0.203906 0.00343328
0.51722 0.202869 0.00238041
0.552407 0.201816 0.00134279
0.58761 0.200763 0.000289921
0.622812 0.19971 0
0.658015 0.198657 0
0.693217 0.19762 0
0.72842 0.196567 0
0.763622 0.195514 0
0.798825 0.194461 0
0.834012 0.193408 0
0.869215 0.192355 0
0.904418 0.191318 0
0.93962 0.190265 0
0.974823 0.189212 0
1 0.188159 0
1 0.187106 0
1 0.186053 0
1 0.185016 0
0 0.251362 0.0146334
0.0209049 0.250309 0.0135805
0.0561074 0.249271 0.0125429
0.09131 0.248219 0.01149
0.126513 0.247166 0.0104372
0.161715 0.246113 0.0093843
0.196902 0.24506 0.00833143
0.232105 0.244022 0.00729381
0.267308 0.242969 0.00624094
0.30251 0.241917 0.00518807
0.337713 0.240864 0.0041352
0.372915 0.239811 0.00308232
0.408118 0.238758 0.00204471
0.44332 0.23772 0.000991836
0.478508 0.236667 0
0.51371 0.235615 0
0.548913 0.234562 0
0.584115 0.233509 0
0.619318 0.232456 0
0.654521 0.231418 0
0.689723 0.230365 0
0.72491 0.229313 0
0.760113 0.22826 0
0.795316 0.227207 0
0.830518 0.226169 0
0.865721 0.225116 0
0.900923 0.224063 0
0.936126 0.223011 0
0.971328 0.221958 0
1 0.220905 0
1 0.219867 0
1 0.218814 0
1 0.217762 0
0 0.284123 0.0111391
0.0174105 0.28307 0.0100862
0.0526131 0.282017 0.00903334
0.0878004 0.280964 0.00798047
0.123003 0.279911 0.00694286
0.158206 0.278859 0.00588998
0.193408 0.277821 0.00483711
0.228611 0.276768 0.00378424
0.263813 0.275715 0.00273136
0.299016 0.274662 0.00169375
0.334218 0.27361 0.000640879
0.369406 0.272572 0
0.404608 0.271519 0
0.439811 0.270466 0
0.475013 0.269413 0
0.510216 0.26836 0
0.545419 0.267308 0
0.580621 0.26627 0
0.615808 0.265217 0
0.651011 0.264164 0
0.686213 0.263111 0
0.721416 0.262058 0
0.756619 0.261006 0
0.791821 0.259968 0
0.827024 0.258915 0
0.862226 0.257862 0
0.897414 0.256809 0
0.932616 0.255756 0
0.967819 0.254719 0
1 0.253666 0
1 0.252613 0
1 0.25156 0
1 0.250507 0
0 0.316869 0.00764477
0.013901 0.315816 0.0065919
0.0491035 0.314763 0.00553903
0.0843061 0.31371 0.00448615
0.119509 0.312673 0.00343328
0.154711 0.31162 0.00238041
0.189914 0.310567 0.00134279
0.225116 0.309514 0.000289921
0.260304 0.308461 0
0.295506 0.307408 0
0.330709 0.306371 0
0.365911 0.305318 0
0.401114 0.304265 0
0.436316 0.303212 0
0.471519 0.302159 0
0.506706 0.301122 0
0.541909 0.300069 0
0.577111 0.299016 0
0.612314 0.297963 0
0.647517 0.29691 0
0.682719 0.295857 0
0.717922 0.29482 0
0.753124 0.293767 0
0.788312 0.292714 0
0.823514 0.291661 0
0.858717 0.290608 0
0.893919 0.289555 0
0.929122 0.288518 0
0.964324 0.287465 0
0.999527 0.286412 0
1 0.285359 0
1 0.284306 0
1 0.283268 0
0 0.349615 0.0041352
0.0104067 0.348562 0.00308232
0.0456092 0.347524 0.00204471
0.0808118 0.346471 0.000991836
0.116014 0.345418 0
0.151202 0.344366 0
0.186404 0.343313 0
0.221607 0.34226 0
0.256809 0.341222 0
0.292012 0.340169 0
0.327214 0.339117 0
0.362417 0.338064 0
0.39762 0.337011 0
0.432807 0.335973 0
0.468009 0.33492 0
0.503212 0.333867 0
0.538415 0.332815 0
0.573617 0.331762 0
0.60882 0.330709 0
0.644022 0.329671 0
0.67921 0.328618 0
0.714412 0.327565 0
0.749615 0.326513 0
0.784817 0.32546 0
0.82002 0.324407 0
0.855222 0.323369 0
0.890425 0.322316 0
0.925628 0.321263 0
0.960815 0.320211 0
0.996017 0.319158 0
1 0.31812 0
1 0.317067 0
1 0.316014 0
0 0.382361 0.000640879
0.00691234 0.381323 0
0.0420996 0.38027 0
0.0773022 0.379217 0
0.112505 0.378164 0
0.147707 0.377111 0
0.18291 0.376074 0
0.218112 0.375021 0
0.253315 0.373968 0
0.288518 0.372915 0
0.323705 0.371862 0
0.358907 0.370809 0
0.39411 0.369772 0
0.429313 0.368719 0
0.464515 0.367666 0
0.499718 0.366613 0
0.53492 0.36556 0
0.570108 0.364523 0
0.60531 0.36347 0
0.640513 0.362417 0
0.675715 0.361364 0
0.710918 0.360311 0
0.74612 0.359258 0
0.781323 0.358221 0
0.816526 0.357168 0
0.851713 0.356115 0
0.886915 0.355062 0
0.922118 0.354009 0
0.957321 0.352956 0
0.992523 0.351919 0
1 0.350866 0
1 0.349813 0
1 0.34876 0
0 0.415122 0
0.00340276 0.414069 0
0.0386053 0.413016 0
0.0738079 0.411963 0
0.10901 0.410925 0
0.144213 0.409873 0
0.179416 0.40882 0
0.214603 0.407767 0
0.249805 0.406714 0
0.285008 0.405661 0
0.320211 0.404623 0
0.355413 0.403571 0
0.390616 0.402518 0
0.425818 0.401465 0
0.461006 0.400412 0
0.496208 0.399359 0
0.531411 0.398322 0
0.566613 0.397269 0
0.601816 0.396216 0
0.637018 0.395163 0
0.672221 0.39411 0
0.707424 0.393072 0
0.742611 0.39202 0
0.777813 0.390967 0
0.813016 0.389914 0
0.848219 0.388861 0
0.883421 0.387808 0
0.918624 0.38677 0
0.953826 0.385718 0
0.989029 0.384665 0
1 0.383612 0
1 0.382559 0
1 0.381506 0
0 0.447868 0
0 0.446815 0
0.035111 0.445762 0
0.0703136 0.444724 0
0.105501 0.443671 0
0.140703 0.442618 0
0.175906 0.441566 0
0.211109 0.440513 0
0.246311 0.439475 0
0.281514 0.438422 0
0.316716 0.437369 0
0.351919 0.436316 0
0.387106 0.435264 0
0.422309 0.434211 0
0.457511 0.433173 0
0.492714 0.43212 0
0.527916 0.431067 0
0.563119 0.430014 0
0.598321 0.428962 0
0.633509 0.427909 0
0.668711 0.426871 0
0.703914 0.425818 0
0.739116 0.424765 0
0.774319 0.423713 0
0.809522 0.42266 0
0.844724 0.421622 0
0.879927 0.420569 0
0.915114 0.419516 0
0.950317 0.418463 0
0.985519 0.417411 0
1 0.416358 0
1 0.41532 0
1 0.414267 0
0 0.480613 0
0 0.479576 0
0.0316014 0.478523 0
0.066804 0.47747 0
0.102007 0.476417 0
0.137209 0.475364 0
0.172412 0.474311 0
0.207614 0.473274 0
0.242817 0.472221 0
0.278004 0.471168 0
0.313207 0.470115 0
0.348409 0.469062 0
0.383612 0.468025 0
0.418814 0.466972 0
0.454017 0.465919 0
0.489219 0.464866 0
0.524407 0.463813 0
0.559609 0.46276 0
0.594812 0.461723 0
0.630014 0.46067 0
0.665217 0.459617 0
0.70042 0.458564 0
0.735622 0.457511 0
0.770825 0.456458 0
0.806012 0.455421 0
0.841215 0.454368 0
0.876417 0.453315 0
0.91162 0.452262 0
0.946822 0.451209 0
0.982025 0.450172 0
1 0.449119 0
1 0.448066 0
1 0.447013 0
0 0.513375 0
0 0.512322 0
0.0281071 0.511269 0
0.0633097 0.510216 0
0.0985122 0.509163 0
0.133715 0.508125 0
0.168902 0.507073 0
0.204105 0.50602 0
0.239307 0.504967 0
0.27451 0.503914 0
0.309712 0.502876 0
0.344915 0.501823 0
0.380118 0.500771 0
0.415305 0.499718 0
0.450507 0.498665 0
0.48571 0.497612 0
0.520912 0.496574 0
0.556115 0.495521 0
0.591318 0.494469 0
0.62652 0.493416 0
0.661723 0.492363 0
0.69691 0.49131 0
0.732113 0.490272 0
0.767315 0.489219 0
0.802518 0.488167 0
0.83772 0.487114 0
0.872923 0.486061 0
0.908125 0.485023 0
0.943328 0.48397 0
0.978515 0.482918 0
1 0.481865 0
1 0.480812 0
1 0.479759 0
0 0.54612 0
0 0.545068 0
0.0246128 0.544015 0
0.0598001 0.542977 0
0.0950027 0.541924 0
0.130205 0.540871 0
0.165408 0.539818 0
0.20061 0.538766 0
0.235813 0.537713 0
0.271015 0.536675 0
0.306218 0.535622 0
0.341405 0.534569 0
0.376608 0.533516 0
0.41181 0.532464 0
0.447013 0.531426 0
0.482216 0.530373 0
0.517418 0.52932 0
0.552621 0.528267 0
0.587808 0.527214 0
0.623011 0.526162 0
0.658213 0.525124 0
0.693416 0.524071 0
0.728618 0.523018 0
0.763821 0.521965 0
0.799023 0.520912 0
0.834226 0.51986 0
0.869413 0.518822 0
0.904616 0.517769 0
0.939818 0.516716 0
0.975021 0.515663 0
1 0.514611 0
1 0.513573 0
1 0.51252 0
0 0.578866 0
0 0.577829 0
0.0211032 0.576776 0
0.0563058 0.575723 0
0.0915084 0.57467 0
0.126711 0.573617 0
0.161913 0.572564 0
0.197116 0.571527 0
0.232303 0.570474 0
0.267506 0.569421 0
0.302708 0.568368 0
0.337911 0.567315 0
0.373114 0.566262 0
0.408316 0.565225 0
0.443519 0.564172 0
0.478706 0.563119 0
0.513909 0.562066 0
0.549111 0.561013 0
0.584314 0.559976 0
0.619516 0.558923 0
0.654719 0.55787 0
0.689921 0.556817 0
0.725124 0.555764 0
0.760311 0.554711 0
0.795514 0.553674 0
0.830716 0.552621 0
0.865919 0.551568 0
0.901122 0.550515 0
0.936324 0.549462 0
0.971527 0.548409 0
1 0.547372 0
1 0.546319 0
1 0.545266 0
0 0.611627 0
0 0.610574 0
0.0176089 0.609522 0
0.0528115 0.608469 0
0.088014 0.607416 0
0.123201 0.606378 0
0.158404 0.605325 0
0.193606 0.604273 0
0.228809 0.60322 0
0.264012 0.602167 0
0.299214 0.601114 0
0.334417 0.600076 0
0.369619 0.599023 0
0.404807 0.597971 0
0.440009 0.596918 0
0.475212 0.595865 0
0.510414 0.594812 0
0.545617 0.593774 0
0.580819 0.592721 0
0.616022 0.591669 0
0.651209 0.590616 0
0.686412 0.589563 0
0.721614 0.588525 0
0.756817 0.587472 0
0.79202 0.586419 0
0.827222 0.585367 0
0.862425 0.584314 0
0.897627 0.583261 0
0.932815 0.582223 0
0.968017 0.58117 0
1 0.580118 0
1 0.579065 0
1 0.578012 0
0 0.644373 0
0 0.64332 0
0.0140993 0.642267 0
0.0493019 0.641215 0
0.0845045 0.640177 0
0.119707 0.639124 0
0.15491 0.638071 0
0.190112 0.637018 0
0.225315 0.635966 0
0.260517 0.634928 0
0.295705 0.633875 0
0.330907 0.632822 0
0.36611 0.631769 0
0.401312 0.630716 0
0.436515 0.629664 0
0.471717 0.628626 0
0.50692 0.627573 0
0.542107 0.62652 0
0.57731 0.625467 0
0.612512 0.624414 0
0.647715 0.623362 0
0.682918 0.622324 0
0.71812 0.621271 0
0.753323 0.620218 0
0.788525 0.619165 0
0.823713 0.618112 0
0.858915 0.617075 0
0.894118 0.616022 0
0.92932 0.614969 0
0.964523 0.613916 0
0.999725 0.612863 0
1 0.611811 0
1 0.610773 0
0 0.677119 0
0 0.676066 0
0.010605 0.675029 0
0.0458076 0.673976 0
0.0810101 0.672923 0
0.116213 0.67187 0
0.151415 0.670817 0
0.186603 0.669779 0
0.221805 0.668727 0
0.257008 0.667674 0
0.29221 0.666621 0
0.327413 0.665568 0
0.362615 0.664515 0
0.397818 0.663478 0
0.433005 0.662425 0
0.468208 0.661372 0
0.50341 0.660319 0
0.538613 0.659266 0
0.573816 0.658213 0
0.609018 0.657176 0
0.644221 0.656123 0
0.679423 0.65507 0
0.714611 0.654017 0
0.749813 0.652964 0
0.785016 0.651926 0
0.820218 0.650874 0
0.855421 0.649821 0
0.890623 0.648768 0
0.925826 0.647715 0
0.961028 0.646662 0
0.996216 0.645624 0
1 0.644572 0
1 0.643519 0
0 0.70988 0
0 0.708827 0
0.0071107 0.707774 0
0.0423133 0.706722 0
0.0775006 0.705669 0
0.112703 0.704616 0
0.147906 0.703578 0
0.183108 0.702525 0
0.218311 0.701473 0
0.253513 0.70042 0
0.288716 0.699367 0
0.323919 0.698329 0
0.359106 0.697276 0
0.394308 0.696223 0
0.429511 0.695171 0
0.464714 0.694118 0
0.499916 0.693065 0
0.535119 0.692027 0
0.570321 0.690974 0
0.605509 0.689921 0
0.640711 0.688869 0
0.675914 0.687816 0
0.711116 0.686763 0
0.746319 0.685725 0
0.781521 0.684672 0
0.816724 0.683619 0
0.851926 0.682567 0
0.887114 0.681514 0
0.922316 0.680476 0
0.957519 0.679423 0
0.992721 0.67837 0
1 0.677317 0
1 0.676265 0
0 0.742626 0
0 0.741573 0
0.00360113 0.74052 0
0.0388037 0.739467 0
0.0740063 0.73843 0
0.109209 0.737377 0
0.144411 0.736324 0
0.179614 0.735271 0
0.214817 0.734218 0
0.250004 0.733166 0
0.285206 0.732128 0
0.320409 0.731075 0
0.355612 0.730022 0
0.390814 0.728969 0
0.426017 0.727916 0
0.461219 0.726879 0
0.496406 0.725826 0
0.531609 0.724773 0
0.566812 0.72372 0
0.602014 0.722667 0
0.637217 0.721614 0
0.672419 0.720577 0
0.707622 0.719524 0
0.742824 0.718471 0
0.778012 0.717418 0
0.813214 0.716365 0
0.848417 0.715312 0
0.883619 0.714275 0
0.918822 0.713222 0
0.954025 0.712169 0
0.989227 0.711116 0
1 0.710063 0
1 0.709026 0
0 0.775372 0
0 0.774319 0
0.000106813 0.773281 0
0.0353094 0.772229 0
0.0705119 0.771176 0
0.105715 0.770123 0
0.140902 0.76907 0
0.176104 0.768017 0
0.211307 0.766979 0
0.246509 0.765927 0
0.281712 0.764874 0
0.316915 0.763821 0
0.352117 0.762768 0
0.387304 0.761715 0
0.422507 0.760678 0
0.45771 0.759625 0
0.492912 0.758572 0
0.528115 0.757519 0
0.563317 0.756466 0
0.59852 0.755428 0
0.633722 0.754376 0
0.66891 0.753323 0
0.704112 0.75227 0
0.739315 0.751217 0
0.774517 0.750164 0
0.80972 0.749126 0
0.844923 0.748074 0
0.880125 0.747021 0
0.915328 0.745968 0
0.950515 0.744915 0
0.985718 0.743862 0
1 0.742824 0
1 0.741772 0
0 0.808118 0
0 0.80708 0
0 0.806027 0
0.0317998 0.804974 0
0.0670024 0.803922 0
0.102205 0.802869 0
0.137407 0.801831 0
0.17261 0.800778 0
0.207813 0.799725 0
0.243015 0.798672 0
0.278218 0.79762 0
0.313405 0.796567 0
0.348608 0.795529 0
0.38381 0.794476 0
0.419013 0.793423 0
0.454215 0.79237 0
0.489418 0.791318 0
0.52462 0.790265 0
0.559808 0.789227 0
0.59501 0.788174 0
0.630213 0.787121 0
0.665415 0.786068 0
0.700618 0.785016 0
0.735821 0.783978 0
0.771023 0.782925 0
0.806226 0.781872 0
0.841413 0.780819 0
0.876616 0.779767 0
0.911818 0.778714 0
0.947021 0.777676 0
0.982223 0.776623 0
1 0.77557 0
1 0.774517 0
0 0.840879 0
0 0.839826 0
0 0.838773 0
0.0283055 0.83772 0
0.063508 0.836667 0
0.0987106 0.83563 0
0.133913 0.834577 0
0.169116 0.833524 0
0.204303 0.832471 0
0.239506 0.831418 0
0.274708 0.830381 0
0.309911 0.829328 0
0.345113 0.828275 0
0.380316 0.827222 0
0.415518 0.826169 0
0.450706 0.825116 0
0.485908 0.824079 0
0.521111 0.823026 0
0.556313 0.821973 0
0.591516 0.82092 0
0.626719 0.819867 0
0.661921 0.818814 0
0.697124 0.817777 0
0.732311 0.816724 0
0.767514 0.815671 0
0.802716 0.814618 0
0.837919 0.813565 0
0.873121 0.812528 0
0.908324 0.811475 0
0.943526 0.810422 0
0.978714 0.809369 0
1 0.808316 0
1 0.807263 0
0 0.873625 0
0 0.872572 0
0 0.871519 0
0.0248112 0.870481 0
0.0600137 0.869429 0
0.095201 0.868376 0
0.130404 0.867323 0
0.165606 0.86627 0
0.200809 0.865232 0
0.236011 0.864179 0
0.271214 0.863127 0
0.306416 0.862074 0
0.341619 0.861021 0
0.376806 0.859968 0
0.412009 0.85893 0
0.447211 0.857877 0
0.482414 0.856825 0
0.517617 0.855772 0
0.552819 0.854719 0
0.588022 0.853666 0
0.623209 0.852628 0
0.658412 0.851575 0
0.693614 0.850523 0
0.728817 0.84947 0
0.764019 0.848417 0
0.799222 0.847379 0
0.834424 0.846326 0
0.869627 0.845273 0
0.904814 0.844221 0
0.940017 0.843168 0
0.975219 0.842115 0
1 0.841077 0
1 0.840024 0
0 0.906371 0
0 0.905333 0
0 0.90428 0
0.0213016 0.903227 0
0.0565042 0.902174 0
0.0917067 0.901122 0
0.126909 0.900069 0
0.162112 0.899031 0
0.197314 0.897978 0
