public/LUTS/Cinematic/Cinematic_25.cube
TITLE "Generated by Resolve"
LUT_3D_SIZE 5
0.043473 0.0606546 0.0658427
0.148516 0.0884871 0.0707713
0.432044 0.118227 0.0616159
0.79733 0.245441 0.130114
0.911803 0.433478 0.168994
0.0550088 0.132326 0.0908827
0.146639 0.131304 0.0817578
0.464347 0.193103 0.0730755
0.820798 0.279698 0.137224
0.911437 0.410697 0.16611
0.0620737 0.284398 0.145281
0.120974 0.314488 0.130831
0.535393 0.335119 0.101274
0.874678 0.478233 0.169482
0.915084 0.593072 0.192752
0.13373 0.602762 0.229587
0.184573 0.628809 0.211826
0.571496 0.75697 0.255711
0.9066 0.694301 0.209277
0.918486 0.714839 0.21445
0.225376 0.878447 0.307225
0.292119 0.903578 0.290089
0.581369 0.942412 0.339086
0.872312 0.94992 0.3888
0.947951 0.923049 0.371084
0.0344091 0.158465 0.203357
0.0728771 0.151476 0.16997
0.285176 0.204959 0.172061
0.778012 0.314549 0.137972
0.911818 0.435401 0.169238
0.0366674 0.158755 0.183673
0.0740215 0.168978 0.19472
0.389044 0.208148 0.159945
0.801755 0.293065 0.13521
0.911665 0.425528 0.167971
0.0747082 0.372656 0.289723
0.0635233 0.327001 0.22211
0.464103 0.351064 0.152956
0.841535 0.482094 0.165164
0.915145 0.593545 0.192844
0.14905 0.660822 0.370901
0.144091 0.634897 0.293553
0.458732 0.714107 0.264622
0.864851 0.707042 0.206531
0.918837 0.724697 0.216297
0.211673 0.892042 0.45687
0.249393 0.898039 0.370947
0.511681 0.92343 0.350835
0.821271 0.950729 0.404166
0.944839 0.915663 0.349218
0.080766 0.388037 0.515282
0.0771801 0.377966 0.444068
0.0734112 0.367071 0.336477
0.635523 0.388037 0.208225
0.950027 0.600931 0.553826
0.0807813 0.389013 0.502663
0.0817578 0.391257 0.528984
0.0877852 0.377386 0.382101
0.657908 0.40885 0.258061
0.950301 0.605463 0.556619
0.0809033 0.390738 0.488609
0.0872816 0.416754 0.508049
0.166033 0.476646 0.577813
0.757977 0.550011 0.528634
0.946334 0.599084 0.492714
0.150774 0.66627 0.683116
0.166217 0.725032 0.692302
0.169314 0.723629 0.61825
0.82298 0.756725 0.484962
0.945586 0.768765 0.412177
0.219028 0.919142 0.812314
0.218433 0.916884 0.744503
0.31191 0.930205 0.628931
0.74963 0.95877 0.561151
0.953735 0.918059 0.436728
0.157946 0.68629 0.80267
0.156634 0.683284 0.777615
0.151003 0.663966 0.732738
0.44303 0.647288 0.707881
0.917357 0.67129 0.708492
0.155138 0.674632 0.804593
0.154192 0.670222 0.812924
0.148821 0.652781 0.763943
0.480262 0.64123 0.73312
0.920913 0.668116 0.720195
0.151873 0.661906 0.801038
0.153063 0.666178 0.808621
0.153689 0.667155 0.825513
0.575067 0.657023 0.807874
0.94258 0.686183 0.767834
0.151949 0.662409 0.799405
0.156771 0.681254 0.805692
0.166278 0.717723 0.824689
0.681437 0.785183 0.872023
0.973922 0.811444 0.864958
0.193103 0.818051 0.907439
0.199924 0.844755 0.911131
0.211261 0.889082 0.914229
0.594186 0.956909 0.869398
0.976822 0.945098 0.773938
0.1953 0.8271 0.898543
0.195392 0.82797 0.894926
0.192248 0.815549 0.893614
0.319966 0.799649 0.916747
0.903502 0.76112 0.919478
0.191638 0.811963 0.909239
0.191211 0.810132 0.914885
0.188663 0.800397 0.906111
0.341695 0.790768 0.924636
0.906233 0.755077 0.92224
0.187533 0.795178 0.914397
0.185382 0.786557 0.914107
0.18323 0.778317 0.913802
0.373587 0.772992 0.939956
0.915908 0.750774 0.934493
0.18471 0.784222 0.914
0.18471 0.784253 0.914
0.187884 0.796689 0.914427
0.504021 0.808698 0.950393
0.952804 0.80296 0.951782
0.187243 0.794141 0.914656
0.190433 0.806806 0.914839
0.194858 0.824567 0.915511
0.546212 0.863355 0.954833
0.954849 0.955673 0.952117
