public/LUTS/Cinematic/Cinematic_11.cube
TITLE "Generated by Resolve"
LUT_3D_SIZE 33
0.141207 0.120073 0.112917
0.157229 0.12517 0.115953
0.173739 0.130114 0.119341
0.190478 0.133944 0.122454
0.20853 0.138491 0.124895
0.226093 0.14258 0.127733
0.244221 0.14638 0.130739
0.262989 0.151034 0.134127
0.281071 0.155169 0.137224
0.299214 0.159319 0.140475
0.317968 0.164477 0.144366
0.336706 0.169512 0.148425
0.357031 0.175937 0.153735
0.376028 0.182239 0.158602
0.394064 0.18822 0.163729
0.411917 0.19408 0.169635
0.430213 0.200259 0.175494
0.4477 0.206455 0.17911
0.464012 0.211551 0.184939
0.480613 0.217395 0.191363
0.497704 0.223896 0.19762
0.514641 0.230426 0.203403
0.530098 0.236805 0.208835
0.546014 0.243732 0.213993
0.561791 0.250355 0.22002
0.57702 0.256825 0.226032
0.590768 0.263172 0.23122
0.603159 0.269413 0.235828
0.616297 0.275227 0.241764
0.62858 0.28188 0.246937
0.638895 0.288151 0.251591
0.643015 0.290822 0.253468
0.642786 0.290608 0.2533
0.147311 0.136385 0.11812
0.165133 0.141573 0.121416
0.182712 0.145754 0.124239
0.199924 0.149615 0.127504
0.21854 0.155138 0.130541
0.237568 0.159319 0.133104
0.257084 0.164172 0.136873
0.276524 0.169192 0.141054
0.295918 0.174258 0.144976
0.315648 0.1794 0.14844
0.335286 0.184726 0.152209
0.354345 0.190936 0.156954
0.374823 0.19704 0.162448
0.394308 0.203067 0.167697
0.413153 0.209445 0.173342
0.431754 0.215747 0.179644
0.450126 0.222004 0.185443
0.467842 0.228092 0.189395
0.484749 0.233783 0.195224
0.501503 0.239994 0.201816
0.517891 0.246403 0.208209
0.534432 0.252857 0.21442
0.550072 0.259174 0.219989
0.56527 0.266529 0.224582
0.580591 0.273243 0.230411
0.594949 0.27953 0.236454
0.607523 0.285969 0.241718
0.618433 0.292256 0.245899
0.630625 0.298253 0.252201
0.641398 0.304631 0.256886
0.65156 0.311025 0.26183
0.655726 0.313588 0.263874
0.655619 0.313527 0.263813
0.152453 0.153399 0.12343
0.171527 0.158846 0.126848
0.19057 0.162478 0.129046
0.208835 0.166232 0.131762
0.228534 0.171725 0.134936
0.247181 0.175677 0.137316
0.267231 0.181125 0.141848
0.286732 0.186526 0.146761
0.306874 0.192218 0.151293
0.328054 0.198596 0.155169
0.347051 0.205051 0.159823
0.366552 0.211429 0.165194
0.387747 0.217563 0.171038
0.407584 0.223285 0.176715
0.425788 0.228992 0.182437
0.444053 0.235309 0.188556
0.463737 0.241688 0.193561
0.480629 0.247654 0.198672
0.497307 0.253834 0.204623
0.513802 0.260243 0.210971
0.529992 0.266667 0.217212
0.546395 0.273304 0.223239
0.561624 0.279713 0.227436
0.576806 0.286 0.233219
0.590906 0.292378 0.239414
0.604486 0.298741 0.245014
0.61738 0.305364 0.250141
0.627848 0.311742 0.255039
0.639368 0.31841 0.261067
0.650172 0.324971 0.264927
0.660365 0.331456 0.270466
0.665064 0.334462 0.273411
0.664881 0.334295 0.273289
0.156512 0.169467 0.128893
0.176425 0.17615 0.132525
0.196704 0.180941 0.135088
0.217044 0.184482 0.136599
0.23714 0.1888 0.13962
0.256001 0.193378 0.142748
0.275944 0.198611 0.147021
0.296361 0.204242 0.151781
0.317342 0.210498 0.15668
0.338842 0.217212 0.161578
0.358953 0.224521 0.167651
0.3785 0.231098 0.173846
0.399725 0.237491 0.179446
0.419959 0.243626 0.185275
0.438117 0.249729 0.19144
0.455985 0.256168 0.197421
0.475502 0.261616 0.202258
0.493111 0.267353 0.207736
0.510307 0.273579 0.213855
0.526558 0.280034 0.220157
0.542412 0.286946 0.226444
0.558175 0.293202 0.231968
0.57322 0.299687 0.236713
0.58706 0.305959 0.242451
0.601892 0.312535 0.248737
0.615366 0.318898 0.253834
0.627085 0.325185 0.25832
0.638376 0.331624 0.26421
0.649287 0.338552 0.269718
0.659434 0.346441 0.274205
0.66923 0.353704 0.279362
0.674128 0.357183 0.282185
0.673945 0.357 0.282094
0.15877 0.186084 0.134142
0.179538 0.194232 0.138415
0.20058 0.199725 0.14139
0.220264 0.203174 0.144045
0.244266 0.209476 0.14699
0.264622 0.214176 0.149294
0.284474 0.219638 0.153567
0.304707 0.225559 0.158373
0.325734 0.231586 0.162921
0.347707 0.238376 0.168536
0.368795 0.245167 0.173785
0.388739 0.251514 0.180179
0.410407 0.258564 0.186908
0.431617 0.265644 0.193881
0.450797 0.271916 0.200626
0.468284 0.277623 0.205936
0.48719 0.283238 0.211368
0.504875 0.289357 0.217029
0.522454 0.295872 0.223301
0.538781 0.302266 0.229572
0.553994 0.308705 0.235721
0.56936 0.315099 0.241703
0.584527 0.321599 0.246174
0.598444 0.328099 0.251896
0.612207 0.335592 0.258137
0.625299 0.342702 0.263706
0.637507 0.349279 0.268574
0.648768 0.355703 0.273701
0.659663 0.362753 0.27924
0.668772 0.369848 0.283635
0.678691 0.376577 0.28896
0.684733 0.380224 0.292332
0.68455 0.380041 0.292226
0.160266 0.200702 0.137545
0.182376 0.210559 0.143801
0.203296 0.217121 0.147189
0.224918 0.223835 0.150454
0.248356 0.228931 0.153384
0.270771 0.233677 0.156252
0.292103 0.239292 0.160327
0.313283 0.245335 0.164935
0.33434 0.250889 0.169329
0.355337 0.257359 0.175296
0.377661 0.26482 0.181933
0.398062 0.271473 0.188479
0.420432 0.279149 0.195422
0.442298 0.286625 0.20238
0.461555 0.292866 0.208957
0.47982 0.298894 0.214817
0.499001 0.304799 0.220645
0.516808 0.310994 0.226413
0.533959 0.31725 0.232547
0.550286 0.323888 0.238865
0.565515 0.331044 0.245136
0.580972 0.337881 0.251682
0.595499 0.344396 0.256596
0.609644 0.351125 0.261723
0.623255 0.359091 0.26772
0.6365 0.367544 0.274037
0.648981 0.374823 0.279683
0.659113 0.381399 0.284474
0.669764 0.388113 0.290349
0.678981 0.394766 0.294728
0.689036 0.401541 0.300099
0.695354 0.405325 0.3037
0.695171 0.405112 0.303548
0.160311 0.214771 0.139742
0.184512 0.227314 0.147448
0.207507 0.236194 0.152697
0.229328 0.243153 0.156298
0.253101 0.248768 0.160052
0.276265 0.254093 0.164019
0.298833 0.259861 0.168093
0.320363 0.265538 0.172183
0.341299 0.271168 0.176883
0.362707 0.277562 0.183169
0.385122 0.28571 0.190021
0.407385 0.292439 0.196918
0.430457 0.300099 0.20415
0.452689 0.30782 0.211215
0.472618 0.314351 0.217762
0.4916 0.320699 0.224125
0.510643 0.326848 0.230152
0.528527 0.333242 0.236164
0.545434 0.339727 0.242206
0.562005 0.346914 0.2486
0.5776 0.354696 0.255055
0.592615 0.361212 0.261418
0.606577 0.3682 0.267155
0.62118 0.375509 0.272587
0.635004 0.383734 0.278538
0.648127 0.392584 0.285008
0.660624 0.4009 0.291234
0.67071 0.40911 0.297108
0.680766 0.416175 0.303136
0.690486 0.422721 0.307897
0.700114 0.429526 0.312963
0.706081 0.433585 0.316381
0.705913 0.43331 0.316243
0.160662 0.228901 0.142107
0.185153 0.243137 0.150088
0.210758 0.254215 0.157168
0.233768 0.262013 0.162005
0.25835 0.269123 0.167056
0.281605 0.275227 0.171801
0.304402 0.280995 0.176074
0.326528 0.286305 0.180072
0.347707 0.292287 0.185092
0.369741 0.298726 0.191455
0.391409 0.306752 0.197543
0.415702 0.313848 0.204868
0.440208 0.321508 0.212787
0.463416 0.329671 0.220569
0.483986 0.336461 0.227161
0.503029 0.342931 0.233356
0.522179 0.349325 0.239918
0.540352 0.35668 0.246509
0.556924 0.363851 0.252567
0.572854 0.371054 0.25861
0.588937 0.378378 0.265064
0.604212 0.385611 0.271565
0.618509 0.393439 0.277836
0.632685 0.401099 0.28423
0.646235 0.409567 0.290806
0.659175 0.418845 0.297414
0.672068 0.428382 0.303975
0.682673 0.437522 0.310307
0.692943 0.446845 0.316152
0.702556 0.453986 0.321843
0.711955 0.4607 0.327016
0.718273 0.465431 0.330159
0.718151 0.465171 0.329992
0.161593 0.242725 0.144701
0.185763 0.258717 0.153628
0.212329 0.271046 0.161196
0.238071 0.281636 0.167849
0.262898 0.28986 0.174166
0.286915 0.296117 0.178866
0.310552 0.302159 0.183932
0.33341 0.307576 0.188907
0.355276 0.31284 0.19292
0.376242 0.319585 0.198962
0.39913 0.327199 0.205859
0.422766 0.334829 0.213275
0.447684 0.342718 0.221408
0.472969 0.351308 0.229892
0.494545 0.358282 0.236454
0.514122 0.365667 0.242817
0.534112 0.372702 0.250568
0.551568 0.379065 0.256901
0.567834 0.386175 0.263218
0.58378 0.394568 0.27013
0.599664 0.402853 0.276783
0.614374 0.410636 0.283207
0.629236 0.418463 0.289982
0.643229 0.426673 0.296544
0.656519 0.435645 0.303029
0.669718 0.445609 0.309834
0.682155 0.455497 0.316594
0.692134 0.464149 0.322576
0.703685 0.473182 0.328862
0.712764 0.48127 0.334356
0.721309 0.489143 0.339712
0.728161 0.49482 0.343771
0.728008 0.494545 0.343603
0.161486 0.257496 0.146593
0.187243 0.275349 0.157183
0.215457 0.291081 0.166583
0.240772 0.301091 0.173342
0.267155 0.312001 0.180972
0.292439 0.319142 0.18703
0.316503 0.324071 0.19234
0.339574 0.329122 0.197665
0.360998 0.334539 0.201785
0.384604 0.341192 0.208072
0.407553 0.349172 0.215076
0.430472 0.35642 0.22208
0.455482 0.36463 0.230198
0.481392 0.37406 0.239185
0.504112 0.382818 0.247074
0.523781 0.389792 0.253697
0.544259 0.397559 0.261234
0.562371 0.404379 0.267796
0.579324 0.411444 0.274144
0.595651 0.419455 0.280674
0.610636 0.428138 0.287129
0.625803 0.4365 0.293507
0.639475 0.44535 0.300755
0.653635 0.455024 0.308217
0.667185 0.464088 0.315389
0.680125 0.473335 0.322423
0.693263 0.483925 0.329015
0.703548 0.492546 0.335286
0.714244 0.502022 0.341604
0.722286 0.509865 0.347692
0.730327 0.51754 0.353918
0.737591 0.52369 0.358648
0.737575 0.52369 0.358633
0.162509 0.27274 0.14905
0.189471 0.291936 0.159899
0.219104 0.308095 0.169833
0.245441 0.321813 0.179171
0.272801 0.333333 0.188067
0.298238 0.341299 0.195315
0.322469 0.347616 0.20119
0.346059 0.35285 0.205966
0.368811 0.358419 0.211322
0.391928 0.364508 0.21735
0.415564 0.370733 0.223316
0.438758 0.377768 0.23032
0.463584 0.386557 0.239185
0.489296 0.396109 0.248463
0.512062 0.405509 0.255848
0.533013 0.413931 0.264103
0.553552 0.421881 0.27129
0.572519 0.429465 0.277913
0.589868 0.43682 0.284749
0.606485 0.444877 0.292287
0.621668 0.453788 0.298772
0.636851 0.462745 0.305379
0.650629 0.472267 0.312337
0.664057 0.481621 0.31928
0.677348 0.491264 0.326833
0.690486 0.501518 0.335042
0.703685 0.512184 0.341848
0.713298 0.520775 0.348562
0.72343 0.529915 0.354345
0.732128 0.538018 0.361151
0.740459 0.545937 0.36817
0.747814 0.552789 0.372915
0.747662 0.552499 0.372717
0.16463 0.289448 0.152041
0.192615 0.310353 0.16405
0.224094 0.328466 0.174578
0.250584 0.342733 0.184939
0.278843 0.355612 0.194736
0.305196 0.365164 0.203189
0.329778 0.372213 0.210117
0.353597 0.377905 0.215518
0.376715 0.383215 0.221057
0.399817 0.388861 0.227207
0.423407 0.394644 0.233051
0.447089 0.400931 0.239582
0.471656 0.409018 0.24802
0.49723 0.418616 0.257832
0.520058 0.427878 0.265507
0.541512 0.4374 0.274083
0.562005 0.445731 0.281651
0.581277 0.454002 0.288609
0.599298 0.462516 0.295827
0.616083 0.471153 0.303716
0.631998 0.480201 0.310552
0.647135 0.48957 0.317205
0.661006 0.498802 0.324102
0.674479 0.508064 0.330861
0.687846 0.518288 0.338613
0.700313 0.528649 0.347372
0.712932 0.538689 0.354269
0.721782 0.547845 0.361868
0.731991 0.557443 0.368185
0.741115 0.565438 0.375204
0.749386 0.572671 0.382193
0.757168 0.580301 0.386999
0.757046 0.579934 0.386709
0.169619 0.309743 0.156817
0.197498 0.331197 0.169451
0.229435 0.35079 0.181338
0.257298 0.366552 0.192279
0.286366 0.380728 0.203052
0.313436 0.391516 0.212314
0.338094 0.399115 0.22005
0.362112 0.404974 0.226841
0.385702 0.4103 0.232807
0.408911 0.415946 0.239033
0.431922 0.421485 0.244953
0.455238 0.42678 0.250843
0.479713 0.433356 0.25803
0.505745 0.44239 0.26746
0.528649 0.451682 0.276326
0.549187 0.460075 0.28368
0.569772 0.469078 0.291936
0.589654 0.478523 0.300114
0.608133 0.488258 0.307744
0.624735 0.497536 0.314687
0.64123 0.507027 0.321798
0.656809 0.51664 0.328435
0.670726 0.525673 0.33608
0.684611 0.535271 0.343481
0.697993 0.545037 0.350835
0.70956 0.554452 0.359625
0.72163 0.564279 0.366506
0.730526 0.573861 0.375051
0.739925 0.583169 0.382208
0.747906 0.590799 0.389288
0.755383 0.597742 0.396643
0.763989 0.604852 0.402411
0.763882 0.604578 0.402167
0.176715 0.331472 0.163073
0.204837 0.354467 0.176181
0.236072 0.374777 0.189914
0.265538 0.392782 0.201526
0.294942 0.407614 0.212894
0.322469 0.419638 0.223087
0.347555 0.428687 0.231785
0.372152 0.435096 0.240131
0.395773 0.439887 0.246494
0.418509 0.444755 0.252338
0.441459 0.449928 0.258259
0.464454 0.454765 0.264256
0.488487 0.46038 0.270665
0.51397 0.467292 0.27718
0.536629 0.476432 0.286229
0.55816 0.484337 0.293736
0.579019 0.493843 0.302281
0.598611 0.503044 0.310811
0.616876 0.512367 0.31899
0.633265 0.521843 0.326375
0.650706 0.532616 0.333089
0.666407 0.542245 0.340047
0.680735 0.551614 0.348257
0.694209 0.561639 0.355947
0.707042 0.571664 0.363027
0.719417 0.581369 0.37203
0.729885 0.591012 0.378973
0.739498 0.599557 0.386984
0.748974 0.60766 0.394797
0.756451 0.614786 0.40209
0.7626 0.621195 0.408942
0.770245 0.62707 0.414664
0.770138 0.62681 0.41442
0.184436 0.353445 0.170855
0.212802 0.376883 0.18439
0.243793 0.398657 0.19794
0.27361 0.416938 0.209934
0.303532 0.43328 0.221958
0.331624 0.446555 0.233127
0.35729 0.456138 0.242863
0.382773 0.463233 0.251667
0.405585 0.469413 0.258427
0.429328 0.473396 0.264759
0.452735 0.477073 0.271214
0.475517 0.480827 0.276936
0.498711 0.486168 0.282704
0.52221 0.492317 0.289555
0.54255 0.498817 0.296361
0.564843 0.507652 0.303944
0.586297 0.516976 0.311711
0.606348 0.526146 0.319707
0.625025 0.535149 0.327871
0.641901 0.544854 0.335729
0.658534 0.554589 0.343801
0.67393 0.56408 0.350469
0.688563 0.573495 0.357809
0.702419 0.583429 0.365988
0.714565 0.593149 0.374029
0.725811 0.602564 0.382269
0.736065 0.611994 0.389822
0.745571 0.620295 0.397894
0.755138 0.628382 0.405173
0.762356 0.63534 0.412833
0.767697 0.641382 0.420996
0.776089 0.648798 0.426978
0.776074 0.648692 0.426917
0.195117 0.377935 0.17911
0.223545 0.40235 0.192218
0.254429 0.424598 0.207294
0.284367 0.44358 0.22089
0.313848 0.459571 0.233509
0.342382 0.472572 0.244724
0.368811 0.482109 0.253864
0.394415 0.48983 0.262409
0.416342 0.495949 0.270558
0.440803 0.499504 0.277195
0.462989 0.502831 0.283299
0.484581 0.506752 0.289372
0.507515 0.511223 0.295415
0.531014 0.517555 0.302113
0.551537 0.522652 0.308278
0.57203 0.528374 0.314916
0.592401 0.536477 0.322286
0.612543 0.546548 0.330434
0.63183 0.556741 0.338766
0.649973 0.566918 0.347204
0.665263 0.575647 0.354314
0.681086 0.584619 0.361013
0.695644 0.594293 0.368231
0.708766 0.603647 0.375937
0.720974 0.612573 0.384298
0.731319 0.621454 0.39295
0.741772 0.630579 0.400778
0.750683 0.63827 0.408865
0.759441 0.64625 0.41619
0.766903 0.653208 0.423255
0.772931 0.659144 0.430976
0.781384 0.667292 0.437644
0.781338 0.667109 0.437446
0.206378 0.403067 0.18761
0.235248 0.427573 0.201572
0.265888 0.45069 0.216968
0.295705 0.470008 0.230655
0.325109 0.486137 0.24361
0.353628 0.499107 0.255253
0.380804 0.509148 0.265034
0.406363 0.516381 0.273762
0.428321 0.522759 0.282353
0.452354 0.526543 0.289448
0.474281 0.529168 0.295796
0.495033 0.532219 0.302022
0.517159 0.535805 0.307973
0.540017 0.541512 0.314199
0.560922 0.545937 0.320333
0.580682 0.550759 0.32639
0.599588 0.557 0.333181
0.618982 0.565728 0.341054
0.638437 0.575845 0.348974
0.656519 0.58703 0.357824
0.672328 0.595575 0.364599
0.687892 0.604517 0.371466
0.701839 0.613611 0.378241
0.714549 0.622477 0.385306
0.727062 0.630961 0.393347
0.73695 0.639368 0.402579
0.747036 0.647456 0.410254
0.755383 0.654734 0.418387
0.763333 0.662165 0.42591
0.770825 0.669306 0.433112
0.777325 0.675044 0.440284
0.785199 0.682353 0.446937
0.785489 0.682506 0.446952
0.218875 0.429007 0.196857
0.248478 0.453361 0.211444
0.278935 0.476173 0.226246
0.308537 0.496239 0.240116
0.337713 0.512291 0.253346
0.3664 0.525216 0.265904
0.392721 0.534829 0.276356
0.418036 0.541619 0.285237
0.440818 0.548501 0.294362
0.464561 0.552468 0.301839
0.486198 0.554498 0.308156
0.506004 0.556146 0.313802
0.526894 0.558679 0.319005
0.549096 0.563775 0.325795
0.570047 0.568276 0.331807
0.589227 0.573083 0.33727
0.60734 0.578073 0.343542
0.625849 0.584741 0.350881
0.645212 0.594171 0.35848
0.662272 0.605295 0.367178
0.678935 0.613184 0.373754
0.693889 0.62211 0.380606
0.707637 0.631342 0.387472
0.720394 0.63975 0.394125
0.732479 0.647639 0.401328
0.742245 0.655589 0.410254
0.752163 0.66334 0.418341
0.760174 0.670436 0.42652
0.767544 0.677012 0.433829
0.774472 0.683131 0.440986
0.780346 0.689021 0.449485
0.787869 0.695293 0.455879
0.788556 0.695949 0.456504
0.231464 0.453727 0.205798
0.262135 0.478813 0.220813
0.292851 0.501183 0.235462
0.322499 0.522026 0.249943
0.351583 0.538018 0.263737
0.379507 0.549355 0.276478
0.404578 0.558663 0.287648
0.429953 0.565713 0.297017
0.453239 0.572274 0.306279
0.476432 0.575555 0.313649
0.49752 0.57731 0.319615
0.51693 0.579004 0.324697
0.537453 0.580835 0.329091
0.558022 0.584619 0.33666
0.577569 0.588281 0.341588
0.596658 0.592782 0.347051
0.614969 0.597818 0.353323
0.63209 0.603235 0.359594
0.649577 0.610712 0.366201
0.667384 0.621317 0.375463
0.684962 0.629084 0.382361
0.699672 0.637552 0.388907
0.712734 0.645899 0.395438
0.725322 0.653941 0.402396
0.736553 0.662074 0.409827
0.746502 0.66923 0.41828
0.756252 0.676509 0.426047
0.76408 0.683101 0.433692
0.771466 0.689097 0.441245
0.778698 0.69485 0.448585
0.784176 0.700191 0.45536
0.790845 0.70663 0.462058
0.791623 0.70724 0.462684
0.244694 0.478676 0.214908
0.276036 0.504585 0.230838
0.30602 0.525902 0.245808
0.335454 0.545937 0.260273
0.364477 0.561837 0.273991
0.392309 0.573175 0.286809
0.416526 0.582986 0.298116
0.44213 0.589044 0.308782
0.465309 0.595102 0.316503
0.488151 0.598657 0.324468
0.509804 0.601129 0.331487
0.52929 0.602777 0.336202
0.548348 0.603616 0.340658
0.568124 0.607462 0.347066
0.586435 0.608469 0.351568
0.604898 0.61265 0.357366
0.622751 0.617807 0.362982
0.639887 0.623285 0.368521
0.656458 0.630335 0.375677
0.673182 0.637293 0.382956
0.690044 0.644709 0.389685
0.704906 0.652796 0.395987
0.717815 0.660609 0.402838
0.729534 0.667323 0.410239
0.740887 0.674601 0.417609
0.750835 0.682048 0.425162
0.759075 0.688777 0.432837
0.766613 0.695033 0.440497
0.774334 0.701366 0.447837
0.781582 0.706996 0.45452
0.786389 0.710826 0.46125
0.792508 0.717083 0.468528
0.793515 0.718029 0.469581
0.258259 0.503243 0.224643
0.28925 0.525307 0.239429
0.318181 0.546456 0.255283
0.346975 0.565591 0.269459
0.376593 0.581949 0.283131
0.40441 0.5935 0.296117
0.42797 0.602197 0.306477
0.453544 0.608423 0.317235
0.476799 0.614542 0.326757
0.499001 0.618494 0.334295
0.520027 0.620996 0.340703
0.539315 0.622538 0.346242
0.557107 0.622553 0.350393
0.576333 0.625635 0.357
0.594781 0.627955 0.362203
0.612131 0.630747 0.367025
0.629007 0.634821 0.372015
0.64564 0.640055 0.377569
0.66125 0.645701 0.384192
0.67866 0.651926 0.39118
0.694087 0.658457 0.397208
0.708156 0.665904 0.403571
0.721065 0.67335 0.410529
0.732708 0.679667 0.417411
0.744198 0.686976 0.424277
0.753216 0.692958 0.432151
0.761517 0.69929 0.439582
0.769131 0.704723 0.44686
0.776349 0.709926 0.453452
0.783337 0.715908 0.45977
0.788495 0.720485 0.466346
0.794125 0.725841 0.47361
0.795239 0.726818 0.474922
0.271916 0.52723 0.234684
0.302205 0.549798 0.250309
0.331136 0.568017 0.264881
0.359457 0.586267 0.278477
0.387884 0.602304 0.291661
0.415702 0.613306 0.304723
0.43949 0.62179 0.314824
0.465263 0.627665 0.325902
0.488121 0.633249 0.335012
0.509606 0.637369 0.343099
0.529961 0.639994 0.350164
0.549294 0.641596 0.355962
0.567468 0.641993 0.359899
0.585855 0.644007 0.366094
0.603433 0.646265 0.371664
0.62002 0.648692 0.376501
0.635935 0.651743 0.381262
0.651423 0.655802 0.386603
0.667079 0.660578 0.392874
0.683116 0.666407 0.399435
0.697505 0.67277 0.405386
0.710948 0.678859 0.410941
0.723598 0.684977 0.416938
0.735256 0.691066 0.423331
0.74699 0.69807 0.430289
0.755306 0.703822 0.438636
0.763806 0.709361 0.445914
0.771252 0.714122 0.452445
0.777905 0.718624 0.458656
0.784695 0.724102 0.465049
0.790143 0.72874 0.471412
0.795697 0.733852 0.477897
0.79707 0.735073 0.479408
0.285191 0.551156 0.244388
0.315755 0.573495 0.260334
0.344427 0.589303 0.274083
0.371817 0.605341 0.287037
0.398993 0.620691 0.300038
0.426368 0.630732 0.312978
0.451286 0.639246 0.323552
0.475868 0.644724 0.333776
0.498543 0.650187 0.342626
0.519783 0.654246 0.350759
0.54023 0.657237 0.358602
0.559274 0.659052 0.36466
0.577218 0.659617 0.36878
0.595148 0.661448 0.374716
0.612268 0.663661 0.380697
0.628107 0.665614 0.385595
0.643137 0.667918 0.390265
0.657588 0.670802 0.395483
0.672801 0.675242 0.401175
0.6878 0.680705 0.407355
0.700908 0.68603 0.412848
0.713741 0.691035 0.418021
0.726085 0.695781 0.423056
0.737438 0.701579 0.428946
0.748684 0.707591 0.43563
0.757183 0.713695 0.44361
0.765606 0.718807 0.450675
0.773083 0.723644 0.457298
0.779507 0.728237 0.463539
0.78584 0.732067 0.469291
0.790845 0.735439 0.475624
0.796887 0.74139 0.481926
0.798718 0.743267 0.483803
0.298283 0.574701 0.254154
0.329 0.59556 0.269337
0.357244 0.609888 0.282795
0.384192 0.623697 0.295888
0.41033 0.637171 0.308476
0.436271 0.645701 0.32015
0.462333 0.654124 0.331136
0.485954 0.660044 0.341253
0.508507 0.665278 0.350347
0.529809 0.669261 0.358251
0.550088 0.672175 0.365545
0.569009 0.674678 0.372457
0.58616 0.675105 0.377584
0.603418 0.677028 0.383276
0.619944 0.678904 0.388891
0.635477 0.680568 0.393942
0.65005 0.682551 0.398795
0.664149 0.6851 0.404273
0.677043 0.688594 0.40827
0.692195 0.692912 0.413504
0.705104 0.697353 0.419211
0.717159 0.701991 0.425254
0.728862 0.706294 0.430686
0.738598 0.709712 0.434134
0.748333 0.715862 0.440269
0.75819 0.720989 0.446891
0.766857 0.726864 0.45388
0.774151 0.731548 0.460227
0.780835 0.734829 0.466255
0.786969 0.73817 0.472221
0.790692 0.742443 0.478676
0.796887 0.747707 0.485023
0.799023 0.749386 0.486976
0.312566 0.598795 0.265324
0.342214 0.617166 0.278767
0.369696 0.630137 0.291676
0.395865 0.641245 0.304417
0.421897 0.652888 0.316716
0.447684 0.661768 0.327367
0.473167 0.669093 0.337148
0.496452 0.674922 0.348608
0.518898 0.679393 0.358236
0.539864 0.682811 0.365911
0.559442 0.685679 0.372885
0.577874 0.687739 0.379812
0.59443 0.689052 0.385702
0.611917 0.691218 0.39176
0.627802 0.692973 0.397574
0.642618 0.694682 0.402533
0.656672 0.696345 0.406897
0.670451 0.698146 0.412985
0.683192 0.701122 0.416968
0.695888 0.704326 0.422217
0.708934 0.708461 0.426749
0.721157 0.712627 0.431388
0.731868 0.716426 0.436408
0.741115 0.71986 0.439689
0.748989 0.722744 0.443137
0.758251 0.727169 0.449714
0.767468 0.732784 0.456519
0.774884 0.737636 0.463004
0.780545 0.741131 0.469139
0.787076 0.745815 0.475547
0.792477 0.748913 0.481132
0.797787 0.752438 0.487251
0.799756 0.753796 0.489494
0.327413 0.621164 0.277348
0.356695 0.636835 0.28896
0.383764 0.647837 0.300771
0.409293 0.657191 0.312871
0.43473 0.66772 0.324514
0.459541 0.674998 0.335241
0.482597 0.681712 0.345052
0.505928 0.687388 0.354757
0.527764 0.691371 0.363867
0.548623 0.694484 0.372168
0.568032 0.697261 0.379187
0.586419 0.700038 0.386618
0.602121 0.701366 0.392126
0.619455 0.703288 0.39942
0.635325 0.705684 0.405615
0.649607 0.707668 0.410483
0.663661 0.709239 0.415427
0.677165 0.710674 0.421103
0.688899 0.713771 0.425299
0.701183 0.716411 0.430503
0.712963 0.71957 0.434913
0.723964 0.722835 0.43856
0.734676 0.726299 0.443061
0.743923 0.729747 0.447379
0.751049 0.731716 0.449195
0.75848 0.734005 0.452598
0.767147 0.738674 0.458167
0.774929 0.74377 0.464927
0.780255 0.747097 0.471214
0.78677 0.751232 0.477562
0.793011 0.754879 0.483543
0.798917 0.758343 0.489342
0.801251 0.759655 0.491493
0.341436 0.642481 0.28629
0.369543 0.655848 0.297887
0.396231 0.665995 0.309682
0.421225 0.673854 0.321324
0.445457 0.68249 0.332006
0.470268 0.688029 0.343236
0.49305 0.695079 0.352651
0.51632 0.70013 0.36228
0.537484 0.703624 0.370642
0.556786 0.706462 0.378378
0.575113 0.709133 0.386313
0.593484 0.71107 0.393332
0.609995 0.713008 0.399542
0.626764 0.715297 0.406363
0.642451 0.717494 0.412573
0.65684 0.719417 0.417945
0.670619 0.721035 0.423072
0.683574 0.72314 0.428168
0.694911 0.725856 0.433326
0.706355 0.728313 0.437949
0.717037 0.730404 0.441962
0.727306 0.732891 0.44596
0.737438 0.735912 0.449836
0.746395 0.738888 0.45362
0.753414 0.740353 0.455344
0.760143 0.742184 0.457603
0.767529 0.7449 0.460975
0.774578 0.748562 0.466072
0.779934 0.752316 0.47248
0.786969 0.756344 0.478752
0.793088 0.760311 0.485344
0.799222 0.764157 0.491066
0.801999 0.765835 0.493446
0.353552 0.659266 0.295048
0.381735 0.671626 0.307012
0.407401 0.680583 0.318013
0.432074 0.687266 0.329229
0.455711 0.694194 0.339269
0.479896 0.699046 0.350195
0.502693 0.705776 0.35967
