public/LUTS/Cinematic/Cinematic_02.cube
TITLE "Generated by Resolve"
LUT_3D_SIZE 33
0.00836194 0.0372778 0.0542916
0.0435492 0.0362402 0.0532387
0.0787518 0.0351873 0.0521859
0.113954 0.0341344 0.0511482
0.149157 0.0330816 0.0500954
0.18436 0.0320287 0.0490425
0.219547 0.0309758 0.0479896
0.254749 0.0299382 0.0469368
0.289952 0.0288853 0.0458991
0.325154 0.0278325 0.0448463
0.360357 0.0267796 0.0437934
0.39556 0.0257267 0.0427405
0.430762 0.0246891 0.0416876
0.465965 0.0236362 0.0406348
0.501152 0.0225834 0.0395972
0.536355 0.0215305 0.0385443
0.571557 0.0204776 0.0374914
0.60676 0.0194247 0.0364385
0.641962 0.0183871 0.0353857
0.677165 0.0173342 0.0343481
0.712367 0.0162814 0.0332952
0.74757 0.0152285 0.0322423
0.782757 0.0141756 0.0311894
0.81796 0.0131228 0.0301366
0.853162 0.0120851 0.029099
0.888365 0.0110323 0.0280461
0.923568 0.0099794 0.0269932
0.95877 0.00892653 0.0259403
0.993973 0.00787366 0.0248875
1 0.00683604 0.0238346
1 0.00578317 0.022797
1 0.0047303 0.0217441
1 0.00367742 0.0206912
0.00486763 0.0700236 0.0507973
0.0400549 0.0689708 0.0497444
0.0752575 0.0679179 0.0486915
0.11046 0.066865 0.0476387
0.145647 0.0658122 0.0466011
0.18085 0.0647746 0.0455482
0.216052 0.0637217 0.0444953
0.251255 0.0626688 0.0434424
0.286458 0.0616159 0.0423896
0.32166 0.0605631 0.0413367
0.356863 0.0595102 0.0402991
0.392065 0.0584726 0.0392462
0.427253 0.0574197 0.0381933
0.462455 0.0563668 0.0371405
0.497658 0.055314 0.0360876
0.53286 0.0542611 0.03505
0.568063 0.0532082 0.0339971
0.603265 0.0521706 0.0329442
0.638468 0.0511177 0.0318914
0.673671 0.0500649 0.0308385
0.708858 0.049012 0.0298009
0.74406 0.0479591 0.028748
0.779263 0.0469215 0.0276951
0.814466 0.0458686 0.0266423
0.849668 0.0448157 0.0255894
0.884871 0.0437629 0.0245365
0.920073 0.04271 0.0234989
0.955261 0.0416571 0.022446
0.990463 0.0406195 0.0213931
1 0.0395666 0.0203403
1 0.0385138 0.0192874
1 0.0374609 0.0182498
1 0.036408 0.0171969
0.00137331 0.10277 0.0472877
0.0365606 0.101717 0.0462501
0.0717479 0.100664 0.0451972
0.10695 0.0996262 0.0441444
0.142153 0.0985733 0.0430915
0.177356 0.0975204 0.0420386
0.212558 0.0964675 0.041001
0.247761 0.0954147 0.0399481
0.282963 0.0943618 0.0388952
0.318151 0.0933242 0.0378424
0.353353 0.0922713 0.0367895
0.388556 0.0912184 0.0357366
0.423758 0.0901656 0.034699
0.458961 0.0891127 0.0336461
0.494163 0.0880598 0.0325933
0.529366 0.0870222 0.0315404
0.564569 0.0859693 0.0304875
0.599756 0.0849165 0.0294499
0.634958 0.0838636 0.028397
0.670161 0.0828107 0.0273442
0.705364 0.0817731 0.0262913
0.740566 0.0807202 0.0252384
0.775769 0.0796674 0.0242008
0.810971 0.0786145 0.0231479
0.846159 0.0775616 0.0220951
0.881361 0.0765087 0.0210422
0.916564 0.0754711 0.0199893
0.951766 0.0744182 0.0189364
0.986969 0.0733654 0.0178988
1 0.0723125 0.016846
1 0.0712596 0.0157931
1 0.0702068 0.0147402
1 0.0691691 0.0136873
0 0.135515 0.0437934
0.033051 0.134463 0.0427405
0.0682536 0.133425 0.0416876
0.103456 0.132372 0.04065
0.138659 0.131319 0.0395972
0.173861 0.130266 0.0385443
0.209049 0.129213 0.0374914
0.244251 0.128176 0.0364385
0.279454 0.127123 0.0354009
0.314656 0.12607 0.0343481
0.349859 0.125017 0.0332952
0.385061 0.123964 0.0322423
0.420264 0.122911 0.0311894
0.455467 0.121874 0.0301366
0.490654 0.120821 0.029099
0.525856 0.119768 0.0280461
0.561059 0.118715 0.0269932
0.596262 0.117662 0.0259403
0.631464 0.116609 0.0248875
0.666667 0.115572 0.0238499
0.701869 0.114519 0.022797
0.737057 0.113466 0.0217441
0.772259 0.112413 0.0206912
0.807462 0.11136 0.0196384
0.842664 0.110323 0.0185855
0.877867 0.10927 0.0175479
0.913069 0.108217 0.016495
0.948272 0.107164 0.0154421
0.983474 0.106111 0.0143893
1 0.105058 0.0133364
1 0.104021 0.0122988
1 0.102968 0.0112459
1 0.101915 0.010193
0 0.168276 0.0402991
0.0295567 0.167224 0.0392462
0.0647593 0.166171 0.0381933
0.0999619 0.165118 0.0371405
0.135149 0.164065 0.0360876
0.170352 0.163012 0.03505
0.205554 0.161975 0.0339971
0.240757 0.160922 0.0329442
0.275959 0.159869 0.0318914
0.311162 0.158816 0.0308385
0.346365 0.157763 0.0298009
0.381552 0.156725 0.028748
0.416754 0.155673 0.0276951
0.451957 0.15462 0.0266423
0.48716 0.153567 0.0255894
0.522362 0.152514 0.0245365
0.557565 0.151461 0.0234989
0.592767 0.150423 0.022446
0.62797 0.149371 0.0213931
0.663157 0.148318 0.0203403
0.69836 0.147265 0.0192874
0.733562 0.146212 0.0182498
0.768765 0.145159 0.0171969
0.803967 0.144121 0.016144
0.83917 0.143069 0.0150912
0.874372 0.142016 0.0140383
0.90956 0.140963 0.0129854
0.944762 0.13991 0.0119478
0.979965 0.138872 0.0108949
1 0.137819 0.00984207
1 0.136767 0.0087892
1 0.135714 0.00773632
1 0.134661 0.00669871
0 0.201022 0.0367895
0.0260471 0.199969 0.0357366
0.0612497 0.198917 0.034699
0.0964523 0.197864 0.0336461
0.131655 0.196826 0.0325933
0.166857 0.195773 0.0315404
0.20206 0.19472 0.0304875
0.237263 0.193668 0.0294499
0.27245 0.192615 0.028397
0.307652 0.191562 0.0273442
0.342855 0.190524 0.0262913
0.378058 0.189471 0.0252384
0.41326 0.188418 0.0241855
0.448463 0.187366 0.0231479
0.483665 0.186313 0.0220951
0.518868 0.185275 0.0210422
0.554055 0.184222 0.0199893
0.589258 0.183169 0.0189364
0.62446 0.182116 0.0178988
0.659663 0.181064 0.016846
0.694865 0.180011 0.0157931
0.730068 0.178973 0.0147402
0.76527 0.17792 0.0136873
0.800458 0.176867 0.0126497
0.83566 0.175814 0.0115969
0.870863 0.174762 0.010544
0.906065 0.173709 0.00949111
0.941268 0.172671 0.00843824
0.976471 0.171618 0.00738537
1 0.170565 0.00634775
1 0.169512 0.00529488
1 0.16846 0.00424201
1 0.167422 0.00318914
0 0.233768 0.0332952
0.0225528 0.232715 0.0322423
0.0577554 0.231678 0.0311894
0.092958 0.230625 0.0301366
0.128161 0.229572 0.029099
0.163348 0.228519 0.0280461
0.19855 0.227466 0.0269932
0.233753 0.226413 0.0259403
0.268956 0.225376 0.0248875
0.304158 0.224323 0.0238499
0.339361 0.22327 0.022797
0.374563 0.222217 0.0217441
0.409766 0.221164 0.0206912
0.444953 0.220111 0.0196384
0.480156 0.219074 0.0185855
0.515358 0.218021 0.0175479
0.550561 0.216968 0.016495
0.585763 0.215915 0.0154421
0.620966 0.214862 0.0143893
0.656168 0.213825 0.0133364
0.691356 0.212772 0.0122988
0.726558 0.211719 0.0112459
0.761761 0.210666 0.010193
0.796963 0.209613 0.00914015
0.832166 0.20856 0.00808728
0.867369 0.207523 0.00704967
0.902571 0.20647 0.0059968
0.937774 0.205417 0.00494392
0.972961 0.204364 0.00389105
1 0.203311 0.00283818
1 0.202274 0.00178531
1 0.201221 0.000747692
1 0.200168 0
0 0.266514 0.0297856
0.0190585 0.265476 0.028748
0.0542611 0.264424 0.0276951
0.0894484 0.263371 0.0266423
0.124651 0.262318 0.0255894
0.159854 0.261265 0.0245365
0.195056 0.260227 0.0234989
0.230259 0.259174 0.022446
0.265461 0.258122 0.0213931
0.300664 0.257069 0.0203403
0.335851 0.256016 0.0192874
0.371054 0.254963 0.0182498
0.406256 0.253925 0.0171969
0.441459 0.252872 0.016144
0.476661 0.25182 0.0150912
0.511864 0.250767 0.0140383
0.547066 0.249714 0.0129854
0.582269 0.248676 0.0119478
0.617456 0.247623 0.0108949
0.652659 0.246571 0.00984207
0.687861 0.245518 0.0087892
0.723064 0.244465 0.00773632
0.758267 0.243412 0.00669871
0.793469 0.242374 0.00564584
0.828672 0.241321 0.00459297
0.863859 0.240269 0.00354009
0.899062 0.239216 0.00248722
0.934264 0.238163 0.00144961
0.969467 0.23711 0.000396735
1 0.236072 0
1 0.235019 0
1 0.233967 0
1 0.232914 0
0 0.299275 0.0262913
0.0155489 0.298222 0.0252384
0.0507515 0.297169 0.0242008
0.0859541 0.296117 0.0231479
0.121157 0.295079 0.0220951
0.156359 0.294026 0.0210422
0.191562 0.292973 0.0199893
0.226749 0.29192 0.0189364
0.261952 0.290867 0.0178988
0.297154 0.289815 0.016846
0.332357 0.288777 0.0157931
0.367559 0.287724 0.0147402
0.402762 0.286671 0.0136873
0.437964 0.285618 0.0126497
0.473167 0.284566 0.0115969
0.508354 0.283513 0.010544
0.543557 0.282475 0.00949111
0.578759 0.281422 0.00843824
0.613962 0.280369 0.00738537
0.649165 0.279316 0.00634775
0.684367 0.278264 0.00529488
0.71957 0.277226 0.00424201
0.754757 0.276173 0.00318914
0.78996 0.27512 0.00213626
0.825162 0.274067 0.00109865
0.860365 0.273014 4.57771e-05
0.895567 0.271962 0
0.93077 0.270924 0
0.965972 0.269871 0
1 0.268818 0
1 0.267765 0
1 0.266712 0
1 0.26566 0
0 0.332021 0.022797
0.0120546 0.330968 0.0217441
0.0472572 0.329915 0.0206912
0.0824598 0.328878 0.0196384
0.117647 0.327825 0.0185855
0.15285 0.326772 0.0175479
0.188052 0.325719 0.016495
0.223255 0.324666 0.0154421
0.258457 0.323629 0.0143893
0.29366 0.322576 0.0133364
0.328862 0.321523 0.0122988
0.364065 0.32047 0.0112459
0.399252 0.319417 0.010193
0.434455 0.318364 0.00914015
0.469657 0.317327 0.00808728
0.50486 0.316274 0.00704967
0.540063 0.315221 0.0059968
0.575265 0.314168 0.00494392
0.610468 0.313115 0.00389105
0.64567 0.312062 0.00283818
0.680858 0.311025 0.00178531
0.71606 0.309972 0.000747692
0.751263 0.308919 0
0.786465 0.307866 0
0.821668 0.306813 0
0.85687 0.305776 0
0.892073 0.304723 0
0.92726 0.30367 0
0.962463 0.302617 0
0.997665 0.301564 0
1 0.300511 0
1 0.299474 0
1 0.298421 0
0 0.364767 0.0192874
0.00856031 0.363729 0.0182498
0.0437476 0.362676 0.0171969
0.0789502 0.361624 0.016144
0.114153 0.360571 0.0150912
0.149355 0.359518 0.0140383
0.184558 0.358465 0.0129854
0.21976 0.357427 0.0119478
0.254963 0.356374 0.0108949
0.29015 0.355322 0.00984207
0.325353 0.354269 0.0087892
0.360555 0.353216 0.00773632
0.395758 0.352178 0.00669871
0.430961 0.351125 0.00564584
0.466163 0.350072 0.00459297
0.501366 0.34902 0.00354009
0.536568 0.347967 0.00248722
0.571756 0.346914 0.00144961
0.606958 0.345876 0.000396735
0.642161 0.344823 0
0.677363 0.343771 0
0.712566 0.342718 0
0.747768 0.341665 0
0.782971 0.340612 0
0.818158 0.339574 0
0.853361 0.338521 0
0.888563 0.337469 0
0.923766 0.336416 0
0.958968 0.335363 0
0.994171 0.334325 0
1 0.333272 0
1 0.332219 0
1 0.331167 0
0 0.397528 0.0157931
0.00505074 0.396475 0.0147402
0.0402533 0.395422 0.0136873
0.0754559 0.394369 0.0126497
0.110658 0.393317 0.0115969
0.145861 0.392279 0.010544
0.181048 0.391226 0.00949111
0.216251 0.390173 0.00843824
0.251453 0.38912 0.00738537
0.286656 0.388067 0.00634775
0.321859 0.387015 0.00529488
0.357061 0.385977 0.00424201
0.392264 0.384924 0.00318914
0.427466 0.383871 0.00213626
0.462654 0.382818 0.00109865
0.497856 0.381765 4.57771e-05
0.533059 0.380728 0
0.568261 0.379675 0
0.603464 0.378622 0
0.638666 0.377569 0
0.673869 0.376516 0
0.709056 0.375463 0
0.744259 0.374426 0
0.779461 0.373373 0
0.814664 0.37232 0
0.849867 0.371267 0
0.885069 0.370214 0
0.920272 0.369177 0
0.955474 0.368124 0
0.990662 0.367071 0
1 0.366018 0
1 0.364965 0
1 0.363912 0
0 0.430274 0.0122988
0.00155642 0.429221 0.0112459
0.036759 0.428168 0.010193
0.0719463 0.427131 0.00914015
0.107149 0.426078 0.00808728
0.142351 0.425025 0.00704967
0.177554 0.423972 0.0059968
0.212757 0.422919 0.00494392
0.247959 0.421866 0.00389105
0.283162 0.420829 0.00283818
0.318364 0.419776 0.00178531
0.353552 0.418723 0.000747692
0.388754 0.41767 0
0.423957 0.416617 0
0.459159 0.415579 0
0.494362 0.414527 0
0.529564 0.413474 0
0.564767 0.412421 0
0.59997 0.411368 0
0.635157 0.410315 0
0.670359 0.409277 0
0.705562 0.408225 0
0.740764 0.407172 0
0.775967 0.406119 0
0.81117 0.405066 0
0.846372 0.404013 0
0.881559 0.402975 0
0.916762 0.401923 0
0.951965 0.40087 0
0.987167 0.399817 0
1 0.398764 0
1 0.397726 0
1 0.396674 0
0 0.46302 0.0087892
0 0.461982 0.00773632
0.0332494 0.460929 0.00669871
0.068452 0.459876 0.00564584
0.103655 0.458824 0.00459297
0.138857 0.457771 0.00354009
0.17406 0.456718 0.00248722
0.209262 0.45568 0.00144961
0.24445 0.454627 0.000396735
0.279652 0.453574 0
0.314855 0.452522 0
0.350057 0.451469 0
0.38526 0.450416 0
0.420462 0.449378 0
0.455665 0.448325 0
0.490867 0.447272 0
0.526055 0.44622 0
0.561257 0.445167 0
0.59646 0.444129 0
0.631662 0.443076 0
0.666865 0.442023 0
0.702068 0.44097 0
0.73727 0.439918 0
0.772457 0.438865 0
0.80766 0.437827 0
0.842863 0.436774 0
0.878065 0.435721 0
0.913268 0.434669 0
0.94847 0.433616 0
0.983673 0.432563 0
1 0.431525 0
1 0.430472 0
1 0.429419 0
0 0.495781 0.00529488
0 0.494728 0.00424201
0.0297551 0.493675 0.00318914
0.0649577 0.492622 0.00213626
0.10016 0.491569 0.00109865
0.135348 0.490532 4.57771e-05
0.17055 0.489479 0
0.205753 0.488426 0
0.240955 0.487373 0
0.276158 0.48632 0
0.31136 0.485267 0
0.346563 0.48423 0
0.381765 0.483177 0
0.416953 0.482124 0
0.452155 0.481071 0
0.487358 0.480018 0
0.52256 0.478965 0
0.557763 0.477928 0
0.592966 0.476875 0
0.628168 0.475822 0
0.663355 0.474769 0
0.698558 0.473716 0
0.733761 0.472679 0
0.768963 0.471626 0
0.804166 0.470573 0
0.839368 0.46952 0
0.874571 0.468467 0
0.909773 0.467414 0
0.944961 0.466377 0
0.980163 0.465324 0
1 0.464271 0
1 0.463218 0
1 0.462165 0
0 0.528527 0.00178531
0 0.527474 0.000747692
0.0262455 0.526421 0
0.0614481 0.525368 0
0.0966506 0.52433 0
0.131853 0.523278 0
0.167056 0.522225 0
0.202258 0.521172 0
0.237461 0.520119 0
0.272663 0.519081 0
0.307851 0.518029 0
0.343053 0.516976 0
0.378256 0.515923 0
0.413458 0.51487 0
0.448661 0.513817 0
0.483864 0.512779 0
0.519066 0.511727 0
0.554269 0.510674 0
0.589456 0.509621 0
0.624659 0.508568 0
0.659861 0.507515 0
0.695064 0.506477 0
0.730266 0.505425 0
0.765469 0.504372 0
0.800671 0.503319 0
0.835859 0.502266 0
0.871061 0.501228 0
0.906264 0.500175 0
0.941466 0.499123 0
0.976669 0.49807 0
1 0.497017 0
1 0.495964 0
1 0.494926 0
0 0.561273 0
0 0.56022 0
0.0227512 0.559182 0
0.0579538 0.558129 0
0.0931563 0.557076 0
0.128359 0.556023 0
0.163561 0.554971 0
0.198749 0.553918 0
0.233951 0.55288 0
0.269154 0.551827 0
0.304356 0.550774 0
0.339559 0.549722 0
0.374762 0.548669 0
0.409964 0.547631 0
0.445167 0.546578 0
0.480354 0.545525 0
0.515557 0.544472 0
0.550759 0.54342 0
0.585962 0.542367 0
0.621164 0.541329 0
0.656367 0.540276 0
0.691569 0.539223 0
0.726757 0.53817 0
0.761959 0.537118 0
0.797162 0.536065 0
0.832364 0.535027 0
0.867567 0.533974 0
0.90277 0.532921 0
0.937972 0.531868 0
0.973175 0.530816 0
1 0.529778 0
1 0.528725 0
1 0.527672 0
0 0.594034 0
0 0.592981 0
0.0192569 0.591928 0
0.0544594 0.590875 0
0.0896468 0.589822 0
0.124849 0.588769 0
0.160052 0.587732 0
0.195254 0.586679 0
0.230457 0.585626 0
0.26566 0.584573 0
0.300862 0.58352 0
0.336065 0.582467 0
0.371252 0.58143 0
0.406455 0.580377 0
0.441657 0.579324 0
0.47686 0.578271 0
0.512062 0.577218 0
0.547265 0.576181 0
0.582467 0.575128 0
0.617655 0.574075 0
0.652857 0.573022 0
0.68806 0.571969 0
0.723262 0.570916 0
0.758465 0.569879 0
0.793667 0.568826 0
0.82887 0.567773 0
0.864073 0.56672 0
0.89926 0.565667 0
0.934462 0.56463 0
0.969665 0.563577 0
1 0.562524 0
1 0.561471 0
1 0.560418 0
0 0.62678 0
0 0.625727 0
0.0157473 0.624674 0
0.0509499 0.623621 0
0.0861524 0.622583 0
0.121355 0.62153 0
0.156558 0.620478 0
0.19176 0.619425 0
0.226963 0.618372 0
0.26215 0.617319 0
0.297353 0.616281 0
0.332555 0.615228 0
0.367758 0.614176 0
0.40296 0.613123 0
0.438163 0.61207 0
0.473365 0.611032 0
0.508568 0.609979 0
0.543755 0.608927 0
0.578958 0.607874 0
0.61416 0.606821 0
0.649363 0.605768 0
0.684565 0.60473 0
0.719768 0.603677 0
0.754971 0.602625 0
0.790158 0.601572 0
0.82536 0.600519 0
0.860563 0.599466 0
0.895766 0.598428 0
0.930968 0.597375 0
0.966171 0.596323 0
1 0.59527 0
1 0.594217 0
1 0.593179 0
0 0.659525 0
0 0.658473 0
0.012253 0.657435 0
0.0474556 0.656382 0
0.0826581 0.655329 0
0.117861 0.654276 0
0.153048 0.653223 0
0.188251 0.652171 0
0.223453 0.651133 0
0.258656 0.65008 0
0.293858 0.649027 0
0.329061 0.647974 0
0.364263 0.646922 0
0.399466 0.645869 0
0.434653 0.644831 0
0.469856 0.643778 0
0.505058 0.642725 0
0.540261 0.641672 0
0.575463 0.64062 0
0.610666 0.639582 0
0.645869 0.638529 0
0.681056 0.637476 0
0.716258 0.636423 0
0.751461 0.63537 0
0.786664 0.634318 0
0.821866 0.63328 0
0.857069 0.632227 0
0.892271 0.631174 0
0.927474 0.630121 0
0.962661 0.629068 0
0.997864 0.628016 0
1 0.626978 0
1 0.625925 0
0 0.692271 0
0 0.691234 0
0.00875868 0.690181 0
0.043946 0.689128 0
0.0791485 0.688075 0
0.114351 0.687022 0
0.149554 0.685985 0
0.184756 0.684932 0
0.219959 0.683879 0
0.255161 0.682826 0
0.290364 0.681773 0
0.325551 0.68072 0
0.360754 0.679683 0
0.395956 0.67863 0
0.431159 0.677577 0
0.466361 0.676524 0
0.501564 0.675471 0
0.536767 0.674418 0
0.571954 0.673381 0
0.607156 0.672328 0
0.642359 0.671275 0
0.677562 0.670222 0
0.712764 0.669169 0
0.747967 0.668132 0
0.783169 0.667079 0
0.818372 0.666026 0
0.853559 0.664973 0
0.888762 0.66392 0
0.923964 0.662867 0
0.959167 0.66183 0
0.994369 0.660777 0
1 0.659724 0
1 0.658671 0
0 0.725032 0
0 0.72398 0
0.0052491 0.722927 0
0.0404517 0.721874 0
0.0756542 0.720821 0
0.110857 0.719783 0
0.146059 0.71873 0
0.181262 0.717678 0
0.216449 0.716625 0
0.251652 0.715572 0
0.286854 0.714534 0
0.322057 0.713481 0
0.357259 0.712428 0
0.392462 0.711376 0
0.427665 0.710323 0
0.462867 0.70927 0
0.498054 0.708232 0
0.533257 0.707179 0
0.56846 0.706127 0
0.603662 0.705074 0
0.638865 0.704021 0
0.674067 0.702968 0
0.70927 0.70193 0
0.744457 0.700877 0
0.77966 0.699825 0
0.814862 0.698772 0
0.850065 0.697719 0
0.885267 0.696681 0
0.92047 0.695628 0
0.955673 0.694575 0
0.990875 0.693523 0
1 0.69247 0
1 0.691417 0
0 0.757778 0
0 0.756725 0
0.00175479 0.755673 0
0.0369573 0.754635 0
0.0721599 0.753582 0
0.107347 0.752529 0
0.14255 0.751476 0
0.177752 0.750423 0
0.212955 0.749386 0
0.248157 0.748333 0
0.28336 0.74728 0
0.318563 0.746227 0
0.353765 0.745174 0
0.388952 0.744121 0
0.424155 0.743084 0
0.459358 0.742031 0
0.49456 0.740978 0
0.529763 0.739925 0
0.564965 0.738872 0
0.600168 0.737819 0
0.635355 0.736782 0
0.670558 0.735729 0
0.70576 0.734676 0
0.740963 0.733623 0
0.776165 0.73257 0
0.811368 0.731533 0
0.846571 0.73048 0
0.881773 0.729427 0
0.91696 0.728374 0
0.952163 0.727321 0
0.987366 0.726268 0
1 0.725231 0
1 0.724178 0
0 0.790524 0
0 0.789487 0
0 0.788434 0
0.0334478 0.787381 0
0.0686503 0.786328 0
0.103853 0.785275 0
0.139055 0.784222 0
0.174258 0.783185 0
0.209461 0.782132 0
0.244663 0.781079 0
0.27985 0.780026 0
0.315053 0.778973 0
0.350256 0.777935 0
0.385458 0.776883 0
0.420661 0.77583 0
0.455863 0.774777 0
0.491066 0.773724 0
0.526268 0.772671 0
0.561456 0.771634 0
0.596658 0.770581 0
0.631861 0.769528 0
0.667063 0.768475 0
0.702266 0.767422 0
0.737469 0.766369 0
0.772671 0.765332 0
0.807858 0.764279 0
0.843061 0.763226 0
0.878264 0.762173 0
0.913466 0.76112 0
0.948669 0.760082 0
0.983871 0.75903 0
1 0.757977 0
1 0.756924 0
0 0.823285 0
0 0.822232 0
0 0.82118 0
0.0299535 0.820127 0
0.065156 0.819074 0
0.100359 0.818036 0
0.135561 0.816983 0
0.170748 0.81593 0
0.205951 0.814878 0
0.241154 0.813825 0
0.276356 0.812772 0
0.311559 0.811734 0
0.346761 0.810681 0
0.381964 0.809628 0
0.417166 0.808576 0
0.452354 0.807523 0
0.487556 0.806485 0
0.522759 0.805432 0
0.557961 0.804379 0
0.593164 0.803326 0
0.628367 0.802274 0
0.663569 0.801221 0
0.698756 0.800183 0
0.733959 0.79913 0
0.769162 0.798077 0
0.804364 0.797024 0
0.839567 0.795972 0
0.874769 0.794919 0
0.909972 0.793881 0
0.945174 0.792828 0
0.980362 0.791775 0
1 0.790722 0
1 0.78967 0
0 0.856031 0
0 0.854978 0
0 0.853925 0
0.0264591 0.852888 0
0.0616465 0.851835 0
0.096849 0.850782 0
0.132052 0.849729 0
0.167254 0.848676 0
0.202457 0.847623 0
0.237659 0.846586 0
0.272862 0.845533 0
0.308064 0.84448 0
0.343252 0.843427 0
0.378454 0.842374 0
0.413657 0.841321 0
0.448859 0.840284 0
0.484062 0.839231 0
0.519265 0.838178 0
0.554467 0.837125 0
0.589654 0.836072 0
0.624857 0.835035 0
0.66006 0.833982 0
0.695262 0.832929 0
0.730465 0.831876 0
0.765667 0.830823 0
0.80087 0.82977 0
0.836072 0.828733 0
0.87126 0.82768 0
0.906462 0.826627 0
0.941665 0.825574 0
0.976867 0.824521 0
1 0.823468 0
1 0.822431 0
0 0.888777 0
0 0.887724 0
0 0.886687 0
0.0229496 0.885634 0
0.0581521 0.884581 0
0.0933547 0.883528 0
0.128557 0.882475 0
0.16376 0.881437 0
0.198962 0.880385 0
0.23415 0.879332 0
0.269352 0.878279 0
0.304555 0.877226 0
0.339757 0.876173 0
0.37496 0.875135 0
0.410163 0.874083 0
0.445365 0.87303 0
0.480568 0.871977 0
0.515755 0.870924 0
0.550958 0.869871 0
0.58616 0.868833 0
0.621363 0.867781 0
0.656565 0.866728 0
0.691768 0.865675 0
0.72697 0.864622 0
0.762158 0.863584 0
0.79736 0.862531 0
0.832563 0.861479 0
0.867765 0.860426 0
0.902968 0.859373 0
0.93817 0.85832 0
0.973373 0.857282 0
1 0.856229 0
1 0.855177 0
0 0.921538 0
0 0.920485 0
0 0.919432 0
0.0194553 0.918379 0
0.0546578 0.917327 0
0.0898604 0.916274 0
0.125048 0.915236 0
0.16025 0.914183 0
0.195453 0.91313 0
