public/LUTS/Cinematic/Cinematic_19.cube
TITLE "Generated by Resolve"
LUT_3D_SIZE 5
0.0967727 0.118273 0.118654
0.370001 0.162753 0.0597543
0.718715 0.2056 0.113527
0.886122 0.294697 0.149722
0.911635 0.421454 0.167468
0.0880903 0.261357 0.147372
0.411139 0.281804 0.102373
0.773358 0.389334 0.141939
0.912963 0.505455 0.178973
0.914534 0.568978 0.188815
0.135103 0.502312 0.208133
0.420584 0.612238 0.218387
0.805676 0.576165 0.175402
0.916457 0.644434 0.201587
0.917311 0.674022 0.206958
0.193256 0.742794 0.261494
0.450462 0.799695 0.265232
0.79939 0.870756 0.334142
0.920974 0.788327 0.22858
0.920211 0.766155 0.224247
0.280766 0.930892 0.327855
0.498192 0.941939 0.338659
0.745205 0.947219 0.373892
0.952575 0.952575 0.406882
0.952468 0.952468 0.405707
0.0462806 0.246036 0.322927
0.160281 0.252705 0.240848
0.579873 0.345541 0.254231
0.862898 0.43328 0.251835
0.922515 0.489067 0.22356
0.053193 0.281865 0.302205
0.24239 0.339513 0.34165
0.726543 0.385657 0.278309
0.898634 0.443839 0.217975
0.91371 0.505028 0.181186
0.133272 0.601053 0.45771
0.268742 0.590448 0.33637
0.750942 0.615625 0.259205
0.922774 0.670619 0.228336
0.917906 0.695125 0.210773
0.181567 0.781964 0.504967
0.354467 0.793057 0.35169
0.708782 0.844511 0.394507
0.919554 0.798749 0.230426
0.920684 0.780148 0.226963
0.219104 0.919295 0.561807
0.43061 0.94844 0.416617
0.686625 0.952895 0.448875
0.901411 0.955581 0.451774
0.955673 0.953033 0.444358
0.096849 0.450675 0.599985
0.0900282 0.432227 0.456809
0.400778 0.44239 0.264927
0.787991 0.497276 0.350378
0.957473 0.656367 0.669978
0.100252 0.466484 0.583444
0.108156 0.495537 0.635584
0.537194 0.499184 0.484215
0.842618 0.584588 0.570947
0.953948 0.638437 0.607355
0.109926 0.50753 0.572885
0.125841 0.570153 0.614679
0.658015 0.673365 0.67631
0.904509 0.710582 0.660517
0.953841 0.702037 0.576913
0.190036 0.812924 0.797894
0.190875 0.816052 0.732647
0.638712 0.83473 0.612802
0.91368 0.825116 0.498161
0.95024 0.812833 0.449699
0.219104 0.919295 0.815518
0.219104 0.919295 0.733303
0.653452 0.962356 0.598993
0.845365 0.964446 0.59733
0.963729 0.960723 0.559564
0.149874 0.654215 0.797131
0.144198 0.635843 0.740719
0.252964 0.629938 0.697597
0.74168 0.619883 0.653666
0.959014 0.671382 0.709468
0.147982 0.646922 0.792004
0.14786 0.6448 0.808377
0.332357 0.641855 0.785809
0.781384 0.625284 0.725216
0.9617 0.697398 0.777874
0.149355 0.652873 0.788281
0.158572 0.688396 0.807416
0.432135 0.726223 0.854124
0.837812 0.725978 0.815457
0.968917 0.767605 0.837461
0.161624 0.701595 0.796613
0.171008 0.737804 0.811322
0.419425 0.793301 0.845777
0.862623 0.852064 0.84387
0.977432 0.858259 0.838346
0.210956 0.887633 0.917983
0.219104 0.919295 0.919295
0.325414 0.939834 0.877028
0.828367 0.977523 0.794278
0.976989 0.976562 0.760723
0.192462 0.81503 0.914107
0.18999 0.805966 0.904799
0.18677 0.793271 0.901991
0.685283 0.780316 0.932754
0.968292 0.75494 0.917494
0.186007 0.789197 0.914199
0.183749 0.780301 0.913848
0.181872 0.772961 0.913603
0.715404 0.768215 0.947753
0.968032 0.749767 0.928344
0.184695 0.784085 0.914
0.186206 0.790219 0.914199
0.186313 0.790463 0.914199
0.761227 0.789441 0.966354
0.971313 0.777905 0.948608
0.185275 0.786404 0.914107
0.188571 0.799542 0.914519
0.194491 0.819883 0.915511
0.813733 0.85713 0.965972
0.979629 0.85304 0.956985
0.192203 0.813901 0.915068
0.197147 0.833295 0.915831
0.237552 0.859449 0.925963
0.79736 0.918196 0.95465
0.988602 0.986999 0.946807
