public/LUTS/Cinematic/Cinematic_09.cube
TITLE "Generated by Resolve"
LUT_3D_SIZE 9
0 0.000411994 0.0439612
0.0949569 0 0.0413367
0.229831 0 0.0387121
0.364706 0 0.0360876
0.49958 0 0.033463
0.634455 0 0.0308385
0.769329 0 0.0282139
0.904219 0 0.0255894
1 0 0.0229648
0 0.129152 0.0352178
0.0861982 0.126528 0.0325933
0.221073 0.123903 0.0299687
0.355962 0.121279 0.0273442
0.490837 0.118654 0.0247196
0.625711 0.11603 0.0220798
0.760586 0.11339 0.0194553
0.89546 0.110765 0.0168307
1 0.108141 0.0142061
0 0.257908 0.0264591
0.0774548 0.255283 0.0238346
0.212329 0.252659 0.02121
0.347204 0.250019 0.0185855
0.482078 0.247395 0.0159609
0.616968 0.24477 0.0133364
0.751842 0.242145 0.0107118
0.886717 0.239521 0.00808728
1 0.236896 0.00546273
0 0.386648 0.0177157
0.0686961 0.384024 0.0150912
0.203586 0.381399 0.0124666
0.33846 0.378775 0.00984207
0.473335 0.37615 0.00721752
0.608209 0.373526 0.00459297
0.743084 0.370901 0.00196841
0.877958 0.368277 0
1 0.365652 0
0 0.515404 0.00895705
0.0599527 0.512779 0.00633249
0.194827 0.510155 0.00370794
0.329702 0.50753 0.00108339
0.464576 0.504906 0
0.599466 0.502281 0
0.73434 0.499657 0
0.869215 0.497032 0
1 0.494408 0
0 0.64416 0.000213626
0.0512093 0.641535 0
0.186084 0.638911 0
0.320958 0.636286 0
0.455833 0.633661 0
0.590707 0.631037 0
0.725582 0.628412 0
0.860471 0.625772 0
0.995346 0.623148 0
0 0.772915 0
0.0424506 0.770291 0
0.177325 0.767666 0
0.3122 0.765026 0
0.447089 0.762402 0
0.581964 0.759777 0
0.716838 0.757153 0
0.851713 0.754528 0
0.986587 0.751904 0
0 0.901656 0
0.0337072 0.899031 0
0.168582 0.896406 0
0.303456 0.893782 0
0.438331 0.891157 0
0.573205 0.888533 0
0.70808 0.885908 0
0.842969 0.883284 0
0.977844 0.880659 0
0 1 0
0.0249485 1 0
0.159823 1 0
0.294713 1 0
0.429587 1 0
0.564462 1 0
0.699336 1 0
0.834211 1 0
0.969085 1 0
0 0 0.180316
0.0938277 0 0.177691
0.228702 0 0.175067
0.363577 0 0.172442
0.498451 0 0.169818
0.633341 0 0.167193
0.768215 0 0.164569
0.90309 0 0.161944
1 0 0.159319
0 0.128023 0.171572
0.0850843 0.125399 0.168948
0.219959 0.122774 0.166323
0.354833 0.12015 0.163699
0.489708 0.117525 0.161074
0.624582 0.1149 0.15845
0.759457 0.112276 0.155825
0.894347 0.109651 0.153201
1 0.107027 0.150576
0 0.256779 0.162829
0.0763256 0.254154 0.160204
0.2112 0.25153 0.15758
0.346075 0.248905 0.154955
0.480964 0.246281 0.152316
0.615839 0.243656 0.149691
0.750713 0.241032 0.147066
0.885588 0.238392 0.144442
1 0.235767 0.141817
0 0.385534 0.15407
0.0675822 0.38291 0.151446
0.202457 0.380285 0.148821
0.337331 0.377661 0.146197
0.472206 0.375021 0.143572
0.60708 0.372396 0.140948
0.74197 0.369772 0.138323
0.876844 0.367147 0.135698
1 0.364523 0.133074
0 0.514275 0.145327
0.0588235 0.51165 0.142702
0.193698 0.509026 0.140078
0.328588 0.506401 0.137453
0.463462 0.503777 0.134829
0.598337 0.501152 0.132204
0.733211 0.498527 0.129564
0.868086 0.495903 0.12694
1 0.493278 0.124315
0 0.64303 0.136568
0.0500801 0.640406 0.133944
0.184955 0.637781 0.131319
0.319829 0.635157 0.128695
0.454704 0.632532 0.12607
0.589578 0.629908 0.123445
0.724468 0.627283 0.120821
0.859342 0.624659 0.118196
0.994217 0.622034 0.115572
0 0.771786 0.127825
0.0413214 0.769162 0.1252
0.176211 0.766537 0.122576
0.311086 0.763912 0.119951
0.44596 0.761288 0.117327
0.580835 0.758663 0.114702
0.715709 0.756039 0.112078
0.850584 0.753414 0.109453
0.985473 0.750774 0.106813
0 0.900542 0.119066
0.032578 0.897917 0.116442
0.167452 0.895293 0.113817
0.302327 0.892668 0.111192
0.437201 0.890043 0.108568
0.572091 0.887404 0.105943
0.706966 0.884779 0.103319
0.84184 0.882155 0.100694
0.976715 0.87953 0.0980697
0 1 0.110323
0.0238193 1 0.107698
0.158709 1 0.105074
0.293584 1 0.102449
0.428458 1 0.0998245
0.563333 1 0.0972
0.698207 1 0.0945754
0.833082 1 0.0919509
0.967971 1 0.0893263
0 0 0.316701
0.0926986 0 0.314076
0.227573 0 0.311452
0.362463 0 0.308827
0.497337 0 0.306203
0.632212 0 0.303578
0.767086 0 0.300954
0.901961 0 0.298329
1 0 0.295705
0 0.126894 0.307958
0.0839551 0.124269 0.305333
0.21883 0.121645 0.302708
0.353704 0.11902 0.300069
0.488579 0.116396 0.297444
0.623468 0.113771 0.29482
0.758343 0.111147 0.292195
0.893217 0.108522 0.28957
1 0.105898 0.286946
0 0.25565 0.299199
0.0751965 0.253025 0.296574
0.210086 0.250401 0.29395
0.344961 0.247776 0.291325
0.479835 0.245151 0.288701
0.61471 0.242527 0.286076
0.749584 0.239902 0.283452
0.884459 0.237278 0.280827
1 0.234653 0.278202
0 0.384405 0.290455
0.066453 0.381781 0.287831
0.201328 0.379156 0.285206
0.336202 0.376532 0.282582
0.471077 0.373907 0.279957
0.605966 0.371283 0.277317
0.740841 0.368658 0.274693
0.875715 0.366033 0.272068
1 0.363394 0.269444
0 0.513161 0.281697
0.0577096 0.510536 0.279072
0.192584 0.507912 0.276448
0.327459 0.505287 0.273823
0.462333 0.502663 0.271199
0.597208 0.500023 0.268574
0.732082 0.497398 0.265949
0.866972 0.494774 0.263325
1 0.492149 0.2607
0 0.641917 0.272953
0.0489509 0.639277 0.270329
0.183825 0.636652 0.267704
0.3187 0.634028 0.26508
0.45359 0.631403 0.262455
0.588464 0.628779 0.259831
0.723339 0.626154 0.257206
0.858213 0.623529 0.254566
0.993088 0.620905 0.251942
0 0.770657 0.264195
0.0402075 0.768032 0.26157
0.175082 0.765408 0.258946
0.309957 0.762783 0.256321
0.444831 0.760159 0.253697
0.579705 0.757534 0.251072
0.71458 0.75491 0.248447
0.84947 0.752285 0.245823
0.984344 0.74966 0.243198
0 0.899413 0.255451
0.0314488 0.896788 0.252827
0.166323 0.894163 0.250202
0.301213 0.891539 0.247578
0.436088 0.888914 0.244953
0.570962 0.88629 0.242329
0.705837 0.883665 0.239704
0.840711 0.881041 0.237079
0.975586 0.878416 0.234455
0 1 0.246693
0.0227054 1 0.244068
0.15758 1 0.241443
0.292454 1 0.238819
0.427329 1 0.236194
0.562203 1 0.23357
0.697093 1 0.230945
0.831968 1 0.228321
0.966842 1 0.225696
0 0 0.453071
0.0915694 0 0.450446
0.226459 0 0.447822
0.361334 0 0.445197
0.496208 0 0.442573
0.631083 0 0.439948
0.765957 0 0.437324
0.900832 0 0.434699
1 0 0.432074
0 0.12578 0.444327
0.082826 0.123156 0.441703
0.2177 0.120531 0.439078
0.352575 0.117906 0.436454
0.487465 0.115282 0.433829
0.622339 0.112642 0.431205
0.757214 0.110018 0.42858
0.892088 0.107393 0.425956
1 0.104768 0.423331
0 0.254536 0.435584
0.0740826 0.251896 0.432959
0.208957 0.249271 0.430335
0.343832 0.246647 0.42771
0.478706 0.244022 0.425071
0.613581 0.241398 0.422446
0.748455 0.238773 0.419821
0.883345 0.236149 0.417197
1 0.233524 0.414572
0 0.383276 0.426825
0.0653239 0.380652 0.424201
0.200198 0.378027 0.421576
0.335088 0.375402 0.418952
0.469963 0.372778 0.416327
0.604837 0.370153 0.413703
0.739712 0.367529 0.411078
0.874586 0.364904 0.408453
1 0.36228 0.405829
0 0.512032 0.418082
0.0565805 0.509407 0.415457
0.191455 0.506783 0.412833
0.326329 0.504158 0.410208
0.461204 0.501534 0.407584
0.596078 0.498909 0.404959
0.730968 0.496284 0.402319
0.865843 0.49366 0.399695
1 0.491035 0.39707
0 0.640787 0.409323
0.0478218 0.638163 0.406699
0.182712 0.635538 0.404074
0.317586 0.632914 0.40145
0.452461 0.630289 0.398825
0.587335 0.627665 0.396201
0.72221 0.625025 0.393576
0.857084 0.6224 0.390951
0.991974 0.619776 0.388327
0 0.769543 0.40058
0.0390784 0.766918 0.397955
0.173953 0.764279 0.395331
0.308827 0.761654 0.392706
0.443702 0.75903 0.390082
0.578592 0.756405 0.387457
0.713466 0.75378 0.384833
0.848341 0.751156 0.382208
0.983215 0.748531 0.379568
0 0.898283 0.391821
0.0303197 0.895659 0.389197
0.165209 0.893034 0.386572
0.300084 0.89041 0.383948
0.434958 0.887785 0.381323
0.569833 0.885161 0.378698
0.704707 0.882536 0.376074
0.839582 0.879911 0.373449
0.974472 0.877287 0.370825
0 1 0.383078
0.0215763 1 0.380453
0.156451 1 0.377829
0.291325 1 0.375204
0.426215 1 0.37258
0.56109 1 0.369955
0.695964 1 0.36733
0.830839 1 0.364706
0.965713 1 0.362081
0 0 0.589456
0.0904555 0 0.586831
0.22533 0 0.584207
0.360204 0 0.581582
0.495079 0 0.578958
0.629953 0 0.576333
0.764843 0 0.573709
0.899718 0 0.571084
1 0 0.56846
0 0.124651 0.580713
0.0816968 0.122026 0.578088
0.216587 0.119402 0.575463
0.351461 0.116777 0.572824
0.486336 0.114153 0.570199
0.62121 0.111528 0.567575
0.756085 0.108904 0.56495
0.890959 0.106279 0.562325
1 0.103655 0.559701
0 0.253407 0.571954
0.0729534 0.250782 0.569329
0.207828 0.248157 0.566705
0.342702 0.245533 0.56408
0.477577 0.242908 0.561456
0.612467 0.240284 0.558831
0.747341 0.237644 0.556207
0.882216 0.235019 0.553582
1 0.232395 0.550958
0 0.382162 0.56321
0.0641947 0.379538 0.560586
0.199084 0.376898 0.557961
0.333959 0.374273 0.555337
0.468833 0.371649 0.552712
0.603708 0.369024 0.550072
0.738582 0.3664 0.547448
0.873472 0.363775 0.544823
1 0.361151 0.542199
0 0.510903 0.554452
0.0554513 0.508278 0.551827
0.190326 0.505653 0.549203
0.3252 0.503029 0.546578
0.46009 0.500404 0.543954
0.594965 0.49778 0.541329
0.729839 0.495155 0.538705
0.864713 0.492531 0.53608
0.999588 0.489906 0.533455
0 0.639658 0.545708
0.0467079 0.637034 0.543084
0.181582 0.634409 0.540459
0.316457 0.631785 0.537835
0.451331 0.62916 0.53521
0.586206 0.626535 0.532586
0.72108 0.623911 0.529961
0.85597 0.621286 0.527321
0.990845 0.618662 0.524697
0 0.768414 0.53695
0.0379492 0.765789 0.534325
0.172824 0.763165 0.531701
0.307713 0.76054 0.529076
0.442588 0.757916 0.526452
0.577462 0.755291 0.523827
0.712337 0.752667 0.521202
0.847211 0.750027 0.518578
0.982086 0.747402 0.515953
0 0.897169 0.528206
0.0292058 0.894545 0.525582
0.16408 0.89192 0.522957
0.298955 0.889281 0.520333
0.433829 0.886656 0.517708
0.568704 0.884031 0.515084
0.703593 0.881407 0.512459
0.838468 0.878782 0.509834
0.973342 0.876158 0.50721
0 1 0.519448
0.0204471 1 0.516823
0.155322 1 0.514199
0.290211 1 0.511574
0.425086 1 0.508949
0.55996 1 0.506325
0.694835 1 0.5037
0.829709 1 0.501076
0.964584 1 0.498451
0 0 0.725826
0.0893263 0 0.723201
0.224201 0 0.720577
0.359075 0 0.717952
0.493965 0 0.715328
0.62884 0 0.712703
0.763714 0 0.710079
0.898589 0 0.707454
1 0 0.704829
0 0.123522 0.717083
0.0805829 0.120897 0.714458
0.215457 0.118273 0.711833
0.350332 0.115648 0.709209
0.485206 0.113024 0.706584
0.620081 0.110399 0.70396
0.754955 0.107774 0.701335
0.889845 0.10515 0.698711
1 0.102525 0.696086
0 0.252277 0.708339
0.0718242 0.249653 0.705715
0.206699 0.247028 0.70309
0.341588 0.244404 0.700465
0.476463 0.241779 0.697826
0.611337 0.239155 0.695201
0.746212 0.23653 0.692576
0.881086 0.233906 0.689952
1 0.231281 0.687327
0 0.381033 0.69958
0.0630808 0.378408 0.696956
0.197955 0.375784 0.694331
0.33283 0.373159 0.691707
0.467704 0.370535 0.689082
0.602579 0.36791 0.686458
0.737469 0.365286 0.683833
0.872343 0.362646 0.681208
1 0.360021 0.678584
0 0.509789 0.690837
0.0543221 0.507164 0.688212
0.189197 0.50454 0.685588
0.324086 0.5019 0.682963
0.458961 0.499275 0.680339
0.593835 0.496651 0.677714
0.72871 0.494026 0.675074
0.863584 0.491402 0.67245
0.998474 0.488777 0.669825
0 0.638529 0.682078
0.0455787 0.635904 0.679454
0.180453 0.63328 0.676829
0.315328 0.630655 0.674205
0.450202 0.628031 0.67158
0.585092 0.625406 0.668956
0.719966 0.622782 0.666331
0.854841 0.620157 0.663706
0.989715 0.617533 0.661082
0 0.767285 0.673335
0.03682 0.76466 0.67071
0.17171 0.762036 0.668086
0.306584 0.759411 0.665461
0.441459 0.756786 0.662837
0.576333 0.754162 0.660212
0.711208 0.751537 0.657588
0.846082 0.748913 0.654963
0.980972 0.746288 0.652323
0 0.89604 0.664576
0.0280766 0.893416 0.661952
0.162951 0.890791 0.659327
0.297826 0.888167 0.656703
0.432715 0.885542 0.654078
0.56759 0.882918 0.651453
0.702464 0.880293 0.648829
0.837339 0.877668 0.646204
0.972213 0.875029 0.64358
0 1 0.655833
0.0193332 1 0.653208
0.154208 1 0.650584
0.289082 1 0.647959
0.423957 1 0.645335
0.558831 1 0.64271
0.693706 1 0.640085
0.828595 1 0.637461
0.96347 1 0.634836
0 0 0.862211
0.0881971 0 0.859586
0.223072 0 0.856962
0.357961 0 0.854337
0.492836 0 0.851713
0.62771 0 0.849088
0.762585 0 0.846464
0.897459 0 0.843839
1 0 0.841215
0 0.122408 0.853468
0.0794537 0.119783 0.850843
0.214328 0.117159 0.848219
0.349203 0.114534 0.845579
0.484077 0.111894 0.842954
0.618967 0.10927 0.84033
0.753841 0.106645 0.837705
0.888716 0.104021 0.835081
1 0.101396 0.832456
0 0.251148 0.844709
0.0706951 0.248524 0.842084
0.205585 0.245899 0.83946
0.340459 0.243275 0.836835
0.475334 0.24065 0.834211
0.610208 0.238025 0.831586
0.745083 0.235401 0.828962
0.879957 0.232776 0.826337
1 0.230152 0.823713
0 0.379904 0.835966
0.0619516 0.377279 0.833341
0.196826 0.374655 0.830716
0.331701 0.37203 0.828092
0.46659 0.369406 0.825467
0.601465 0.366781 0.822828
0.736339 0.364157 0.820203
0.871214 0.361532 0.817578
1 0.358907 0.814954
0 0.508659 0.827207
0.0532082 0.506035 0.824582
0.188083 0.50341 0.821958
0.322957 0.500786 0.819333
0.457832 0.498161 0.816709
0.592706 0.495537 0.814084
0.727581 0.492912 0.81146
0.86247 0.490288 0.808835
0.997345 0.487648 0.80621
0 0.637415 0.818463
0.0444495 0.634791 0.815839
0.179324 0.632166 0.813214
0.314199 0.629541 0.81059
0.449088 0.626902 0.807965
0.583963 0.624277 0.805341
0.718837 0.621653 0.802716
0.853712 0.619028 0.800076
0.988586 0.616403 0.797452
0 0.766171 0.809705
0.0357061 0.763531 0.80708
0.170581 0.760906 0.804456
0.305455 0.758282 0.801831
0.44033 0.755657 0.799207
0.575204 0.753033 0.796582
0.710094 0.750408 0.793957
0.844968 0.747784 0.791333
0.979843 0.745159 0.788708
0 0.894911 0.800961
0.0269474 0.892287 0.798337
0.161822 0.889662 0.795712
0.296712 0.887037 0.793088
0.431586 0.884413 0.790463
0.566461 0.881788 0.787839
0.701335 0.879164 0.785214
0.83621 0.876539 0.782589
0.971084 0.873915 0.779965
0 1 0.792203
0.018204 1 0.789578
0.153079 1 0.786954
0.287953 1 0.784329
0.422827 1 0.781704
0.557717 1 0.77908
0.692592 1 0.776455
0.827466 1 0.773831
0.962341 1 0.771206
0 0 0.998581
0.0870832 0 0.995956
0.221958 0 0.993332
0.356832 0 0.990707
0.491707 0 0.988083
0.626581 0 0.985458
0.761456 0 0.982834
0.896345 0 0.980209
1 0 0.977584
0 0.121279 0.989837
0.0783246 0.118654 0.987213
0.213199 0.11603 0.984588
0.348089 0.113405 0.981964
0.482963 0.11078 0.979339
0.617838 0.108156 0.976715
0.752712 0.105531 0.97409
0.887587 0.102907 0.971466
1 0.100267 0.968841
0 0.250034 0.981094
0.0695811 0.24741 0.978469
0.204456 0.244785 0.975845
0.33933 0.242161 0.97322
0.474205 0.239536 0.970581
0.609079 0.236896 0.967956
0.743969 0.234272 0.965331
0.878843 0.231647 0.962707
1 0.229023 0.960082
0 0.37879 0.972335
0.0608225 0.37615 0.969711
0.195697 0.373526 0.967086
0.330587 0.370901 0.964462
0.465461 0.368277 0.961837
0.600336 0.365652 0.959213
0.73521 0.363027 0.956588
0.870085 0.360403 0.953964
1 0.357778 0.951339
0 0.50753 0.963592
0.052079 0.504906 0.960967
0.186954 0.502281 0.958343
0.321828 0.499657 0.955718
0.456703 0.497032 0.953094
0.591592 0.494408 0.950469
0.726467 0.491783 0.947829
0.861341 0.489158 0.945205
0.996216 0.486534 0.94258
0 0.636286 0.954833
0.0433204 0.633661 0.952209
0.17821 0.631037 0.949584
0.313085 0.628412 0.94696
0.447959 0.625788 0.944335
0.582834 0.623163 0.941711
0.717708 0.620539 0.939086
0.852583 0.617914 0.936461
0.987472 0.61529 0.933837
0 0.765042 0.94609
0.0345769 0.762417 0.943465
0.169451 0.759793 0.940841
0.304326 0.757168 0.938216
0.4392 0.754543 0.935592
0.57409 0.751904 0.932967
0.708965 0.749279 0.930343
0.843839 0.746654 0.927718
0.978714 0.74403 0.925078
0 0.893797 0.937331
0.0258335 0.891173 0.934707
0.160708 0.888533 0.932082
0.295583 0.885908 0.929458
0.430457 0.883284 0.926833
0.565332 0.880659 0.924208
0.700206 0.878035 0.921584
0.835096 0.87541 0.918959
0.96997 0.872786 0.916335
0 1 0.928588
0.0170748 1 0.925963
0.151949 1 0.923339
0.286824 1 0.920714
0.421714 1 0.91809
0.556588 1 0.915465
0.691463 1 0.91284
0.826337 1 0.910216
0.961212 1 0.907591
0 0 1
0.0859541 0 1
0.220829 0 1
0.355703 0 1
0.490578 0 1
0.625467 0 1
0.760342 0 1
0.895216 0 1
1 0 1
0 0.12015 1
0.0771954 0.117525 1
0.212085 0.1149 1
0.34696 0.112276 1
0.481834 0.109651 1
0.616709 0.107027 1
0.751583 0.104402 1
0.886458 0.101778 1
1 0.0991531 1
0 0.248905 1
0.068452 0.246281 1
0.203326 0.243656 1
0.338201 0.241032 1
0.473091 0.238407 1
0.607965 0.235782 1
0.74284 0.233158 1
0.877714 0.230533 1
1 0.227909 1
0 0.377661 1
0.0597086 0.375036 1
0.194583 0.372412 1
0.329458 0.369787 1
0.464332 0.367163 1
0.599207 0.364523 1
0.734081 0.361898 1
0.868971 0.359274 1
1 0.356649 1
0 0.506416 1
0.0509499 0.503792 1
0.185824 0.501152 1
0.320699 0.498527 1
0.455589 0.495903 1
0.590463 0.493278 1
0.725338 0.490654 1
0.860212 0.488029 1
0.995087 0.485405 1
0 0.635157 1
0.0422065 0.632532 1
0.177081 0.629908 1
0.311955 0.627283 1
0.44683 0.624659 1
0.581704 0.622034 1
0.716594 0.61941 1
0.851469 0.616785 1
0.986343 0.61416 1
0 0.763912 1
0.0334478 0.761288 1
0.168322 0.758663 1
0.303212 0.756039 1
0.438087 0.753414 1
0.572961 0.75079 1
0.707835 0.748165 1
0.84271 0.745541 1
0.977584 0.742916 1
0 0.892668 1
0.0247044 0.890043 1
0.159579 0.887419 1
0.294453 0.884794 1
0.429328 0.88217 1
0.564202 0.879545 1
0.699092 0.876921 1
0.833967 0.874281 1
0.968841 0.871656 1
0 1 1
0.0159457 1 1
0.150835 1 1
0.28571 1 1
0.420584 1 1
0.555459 1 1
0.690333 1 1
0.825208 1 1
0.960098 1 1
