public/LUTS/Cinematic/Cinematic_10.cube
TITLE "Generated by Resolve"
LUT_3D_SIZE 5
0.0413519 0.0563668 0.0614023
0.143328 0.0846876 0.0673228
0.418555 0.112322 0.059266
0.792859 0.243778 0.129259
0.911803 0.433524 0.168978
0.0554055 0.132387 0.0820783
0.106172 0.141863 0.0891737
0.343038 0.162402 0.0537575
0.771511 0.269215 0.127855
0.911238 0.398886 0.164691
0.0649424 0.290745 0.142779
0.0972763 0.302541 0.134585
0.402808 0.424704 0.167514
0.833021 0.443061 0.158251
0.915053 0.591394 0.192508
0.133974 0.603601 0.227314
0.168475 0.626001 0.217914
0.467597 0.740017 0.242847
0.863523 0.716121 0.208103
0.918441 0.712825 0.214069
0.220981 0.871656 0.303288
0.279484 0.898375 0.289433
0.555795 0.941756 0.333852
0.859037 0.949508 0.385626
0.947021 0.923461 0.362554
0.0349126 0.186618 0.245045
0.0437629 0.177569 0.203967
0.242329 0.196765 0.168917
0.74931 0.333165 0.191852
0.912077 0.449607 0.17113
0.0361181 0.154955 0.18323
0.0453956 0.161776 0.181628
0.245884 0.187442 0.170901
0.73228 0.269261 0.121416
0.910964 0.380804 0.162585
0.0771496 0.38262 0.311131
0.0669261 0.340856 0.235401
0.255253 0.371511 0.186084
0.783154 0.440574 0.15053
0.914656 0.574151 0.189609
0.151705 0.67071 0.412055
0.144244 0.642329 0.318761
0.333593 0.675212 0.255741
0.808804 0.753643 0.242237
0.918883 0.725856 0.21651
0.210742 0.888594 0.515084
0.209232 0.883177 0.423026
0.457206 0.907088 0.351003
0.792264 0.951171 0.412467
0.942763 0.910201 0.330114
0.0940108 0.440604 0.574746
0.0903792 0.430289 0.504311
0.0859998 0.417823 0.388602
0.599634 0.411704 0.190051
0.943282 0.606928 0.570825
0.0754406 0.367559 0.478538
0.0776837 0.376211 0.493614
0.0742962 0.367239 0.418067
0.537224 0.374746 0.254994
0.903136 0.566155 0.493553
0.0758221 0.370199 0.465492
0.0808881 0.391638 0.476783
0.0941482 0.445121 0.523156
0.663142 0.511711 0.485801
0.94519 0.579385 0.480079
0.146731 0.65005 0.68217
0.160922 0.705257 0.687465
0.168078 0.731991 0.652186
0.737789 0.778393 0.55465
0.947677 0.770779 0.44332
0.219104 0.919295 0.852918
0.218814 0.918273 0.789914
0.216999 0.911696 0.696178
0.723018 0.945876 0.589853
0.95552 0.917601 0.458808
0.159777 0.693355 0.806485
0.158907 0.691707 0.785214
0.153719 0.674037 0.743664
0.421164 0.656352 0.722637
0.91313 0.67599 0.722179
0.141451 0.623194 0.761898
0.140642 0.619272 0.768185
0.136217 0.604669 0.727245
0.33254 0.596979 0.646204
0.856413 0.62327 0.622889
0.138933 0.613321 0.756252
0.140475 0.618952 0.763561
0.145037 0.635874 0.781155
0.453986 0.625483 0.771572
0.889265 0.656443 0.716182
0.144045 0.632807 0.771115
0.149538 0.654643 0.777615
0.158389 0.688853 0.794354
0.58056 0.771634 0.846754
0.960266 0.811231 0.849867
0.191684 0.812696 0.90309
0.198459 0.839277 0.906783
0.209247 0.881437 0.91075
0.536599 0.951171 0.873091
0.973449 0.950286 0.782162
0.195193 0.826978 0.897612
0.195422 0.827985 0.894087
0.192523 0.816785 0.893202
0.3131 0.799939 0.916106
0.905669 0.760891 0.919158
0.191028 0.809995 0.905287
0.190738 0.808118 0.913527
0.189288 0.802686 0.909743
0.185367 0.787594 0.902312
0.833494 0.769085 0.927626
0.187808 0.796414 0.911635
0.185641 0.787625 0.914031
0.1841 0.781628 0.913893
0.181598 0.771618 0.913603
0.846418 0.761608 0.94229
0.184771 0.784482 0.913802
0.184634 0.783749 0.914
0.187015 0.793332 0.914305
0.321111 0.816724 0.936339
0.912551 0.809384 0.956008
0.186969 0.792935 0.915038
0.190036 0.805417 0.914748
0.194354 0.822339 0.915389
0.496071 0.860029 0.951385
0.945571 0.951843 0.95201
