public/LUTS/Cinematic/Cinematic_12.cube
TITLE "Generated by Resolve"
LUT_3D_SIZE 9
0.0979171 0.0829328 0.0818952
0.15697 0.0988785 0.0919051
0.219364 0.11249 0.104402
0.287175 0.131731 0.120104
0.361059 0.157137 0.141711
0.430457 0.183337 0.165301
0.502708 0.211032 0.189197
0.569909 0.238483 0.214298
0.602655 0.255207 0.227268
0.116289 0.135256 0.0944839
0.1832 0.153124 0.10515
0.259617 0.175311 0.1243
0.338598 0.206912 0.150515
0.422156 0.236652 0.178866
0.498238 0.26746 0.204425
0.565011 0.295033 0.228473
0.619959 0.322866 0.252628
0.64892 0.340352 0.266117
0.120562 0.181811 0.10251
0.204486 0.220829 0.12636
0.284977 0.245472 0.148821
0.3738 0.282368 0.181262
0.466407 0.317998 0.214221
0.546014 0.352697 0.243244
0.6112 0.385443 0.27068
0.665537 0.423392 0.298329
0.696483 0.446189 0.313497
0.12575 0.230808 0.11136
0.226184 0.295476 0.1514
0.317632 0.32932 0.183154
0.403601 0.35906 0.212848
0.503944 0.403861 0.250736
0.588769 0.44622 0.285985
0.653056 0.485863 0.316838
0.707271 0.530465 0.344701
0.740124 0.559594 0.364782
0.150607 0.302846 0.134066
0.259754 0.388739 0.18645
0.359915 0.437446 0.227039
0.447288 0.462547 0.256001
0.538705 0.493111 0.289006
0.626337 0.54168 0.326131
0.689296 0.582055 0.357275
0.737224 0.620829 0.386984
0.768673 0.647639 0.406592
0.188571 0.387213 0.166888
0.305348 0.486778 0.225956
0.409567 0.544808 0.272221
0.499565 0.567849 0.302525
0.57847 0.583902 0.329015
0.653071 0.613886 0.357656
0.712261 0.648859 0.385611
0.754864 0.677867 0.412757
0.782879 0.700481 0.434485
0.243854 0.496818 0.212818
0.355032 0.578149 0.267567
0.456474 0.628458 0.310643
0.543053 0.648127 0.341375
0.614984 0.659434 0.365148
0.673823 0.672755 0.386435
0.720394 0.68986 0.405112
0.761944 0.715877 0.430808
0.788052 0.733639 0.450126
0.304509 0.608896 0.265812
0.403647 0.660807 0.306142
0.496559 0.690333 0.341375
0.576699 0.706844 0.369772
0.643214 0.71667 0.394324
0.694713 0.72462 0.412833
0.733089 0.731182 0.42565
0.759701 0.737911 0.434913
0.78909 0.756619 0.455177
0.346502 0.693675 0.299077
0.440345 0.721614 0.332601
0.524559 0.735073 0.362997
0.598733 0.744595 0.387549
0.658457 0.750072 0.408179
0.706386 0.756191 0.425361
0.741924 0.761578 0.437995
0.769528 0.766155 0.447547
0.787945 0.772244 0.456031
0.110903 0.0955825 0.124666
0.151263 0.0938888 0.119539
0.205219 0.104021 0.125933
0.262684 0.118013 0.137041
0.329046 0.135332 0.150759
0.395804 0.15465 0.167727
0.471397 0.180056 0.189914
0.548058 0.205768 0.212741
0.590372 0.221042 0.227054
0.105577 0.133471 0.128206
0.186892 0.167926 0.153475
0.271611 0.187274 0.164981
0.362142 0.206241 0.176699
0.45304 0.229923 0.194934
0.530129 0.253483 0.217258
0.595972 0.278676 0.24065
0.651164 0.30901 0.265049
0.681163 0.32726 0.280232
0.110628 0.184329 0.137377
0.201724 0.252155 0.184314
0.312428 0.282078 0.198276
0.412482 0.302281 0.213535
0.50663 0.327306 0.23566
0.581186 0.349874 0.258091
0.641642 0.379187 0.282032
0.690562 0.411582 0.308507
0.718975 0.434318 0.325216
0.119432 0.243336 0.149462
0.201541 0.328298 0.196887
0.335378 0.38941 0.239887
0.444602 0.405936 0.255695
0.550393 0.435218 0.281987
0.628016 0.464164 0.307942
0.687205 0.501305 0.338247
0.73341 0.542794 0.372244
0.757778 0.568719 0.397131
0.147936 0.327901 0.176684
0.23563 0.435798 0.225834
0.374197 0.511681 0.284703
0.485405 0.530526 0.316487
0.582574 0.544137 0.335073
0.663264 0.576974 0.365789
0.723186 0.614725 0.398978
0.763943 0.651209 0.436164
0.784527 0.672312 0.466026
0.184894 0.423697 0.207813
0.300053 0.553506 0.271916
0.429831 0.616831 0.33521
0.535485 0.632486 0.373877
0.615656 0.63537 0.392767
0.686015 0.654185 0.41442
0.743984 0.685832 0.446448
0.779767 0.713375 0.48043
0.799817 0.730175 0.507622
0.229511 0.534829 0.24329
0.365835 0.645426 0.313787
0.485222 0.685466 0.373556
0.57789 0.69929 0.413626
0.646204 0.701823 0.435309
0.703639 0.711788 0.454749
0.753414 0.729015 0.475563
0.787076 0.748135 0.502297
0.804379 0.760678 0.526986
0.285039 0.641291 0.285252
0.424094 0.71104 0.348577
0.531853 0.730022 0.397589
0.612848 0.741421 0.43418
0.673396 0.74786 0.462394
0.723247 0.755413 0.485054
0.761181 0.764019 0.500237
0.787442 0.771557 0.51014
0.807797 0.782406 0.534142
0.320836 0.709377 0.31014
0.462501 0.74818 0.374701
0.561074 0.758404 0.418219
0.634836 0.767117 0.44715
0.691585 0.774182 0.474983
0.737163 0.782666 0.502113
0.770062 0.789288 0.518257
0.794293 0.793149 0.527001
0.807797 0.796094 0.531701
0.118257 0.1066 0.178592
0.172107 0.110674 0.183154
0.212726 0.106554 0.162142
0.264118 0.118593 0.167071
0.318685 0.133303 0.17612
0.377081 0.150515 0.190753
0.447608 0.172183 0.209186
0.517113 0.194812 0.229404
0.556939 0.209857 0.242161
0.110506 0.145144 0.18056
0.183505 0.180911 0.214069
0.250019 0.173007 0.20238
0.328496 0.184176 0.203403
0.412345 0.199374 0.211261
0.499825 0.216892 0.223163
0.582223 0.239643 0.242176
0.644755 0.269886 0.266682
0.683238 0.287739 0.282673
0.113695 0.196612 0.187884
0.163363 0.234897 0.217517
0.297658 0.299306 0.273899
0.399985 0.3122 0.276234
0.508354 0.325628 0.277623
0.596078 0.342168 0.287999
0.658289 0.36614 0.307698
0.706203 0.399893 0.335897
0.730282 0.427802 0.360922
0.13135 0.259174 0.206851
0.171771 0.312337 0.233173
0.301701 0.403265 0.303868
0.449699 0.443153 0.338399
0.558877 0.449882 0.335454
0.636851 0.466972 0.347646
0.691249 0.49543 0.371817
0.733501 0.53518 0.408408
0.755978 0.566278 0.441749
0.167208 0.351034 0.24239
0.201892 0.413794 0.260243
0.325414 0.517143 0.334936
0.494316 0.577356 0.404959
0.593027 0.577432 0.411826
0.67039 0.593393 0.423102
0.725231 0.623514 0.450996
0.763317 0.654521 0.4916
0.784207 0.678874 0.528939
0.207523 0.450431 0.280293
0.259052 0.536233 0.304585
0.397269 0.632441 0.395163
0.545174 0.669841 0.463737
0.631388 0.669535 0.483101
0.692546 0.675029 0.488151
0.745998 0.700175 0.516884
0.783719 0.725048 0.55172
0.801846 0.740368 0.583566
0.246189 0.550729 0.312215
0.326192 0.64564 0.353582
0.492317 0.707515 0.458976
0.598383 0.726574 0.509209
0.666209 0.728664 0.528954
0.711147 0.729213 0.536873
0.754971 0.74168 0.549462
0.791012 0.759579 0.578805
0.807797 0.771054 0.603861
0.285924 0.646281 0.344213
0.391623 0.718502 0.394476
0.563149 0.753231 0.494392
0.637827 0.762936 0.529397
0.691539 0.767926 0.552163
0.729458 0.769497 0.56791
0.763821 0.774548 0.578912
0.790738 0.781918 0.588586
0.807797 0.789899 0.609659
0.313069 0.705013 0.363378
0.437156 0.755856 0.419486
0.597055 0.776455 0.50425
0.663615 0.784192 0.534005
0.711025 0.791135 0.563745
0.745754 0.795636 0.585901
0.773785 0.799115 0.59942
0.796826 0.803143 0.607233
0.811795 0.804669 0.611215
0.122026 0.11548 0.226947
0.182376 0.127291 0.249058
0.241794 0.133303 0.24097
0.286061 0.132891 0.214252
0.334737 0.143786 0.215183
0.384848 0.157076 0.223453
0.44596 0.174166 0.237446
0.505776 0.192798 0.253178
0.540703 0.205112 0.263859
0.119738 0.160235 0.234958
0.176898 0.188159 0.273136
0.261128 0.195468 0.285435
0.331655 0.187091 0.257343
0.405753 0.195254 0.252003
0.480446 0.210773 0.25803
0.554131 0.230259 0.272053
0.616205 0.257939 0.293767
0.65658 0.274434 0.31043
0.130663 0.221424 0.249729
0.163409 0.242817 0.277241
0.274632 0.302846 0.332784
0.371252 0.298833 0.326848
0.472618 0.304952 0.317479
0.56762 0.317784 0.319966
0.640543 0.340093 0.335241
0.694972 0.369848 0.360952
0.720394 0.394934 0.383688
0.147478 0.276127 0.262409
0.169162 0.305486 0.284199
0.241611 0.357504 0.323369
0.449073 0.473793 0.432212
0.540795 0.46772 0.422705
0.629358 0.483604 0.425528
0.687846 0.508217 0.44509
0.727642 0.548699 0.480217
0.749996 0.578912 0.509911
0.17998 0.360876 0.296239
0.202792 0.401877 0.314595
0.265675 0.470207 0.351156
0.454917 0.578058 0.46804
0.60174 0.610422 0.515084
0.668391 0.615091 0.510292
0.719661 0.63331 0.526665
0.7561 0.664683 0.566033
0.777813 0.686702 0.599374
0.220111 0.458824 0.337194
0.245609 0.511254 0.349752
0.317372 0.586145 0.393286
0.500496 0.663462 0.514778
0.643549 0.695552 0.577646
0.695583 0.694316 0.577478
0.744198 0.709865 0.591913
0.779782 0.732036 0.623148
0.798306 0.747539 0.649775
0.256001 0.545892 0.369253
0.289723 0.611734 0.386374
0.411246 0.681224 0.467048
0.587121 0.729992 0.582254
0.679789 0.749249 0.618296
0.723308 0.749035 0.623941
0.754437 0.750866 0.624796
0.788174 0.767117 0.647745
0.807797 0.779095 0.669688
0.285573 0.620554 0.393759
0.339757 0.693645 0.425711
0.513436 0.745922 0.540688
0.655909 0.773709 0.619806
0.712169 0.782757 0.642191
0.745388 0.785595 0.651576
0.76968 0.785611 0.655711
0.791012 0.788464 0.658351
0.811337 0.79762 0.676448
0.307866 0.671916 0.407904
0.385245 0.74049 0.458701
0.574075 0.777844 0.574044
0.687892 0.794949 0.629999
0.731334 0.802289 0.64976
0.760632 0.807095 0.667399
0.782101 0.808881 0.676326
0.799969 0.811444 0.679332
0.813794 0.812467 0.681224
0.129534 0.127474 0.280751
0.185824 0.142809 0.307897
0.244587 0.152117 0.314092
0.29839 0.152987 0.28455
0.355154 0.157183 0.263554
0.398947 0.165255 0.262989
0.451667 0.176944 0.270024
0.505348 0.194125 0.283726
0.536767 0.204929 0.292348
0.132357 0.177081 0.291203
0.17496 0.192508 0.331594
0.258122 0.210285 0.360189
0.342657 0.212268 0.347753
0.413108 0.206256 0.31397
0.476234 0.216678 0.308171
0.536248 0.232288 0.312276
0.594903 0.254108 0.330129
0.632227 0.268437 0.345647
0.14966 0.244343 0.308431
0.172396 0.254643 0.338445
0.24773 0.293919 0.38497
0.370672 0.318456 0.410483
0.464637 0.305592 0.384466
0.554986 0.308751 0.373144
0.623178 0.326543 0.379492
0.678874 0.354192 0.401694
0.706828 0.378546 0.423453
0.171481 0.312825 0.331014
0.18819 0.32781 0.351629
0.229877 0.35024 0.37966
0.399817 0.452827 0.475441
0.515236 0.457374 0.476921
0.598047 0.461082 0.46978
0.660212 0.482094 0.48191
0.703258 0.51635 0.51133
0.728115 0.546853 0.539391
0.187076 0.367727 0.343557
0.208545 0.389258 0.35964
0.241184 0.432868 0.38819
0.359014 0.515435 0.457038
0.604639 0.629175 0.592004
0.663981 0.631083 0.59266
0.712383 0.650339 0.608499
0.749172 0.674815 0.63418
0.771618 0.696681 0.658351
0.225391 0.458534 0.382467
0.251331 0.494377 0.40087
0.285801 0.549523 0.428138
0.404303 0.618143 0.500221
0.625483 0.696956 0.632334
0.708507 0.716548 0.65861
0.74696 0.727138 0.666163
0.777447 0.743358 0.685618
0.797284 0.759686 0.708507
0.264729 0.548257 0.420676
0.291341 0.590127 0.438972
0.351019 0.647395 0.479896
0.489632 0.702159 0.566857
0.673808 0.751995 0.675151
0.737652 0.766918 0.695506
0.763928 0.767529 0.69572
0.791836 0.777768 0.710307
0.810468 0.789303 0.727062
0.293767 0.614435 0.446174
0.326909 0.66923 0.473289
0.426017 0.723507 0.540413
0.605173 0.764111 0.644312
0.728344 0.792889 0.711467
0.761227 0.79968 0.719585
0.782589 0.800183 0.723308
0.798642 0.801297 0.723079
0.815641 0.809369 0.734783
0.312123 0.658656 0.458747
0.353552 0.716854 0.495995
0.491356 0.767346 0.587015
0.674006 0.795346 0.68397
0.749767 0.811399 0.720241
0.776287 0.817761 0.731487
0.794858 0.819364 0.738979
0.809186 0.821271 0.739147
0.819593 0.822553 0.739956
0.139849 0.139803 0.337804
0.195987 0.156863 0.367773
0.251377 0.166766 0.372015
0.296284 0.167422 0.34696
0.351232 0.1673 0.316197
0.403372 0.171878 0.303197
0.449912 0.180285 0.304768
0.502586 0.194202 0.314748
0.532631 0.204669 0.324376
0.145022 0.18938 0.341863
0.181186 0.200214 0.389425
0.256489 0.220737 0.42884
0.338003 0.228763 0.425635
0.420157 0.231601 0.396567
0.476982 0.231067 0.367163
0.527581 0.238468 0.359579
0.580819 0.255528 0.370214
0.616083 0.272023 0.385138
0.16408 0.258259 0.360632
0.184527 0.26273 0.393896
0.239368 0.2907 0.439979
0.361517 0.326543 0.483513
0.475731 0.33167 0.478645
0.551965 0.321614 0.447227
0.614313 0.328267 0.439399
0.666316 0.351278 0.454353
0.695689 0.372778 0.472114
0.185611 0.328344 0.385641
0.204852 0.337987 0.408118
0.231174 0.347814 0.435279
0.363378 0.435569 0.518654
0.520699 0.474662 0.548089
0.591836 0.460121 0.531701
0.65214 0.468513 0.531044
0.694911 0.499702 0.553521
0.722225 0.530053 0.576974
0.20763 0.395666 0.405173
0.228443 0.408621 0.420386
0.247059 0.429023 0.444678
0.32987 0.489647 0.499672
0.563607 0.611505 0.616876
0.651453 0.623102 0.628672
0.694652 0.633783 0.6365
0.73196 0.658961 0.656535
0.755138 0.680476 0.678813
0.224414 0.45153 0.415732
0.251057 0.47393 0.432883
0.277546 0.518151 0.464744
0.353521 0.583078 0.518807
0.542184 0.66302 0.6168
0.719295 0.73257 0.707485
0.750683 0.739086 0.714611
0.779858 0.756161 0.731609
0.796918 0.768841 0.747189
0.271611 0.548775 0.464149
0.300053 0.581094 0.487388
0.332036 0.625437 0.518807
0.423713 0.674815 0.573831
0.59855 0.728542 0.661601
0.740139 0.773754 0.734768
0.773953 0.781094 0.743267
0.798367 0.791119 0.754681
0.814115 0.800107 0.766857
0.304433 0.618402 0.497047
0.335424 0.659892 0.526467
0.386862 0.703899 0.567163
0.523033 0.744091 0.638422
0.685222 0.782559 0.717815
0.767102 0.805707 0.758724
0.791455 0.810162 0.764126
0.806973 0.811856 0.765682
0.822156 0.818524 0.774639
0.326101 0.662699 0.51577
0.356603 0.706325 0.548745
0.431876 0.75201 0.602045
0.606928 0.787045 0.68777
0.740688 0.811353 0.750378
0.785626 0.824079 0.772381
0.803479 0.827527 0.778439
0.816114 0.828702 0.778119
0.826581 0.830488 0.779156
0.152712 0.154635 0.397147
0.208499 0.170932 0.427176
0.259083 0.179919 0.426337
0.301625 0.178653 0.402182
0.355718 0.180392 0.373312
0.404822 0.18204 0.355184
0.449546 0.184771 0.343664
0.498878 0.197604 0.3514
0.527733 0.206485 0.359167
0.157336 0.20116 0.391226
0.191226 0.21091 0.447395
0.259449 0.230686 0.494667
0.340856 0.24184 0.495079
0.425513 0.250416 0.470115
0.490028 0.254566 0.44181
0.524163 0.249409 0.411261
0.571557 0.262058 0.416434
0.600961 0.275273 0.426688
0.17705 0.269154 0.412802
0.196384 0.268559 0.44538
0.245808 0.294697 0.504051
0.355673 0.331197 0.552392
0.478538 0.348257 0.555581
0.563287 0.351751 0.535821
0.607919 0.343969 0.508232
0.65478 0.357244 0.512886
0.685512 0.371817 0.524208
0.198276 0.337285 0.437888
0.218631 0.342641 0.461051
0.24509 0.352163 0.496971
0.353506 0.433158 0.572396
0.514977 0.480812 0.602014
0.603586 0.484886 0.603922
0.650721 0.476326 0.590555
0.693492 0.494392 0.597696
0.719051 0.521172 0.615549
0.218875 0.402991 0.456168
0.242893 0.416297 0.475135
0.261326 0.431708 0.503319
0.324559 0.480598 0.553445
0.543633 0.604868 0.647044
0.659754 0.635187 0.670802
0.693889 0.631159 0.668956
0.729076 0.650248 0.683436
0.754162 0.671855 0.700771
0.242405 0.469459 0.47541
0.269459 0.489357 0.493706
0.291829 0.518837 0.522957
0.344381 0.565347 0.564935
0.507332 0.64593 0.639841
0.703075 0.727291 0.723949
0.743786 0.734966 0.732799
0.77142 0.748058 0.745785
0.791485 0.762798 0.759411
0.268849 0.537926 0.495705
0.299687 0.56376 0.519005
0.326528 0.602838 0.551522
0.390738 0.650736 0.595438
0.542504 0.707408 0.663294
0.703105 0.760983 0.736217
0.781292 0.790967 0.774655
0.803326 0.800107 0.784222
0.818524 0.808545 0.793103
0.312093 0.617716 0.539437
0.343374 0.652811 0.569085
0.376959 0.690852 0.602487
0.466941 0.726375 0.646738
0.620966 0.767422 0.711513
0.738888 0.797559 0.763867
0.797925 0.816678 0.791058
0.813169 0.818967 0.794812
0.827329 0.825803 0.802152
0.338415 0.66453 0.564797
0.366598 0.701915 0.595895
0.41149 0.739834 0.631205
0.529442 0.772412 0.684672
0.689296 0.802289 0.751369
0.775769 0.821363 0.788754
0.810895 0.831403 0.803037
0.823072 0.835264 0.806653
0.831327 0.835294 0.806409
0.168429 0.171115 0.456764
0.219074 0.184771 0.480583
0.261738 0.190433 0.476417
0.306661 0.192172 0.456306
0.36788 0.197223 0.437034
0.424109 0.203113 0.422309
0.465202 0.203967 0.407706
0.495872 0.202914 0.392386
0.522591 0.211398 0.39823
0.170123 0.211429 0.440864
0.204669 0.22385 0.510277
0.264759 0.238834 0.554025
0.341894 0.251194 0.551553
0.433036 0.265385 0.534035
0.507149 0.279042 0.517342
0.544396 0.277836 0.495781
0.565454 0.271977 0.467964
0.590494 0.280949 0.473426
0.18999 0.279423 0.466819
0.210697 0.276295 0.499702
0.258412 0.307042 0.56878
0.359518 0.34049 0.612558
0.485679 0.362707 0.61474
0.574395 0.375402 0.603189
0.622522 0.377172 0.588159
0.649424 0.368704 0.569863
0.676753 0.378698 0.575586
0.210727 0.345968 0.49163
0.232776 0.351034 0.515038
0.260517 0.362921 0.559853
0.370214 0.444312 0.629496
0.525856 0.494194 0.649485
0.616556 0.504417 0.653666
0.663294 0.505379 0.650278
0.692973 0.500572 0.643549
0.717876 0.519005 0.653544
0.230869 0.410925 0.508125
0.257954 0.423911 0.529122
0.278111 0.44007 0.561563
0.347417 0.492882 0.612665
0.554803 0.612772 0.685298
0.665263 0.646937 0.702449
0.706844 0.650752 0.709239
0.730907 0.647654 0.70869
0.75404 0.663279 0.721309
0.256229 0.478843 0.527642
0.284993 0.499596 0.548272
0.306798 0.525231 0.576928
0.356558 0.568811 0.616281
0.509331 0.646204 0.677058
0.701473 0.728511 0.746258
0.75082 0.741924 0.757259
0.768765 0.744091 0.759411
0.788769 0.757031 0.771267
0.285588 0.549142 0.549035
0.313771 0.571725 0.570123
0.337224 0.603235 0.60029
0.392432 0.64361 0.636683
0.525368 0.699657 0.690364
0.689448 0.756512 0.75053
0.777478 0.790204 0.787854
0.800229 0.797421 0.795392
0.815717 0.805219 0.803677
0.310887 0.60557 0.567056
0.341787 0.633219 0.593805
0.365499 0.669184 0.625299
0.434226 0.706905 0.663203
0.570809 0.751537 0.71574
0.710018 0.788998 0.767224
0.785672 0.811826 0.79942
0.819425 0.825147 0.813626
0.83003 0.829999 0.820356
0.343038 0.661372 0.600092
0.370169 0.693462 0.628321
0.403342 0.728939 0.660624
0.4878 0.758572 0.697368
0.637308 0.791089 0.750622
0.752239 0.817456 0.792676
0.802655 0.831083 0.813352
0.827466 0.838972 0.824292
0.835294 0.8392 0.825315
0.179294 0.18262 0.492897
0.229358 0.192569 0.509285
0.266896 0.196658 0.501915
0.311284 0.197971 0.486122
0.373816 0.205631 0.473625
0.434821 0.215442 0.46183
0.476539 0.219409 0.447578
0.505043 0.216449 0.430426
0.51989 0.214221 0.42359
0.177813 0.217716 0.473167
0.215167 0.232563 0.547662
0.26894 0.246021 0.582055
0.34284 0.257313 0.577417
0.436728 0.274189 0.562982
0.515724 0.293965 0.556008
0.561318 0.300221 0.544274
0.579202 0.293141 0.519371
0.584573 0.286473 0.502663
0.197772 0.287861 0.499382
0.219974 0.283635 0.532433
0.268528 0.31545 0.605737
0.367163 0.345907 0.647074
0.49099 0.370916 0.645457
0.582498 0.389013 0.638132
0.633326 0.39765 0.633249
0.659709 0.391363 0.61915
0.670893 0.383307 0.608392
0.219837 0.354131 0.524681
0.242313 0.358572 0.547402
0.271763 0.371893 0.595819
0.385794 0.45449 0.662501
0.536721 0.504295 0.67744
0.624918 0.519539 0.683726
0.672496 0.528588 0.684688
0.701503 0.525734 0.683391
0.717128 0.522011 0.678492
0.240467 0.417639 0.54229
0.268406 0.43212 0.5635
0.289006 0.446174 0.598032
0.368917 0.510002 0.652506
0.573434 0.62385 0.712245
0.676158 0.655528 0.726604
0.716182 0.661906 0.733501
0.740932 0.664195 0.737408
0.75433 0.662882 0.737392
0.266865 0.485924 0.560906
0.296269 0.508171 0.582193
0.317296 0.531594 0.613016
0.373007 0.575708 0.654246
0.539864 0.662089 0.71339
0.713771 0.73846 0.764355
0.757046 0.750927 0.77438
0.778973 0.755459 0.779904
0.788647 0.755276 0.780377
0.297078 0.556954 0.5841
0.325872 0.580713 0.607248
0.347463 0.608011 0.635584
0.403326 0.647364 0.672236
0.541176 0.70837 0.721447
0.703914 0.763333 0.771817
0.781033 0.794232 0.801144
0.80441 0.801678 0.807935
0.815518 0.80444 0.811612
0.324163 0.616693 0.606027
0.351339 0.640711 0.629938
0.373571 0.668513 0.657893
0.439429 0.708202 0.694011
0.57641 0.754513 0.74078
0.713573 0.791516 0.784466
0.787045 0.814649 0.810529
0.819684 0.825971 0.822889
0.829969 0.829786 0.826032
0.342916 0.652522 0.620859
0.369375 0.680797 0.645487
0.392447 0.712047 0.673793
0.461906 0.745327 0.709102
0.601343 0.781445 0.753521
0.729244 0.8121 0.795316
0.794949 0.82742 0.818616
0.825208 0.8374 0.829602
0.8392 0.843107 0.835294
