public/LUTS/Cinematic/Cinematic_04.cube
TITLE "Generated by Resolve"
LUT_3D_SIZE 9
0.0152895 0.0522316 0.089189
0.165942 0.0454108 0.0823529
0.316625 0.0385901 0.0755322
0.467292 0.031754 0.0687114
0.617975 0.0249332 0.0618906
0.768658 0.0181125 0.0550546
0.919326 0.0112764 0.0482338
1 0.00445563 0.041413
1 0 0.0345769
0 0.186969 0.0664378
0.143191 0.180148 0.059617
0.293873 0.173327 0.052781
0.444556 0.166491 0.0459602
0.595224 0.15967 0.0391394
0.745907 0.15285 0.0323186
0.89659 0.146014 0.0254826
1 0.139193 0.0186618
1 0.132372 0.011841
0 0.321721 0.0436866
0.120439 0.3149 0.0368658
0.271122 0.30808 0.0300298
0.421805 0.301244 0.023209
0.572473 0.294423 0.0163882
0.723156 0.287602 0.00956741
0.873838 0.280766 0.00273136
1 0.273945 0
1 0.267124 0
0 0.456474 0.0209354
0.0976883 0.449653 0.0141146
0.248371 0.442817 0.00727855
0.399054 0.435996 0.000457771
0.549722 0.429175 0
0.700404 0.422354 0
0.851087 0.415518 0
1 0.408698 0
1 0.401877 0
0 0.591226 0
0.0749523 0.584405 0
0.22562 0.577569 0
0.376303 0.570748 0
0.52697 0.563928 0
0.677653 0.557092 0
0.828336 0.550271 0
0.979004 0.54345 0
1 0.536629 0
0 0.725978 0
0.0522011 0.719158 0
0.202869 0.712322 0
0.353552 0.705501 0
0.504219 0.69868 0
0.654902 0.691844 0
0.805585 0.685023 0
0.956252 0.678203 0
1 0.671366 0
0 0.860731 0
0.0294499 0.85391 0
0.180117 0.847074 0
0.3308 0.840253 0
0.481483 0.833432 0
0.632151 0.826596 0
0.782834 0.819776 0
0.933501 0.812955 0
1 0.806119 0
0 0.995483 0
0.00669871 0.988663 0
0.157366 0.981826 0
0.308049 0.975006 0
0.458732 0.968185 0
0.6094 0.961349 0
0.760082 0.954528 0
0.91075 0.947707 0
1 0.940871 0
0 1 0
0 1 0
0.134615 1 0
0.285298 1 0
0.435981 1 0
0.586648 1 0
0.737331 1 0
0.888014 1 0
1 1 0
0.0123598 0.0493172 0.243748
0.163012 0.0424811 0.236927
0.313695 0.0356603 0.230091
0.464378 0.0288396 0.22327
0.615045 0.0220035 0.216449
0.765728 0.0151827 0.209613
0.916411 0.00836194 0.202792
1 0.0015259 0.195972
1 0 0.189136
0 0.184039 0.220996
0.140276 0.177218 0.214176
0.290944 0.170397 0.20734
0.441627 0.163577 0.200519
0.592309 0.156741 0.193698
0.742977 0.14992 0.186877
0.89366 0.143099 0.180041
1 0.136263 0.17322
1 0.129442 0.1664
0 0.318791 0.198245
0.117525 0.311971 0.191424
0.268193 0.30515 0.184588
0.418875 0.298329 0.177768
0.569558 0.291493 0.170947
0.720226 0.284672 0.164126
0.870909 0.277852 0.15729
1 0.271015 0.150469
1 0.264195 0.143648
0 0.453544 0.175494
0.0947738 0.446723 0.168673
0.245441 0.439902 0.161852
0.396124 0.433082 0.155016
0.546807 0.426246 0.148196
0.697475 0.419425 0.141375
0.848157 0.412604 0.134539
0.99884 0.405768 0.127718
1 0.398947 0.120897
0 0.588296 0.152743
0.0720226 0.581476 0.145922
0.22269 0.574655 0.139101
0.373373 0.567834 0.132265
0.524056 0.560998 0.125444
0.674723 0.554177 0.118624
0.825406 0.547356 0.111788
0.976089 0.54052 0.104967
1 0.5337 0.098146
0 0.723049 0.129992
0.0492714 0.716228 0.123171
0.199954 0.709407 0.11635
0.350622 0.702571 0.109514
0.501305 0.69575 0.102693
0.651972 0.68893 0.0958724
0.802655 0.682109 0.0890364
0.953338 0.675273 0.0822156
1 0.668452 0.0753948
0 0.857801 0.10724
0.0265202 0.85098 0.10042
0.177203 0.84416 0.0935988
0.327871 0.837324 0.0867628
0.478553 0.830503 0.079942
0.629221 0.823682 0.0731212
0.779904 0.816846 0.0662852
0.930587 0.810025 0.0594644
1 0.803204 0.0526436
0 0.992554 0.0844892
0.00376898 0.985733 0.0776684
0.154452 0.978912 0.0708476
0.305119 0.972076 0.0640116
0.455802 0.965255 0.0571908
0.606485 0.958434 0.05037
0.757153 0.951598 0.043534
0.907835 0.944778 0.0367132
1 0.937957 0.0298924
0 1 0.061738
0 1 0.0549172
0.131701 1 0.0480964
0.282368 1 0.0412604
0.433051 1 0.0344396
0.583734 1 0.0276188
0.734401 1 0.020798
0.885084 1 0.013962
1 1 0.00714122
0.00943008 0.0463874 0.398322
0.160098 0.0395666 0.391501
0.310765 0.0327306 0.384665
0.461448 0.0259098 0.377844
0.612131 0.019089 0.371023
0.762798 0.012253 0.364202
0.913481 0.00543221 0.357366
1 0 0.350545
1 0 0.343725
0 0.181125 0.37557
0.137346 0.174304 0.36875
0.288029 0.167468 0.361929
0.438697 0.160647 0.355093
0.58938 0.153826 0.348272
0.740063 0.14699 0.341451
0.89073 0.140169 0.33463
1 0.133349 0.327794
1 0.126513 0.320974
0 0.315877 0.352819
0.114595 0.309056 0.345998
0.265278 0.30222 0.339178
0.415946 0.295399 0.332341
0.566629 0.288579 0.325521
0.717311 0.281743 0.3187
0.867979 0.274922 0.311879
1 0.268101 0.305043
1 0.261265 0.298222
0 0.450629 0.330068
0.0918441 0.443809 0.323247
0.242527 0.436973 0.316426
0.393194 0.430152 0.30959
0.543877 0.423331 0.30277
0.69456 0.416495 0.295949
0.845228 0.409674 0.289128
0.995911 0.402853 0.282292
1 0.396017 0.275471
0 0.585382 0.307317
0.0690929 0.578561 0.300496
0.219776 0.571725 0.293675
0.370443 0.564904 0.286854
0.521126 0.558083 0.280018
0.671809 0.551247 0.273198
0.822477 0.544427 0.266377
0.973159 0.537606 0.259541
1 0.53077 0.25272
0 0.720134 0.284566
0.0463417 0.713298 0.277745
0.197024 0.706477 0.270924
0.347692 0.699657 0.264103
0.498375 0.692836 0.257267
0.649058 0.686 0.250446
0.799725 0.679179 0.243626
0.950408 0.672358 0.236789
1 0.665522 0.229969
0 0.854887 0.261814
0.0235904 0.848051 0.254994
0.174273 0.84123 0.248173
0.324956 0.834409 0.241352
0.475624 0.827573 0.234516
0.626307 0.820752 0.227695
0.776974 0.813931 0.220874
0.927657 0.807111 0.214038
1 0.800275 0.207218
0 0.989639 0.239063
0.000839246 0.982803 0.232242
0.151522 0.975982 0.225422
0.302205 0.969162 0.218601
0.452873 0.962325 0.211765
0.603555 0.955505 0.204944
0.754223 0.948684 0.198123
0.904906 0.941848 0.191287
1 0.935027 0.184466
0 1 0.216312
0 1 0.209491
0.128771 1 0.20267
0.279454 1 0.19585
0.430121 1 0.189014
0.580804 1 0.182193
0.731487 1 0.175372
0.882155 1 0.168536
1 1 0.161715
0.0065156 0.0434577 0.552895
0.157168 0.0366369 0.546075
0.307851 0.0298161 0.539254
0.458518 0.0229801 0.532418
0.609201 0.0161593 0.525597
0.759884 0.00933852 0.518776
0.910552 0.00250248 0.511955
1 0 0.505119
1 0 0.498299
0 0.178195 0.530144
0.134417 0.171374 0.523323
0.2851 0.164553 0.516503
0.435782 0.157717 0.509682
0.58645 0.150896 0.502846
0.737133 0.144076 0.496025
0.8878 0.13724 0.489204
1 0.130419 0.482383
1 0.123598 0.475547
0 0.312947 0.507408
0.111666 0.306127 0.500572
0.262348 0.299306 0.493751
0.413031 0.29247 0.486931
0.563699 0.285649 0.480095
0.714382 0.278828 0.473274
0.865064 0.271992 0.466453
1 0.265171 0.459632
1 0.25835 0.452796
0 0.4477 0.484657
0.0889143 0.440879 0.477821
0.239597 0.434058 0.471
0.39028 0.427222 0.464179
0.540948 0.420401 0.457343
0.69163 0.413581 0.450523
0.842313 0.406744 0.443702
0.992981 0.399924 0.436881
1 0.393103 0.430045
0 0.582452 0.461906
0.0661631 0.575631 0.45507
0.216846 0.568811 0.448249
0.367529 0.561975 0.441428
0.518196 0.555154 0.434592
0.668879 0.548333 0.427771
0.819562 0.541497 0.420951
0.97023 0.534676 0.41413
1 0.527855 0.407294
0 0.717205 0.439155
0.0434272 0.710384 0.432319
0.194095 0.703563 0.425498
0.344778 0.696727 0.418677
0.495445 0.689906 0.411856
0.646128 0.683085 0.40502
0.796811 0.676249 0.398199
0.947478 0.669429 0.391379
1 0.662608 0.384543
0 0.851957 0.416403
0.020676 0.845136 0.409567
0.171344 0.8383 0.402747
0.322026 0.831479 0.395926
0.472694 0.824659 0.389105
0.623377 0.817838 0.382269
0.77406 0.811002 0.375448
0.924727 0.804181 0.368627
1 0.79736 0.361791
0 0.986709 0.393652
0 0.979889 0.386816
0.148592 0.973053 0.379995
0.299275 0.966232 0.373175
0.449958 0.959411 0.366354
0.600626 0.952575 0.359518
0.751308 0.945754 0.352697
0.901976 0.938933 0.345876
1 0.932113 0.33904
0 1 0.370901
0 1 0.364065
0.125841 1 0.357244
0.276524 1 0.350423
0.427207 1 0.343603
0.577874 1 0.336767
0.728557 1 0.329946
0.879225 1 0.323125
1 1 0.316289
0.00358587 0.0405432 0.707485
0.154238 0.0337072 0.700648
0.304921 0.0268864 0.693828
0.455604 0.0200656 0.687007
0.606271 0.0132296 0.680171
0.756954 0.00640879 0.67335
0.907637 0 0.666529
1 0 0.659709
1 0 0.652873
0 0.17528 0.684733
0.131502 0.168444 0.677913
0.28217 0.161624 0.671077
0.432853 0.154803 0.664256
0.583535 0.147967 0.657435
0.734203 0.141146 0.650599
0.884886 0.134325 0.643778
1 0.127489 0.636957
1 0.120668 0.630121
0 0.310033 0.661982
0.108751 0.303197 0.655161
0.259419 0.296376 0.648325
0.410101 0.289555 0.641505
0.560784 0.282719 0.634684
0.711452 0.275898 0.627848
0.862135 0.269078 0.621027
1 0.262242 0.614206
1 0.255421 0.607385
0 0.44477 0.639231
0.0859998 0.437949 0.63241
0.236667 0.431128 0.625574
0.38735 0.424308 0.618753
0.538033 0.417472 0.611933
0.688701 0.410651 0.605097
0.839384 0.40383 0.598276
0.990066 0.396994 0.591455
1 0.390173 0.584634
0 0.579522 0.61648
0.0632486 0.572702 0.609659
0.213916 0.565881 0.602823
0.364599 0.55906 0.596002
0.515282 0.552224 0.589181
0.665949 0.545403 0.582345
0.816632 0.538582 0.575525
0.967315 0.531746 0.568704
1 0.524926 0.561883
0 0.714275 0.593729
0.0404974 0.707454 0.586908
0.191165 0.700633 0.580072
0.341848 0.693812 0.573251
0.492531 0.686976 0.56643
0.643198 0.680156 0.559594
0.793881 0.673335 0.552773
0.944564 0.666499 0.545953
1 0.659678 0.539132
0 0.849027 0.570977
0.0177462 0.842206 0.564157
0.168429 0.835386 0.557321
0.319097 0.828565 0.5505
0.46978 0.821729 0.543679
0.620447 0.814908 0.536858
0.77113 0.808087 0.530022
0.921813 0.801251 0.523201
1 0.79443 0.516381
0 0.98378 0.548226
0 0.976959 0.541405
0.145678 0.970138 0.534569
0.296345 0.963302 0.527749
0.447028 0.956481 0.520928
0.597696 0.94966 0.514107
0.748379 0.94284 0.507271
0.899062 0.936004 0.50045
1 0.929183 0.493629
0 1 0.525475
0 1 0.518654
0.122927 1 0.511818
0.273594 1 0.504997
0.424277 1 0.498177
0.57496 1 0.491356
0.725628 1 0.48452
0.87631 1 0.477699
1 1 0.470878
0.000656138 0.0376135 0.862058
0.151324 0.0307927 0.855238
0.301991 0.0239567 0.848402
0.452674 0.0171359 0.841581
0.603357 0.0103151 0.83476
0.754025 0.00347906 0.827924
0.904707 0 0.821103
1 0 0.814282
1 0 0.807462
0 0.172351 0.839307
0.128573 0.16553 0.832486
0.279255 0.158694 0.82565
0.429923 0.151873 0.81883
0.580606 0.145052 0.812009
0.731273 0.138216 0.805188
0.881956 0.131395 0.798352
1 0.124575 0.791531
1 0.117739 0.78471
0 0.307103 0.816556
0.105821 0.300282 0.809735
0.256504 0.293446 0.802915
0.407172 0.286625 0.796078
0.557855 0.279805 0.789258
0.708537 0.272969 0.782437
0.859205 0.266148 0.775601
1 0.259327 0.76878
1 0.252491 0.761959
0 0.441855 0.793805
0.0830701 0.435035 0.786984
0.233753 0.428199 0.780163
0.384421 0.421378 0.773327
0.535103 0.414557 0.766506
0.685786 0.407721 0.759686
0.836454 0.4009 0.75285
0.987137 0.39408 0.746029
1 0.387243 0.739208
0 0.576608 0.771054
0.0603189 0.569787 0.764233
0.211002 0.562951 0.757412
0.361669 0.55613 0.750576
0.512352 0.54931 0.743755
0.663035 0.542473 0.736934
0.813703 0.535653 0.730098
0.964385 0.528832 0.723278
1 0.521996 0.716457
0 0.71136 0.748302
0.0375677 0.70454 0.741482
0.188251 0.697704 0.734661
0.338918 0.690883 0.727825
0.489601 0.684062 0.721004
0.640284 0.677226 0.714183
0.790951 0.670405 0.707347
0.941634 0.663584 0.700526
1 0.656748 0.693706
0 0.846113 0.725551
0.0148165 0.839292 0.71873
0.165499 0.832456 0.71191
0.316167 0.825635 0.705074
0.46685 0.818814 0.698253
0.617533 0.811978 0.691432
0.7682 0.805158 0.684596
0.918883 0.798337 0.677775
1 0.791501 0.670954
0 0.980865 0.7028
0 0.974029 0.695979
0.142748 0.967208 0.689158
0.293431 0.960388 0.682322
0.444099 0.953567 0.675502
0.594781 0.946731 0.668681
0.745449 0.93991 0.66186
0.896132 0.933089 0.655024
1 0.926253 0.648203
0 1 0.680049
0 1 0.673228
0.119997 1 0.666407
0.27068 1 0.659571
0.421347 1 0.65275
0.57203 1 0.64593
0.722698 1 0.639109
0.873381 1 0.632273
1 1 0.625452
0 0.0346838 1
0.148394 0.027863 1
0.299077 0.0210422 1
0.449744 0.0142061 0.996155
0.600427 0.00738537 0.989334
0.75111 0.000564584 0.982513
0.901778 0 0.975677
1 0 0.968856
1 0 0.962036
0 0.169421 0.993881
0.125643 0.1626 0.98706
0.276326 0.155779 0.98024
0.426993 0.148943 0.973404
0.577676 0.142123 0.966583
0.728359 0.135302 0.959762
0.879026 0.128466 0.952941
1 0.121645 0.946105
1 0.114824 0.939284
0 0.304173 0.97113
0.102892 0.297353 0.964309
0.253574 0.290532 0.957488
0.404257 0.283696 0.950652
0.554925 0.276875 0.943832
0.705608 0.270054 0.937011
0.856275 0.263218 0.93019
1 0.256397 0.923354
1 0.249577 0.916533
0 0.438926 0.948379
0.0801404 0.432105 0.941558
0.230823 0.425284 0.934737
0.381506 0.418448 0.927916
0.532174 0.411627 0.92108
0.682857 0.404807 0.91426
0.833539 0.397971 0.907439
0.984207 0.39115 0.900603
1 0.384329 0.893782
0 0.573678 0.925628
0.0573892 0.566857 0.918807
0.208072 0.560037 0.911986
0.358755 0.553201 0.905165
0.509422 0.54638 0.898329
0.660105 0.539559 0.891508
0.810788 0.532723 0.884688
0.961456 0.525902 0.877852
1 0.519081 0.871031
0 0.708431 0.902876
0.034638 0.70161 0.896056
0.185321 0.694789 0.889235
0.336004 0.687953 0.882414
0.486671 0.681132 0.875578
0.637354 0.674311 0.868757
0.788037 0.667475 0.861936
0.938704 0.660655 0.8551
1 0.653834 0.84828
0 0.843183 0.880125
0.0118868 0.836362 0.873304
0.16257 0.829541 0.866484
0.313252 0.822705 0.859663
0.46392 0.815885 0.852827
0.614603 0.809064 0.846006
0.765286 0.802228 0.839185
0.915953 0.795407 0.832349
1 0.788586 0.825528
0 0.977935 0.857374
0 0.971115 0.850553
0.139818 0.964294 0.843732
0.290501 0.957458 0.836912
0.441169 0.950637 0.830076
0.591852 0.943816 0.823255
0.742535 0.93698 0.816434
0.893202 0.930159 0.809598
1 0.923339 0.802777
0 1 0.834623
0 1 0.827802
0.117067 1 0.820981
0.26775 1 0.81416
0.418433 1 0.807324
0.5691 1 0.800504
0.719783 1 0.793683
0.870451 1 0.786862
1 1 0.780026
0 0.0317693 1
0.145464 0.0249332 1
0.296147 0.0181125 1
0.44683 0.0112917 1
0.597498 0.00445563 1
0.74818 0 1
0.898848 0 1
1 0 1
1 0 1
0 0.166506 1
0.122728 0.15967 1
0.273396 0.15285 1
0.424079 0.146029 1
0.574746 0.139193 1
0.725429 0.132372 1
0.876112 0.125551 1
1 0.118715 1
1 0.111894 1
0 0.301259 1
0.0999771 0.294423 1
0.250645 0.287602 1
0.401328 0.280781 1
0.551995 0.273945 1
0.702678 0.267124 1
0.853361 0.260304 1
1 0.253468 1
1 0.246647 1
0 0.436011 1
0.0772259 0.429175 1
0.227893 0.422354 1
0.378576 0.415534 1
0.529259 0.408698 1
0.679927 0.401877 1
0.83061 0.395056 1
0.981277 0.38822 1
1 0.381399 1
0 0.570764 1
0.0544747 0.563928 1
0.205142 0.557107 1
0.355825 0.550286 1
0.506508 0.54345 1
0.657176 0.536629 1
0.807858 0.529809 1
0.958526 0.522972 1
1 0.516152 1
0 0.705501 1
0.0317235 0.69868 1
0.182391 0.691859 1
0.333074 0.685039 1
0.483757 0.678203 1
0.634424 0.671382 1
0.785107 0.664561 1
0.93579 0.657725 1
1 0.650904 1
0 0.840253 1
0.0089723 0.833432 1
0.15964 0.826612 1
0.310323 0.819791 1
0.461006 0.812955 1
0.611673 0.806134 1
0.762356 0.799313 0.993759
0.913039 0.792477 0.986938
1 0.785657 0.980102
0 0.975006 1
0 0.968185 1
0.136889 0.961364 0.998306
0.287572 0.954543 0.991485
0.438254 0.947707 0.984665
0.588922 0.940887 0.977829
0.739605 0.934066 0.971008
0.890288 0.92723 0.964187
1 0.920409 0.957351
0 1 0.989212
0 1 0.982391
0.114153 1 0.975555
0.26482 1 0.968734
0.415503 1 0.961913
0.566171 1 0.955077
0.716854 1 0.948257
0.867536 1 0.941436
1 1 0.9346
0 0.0288396 1
0.14255 0.0220188 1
0.293217 0.0151827 1
0.4439 0.00836194 1
0.594568 0.00154116 1
0.745251 0 1
0.895933 0 1
1 0 1
1 0 1
0 0.163577 1
0.119799 0.156756 1
0.270466 0.14992 1
0.421149 0.143099 1
0.571832 0.136278 1
0.722499 0.129442 1
0.873182 0.122621 1
1 0.115801 1
1 0.108965 1
0 0.298329 1
0.0970474 0.291508 1
0.24773 0.284672 1
0.398398 0.277852 1
0.549081 0.271031 1
0.699748 0.264195 1
0.850431 0.257374 1
1 0.250553 1
1 0.243717 1
0 0.433082 1
0.0742962 0.426261 1
0.224979 0.419425 1
0.375647 0.412604 1
0.526329 0.405783 1
0.676997 0.398947 1
0.82768 0.392126 1
0.978363 0.385306 1
1 0.37847 1
0 0.567834 1
0.051545 0.561013 1
0.202228 0.554177 1
0.352895 0.547356 1
0.503578 0.540536 1
0.654261 0.5337 1
0.804929 0.526879 1
0.955612 0.520058 1
1 0.513222 1
0 0.702586 1
0.0287938 0.695766 1
0.179477 0.68893 1
0.330144 0.682109 1
0.480827 0.675288 1
0.63151 0.668452 1
0.782177 0.661631 1
0.93286 0.65481 1
1 0.647974 1
0 0.837339 1
0.00604257 0.830518 1
0.156725 0.823682 1
0.307393 0.816861 1
0.458076 0.81004 1
0.608759 0.803204 1
0.759426 0.796384 1
0.910109 0.789563 1
1 0.782727 1
0 0.972091 1
0 0.96527 1
0.133974 0.958434 1
0.284642 0.951614 1
0.435325 0.944793 1
0.586007 0.937957 1
0.736675 0.931136 1
0.887358 0.924315 1
1 0.917479 1
0 1 1
0 1 1
0.111223 1 1
0.261891 1 1
0.412573 1 1
0.563256 1 1
0.713924 1 1
0.864607 1 1
1 1 1
