public/LUTS/Cinematic/Cinematic_13.cube
TITLE "Generated by Resolve"
LUT_3D_SIZE 9
0.0688029 0.0594797 0.0594797
0.111421 0.0670634 0.0663462
0.161486 0.0779431 0.0758068
0.217777 0.0937514 0.0894026
0.282017 0.114122 0.107897
0.347387 0.138628 0.129458
0.423514 0.163119 0.15201
0.508278 0.192828 0.17731
0.555184 0.210513 0.192355
0.0781109 0.0940108 0.0652476
0.120531 0.100893 0.0706798
0.181384 0.120287 0.085893
0.254688 0.149111 0.110384
0.339391 0.181399 0.138842
0.425391 0.21474 0.165576
0.506279 0.24477 0.191058
0.572885 0.27422 0.216724
0.610605 0.291035 0.231479
0.0831922 0.131258 0.0710155
0.137545 0.153292 0.0845045
0.199268 0.172244 0.103578
0.284367 0.210117 0.133822
0.38146 0.251377 0.167102
0.476097 0.292073 0.199023
0.555062 0.326741 0.228733
0.619058 0.365881 0.260044
0.654414 0.389639 0.27805
0.0893873 0.170809 0.0786603
0.157214 0.209796 0.105379
0.233799 0.2421 0.131777
0.307591 0.272251 0.157778
0.413245 0.32285 0.196567
0.515206 0.37348 0.23653
0.593896 0.41619 0.270771
0.65742 0.463508 0.305455
0.694667 0.495613 0.327474
0.104173 0.220676 0.0950027
0.183398 0.279988 0.13228
0.275227 0.332204 0.170687
0.354192 0.364752 0.197299
0.443839 0.402335 0.23032
0.551125 0.461112 0.275822
0.630579 0.511955 0.313802
0.693538 0.561044 0.347555
0.733455 0.594247 0.370672
0.130297 0.279881 0.118578
0.22031 0.360235 0.166339
0.325628 0.435599 0.215274
0.411582 0.472679 0.24828
0.492943 0.49958 0.275135
0.577142 0.537194 0.307958
0.658274 0.588037 0.347036
0.715969 0.62884 0.376623
0.753521 0.657832 0.397589
0.174517 0.377188 0.160174
0.271351 0.464927 0.211109
0.3794 0.543526 0.26305
0.469169 0.58114 0.296635
0.544747 0.598459 0.32108
0.612757 0.616388 0.343816
0.669871 0.638132 0.364874
0.727352 0.675135 0.393835
0.761929 0.698863 0.411826
0.2383 0.516075 0.220371
0.334234 0.587686 0.265538
0.4309 0.640223 0.306096
0.517906 0.668681 0.336614
0.593256 0.683558 0.360189
0.648325 0.687999 0.37612
0.691279 0.694667 0.389029
0.727138 0.702434 0.399939
0.764187 0.72665 0.421195
0.299168 0.634531 0.274571
0.385672 0.679133 0.308934
0.473747 0.706355 0.337057
0.550851 0.722866 0.360662
0.618921 0.731594 0.380194
0.669032 0.733883 0.394308
0.709163 0.736049 0.405798
0.741512 0.740612 0.415244
0.765789 0.746731 0.425132
0.0784161 0.0666361 0.0940414
0.109957 0.0673686 0.0913863
0.156756 0.0764935 0.0982071
0.20734 0.0893721 0.10927
0.262547 0.104387 0.121782
0.322927 0.122332 0.137743
0.392828 0.14432 0.157702
0.475029 0.169863 0.181033
0.528222 0.186847 0.194858
0.0768749 0.0952163 0.0945602
0.133333 0.113619 0.106981
0.208789 0.132372 0.120027
0.28983 0.151247 0.133989
0.376654 0.177615 0.155657
0.456641 0.205676 0.180667
0.534005 0.235294 0.207385
0.60119 0.265126 0.23328
0.637888 0.285313 0.249104
0.0812848 0.13579 0.0992294
0.15172 0.18468 0.128588
0.248173 0.212131 0.143816
0.342992 0.240177 0.165087
0.438819 0.273289 0.197436
0.522148 0.302251 0.224277
0.592767 0.33167 0.250523
0.650217 0.364446 0.276066
0.684153 0.38645 0.293614
0.0885786 0.181888 0.108385
0.152926 0.247227 0.138186
0.271946 0.306111 0.175296
0.375082 0.331395 0.200198
0.48452 0.371267 0.238529
0.573617 0.406287 0.270756
0.64332 0.445731 0.302022
0.701411 0.489158 0.332937
0.734264 0.5187 0.353826
0.106554 0.243381 0.126513
0.171237 0.329656 0.157794
0.305791 0.415839 0.214618
0.416236 0.449699 0.251698
0.522332 0.476524 0.28246
0.617136 0.519219 0.319905
0.68957 0.564523 0.354498
0.74168 0.60795 0.38883
0.771176 0.634531 0.414267
0.134478 0.314809 0.153521
0.221073 0.437003 0.195529
0.356863 0.53344 0.261402
0.469337 0.569207 0.305867
0.563119 0.581796 0.332982
0.647471 0.608164 0.361761
0.718379 0.647837 0.394766
0.763912 0.681941 0.429496
0.790372 0.705455 0.456046
0.178119 0.421302 0.195315
0.279255 0.548913 0.239261
0.409964 0.62797 0.302495
0.51931 0.658549 0.346914
0.605173 0.668513 0.37557
0.673548 0.680629 0.398672
0.731899 0.701503 0.423636
0.773541 0.726772 0.45362
0.797574 0.744442 0.478614
0.238773 0.558968 0.248463
0.34435 0.654856 0.289158
0.460166 0.69337 0.338033
0.559533 0.714443 0.376761
0.638056 0.726131 0.409247
0.699535 0.73579 0.433982
0.743526 0.745342 0.451225
0.773281 0.752529 0.461509
0.800519 0.770352 0.487037
0.279789 0.656474 0.28687
0.388174 0.722164 0.322774
0.497032 0.740734 0.36733
0.587304 0.751141 0.398032
0.656977 0.759609 0.424536
0.712016 0.768612 0.450553
0.752895 0.775372 0.467887
0.781369 0.781033 0.477668
0.800381 0.78468 0.48748
0.0872053 0.0761883 0.137942
0.127153 0.0785534 0.138659
0.158068 0.078706 0.127306
0.20502 0.0899214 0.135256
0.255024 0.103777 0.14612
0.31043 0.120256 0.160159
0.376104 0.139361 0.176822
0.451667 0.160204 0.197436
0.498878 0.174121 0.211383
0.0839246 0.105303 0.138399
0.140169 0.127321 0.162768
0.196445 0.123735 0.154101
0.263996 0.134813 0.157626
0.339437 0.152239 0.17052
0.419364 0.171618 0.185199
0.504524 0.196445 0.207248
0.584314 0.224933 0.231357
0.632181 0.243366 0.248692
0.0859846 0.145113 0.142947
0.127443 0.177127 0.167346
0.241428 0.231434 0.213825
0.345068 0.251118 0.220203
0.456596 0.269245 0.227192
0.549996 0.289387 0.244266
0.622522 0.314504 0.26508
0.678447 0.346639 0.292607
0.712123 0.371557 0.31342
0.100832 0.19942 0.158984
0.133028 0.245823 0.179904
0.250553 0.334585 0.245274
0.390402 0.371542 0.269337
0.510842 0.386648 0.27628
0.599863 0.407523 0.295018
0.665934 0.437675 0.320226
0.715923 0.479652 0.355718
0.744717 0.508614 0.382177
0.131472 0.27982 0.190982
0.158602 0.335714 0.205875
0.264714 0.443183 0.266484
0.430152 0.512703 0.330434
0.54725 0.518822 0.343572
0.642283 0.544274 0.363546
0.70869 0.57937 0.394263
0.753353 0.618769 0.437491
0.777508 0.647486 0.474311
0.168948 0.374365 0.2318
0.205615 0.453239 0.244373
0.331243 0.57615 0.320882
0.48452 0.629419 0.391302
0.590906 0.633005 0.418128
0.667903 0.642771 0.430533
0.733959 0.673243 0.461769
0.777752 0.705348 0.500801
0.799298 0.726177 0.537896
0.209857 0.477958 0.270146
0.258656 0.575494 0.28336
0.419318 0.673381 0.379339
0.5467 0.70338 0.442649
0.632731 0.705684 0.471397
0.690379 0.709316 0.483818
0.746914 0.727123 0.504433
0.787213 0.748669 0.535256
0.807462 0.763622 0.565438
0.25539 0.587655 0.31046
0.317662 0.676768 0.323095
0.491798 0.732586 0.41799
0.594965 0.74757 0.465873
0.663462 0.754467 0.498177
0.71429 0.758312 0.519554
0.756054 0.76614 0.535927
0.789319 0.776104 0.548714
0.807797 0.785351 0.572656
0.288884 0.662455 0.3402
0.364004 0.734142 0.351904
0.535958 0.762783 0.438697
0.623606 0.773663 0.476707
0.686625 0.781338 0.5093
0.732921 0.788769 0.539513
0.770474 0.7953 0.559213
0.796353 0.799603 0.568994
0.811322 0.800855 0.575006
0.0945754 0.0856794 0.185122
0.141665 0.0945296 0.195285
0.190082 0.101167 0.19353
0.220844 0.0991684 0.172244
0.274693 0.112474 0.180499
0.328374 0.126909 0.192615
0.389853 0.143816 0.207446
0.456153 0.161807 0.223667
0.497749 0.172656 0.23508
0.0931411 0.11696 0.189029
0.143496 0.139208 0.224338
0.216587 0.146685 0.236957
0.274937 0.140673 0.207553
0.338796 0.151446 0.209079
0.40444 0.169635 0.217426
0.47628 0.191089 0.235187
0.550683 0.216297 0.256184
0.595041 0.232715 0.271733
0.100649 0.163989 0.196292
0.133684 0.191669 0.230442
0.227985 0.244053 0.279759
0.314565 0.232532 0.266529
0.416083 0.241596 0.261006
0.514351 0.256947 0.265766
0.60415 0.279255 0.282124
0.671046 0.310811 0.308232
0.707958 0.33518 0.329107
0.115846 0.219638 0.212284
0.141665 0.254078 0.241001
0.19733 0.300114 0.273945
0.379034 0.39646 0.360433
0.491554 0.400412 0.356863
0.597986 0.415442 0.358175
0.668315 0.439063 0.375845
0.717388 0.479667 0.410086
0.744244 0.514916 0.442786
0.146502 0.302327 0.248066
0.172824 0.343893 0.270726
0.218769 0.407172 0.299474
0.38616 0.517449 0.397314
0.55639 0.55967 0.44889
0.642802 0.564889 0.442725
0.704204 0.586297 0.462165
0.747051 0.624689 0.504326
0.77171 0.65272 0.543908
0.187137 0.407218 0.296315
0.216266 0.454215 0.310262
0.267659 0.53167 0.338628
0.434699 0.627436 0.446723
0.605692 0.668101 0.523186
0.671992 0.665843 0.523674
0.732647 0.685496 0.540887
0.774853 0.714382 0.578775
0.795483 0.730159 0.613672
0.226764 0.505623 0.334981
0.258915 0.561196 0.346639
0.352865 0.648386 0.404578
0.533501 0.711894 0.525383
0.648936 0.733623 0.573861
0.703212 0.732738 0.581292
0.744595 0.737133 0.586175
0.785275 0.757839 0.615396
0.806958 0.771252 0.641047
0.259571 0.583963 0.361105
0.301167 0.653803 0.379675
0.441352 0.729183 0.468132
0.619272 0.763882 0.574197
0.688396 0.773922 0.60119
0.728878 0.77583 0.615183
0.759716 0.777081 0.621653
0.788083 0.783017 0.628473
0.808286 0.792737 0.649943
0.285054 0.641459 0.380545
0.333715 0.716701 0.403616
0.503532 0.768704 0.503838
0.65742 0.787839 0.584253
0.709499 0.79646 0.609934
0.745418 0.801007 0.631571
0.773419 0.803952 0.644541
0.796323 0.806928 0.65098
0.811795 0.808865 0.653651
0.102754 0.0962234 0.233036
0.149157 0.1084 0.252247
0.206378 0.121904 0.266163
0.254627 0.124285 0.249012
0.304006 0.126482 0.22768
0.360723 0.138445 0.234485
0.415045 0.151003 0.244266
0.471946 0.166003 0.257053
0.50692 0.176257 0.265751
0.104875 0.131746 0.241108
0.146136 0.149294 0.284306
0.218723 0.164218 0.313054
0.293538 0.167742 0.29836
0.357 0.168887 0.26627
0.411658 0.178866 0.263874
0.468254 0.193027 0.270848
0.534874 0.215167 0.28867
0.574762 0.229709 0.302861
0.117662 0.184924 0.251148
0.146151 0.210864 0.295979
0.207279 0.240604 0.340337
0.322347 0.256626 0.360479
0.412695 0.245777 0.330114
0.502266 0.251453 0.319768
0.581323 0.270176 0.325994
0.647578 0.296651 0.346807
0.685725 0.319722 0.367987
0.137804 0.252735 0.278523
0.165927 0.289219 0.316136
0.194873 0.302556 0.340063
0.338048 0.384436 0.416846
0.46302 0.389212 0.418402
0.564446 0.393668 0.408667
0.642176 0.414282 0.418387
0.694987 0.449104 0.447486
0.7234 0.47985 0.47512
0.157305 0.320592 0.303593
0.184909 0.349096 0.326879
0.208637 0.381277 0.347921
0.3019 0.453803 0.40293
0.557229 0.585092 0.543267
0.632288 0.583917 0.540154
0.695033 0.606165 0.556466
0.738231 0.636118 0.585458
0.763088 0.664775 0.618936
0.192248 0.41352 0.344167
0.22565 0.448539 0.36585
0.253239 0.498741 0.386816
0.344442 0.574151 0.442893
0.576257 0.6692 0.586999
0.684016 0.692226 0.624277
0.733349 0.704875 0.629664
0.769497 0.724041 0.654246
0.793927 0.744839 0.684276
0.234195 0.511955 0.386252
0.268925 0.549538 0.406882
0.308019 0.611276 0.432715
0.428443 0.677668 0.51104
0.637003 0.736233 0.641001
0.720897 0.754681 0.669825
0.751827 0.754162 0.668864
0.786419 0.768841 0.686305
0.807431 0.78291 0.707271
0.264866 0.584085 0.412863
0.300984 0.631464 0.436774
0.366018 0.700771 0.481758
0.556802 0.750607 0.601434
0.704814 0.784939 0.684001
0.747311 0.792798 0.696941
0.773693 0.792905 0.700786
0.793042 0.794263 0.701076
0.813733 0.803754 0.715419
0.285527 0.633722 0.42623
0.322789 0.684901 0.453071
0.422049 0.75201 0.526253
0.638895 0.789181 0.651164
0.732052 0.806394 0.693782
0.765347 0.81384 0.709422
0.788128 0.816831 0.719219
0.805478 0.818112 0.722103
0.817945 0.818753 0.722728
0.114092 0.109102 0.283833
0.160281 0.123201 0.307057
0.216068 0.137697 0.324224
0.260258 0.140642 0.313985
0.315526 0.139376 0.286503
0.375128 0.14667 0.276326
0.42652 0.157168 0.282063
0.478935 0.169131 0.291112
0.508309 0.178912 0.299214
0.118364 0.14789 0.29247
0.154543 0.160739 0.346426
0.223209 0.178836 0.381552
0.288899 0.185336 0.375692
0.359045 0.186618 0.340124
0.417151 0.190753 0.316014
0.466102 0.198199 0.311498
0.526406 0.215473 0.323888
0.563897 0.229328 0.336858
0.133318 0.207492 0.309346
0.159289 0.223789 0.354696
0.203952 0.240818 0.397894
0.313909 0.269535 0.440024
0.423148 0.272709 0.427634
0.502205 0.266392 0.393774
0.570062 0.274357 0.383078
0.63183 0.294606 0.396551
0.667369 0.317159 0.415167
0.153704 0.276371 0.338155
0.183291 0.304326 0.375036
0.203952 0.307179 0.400885
0.304311 0.369131 0.467826
0.46659 0.40911 0.503304
0.557839 0.394812 0.480415
0.632532 0.40264 0.474617
0.683619 0.43209 0.494179
0.714534 0.462593 0.520333
0.17879 0.355398 0.370901
0.207477 0.378271 0.394537
0.223819 0.389715 0.411582
0.280934 0.432395 0.454902
0.507073 0.560922 0.573953
0.614801 0.574273 0.587472
0.670771 0.584466 0.591943
0.715801 0.613519 0.613718
0.744671 0.642145 0.643427
0.197833 0.41828 0.386664
0.226505 0.438087 0.404501
0.252308 0.470802 0.426719
0.305211 0.534005 0.473228
0.474937 0.62298 0.567163
0.698131 0.71371 0.686458
0.736095 0.719478 0.69189
0.768551 0.738674 0.710903
0.79115 0.755123 0.727855
0.239689 0.515053 0.43064
0.276875 0.54934 0.457527
0.30428 0.592081 0.483223
0.370901 0.64538 0.529595
0.541131 0.705684 0.621714
0.722515 0.761837 0.71957
0.763729 0.771084 0.728542
0.792386 0.78294 0.740688
0.811002 0.794125 0.755032
0.275731 0.591211 0.46511
0.313863 0.628092 0.494331
0.347875 0.680201 0.527352
0.46772 0.727672 0.599756
0.648447 0.771786 0.690929
0.756603 0.800488 0.747036
0.785641 0.805951 0.753491
0.80264 0.807218 0.75494
0.819974 0.814954 0.765881
0.299855 0.6421 0.486259
0.336629 0.678294 0.514549
0.386633 0.733562 0.561868
0.551141 0.778302 0.653071
0.718196 0.806073 0.732219
0.778134 0.821454 0.761425
0.798947 0.825772 0.769039
0.813596 0.826902 0.770748
0.824643 0.828595 0.770596
0.129015 0.125002 0.341238
0.17641 0.140597 0.368338
0.228519 0.153414 0.383551
0.265965 0.154025 0.373007
0.315389 0.151217 0.343114
0.372061 0.15375 0.324788
0.4271 0.161227 0.318883
0.477913 0.172747 0.32755
0.507118 0.180438 0.333913
0.13225 0.163363 0.34345
0.167102 0.174426 0.408743
0.232807 0.193011 0.449332
0.297215 0.199832 0.441169
0.361456 0.202457 0.406851
0.421408 0.206058 0.379736
0.46566 0.205982 0.358343
0.518914 0.219089 0.365438
0.553231 0.231983 0.375204
0.147723 0.22388 0.366659
0.173236 0.232502 0.407065
0.211978 0.2477 0.465064
0.308797 0.276631 0.515831
0.422736 0.289982 0.513817
0.514794 0.296178 0.48716
0.565957 0.290318 0.45391
0.617395 0.302678 0.454994
0.653483 0.319112 0.468467
0.168154 0.293355 0.398749
0.197894 0.31194 0.429068
0.217609 0.312734 0.463066
0.299794 0.366964 0.531518
0.459602 0.416846 0.573465
0.569284 0.423224 0.570367
0.627909 0.413809 0.548241
0.678111 0.429908 0.552834
0.709895 0.455497 0.570977
0.191882 0.369192 0.42771
0.221286 0.386069 0.449485
0.240208 0.39556 0.474174
0.283238 0.427619 0.517098
0.481621 0.552865 0.61384
0.625681 0.590433 0.641215
0.669551 0.581292 0.635248
0.712352 0.601633 0.648219
0.741146 0.631662 0.670954
0.21561 0.439475 0.449439
0.244999 0.458122 0.468269
0.269444 0.480568 0.491997
0.305165 0.520974 0.530388
0.438437 0.601236 0.600885
0.676646 0.704524 0.705684
0.726024 0.711742 0.712642
0.75845 0.727413 0.727108
0.782284 0.745983 0.743221
0.238926 0.50454 0.465263
0.273075 0.530587 0.488884
0.302907 0.566537 0.518273
0.348745 0.618158 0.561074
0.478737 0.678614 0.627726
0.670085 0.742855 0.713664
0.771832 0.782147 0.764416
0.797864 0.792264 0.775418
0.815 0.803494 0.787457
0.284352 0.593668 0.511055
0.323354 0.625605 0.542535
0.35137 0.668818 0.575296
0.42089 0.708354 0.618036
0.567147 0.751949 0.683467
0.7178 0.789929 0.750652
0.790753 0.812512 0.784894
0.809842 0.816175 0.788876
0.825666 0.823499 0.797559
0.313375 0.647959 0.539467
0.349737 0.678264 0.569375
0.381643 0.724056 0.606607
0.478401 0.762417 0.657526
0.651667 0.795682 0.731701
0.765957 0.819257 0.780743
0.80528 0.830793 0.798184
0.82121 0.834638 0.801709
0.830701 0.835294 0.802075
0.147234 0.144289 0.411322
0.19794 0.159457 0.43827
0.241596 0.167819 0.445075
0.273991 0.166918 0.431128
0.322225 0.164218 0.405753
0.378393 0.166766 0.385763
0.431205 0.171481 0.37351
0.475822 0.176669 0.367071
0.503441 0.182956 0.372885
0.145327 0.178378 0.40087
0.183276 0.191363 0.474006
0.238682 0.204669 0.506828
0.297353 0.211093 0.49781
0.368673 0.218112 0.473106
0.441001 0.229877 0.455817
0.48632 0.232578 0.435721
0.515312 0.226825 0.413108
0.546288 0.236606 0.419455
0.162661 0.241566 0.430808
0.186465 0.242191 0.461601
0.226505 0.258946 0.534173
0.311192 0.284611 0.583688
0.429755 0.304524 0.582498
0.528542 0.320226 0.565179
0.584375 0.323293 0.544869
0.609155 0.314702 0.516289
0.639368 0.325658 0.52137
0.183215 0.309377 0.461219
0.212085 0.321065 0.486656
0.232654 0.321401 0.524834
0.312917 0.377737 0.598611
0.466636 0.428794 0.630945
0.581399 0.444694 0.631083
0.640085 0.447349 0.623087
0.673884 0.438987 0.608804
0.704433 0.456718 0.619303
0.205341 0.378195 0.483299
0.234867 0.393866 0.507134
0.256901 0.404227 0.535134
0.303319 0.439002 0.583871
0.490242 0.558785 0.661509
0.629847 0.601221 0.680781
0.684138 0.605814 0.687297
0.714336 0.601282 0.68423
0.740963 0.623056 0.698619
0.230228 0.448417 0.504509
0.260685 0.468574 0.525689
0.287343 0.49015 0.551476
0.319509 0.523766 0.589715
0.442985 0.60029 0.649424
0.67541 0.705486 0.732158
0.735378 0.722484 0.742657
0.758663 0.723217 0.746578
0.781231 0.739086 0.758953
0.258335 0.522774 0.526772
0.291951 0.545312 0.548928
0.319783 0.574121 0.575174
0.35465 0.612482 0.612284
0.463752 0.668223 0.66334
0.650507 0.736461 0.732067
0.767285 0.781537 0.780041
0.794003 0.789975 0.787945
0.81149 0.799268 0.79826
0.285161 0.584924 0.547051
0.32137 0.611902 0.573495
0.34905 0.646906 0.603403
0.396567 0.687434 0.641062
0.51632 0.733562 0.691905
0.678828 0.778103 0.752926
0.776287 0.807507 0.793744
0.817212 0.823041 0.811032
0.828717 0.828702 0.817884
0.32221 0.647532 0.582406
0.357671 0.674968 0.609522
0.382467 0.713405 0.642084
0.447486 0.747997 0.679606
0.589288 0.782422 0.73225
0.732631 0.813062 0.783261
0.797147 0.828916 0.808972
0.826658 0.838804 0.823194
0.835294 0.8392 0.823758
0.160235 0.156481 0.455406
0.211612 0.170886 0.479179
0.250202 0.176684 0.478477
0.280873 0.172519 0.464607
0.329793 0.173663 0.444709
0.385153 0.175845 0.426017
0.435904 0.179522 0.411261
0.477455 0.183963 0.402472
0.500008 0.186374 0.398154
0.154177 0.187778 0.439948
0.193378 0.2009 0.514839
0.245502 0.212009 0.538872
0.29865 0.216617 0.527855
0.374029 0.227527 0.510964
0.452613 0.244297 0.501518
0.504112 0.250782 0.488426
0.529335 0.245655 0.464439
0.542321 0.240162 0.451942
0.172412 0.254475 0.473457
0.1953 0.249393 0.498192
0.236988 0.272404 0.577417
0.31783 0.291157 0.621607
0.431952 0.312825 0.617075
0.535515 0.334325 0.606088
0.596857 0.346181 0.596613
0.62359 0.340459 0.576852
0.633692 0.33283 0.558984
0.19408 0.321721 0.50338
0.220172 0.328786 0.525231
0.24567 0.330663 0.564675
0.32668 0.388235 0.641001
0.475196 0.438041 0.665446
0.587961 0.459098 0.667201
0.650294 0.470924 0.666224
0.684611 0.468482 0.661128
0.701244 0.461219 0.653117
0.214893 0.385519 0.522606
0.246128 0.40206 0.54464
0.26981 0.412787 0.575265
0.32134 0.453056 0.630167
0.513298 0.572335 0.69572
0.643229 0.612512 0.709621
0.695781 0.621637 0.716747
0.726314 0.624018 0.720409
0.742519 0.622477 0.719783
0.238254 0.453696 0.541741
0.272374 0.477256 0.564584
0.300099 0.497673 0.591638
0.334096 0.531441 0.632609
0.479255 0.620249 0.692744
0.691814 0.71693 0.753826
0.743175 0.731746 0.764462
0.767712 0.735897 0.769589
0.78146 0.737026 0.771878
0.269398 0.527901 0.566186
0.304997 0.554986 0.589166
0.332753 0.58233 0.617273
0.365606 0.616236 0.65214
0.483406 0.676509 0.700984
0.668559 0.744732 0.759213
0.772076 0.786664 0.795239
0.799603 0.795697 0.803876
0.811399 0.79794 0.807492
0.30106 0.595346 0.590692
0.3364 0.6206 0.613199
0.359426 0.649668 0.641703
0.400565 0.686275 0.676585
0.521798 0.735729 0.722866
0.68249 0.780026 0.773373
0.777737 0.810483 0.8065
0.817014 0.82446 0.821591
0.828641 0.82829 0.824674
0.322103 0.6383 0.605417
0.357794 0.663737 0.629572
0.377783 0.695384 0.660075
0.425589 0.729854 0.694026
0.550973 0.770855 0.738918
0.7028 0.806622 0.786313
0.786938 0.824933 0.816144
0.823804 0.836057 0.82826
0.8392 0.843107 0.835294
