public/LUTS/Cinematic/Cinematic_24.cube
TITLE "Generated by Resolve"
LUT_3D_SIZE 5
0.049958 0.0725261 0.0788739
0.163043 0.100328 0.0816815
0.475792 0.125689 0.0686809
0.81033 0.254414 0.13315
0.911803 0.433768 0.169055
0.0575418 0.146517 0.102388
0.165606 0.144244 0.0923934
0.516243 0.21503 0.082826
0.83035 0.304891 0.141238
0.911681 0.422797 0.167605
0.0673533 0.311681 0.157229
0.140749 0.350256 0.139544
0.588663 0.369497 0.113344
0.886824 0.503914 0.17499
0.915389 0.605188 0.194842
0.138872 0.622141 0.236179
0.201038 0.649454 0.211444
0.613718 0.774624 0.264347
0.912917 0.710811 0.213016
0.918746 0.722332 0.215839
0.229953 0.884657 0.311925
0.31136 0.906416 0.293721
0.605966 0.943145 0.344793
0.879866 0.95021 0.39057
0.948745 0.924269 0.375006
0.0344854 0.171771 0.222034
0.0753338 0.16672 0.186007
0.316548 0.224308 0.185168
0.789471 0.335592 0.163409
0.911986 0.442893 0.170245
0.0370947 0.175097 0.20145
0.0729534 0.18909 0.220081
0.434592 0.232181 0.180407
0.811658 0.316747 0.139361
0.911788 0.431724 0.168765
0.0838941 0.409628 0.318578
0.0728161 0.364797 0.24831
0.511727 0.391455 0.171969
0.851453 0.512581 0.171221
0.915572 0.610483 0.195712
0.154391 0.680888 0.394797
0.152392 0.657832 0.3131
0.498787 0.736156 0.282734
0.870817 0.72224 0.210117
0.919097 0.733104 0.217868
0.21294 0.896696 0.477531
0.259678 0.904143 0.385351
0.538598 0.930816 0.366583
0.828122 0.951583 0.412558
0.946807 0.918196 0.35967
0.0863508 0.409903 0.542885
0.082475 0.399558 0.46421
0.0805066 0.386969 0.344381
0.655344 0.402411 0.206912
0.952255 0.615412 0.587198
0.086717 0.412482 0.530327
0.0875868 0.414115 0.557763
0.118914 0.403906 0.403159
0.67895 0.425177 0.270665
0.953307 0.62475 0.601282
0.0872358 0.415915 0.517372
0.0941024 0.443839 0.537865
0.214054 0.509758 0.614816
0.777447 0.583734 0.577829
0.94905 0.617868 0.531579
0.154772 0.681208 0.699733
0.169253 0.73637 0.710628
0.184009 0.740398 0.642741
0.83331 0.771206 0.51136
0.948089 0.777569 0.444434
0.219104 0.919295 0.821332
0.218875 0.918471 0.758404
0.353231 0.938537 0.639338
0.758968 0.961074 0.57847
0.955795 0.921675 0.461494
0.160327 0.695094 0.81059
0.158312 0.689387 0.784146
0.152544 0.669413 0.741772
0.482002 0.653284 0.724224
0.920104 0.67689 0.725185
0.15642 0.679454 0.811246
0.155383 0.674372 0.819593
0.150134 0.657511 0.773388
0.519921 0.645884 0.750652
0.92491 0.672831 0.73547
0.153704 0.66865 0.808133
0.155489 0.67509 0.81561
0.156771 0.678721 0.833539
0.616312 0.671687 0.82269
0.948821 0.697047 0.783413
0.154788 0.673136 0.807202
0.15964 0.692241 0.813382
0.169253 0.729 0.832914
0.706645 0.794888 0.876875
0.97467 0.817838 0.870802
0.193973 0.821286 0.909865
0.200656 0.847501 0.913497
0.211948 0.891737 0.915663
0.624994 0.959808 0.873381
0.977844 0.94902 0.785382
0.1953 0.826993 0.900832
0.195148 0.826856 0.896956
0.191394 0.8121 0.894621
0.368612 0.79704 0.920546
0.906645 0.760204 0.919478
0.190768 0.808515 0.912245
0.190021 0.805264 0.914733
0.187472 0.795697 0.907973
0.398856 0.785977 0.929625
0.91075 0.753582 0.92285
0.186816 0.792554 0.914305
0.185046 0.785443 0.914046
0.183062 0.777569 0.913802
0.42884 0.771069 0.944076
0.921736 0.752361 0.936614
0.184527 0.783475 0.914
0.185016 0.785321 0.914061
0.188678 0.799924 0.91458
0.565759 0.81181 0.954559
0.958572 0.808682 0.952056
0.1879 0.79675 0.914931
0.190997 0.809186 0.914916
0.195636 0.827604 0.915618
0.58909 0.867628 0.957275
0.957397 0.957946 0.951995
