public/LUTS/Cinematic/Cinematic_05.cube
TITLE "Generated by Resolve"
LUT_3D_SIZE 33
0.0126192 0.06804 0.0865187
0.0502632 0.066331 0.0848096
0.0879377 0.064622 0.0831006
0.125612 0.0629282 0.0813916
0.163272 0.0612192 0.0796979
0.200946 0.0595102 0.0779889
0.238621 0.0578012 0.0762798
0.27628 0.0560922 0.0745708
0.313954 0.0543832 0.0728618
0.351629 0.0526894 0.0711528
0.389288 0.0509804 0.0694591
0.426963 0.0492714 0.0677501
0.464622 0.0475624 0.066041
0.502297 0.0458534 0.064332
0.539971 0.0441596 0.062623
0.57763 0.0424506 0.0609293
0.615305 0.0407416 0.0592203
0.652979 0.0390326 0.0575113
0.690639 0.0373236 0.0558022
0.728313 0.0356146 0.0540932
0.765988 0.0339208 0.0523842
0.803647 0.0322118 0.0506905
0.841321 0.0305028 0.0489815
0.878996 0.0287938 0.0472725
0.916655 0.0270848 0.0455634
0.95433 0.0253758 0.0438544
0.992004 0.023682 0.0421607
1 0.021973 0.0404517
1 0.020264 0.0387427
1 0.018555 0.0370336
1 0.016846 0.0353246
1 0.0151369 0.0336156
1 0.0134432 0.0319219
0.0069276 0.101717 0.080827
0.0445869 0.100008 0.0791333
0.0822461 0.0982986 0.0774243
0.119921 0.0965896 0.0757153
0.157595 0.0948806 0.0740063
0.195254 0.0931868 0.0722972
0.232929 0.0914778 0.0705882
0.270604 0.0897688 0.0688945
0.308263 0.0880598 0.0671855
0.345937 0.0863508 0.0654765
0.383612 0.0846418 0.0637675
0.421271 0.082948 0.0620584
0.458946 0.081239 0.0603494
0.49662 0.07953 0.0586557
0.534279 0.077821 0.0569467
0.571954 0.076112 0.0552377
0.609628 0.0744182 0.0535286
0.647288 0.0727092 0.0518196
0.684962 0.0710002 0.0501259
0.722637 0.0692912 0.0484169
0.760296 0.0675822 0.0467079
0.797971 0.0658732 0.0449989
0.835645 0.0641794 0.0432898
0.873304 0.0624704 0.0415808
0.910979 0.0607614 0.0398871
0.948653 0.0590524 0.0381781
0.986313 0.0573434 0.0364691
1 0.0556344 0.0347601
1 0.0539406 0.033051
1 0.0522316 0.031342
1 0.0505226 0.0296483
1 0.0488136 0.0279393
1 0.0471046 0.0262303
0.00123598 0.135409 0.0751507
0.0388952 0.1337 0.0734417
0.0765698 0.131991 0.0717327
0.114229 0.130282 0.0700236
0.151904 0.128573 0.0683146
0.189578 0.126864 0.0666056
0.227237 0.12517 0.0649119
0.264912 0.123461 0.0632029
0.302586 0.121752 0.0614939
0.340246 0.120043 0.0597848
0.37792 0.118334 0.0580758
0.415595 0.116625 0.0563821
0.453254 0.114931 0.0546731
0.490929 0.113222 0.0529641
0.528603 0.111513 0.0512551
0.566262 0.109804 0.049546
0.603937 0.108095 0.047837
0.641596 0.106386 0.0461433
0.679271 0.104692 0.0444343
0.716945 0.102983 0.0427253
0.754604 0.101274 0.0410163
0.792279 0.0995651 0.0393072
0.829953 0.0978561 0.0375982
0.867613 0.0961471 0.0359045
0.905287 0.0944533 0.0341955
0.942962 0.0927443 0.0324865
0.980621 0.0910353 0.0307774
1 0.0893263 0.0290684
1 0.0876173 0.0273747
1 0.0859083 0.0256657
1 0.0842145 0.0239567
1 0.0825055 0.0222477
1 0.0807965 0.0205386
0 0.169085 0.0694591
0.0332036 0.167376 0.0677501
0.0708782 0.165682 0.066041
0.108553 0.163973 0.064332
0.146212 0.162264 0.0626383
0.183886 0.160555 0.0609293
0.221561 0.158846 0.0592203
0.25922 0.157137 0.0575113
0.296895 0.155444 0.0558022
0.334554 0.153735 0.0540932
0.372229 0.152026 0.0523995
0.409903 0.150317 0.0506905
0.447562 0.148608 0.0489815
0.485237 0.146899 0.0472725
0.522911 0.145205 0.0455634
0.560571 0.143496 0.0438697
0.598245 0.141787 0.0421607
0.63592 0.140078 0.0404517
0.673579 0.138369 0.0387427
0.711254 0.136675 0.0370336
0.748928 0.134966 0.0353246
0.786587 0.133257 0.0336309
0.824262 0.131548 0.0319219
0.861936 0.129839 0.0302129
0.899596 0.12813 0.0285039
0.93727 0.126436 0.0267948
0.974945 0.124727 0.0250858
1 0.123018 0.0233921
1 0.121309 0.0216831
1 0.1196 0.0199741
1 0.117891 0.018265
1 0.116197 0.016556
1 0.114488 0.0148623
0 0.202777 0.0637675
0.027512 0.201068 0.0620584
0.0651865 0.199359 0.0603494
0.102861 0.197665 0.0586557
0.14052 0.195956 0.0569467
0.178195 0.194247 0.0552377
0.215869 0.192538 0.0535286
0.253529 0.190829 0.0518196
0.291203 0.18912 0.0501259
0.328878 0.187427 0.0484169
0.366537 0.185718 0.0467079
0.404211 0.184009 0.0449989
0.441886 0.1823 0.0432898
0.479545 0.180591 0.0415808
0.51722 0.178882 0.0398871
0.554894 0.177188 0.0381781
0.592554 0.175479 0.0364691
0.630228 0.17377 0.0347601
0.667903 0.172061 0.033051
0.705562 0.170352 0.031342
0.743236 0.168643 0.0296483
0.780911 0.166949 0.0279393
0.81857 0.16524 0.0262303
0.856245 0.163531 0.0245212
0.893919 0.161822 0.0228122
0.931579 0.160113 0.0211185
0.969253 0.158404 0.0194095
1 0.15671 0.0177005
1 0.155001 0.0159915
1 0.153292 0.0142824
1 0.151583 0.0125734
1 0.149874 0.0108797
1 0.148165 0.00917067
0 0.236469 0.0580758
0.0218357 0.23476 0.0563821
0.0594949 0.233051 0.0546731
0.0971695 0.231342 0.0529641
0.134844 0.229633 0.0512551
0.172503 0.227939 0.049546
0.210178 0.22623 0.047837
0.247852 0.224521 0.0461433
0.285512 0.222812 0.0444343
0.323186 0.221103 0.0427253
0.360861 0.219394 0.0410163
0.39852 0.2177 0.0393072
0.436194 0.215991 0.0375982
0.473869 0.214282 0.0359045
0.511528 0.212573 0.0341955
0.549203 0.210864 0.0324865
0.586877 0.209155 0.0307774
0.624537 0.207462 0.0290684
0.662211 0.205753 0.0273747
0.699886 0.204044 0.0256657
0.737545 0.202335 0.0239567
0.775219 0.200626 0.0222477
0.812894 0.198917 0.0205386
0.850553 0.197223 0.0188296
0.888228 0.195514 0.0171359
0.925902 0.193805 0.0154269
0.963561 0.192096 0.0137179
1 0.190387 0.0120089
1 0.188693 0.0102998
1 0.186984 0.00860609
1 0.185275 0.00689708
1 0.183566 0.00518807
1 0.181857 0.00347906
0 0.270146 0.0523995
0.016144 0.268452 0.0506905
0.0538186 0.266743 0.0489815
0.0914778 0.265034 0.0472725
0.129152 0.263325 0.0455634
0.166827 0.261616 0.0438697
0.204486 0.259922 0.0421607
0.242161 0.258213 0.0404517
0.279835 0.256504 0.0387427
0.317494 0.254795 0.0370336
0.355169 0.253086 0.0353246
0.392844 0.251377 0.0336309
0.430503 0.249683 0.0319219
0.468177 0.247974 0.0302129
0.505852 0.246265 0.0285039
0.543511 0.244556 0.0267948
0.581186 0.242847 0.0250858
0.61886 0.241138 0.0233921
0.656519 0.239445 0.0216831
0.694194 0.237736 0.0199741
0.731868 0.236027 0.018265
0.769528 0.234318 0.016556
0.807202 0.232609 0.0148623
0.844877 0.2309 0.0131533
0.882536 0.229206 0.0114443
0.920211 0.227497 0.00973526
0.95787 0.225788 0.00802625
0.995544 0.224079 0.00631724
1 0.22237 0.00462348
1 0.220661 0.00291447
1 0.218967 0.00120546
1 0.217258 0
1 0.215549 0
0 0.303838 0.0467079
0.0104524 0.302129 0.0449989
0.048127 0.300435 0.0432898
0.0858015 0.298726 0.0415808
0.123461 0.297017 0.0398871
0.161135 0.295308 0.0381781
0.19881 0.293599 0.0364691
0.236469 0.29189 0.0347601
0.274144 0.290196 0.033051
0.311818 0.288487 0.031342
0.349477 0.286778 0.0296483
0.387152 0.285069 0.0279393
0.424826 0.28336 0.0262303
0.462486 0.281651 0.0245212
0.50016 0.279957 0.0228122
0.53782 0.278248 0.0211185
0.575494 0.276539 0.0194095
0.613169 0.27483 0.0177005
0.650828 0.273121 0.0159915
0.688502 0.271412 0.0142824
0.726177 0.269718 0.0125734
0.763836 0.268009 0.0108797
0.801511 0.2663 0.00917067
0.839185 0.264591 0.00746166
0.876844 0.262882 0.00575265
0.914519 0.261173 0.00404364
0.952193 0.25948 0.00233463
0.989853 0.257771 0.000640879
1 0.256062 0
1 0.254353 0
1 0.252644 0
1 0.25095 0
1 0.249241 0
0 0.33753 0.0410163
0.00477607 0.335821 0.0393072
0.0424353 0.334112 0.0375982
0.0801099 0.332418 0.0359045
0.117784 0.330709 0.0341955
0.155444 0.329 0.0324865
0.193118 0.327291 0.0307774
0.230777 0.325582 0.0290684
0.268452 0.323873 0.0273747
0.306127 0.322179 0.0256657
0.343786 0.32047 0.0239567
0.38146 0.318761 0.0222477
0.419135 0.317052 0.0205386
0.456794 0.315343 0.0188296
0.494469 0.313634 0.0171359
0.532143 0.31194 0.0154269
0.569802 0.310231 0.0137179
0.607477 0.308522 0.0120089
0.645151 0.306813 0.0102998
0.682811 0.305104 0.00860609
0.720485 0.303395 0.00689708
0.75816 0.301701 0.00518807
0.795819 0.299992 0.00347906
0.833494 0.298283 0.00177005
0.871168 0.296574 6.10361e-05
0.908827 0.294865 0
0.946502 0.293156 0
0.984176 0.291463 0
1 0.289754 0
1 0.288045 0
1 0.286336 0
1 0.284627 0
1 0.282918 0
0 0.371221 0.0353246
0 0.369512 0.0336309
0.0367437 0.367803 0.0319219
0.0744182 0.366094 0.0302129
0.112093 0.364385 0.0285039
0.149752 0.362692 0.0267948
0.187427 0.360983 0.0250858
0.225101 0.359274 0.0233921
0.26276 0.357565 0.0216831
0.300435 0.355856 0.0199741
0.338109 0.354147 0.018265
0.375769 0.352453 0.016556
0.413443 0.350744 0.0148623
0.451118 0.349035 0.0131533
0.488777 0.347326 0.0114443
0.526452 0.345617 0.00973526
0.564126 0.343908 0.00802625
0.601785 0.342214 0.00631724
0.63946 0.340505 0.00462348
0.677134 0.338796 0.00291447
0.714794 0.337087 0.00120546
0.752468 0.335378 0
0.790143 0.333669 0
0.827802 0.331975 0
0.865476 0.330266 0
0.903151 0.328557 0
0.94081 0.326848 0
0.978485 0.325139 0
1 0.32343 0
1 0.321736 0
1 0.320027 0
1 0.318318 0
1 0.316609 0
0 0.404898 0.0296483
0 0.403204 0.0279393
0.0310674 0.401495 0.0262303
0.0687266 0.399786 0.0245212
0.106401 0.398077 0.0228122
0.144076 0.396368 0.0211185
0.181735 0.394675 0.0194095
0.219409 0.392966 0.0177005
0.257084 0.391257 0.0159915
0.294743 0.389548 0.0142824
0.332418 0.387839 0.0125734
0.370092 0.38613 0.0108797
0.407752 0.384436 0.00917067
0.445426 0.382727 0.00746166
0.483101 0.381018 0.00575265
0.52076 0.379309 0.00404364
0.558434 0.3776 0.00234989
0.596109 0.375891 0.000640879
0.633768 0.374197 0
0.671443 0.372488 0
0.709117 0.370779 0
0.746777 0.36907 0
0.784451 0.367361 0
0.822126 0.365652 0
0.859785 0.363958 0
0.897459 0.362249 0
0.935134 0.36054 0
0.972793 0.358831 0
1 0.357122 0
1 0.355413 0
1 0.353719 0
1 0.35201 0
1 0.350301 0
0 0.43859 0.0239567
0 0.436881 0.0222477
0.0253758 0.435187 0.0205386
0.0630503 0.433478 0.0188296
0.10071 0.431769 0.0171359
0.138384 0.43006 0.0154269
0.176059 0.428351 0.0137179
0.213718 0.426642 0.0120089
0.251392 0.424949 0.0102998
0.289067 0.423239 0.00860609
0.326726 0.42153 0.00689708
0.364401 0.419821 0.00518807
0.402075 0.418112 0.00347906
0.439734 0.416403 0.00177005
0.477409 0.41471 6.10361e-05
0.515084 0.413001 0
0.552743 0.411292 0
0.590417 0.409583 0
0.628092 0.407874 0
0.665751 0.406165 0
0.703426 0.404471 0
0.7411 0.402762 0
0.778759 0.401053 0
0.816434 0.399344 0
0.854093 0.397635 0
0.891768 0.395926 0
0.929442 0.394232 0
0.967102 0.392523 0
1 0.390814 0
1 0.389105 0
1 0.387396 0
1 0.385687 0
1 0.383993 0
0 0.472282 0.018265
0 0.470573 0.016556
0.0196841 0.468864 0.0148623
0.0573587 0.46717 0.0131533
0.0950332 0.465461 0.0114443
0.132692 0.463752 0.00973526
0.170367 0.462043 0.00802625
0.208042 0.460334 0.00631724
0.245701 0.458625 0.00462348
0.283375 0.456931 0.00291447
0.32105 0.455222 0.00120546
0.358709 0.453513 0
0.396384 0.451804 0
0.434043 0.450095 0
0.471717 0.448386 0
0.509392 0.446693 0
0.547051 0.444984 0
0.584726 0.443275 0
0.6224 0.441566 0
0.66006 0.439857 0
0.697734 0.438148 0
0.735409 0.436454 0
0.773068 0.434745 0
0.810742 0.433036 0
0.848417 0.431327 0
0.886076 0.429618 0
0.923751 0.427909 0
0.961425 0.426215 0
0.999084 0.424506 0
1 0.422797 0
1 0.421088 0
1 0.419379 0
1 0.41767 0
0 0.505974 0.0125734
0 0.504265 0.0108797
0.0140078 0.502556 0.00917067
0.051667 0.500847 0.00746166
0.0893416 0.499138 0.00575265
0.127001 0.497444 0.00404364
0.164675 0.495735 0.00233463
0.20235 0.494026 0.000640879
0.240009 0.492317 0
0.277684 0.490608 0
0.315358 0.488899 0
0.353017 0.487205 0
0.390692 0.485496 0
0.428367 0.483787 0
0.466026 0.482078 0
0.5037 0.480369 0
0.541375 0.47866 0
0.579034 0.476967 0
0.616709 0.475257 0
0.654383 0.473548 0
0.692042 0.471839 0
0.729717 0.47013 0
0.767391 0.468421 0
0.805051 0.466728 0
0.842725 0.465019 0
0.8804 0.46331 0
0.918059 0.461601 0
0.955734 0.459892 0
0.993408 0.458183 0
1 0.456489 0
1 0.45478 0
1 0.453071 0
1 0.451362 0
0 0.539651 0.00689708
0 0.537957 0.00518807
0.00831617 0.536248 0.00347906
0.0459754 0.534539 0.00177005
0.08365 0.53283 6.10361e-05
0.121324 0.531121 0
0.158984 0.529427 0
0.196658 0.527718 0
0.234333 0.526009 0
0.271992 0.5243 0
0.309667 0.522591 0
0.347341 0.520882 0
0.385 0.519188 0
0.422675 0.517479 0
0.460349 0.51577 0
0.498009 0.514061 0
0.535683 0.512352 0
0.573358 0.510643 0
0.611017 0.508949 0
0.648692 0.50724 0
0.686366 0.505531 0
0.724025 0.503822 0
0.7617 0.502113 0
0.799374 0.500404 0
0.837034 0.498711 0
0.874708 0.497002 0
0.912383 0.495293 0
0.950042 0.493584 0
0.987716 0.491875 0
1 0.490166 0
1 0.488472 0
1 0.486763 0
1 0.485054 0
0 0.573343 0.00120546
0 0.571633 0
0.00262455 0.56994 0
0.0402991 0.568231 0
0.0779583 0.566522 0
0.115633 0.564813 0
0.153307 0.563104 0
0.190967 0.561395 0
0.228641 0.559701 0
0.266316 0.557992 0
0.303975 0.556283 0
0.34165 0.554574 0
0.379324 0.552865 0
0.416983 0.551156 0
0.454658 0.549462 0
0.492332 0.547753 0
0.529992 0.546044 0
0.567666 0.544335 0
0.605341 0.542626 0
0.643 0.540917 0
0.680674 0.539223 0
0.718349 0.537514 0
0.756008 0.535805 0
0.793683 0.534096 0
0.831357 0.532387 0
0.869017 0.530678 0
0.906691 0.528984 0
0.944366 0.527276 0
0.982025 0.525567 0
1 0.523857 0
1 0.522148 0
1 0.520439 0
1 0.518746 0
0 0.607034 0
0 0.605325 0
0 0.603616 0
0.0346075 0.601923 0
0.072282 0.600214 0
0.109941 0.598505 0
0.147616 0.596796 0
0.18529 0.595087 0
0.22295 0.593378 0
0.260624 0.591684 0
0.298299 0.589975 0
0.335958 0.588266 0
0.373632 0.586557 0
0.411307 0.584848 0
0.448966 0.583139 0
0.486641 0.581445 0
0.524315 0.579736 0
0.561975 0.578027 0
0.599649 0.576318 0
0.637324 0.574609 0
0.674983 0.5729 0
0.712657 0.571206 0
0.750317 0.569497 0
0.787991 0.567788 0
0.825666 0.566079 0
0.863325 0.56437 0
0.900999 0.562661 0
0.938674 0.560967 0
0.976333 0.559258 0
1 0.557549 0
1 0.55584 0
1 0.554131 0
1 0.552422 0
0 0.640726 0
0 0.639017 0
0 0.637308 0
0.0289158 0.635599 0
0.0665904 0.63389 0
0.104265 0.632197 0
0.141924 0.630488 0
0.179599 0.628779 0
0.217273 0.62707 0
0.254932 0.62536 0
0.292607 0.623652 0
0.330282 0.621958 0
0.367941 0.620249 0
0.405615 0.61854 0
0.443275 0.616831 0
0.480949 0.615122 0
0.518624 0.613413 0
0.556283 0.611719 0
0.593957 0.61001 0
0.631632 0.608301 0
0.669291 0.606592 0
0.706966 0.604883 0
0.74464 0.603174 0
0.7823 0.60148 0
0.819974 0.599771 0
0.857649 0.598062 0
0.895308 0.596353 0
0.932982 0.594644 0
0.970657 0.592935 0
1 0.591241 0
1 0.589532 0
1 0.587823 0
1 0.586114 0
0 0.674403 0
0 0.672709 0
0 0.671 0
0.0232242 0.669291 0
0.0608988 0.667582 0
0.0985733 0.665873 0
0.136233 0.664179 0
0.173907 0.66247 0
0.211582 0.660761 0
0.249241 0.659052 0
0.286915 0.657343 0
0.32459 0.655634 0
0.362249 0.653941 0
0.399924 0.652232 0
0.437598 0.650523 0
0.475257 0.648814 0
0.512932 0.647105 0
0.550607 0.645396 0
0.588266 0.643702 0
0.62594 0.641993 0
0.663615 0.640284 0
0.701274 0.638575 0
0.738949 0.636866 0
0.776623 0.635157 0
0.814282 0.633463 0
0.851957 0.631754 0
0.889632 0.630045 0
0.927291 0.628336 0
0.964965 0.626627 0
1 0.624918 0
1 0.623224 0
1 0.621515 0
1 0.619806 0
0 0.708095 0
0 0.706386 0
0 0.704692 0
0.0175479 0.702983 0
0.0552071 0.701274 0
0.0928817 0.699565 0
0.130556 0.697856 0
0.168215 0.696147 0
0.20589 0.694453 0
0.243565 0.692744 0
0.281224 0.691035 0
0.318898 0.689326 0
0.356573 0.687617 0
0.394232 0.685908 0
0.431907 0.684215 0
0.469581 0.682506 0
0.50724 0.680797 0
0.544915 0.679088 0
0.582589 0.677378 0
0.620249 0.675669 0
0.657923 0.673976 0
0.695598 0.672267 0
0.733257 0.670558 0
0.770932 0.668849 0
0.808606 0.66714 0
0.846265 0.665431 0
0.88394 0.663737 0
0.921614 0.662028 0
0.959274 0.660319 0
0.996948 0.65861 0
1 0.656901 0
1 0.655192 0
1 0.653498 0
0 0.741787 0
0 0.740078 0
0 0.738369 0
0.0118563 0.73666 0
0.0495308 0.734966 0
0.0871901 0.733257 0
0.124865 0.731548 0
0.162539 0.729839 0
0.200198 0.72813 0
0.237873 0.726421 0
0.275547 0.724727 0
0.313207 0.723018 0
0.350881 0.721309 0
0.388556 0.7196 0
0.426215 0.717891 0
0.46389 0.716197 0
0.501564 0.714488 0
0.539223 0.712779 0
0.576898 0.71107 0
0.614572 0.709361 0
0.652232 0.707652 0
0.689906 0.705959 0
0.727581 0.70425 0
0.76524 0.702541 0
0.802915 0.700832 0
0.840589 0.699123 0
0.878248 0.697414 0
0.915923 0.69572 0
0.953582 0.694011 0
0.991257 0.692302 0
1 0.690593 0
1 0.688884 0
1 0.687175 0
0 0.775479 0
0 0.77377 0
0 0.772061 0
0.00616464 0.770352 0
0.0438392 0.768643 0
0.0815137 0.766949 0
0.119173 0.76524 0
0.156847 0.763531 0
0.194522 0.761822 0
0.232181 0.760113 0
0.269856 0.758404 0
0.30753 0.75671 0
0.34519 0.755001 0
0.382864 0.753292 0
0.420539 0.751583 0
0.458198 0.749874 0
0.495872 0.748165 0
0.533547 0.746471 0
0.571206 0.744762 0
0.608881 0.743053 0
0.64654 0.741344 0
0.684215 0.739635 0
0.721889 0.737926 0
0.759548 0.736233 0
0.797223 0.734524 0
0.834897 0.732815 0
0.872557 0.731106 0
0.910231 0.729397 0
0.947906 0.727687 0
0.985565 0.725994 0
1 0.724285 0
1 0.722576 0
1 0.720867 0
0 0.809155 0
0 0.807462 0
0 0.805753 0
0.000488289 0.804044 0
0.0381476 0.802335 0
0.0758221 0.800626 0
0.113497 0.798917 0
0.151156 0.797223 0
0.18883 0.795514 0
0.22649 0.793805 0
0.264164 0.792096 0
0.301839 0.790387 0
0.339498 0.788678 0
0.377172 0.786984 0
0.414847 0.785275 0
0.452506 0.783566 0
0.490181 0.781857 0
0.527855 0.780148 0
0.565515 0.778439 0
0.603189 0.776745 0
0.640864 0.775036 0
0.678523 0.773327 0
0.716197 0.771618 0
0.753872 0.769909 0
0.791531 0.768215 0
0.829206 0.766506 0
0.86688 0.764797 0
0.90454 0.763088 0
0.942214 0.761379 0
0.979889 0.75967 0
1 0.757977 0
1 0.756268 0
1 0.754559 0
0 0.842847 0
0 0.841138 0
0 0.839445 0
0 0.837736 0
0.0324559 0.836027 0
0.0701305 0.834318 0
0.107805 0.832609 0
0.145464 0.8309 0
0.183139 0.829206 0
0.220813 0.827497 0
0.258473 0.825788 0
0.296147 0.824079 0
0.333822 0.82237 0
0.371481 0.820661 0
0.409155 0.818967 0
0.44683 0.817258 0
0.484489 0.815549 0
0.522164 0.81384 0
0.559838 0.812131 0
0.597498 0.810422 0
0.635172 0.808728 0
0.672847 0.807019 0
0.710506 0.80531 0
0.74818 0.803601 0
0.785855 0.801892 0
0.823514 0.800183 0
0.861189 0.798489 0
0.898863 0.79678 0
0.936522 0.795071 0
0.974197 0.793362 0
1 0.791653 0
1 0.789944 0
1 0.788251 0
0 0.876539 0
0 0.87483 0
0 0.873121 0
0 0.871412 0
0.0267796 0.869718 0
0.0644388 0.868009 0
0.102113 0.8663 0
0.139788 0.864591 0
0.177447 0.862882 0
0.215122 0.861173 0
0.252796 0.85948 0
0.290455 0.857771 0
0.32813 0.856062 0
0.365805 0.854353 0
0.403464 0.852644 0
0.441138 0.850935 0
0.478813 0.849241 0
0.516472 0.847532 0
0.554147 0.845823 0
0.591821 0.844114 0
0.62948 0.842405 0
0.667155 0.840696 0
0.704829 0.839002 0
0.742489 0.837293 0
0.780163 0.835584 0
0.817838 0.833875 0
0.855497 0.832166 0
0.893172 0.830472 0
0.930846 0.828763 0
0.968505 0.827054 0
1 0.825345 0
1 0.823636 0
1 0.821927 0
0 0.910231 0
0 0.908522 0
0 0.906813 0
0 0.905104 0
0.021088 0.903395 0
0.0587625 0.901701 0
0.0964218 0.899992 0
0.134096 0.898283 0
0.171771 0.896574 0
0.20943 0.894865 0
0.247105 0.893156 0
0.284779 0.891463 0
0.322438 0.889754 0
0.360113 0.888045 0
0.397787 0.886336 0
0.435447 0.884627 0
0.473121 0.882918 0
0.510796 0.881224 0
0.548455 0.879515 0
0.58613 0.877806 0
0.623804 0.876097 0
0.661463 0.874388 0
0.699138 0.872679 0
0.736812 0.870985 0
0.774472 0.869276 0
0.812146 0.867567 0
0.849805 0.865858 0
0.88748 0.864149 0
0.925155 0.86244 0
0.962814 0.860746 0
1 0.859037 0
1 0.857328 0
1 0.855619 0
0 0.943908 0
0 0.942214 0
0 0.940505 0
0 0.938796 0
0.0153964 0.937087 0
0.0530709 0.935378 0
0.0907454 0.933669 0
0.128405 0.931975 0
0.166079 0.930266 0
0.203754 0.928557 0
0.241413 0.926848 0
0.279088 0.925139 0
0.316762 0.92343 0
0.354421 0.921736 0
0.392096 0.920027 0
0.42977 0.918318 0
0.46743 0.916609 0
0.505104 0.9149 0
0.542763 0.913191 0
0.580438 0.911498 0
0.618112 0.909789 0
0.655772 0.90808 0
0.693446 0.906371 0
0.731121 0.904662 0
0.76878 0.902953 0
0.806455 0.901259 0
0.844129 0.89955 0
0.881788 0.897841 0
0.919463 0.896132 0
0.957137 0.894423 0
0.994797 0.892714 0
1 0.89102 0
1 0.889311 0
0 0.9776 0
0 0.975891 0
0 0.974197 0
0 0.972488 0
0.00972 0.970779 0
0.0473793 0.96907 0
0.0850538 0.967361 0
0.122713 0.965652 0
0.160388 0.963958 0
