public/LUTS/Cinematic/Cinematic_23.cube
TITLE "Generated by Resolve"
LUT_3D_SIZE 33
0.0809491 0.128237 0.14107
0.0924086 0.12755 0.136873
0.105989 0.127047 0.132464
0.122286 0.128664 0.12987
0.140017 0.134035 0.132158
0.161654 0.140963 0.135256
0.187259 0.146532 0.135378
0.21709 0.149355 0.130587
0.25008 0.149996 0.121431
0.286976 0.150103 0.108354
0.331716 0.152636 0.0927138
0.381659 0.160052 0.0797894
0.436164 0.167422 0.0774395
0.490318 0.174563 0.0790265
0.541176 0.183383 0.08336
0.589029 0.191592 0.0914321
0.632944 0.200793 0.0991226
0.673014 0.208545 0.106218
0.708507 0.216022 0.112703
0.73933 0.224811 0.118547
0.766155 0.234562 0.123827
0.789761 0.244678 0.128771
0.811032 0.256321 0.133425
0.831113 0.268879 0.137972
0.850324 0.282506 0.142519
0.869657 0.298085 0.147265
0.889189 0.316777 0.152331
0.908965 0.337636 0.15761
0.910674 0.356329 0.159823
0.910933 0.375555 0.161959
0.911208 0.394949 0.164218
0.911528 0.415229 0.166644
0.911757 0.431708 0.168765
0.0809491 0.130709 0.13904
0.0937057 0.131167 0.139193
0.107698 0.131197 0.135424
0.12491 0.133776 0.134173
0.1449 0.138445 0.134829
0.169711 0.143526 0.134676
0.198505 0.146075 0.129519
0.232074 0.142748 0.113497
0.267475 0.140597 0.0954299
0.303075 0.145113 0.0838636
0.343984 0.153719 0.0768139
0.394629 0.162249 0.0714885
0.448829 0.169192 0.072343
0.502464 0.175677 0.0769207
0.554726 0.180179 0.0850996
0.602823 0.184268 0.0929885
0.646342 0.189731 0.100374
0.683284 0.198581 0.107103
0.715633 0.2094 0.113283
0.744808 0.21857 0.118914
0.770718 0.227512 0.124056
0.793378 0.238193 0.128847
0.813855 0.250172 0.133394
0.833127 0.262974 0.137804
0.851957 0.277745 0.142367
0.870909 0.293141 0.147051
0.890318 0.311131 0.151919
0.909209 0.33019 0.156939
0.910521 0.3467 0.158801
0.910765 0.365103 0.160784
0.91107 0.385382 0.163073
0.91136 0.405798 0.165545
0.911635 0.423331 0.167681
0.0803388 0.135134 0.137987
0.0937667 0.135714 0.138567
0.10959 0.136156 0.13756
0.128908 0.138323 0.13518
0.150118 0.142733 0.133913
0.174594 0.14847 0.132723
0.202029 0.152758 0.128496
0.232044 0.155077 0.119692
0.266011 0.155169 0.105089
0.30399 0.157382 0.090547
0.347677 0.16466 0.07953
0.397345 0.175341 0.0703899
0.450752 0.183902 0.0706645
0.505516 0.190158 0.078645
0.558404 0.195575 0.0870985
0.606409 0.200336 0.0949416
0.648875 0.20647 0.102159
0.686213 0.212543 0.108736
0.719646 0.217319 0.114626
0.749126 0.22211 0.119936
0.774701 0.22742 0.124743
0.796719 0.235828 0.129259
0.816571 0.246204 0.133547
0.835523 0.258366 0.137865
0.854292 0.271931 0.14229
0.872816 0.287694 0.146868
0.89192 0.304967 0.151659
0.909255 0.323323 0.156268
0.91046 0.340337 0.158114
0.910674 0.358083 0.160021
0.910918 0.376715 0.162097
0.911223 0.395911 0.164355
0.911513 0.413764 0.166476
0.0754253 0.149752 0.142245
0.0912642 0.148333 0.141085
0.109453 0.146029 0.139437
0.128771 0.1467 0.13756
0.15082 0.149096 0.135515
0.175326 0.154131 0.135363
0.202335 0.158984 0.132067
0.232029 0.162188 0.124086
0.265354 0.164477 0.112215
0.302647 0.168215 0.100511
0.346777 0.175662 0.0907607
0.397818 0.185885 0.080293
0.450736 0.196597 0.073991
0.506004 0.204685 0.0801862
0.559106 0.21146 0.0887007
0.607645 0.217548 0.0966812
0.651057 0.223011 0.10396
0.689036 0.228138 0.110567
0.722576 0.232807 0.116442
0.751369 0.23711 0.121584
0.776242 0.243595 0.12636
0.797711 0.252049 0.13077
0.817472 0.261311 0.134981
0.836362 0.272129 0.139208
0.854871 0.284199 0.143481
0.873533 0.29749 0.14789
0.892714 0.312444 0.152468
0.909422 0.328191 0.156786
0.910506 0.343481 0.15845
0.910704 0.359075 0.160113
0.910918 0.375586 0.161959
0.911192 0.393484 0.16405
0.911452 0.409552 0.165972
0.0715038 0.163378 0.145632
0.0891127 0.161654 0.144106
0.107897 0.159106 0.142382
0.126101 0.15964 0.14139
0.149828 0.158862 0.136858
0.175616 0.160632 0.136599
0.202274 0.166171 0.135668
0.231952 0.170184 0.127855
0.265354 0.172992 0.115892
0.302831 0.177203 0.104311
0.347585 0.184924 0.094728
0.399786 0.195529 0.0852064
0.45333 0.207202 0.0776989
0.507851 0.216693 0.0817884
0.560815 0.224857 0.0903639
0.610025 0.23209 0.098497
0.653666 0.238956 0.105913
0.691661 0.245747 0.112612
0.724376 0.252277 0.118502
0.752697 0.258747 0.123766
0.777386 0.266026 0.128542
0.798627 0.273671 0.132876
0.81828 0.282261 0.137026
0.836973 0.29189 0.141131
0.855314 0.302876 0.145296
0.873747 0.315129 0.149584
0.892775 0.329 0.154101
0.909651 0.343923 0.158343
0.910674 0.357488 0.159945
0.910872 0.37171 0.161517
0.911055 0.38706 0.163287
0.91133 0.403098 0.165194
0.911559 0.416831 0.166873
0.0688029 0.17702 0.148562
0.0877394 0.174716 0.146227
0.106676 0.172549 0.144533
0.122545 0.174273 0.144854
0.145235 0.177691 0.141756
0.176516 0.172244 0.134142
0.204135 0.17322 0.137072
0.233967 0.177646 0.130098
0.267201 0.181262 0.118471
0.304982 0.186694 0.10695
0.350286 0.196033 0.0976272
0.402777 0.208194 0.0880598
0.456306 0.221576 0.080766
0.511025 0.2336 0.0845502
0.564202 0.244648 0.0930343
0.612634 0.254398 0.101259
0.655268 0.26334 0.108736
0.692775 0.271458 0.115404
0.726009 0.278752 0.12137
0.754406 0.285481 0.126665
0.779095 0.292775 0.131456
0.80032 0.299733 0.135698
0.819638 0.307591 0.139742
0.838132 0.316045 0.143694
0.856168 0.326009 0.147753
0.874495 0.337362 0.151934
0.893416 0.35024 0.156374
0.909911 0.363592 0.160464
0.910933 0.376333 0.162066
0.911131 0.389502 0.163577
0.911299 0.404273 0.165331
0.911574 0.419364 0.167178
0.911757 0.431037 0.168704
0.0669871 0.189929 0.151125
0.0861982 0.188251 0.148516
0.104997 0.186435 0.146471
0.119844 0.188296 0.146822
0.137636 0.193881 0.145769
0.173144 0.198825 0.138582
0.206134 0.184253 0.129885
0.236149 0.185687 0.131701
0.270222 0.189578 0.120699
0.308797 0.195209 0.10956
0.354726 0.204883 0.100481
0.40798 0.217914 0.090486
0.461143 0.233234 0.0827497
0.516136 0.24773 0.0868238
0.570016 0.261234 0.0958267
0.618173 0.274052 0.104295
0.661173 0.285786 0.112154
0.698054 0.296117 0.118929
0.729183 0.306142 0.124834
0.756497 0.315038 0.130144
0.780636 0.323262 0.134951
0.801755 0.329931 0.139116
0.821134 0.336812 0.143069
0.839429 0.344793 0.14699
0.85745 0.353506 0.150881
0.875502 0.363546 0.15491
0.894377 0.37496 0.159258
0.910262 0.387121 0.16318
0.911238 0.398825 0.164691
0.911437 0.4112 0.166186
0.91165 0.424552 0.167834
0.911879 0.438773 0.169711
0.912062 0.44831 0.170916
0.0653544 0.20293 0.153933
0.0845655 0.201541 0.150896
0.103243 0.200504 0.148608
0.117372 0.202441 0.148348
0.132509 0.207797 0.146868
0.159319 0.21622 0.144869
0.205692 0.220798 0.13431
0.238834 0.202899 0.126375
0.272602 0.200031 0.122255
0.312413 0.20473 0.112413
0.359289 0.214267 0.103502
0.413611 0.227512 0.0941634
0.46836 0.243061 0.08542
0.523522 0.258198 0.089128
0.57705 0.273304 0.0983139
0.625544 0.288045 0.107118
0.668467 0.302159 0.11516
0.705943 0.315648 0.122377
0.737285 0.328313 0.128664
0.764004 0.339361 0.134157
0.786603 0.349706 0.138964
0.805936 0.35964 0.143206
0.824201 0.368688 0.147265
0.841627 0.376928 0.151049
0.859037 0.385473 0.154818
0.876844 0.394553 0.15874
0.895445 0.404654 0.162921
0.910857 0.415579 0.166613
0.911696 0.425635 0.167971
0.911894 0.43679 0.169436
0.912062 0.448997 0.171038
0.912306 0.461997 0.172808
0.912444 0.469398 0.173816
0.0642252 0.217044 0.157214
0.0830701 0.21619 0.153765
0.101198 0.215549 0.150484
0.114672 0.217777 0.149798
0.128084 0.223148 0.147936
0.150698 0.232395 0.143999
0.187778 0.242374 0.14284
0.23743 0.241138 0.129122
0.27512 0.221637 0.120012
0.314794 0.217319 0.11574
0.364004 0.225284 0.106935
0.41944 0.2383 0.0973678
0.474495 0.253849 0.0890974
0.530236 0.269505 0.091722
0.584665 0.284977 0.100847
0.634241 0.300603 0.109926
0.676722 0.315877 0.118044
0.713939 0.330709 0.125383
0.744808 0.345296 0.131914
0.771099 0.359045 0.137667
0.793774 0.37261 0.142885
0.81384 0.384863 0.14757
0.83125 0.396201 0.151736
0.847715 0.406836 0.155703
0.863935 0.416571 0.159503
0.880629 0.42681 0.163363
0.8981 0.438071 0.167514
0.911498 0.448661 0.170901
0.91223 0.457435 0.172183
0.912413 0.467109 0.173526
0.912596 0.478004 0.175006
0.912825 0.489952 0.176745
0.912902 0.494194 0.17734
0.062501 0.233433 0.160571
0.0808881 0.233295 0.156268
0.0982071 0.233585 0.152193
0.111086 0.236225 0.150835
0.123598 0.241428 0.148943
0.143297 0.250645 0.143648
0.17673 0.260868 0.142229
0.222187 0.271061 0.141741
0.275502 0.264485 0.125307
0.31667 0.24004 0.118746
0.367864 0.240055 0.110872
0.425513 0.251072 0.101488
0.48101 0.266285 0.0931258
0.537789 0.282185 0.0945296
0.593423 0.298619 0.103807
0.642039 0.314763 0.11284
0.684611 0.330358 0.121004
0.721782 0.345922 0.128496
0.752743 0.360983 0.135088
0.779492 0.375952 0.141115
0.801419 0.390616 0.14638
0.82089 0.404974 0.151263
0.838712 0.418875 0.15584
0.855985 0.43241 0.160281
0.872572 0.446464 0.164721
0.889052 0.45864 0.168887
0.905592 0.468727 0.172717
0.912627 0.478981 0.175128
0.912825 0.490211 0.176776
0.913085 0.501961 0.178454
0.913314 0.512169 0.17998
0.913512 0.522164 0.18146
0.913558 0.523873 0.18172
0.0615244 0.253513 0.165133
0.0793774 0.254292 0.159792
0.0958572 0.255436 0.154894
0.108415 0.258518 0.152834
0.120607 0.263249 0.150637
0.138323 0.272053 0.145281
0.169574 0.282872 0.14374
0.21178 0.294942 0.147127
0.264073 0.306111 0.147417
0.322057 0.297124 0.130327
0.370062 0.270039 0.116823
0.429923 0.269276 0.106737
0.489021 0.282063 0.0972
0.54548 0.29807 0.0978714
0.600488 0.314412 0.106889
0.649516 0.330831 0.116014
0.692393 0.347173 0.1243
0.729732 0.363561 0.131975
0.760037 0.379477 0.138582
0.786145 0.395056 0.144625
0.808713 0.410208 0.150103
0.828794 0.425162 0.155169
0.847272 0.439887 0.160006
0.86453 0.45449 0.16463
0.881605 0.46833 0.1691
0.899016 0.483055 0.173739
0.912367 0.49691 0.177661
0.913237 0.509224 0.179522
0.913436 0.520317 0.181201
0.913695 0.53167 0.18294
0.91397 0.543603 0.184802
0.914183 0.553109 0.186297
0.914153 0.553353 0.186343
0.0633555 0.277607 0.171054
0.080705 0.279179 0.165133
0.0963455 0.280995 0.159579
0.108782 0.284566 0.157168
0.120958 0.288838 0.155108
0.13753 0.297429 0.150134
0.166598 0.309422 0.148577
0.20647 0.322087 0.152331
0.254063 0.336202 0.157168
0.309682 0.349828 0.161563
0.37641 0.336507 0.135882
0.43241 0.301656 0.113542
0.494377 0.305013 0.102983
0.553384 0.316869 0.101747
0.608438 0.333043 0.110567
0.657725 0.349691 0.119738
0.700664 0.36669 0.12813
0.737118 0.383139 0.135698
0.767452 0.399222 0.142351
0.793179 0.415366 0.14844
0.815427 0.431525 0.153979
0.835615 0.447623 0.159289
0.854841 0.462821 0.164355
0.873228 0.477821 0.169207
0.891325 0.492729 0.173983
0.908843 0.506737 0.178546
0.91342 0.520073 0.181186
0.91371 0.532799 0.183093
0.913985 0.545739 0.185138
0.914305 0.558999 0.187243
0.91458 0.571817 0.189303
0.914748 0.578729 0.190387
0.914763 0.579171 0.190478
0.0689555 0.305104 0.178637
0.0859541 0.306996 0.172229
0.101106 0.309346 0.166613
0.113252 0.312932 0.163806
0.125429 0.317662 0.161837
0.141222 0.325841 0.157656
0.166888 0.338155 0.154665
0.204227 0.351431 0.158282
0.249195 0.366125 0.163058
0.303609 0.382849 0.168887
0.370398 0.395911 0.16875
0.444114 0.374533 0.133623
0.496529 0.339178 0.109407
0.557778 0.34316 0.10631
0.616098 0.353735 0.114549
0.665583 0.369802 0.123613
0.707546 0.38674 0.13193
0.743618 0.403174 0.139406
0.773205 0.419669 0.146105
0.799237 0.436027 0.152224
0.821378 0.453117 0.157961
0.842054 0.469215 0.163333
0.861799 0.485191 0.168582
0.881056 0.500465 0.173602
0.900191 0.515969 0.178637
0.913146 0.530953 0.182727
0.913924 0.543221 0.184726
0.914168 0.554955 0.186572
0.914488 0.567163 0.188556
0.914794 0.580163 0.190661
0.915068 0.593027 0.192752
0.915175 0.594781 0.193072
0.91519 0.595285 0.193118
0.0755627 0.334844 0.186954
0.0926223 0.337514 0.179965
0.107195 0.34023 0.174182
0.119265 0.344289 0.171267
0.131151 0.348943 0.168948
0.146136 0.35613 0.164965
0.169238 0.368536 0.161257
0.205463 0.382498 0.164828
0.248264 0.397894 0.169696
0.299687 0.415091 0.175448
0.364889 0.433875 0.182452
0.43711 0.444038 0.17908
0.505501 0.40911 0.132219
0.55935 0.379721 0.112703
0.620645 0.383932 0.119707
0.672053 0.393805 0.128084
0.714427 0.407492 0.135897
0.74963 0.423911 0.143282
0.779293 0.440726 0.149996
0.804089 0.457038 0.155993
0.826703 0.473808 0.161776
0.847181 0.489921 0.167132
0.867247 0.506249 0.172457
0.887083 0.522591 0.177783
0.907546 0.53846 0.183093
0.914137 0.551888 0.186099
0.914427 0.564446 0.188098
0.914717 0.576547 0.190066
0.915007 0.589303 0.192142
0.915328 0.601617 0.194232
0.91548 0.608423 0.195407
0.915511 0.609033 0.195468
0.915526 0.609796 0.195621
0.082887 0.366339 0.195163
0.0998703 0.369604 0.188006
0.114031 0.372702 0.182147
0.125765 0.376913 0.179065
0.137484 0.381643 0.176532
0.151827 0.387976 0.17261
0.173388 0.400046 0.168597
0.20853 0.414588 0.17174
0.249928 0.430304 0.176471
0.298909 0.447684 0.182284
0.361196 0.467491 0.189212
0.437201 0.487907 0.197101
0.508522 0.493797 0.186419
0.56733 0.447425 0.131365
0.622965 0.420127 0.125811
0.676066 0.425254 0.13344
0.719676 0.434226 0.140612
0.755932 0.446113 0.147494
0.784436 0.461524 0.153796
0.809079 0.477821 0.159808
0.831464 0.494087 0.16553
0.851682 0.510414 0.170916
0.872221 0.526757 0.176318
0.892607 0.542824 0.181704
0.912444 0.558373 0.186877
0.914611 0.571908 0.189303
0.9149 0.584298 0.191333
0.915175 0.596521 0.193332
0.915496 0.608499 0.195392
0.915785 0.619989 0.19736
0.915862 0.623377 0.197925
0.915862 0.623652 0.197955
0.915862 0.62414 0.198032
0.0907912 0.399435 0.203693
0.107713 0.402747 0.19585
0.121263 0.406027 0.190066
0.132769 0.410346 0.186923
0.144381 0.415106 0.183917
0.158587 0.421271 0.180056
0.178897 0.432303 0.175738
0.212924 0.446708 0.178683
0.253605 0.463004 0.183551
0.300816 0.480598 0.189212
0.360662 0.50071 0.196246
0.43447 0.522515 0.204242
0.506416 0.537942 0.211093
0.571969 0.53344 0.187259
0.626261 0.48394 0.137102
0.679316 0.461265 0.139727
0.723629 0.466255 0.146227
0.759899 0.474434 0.152377
0.789303 0.483635 0.1579
0.813397 0.498299 0.163592
0.835935 0.514366 0.169268
0.856016 0.530663 0.17467
0.876661 0.545937 0.179934
0.897139 0.5617 0.185275
0.913832 0.577218 0.190051
0.915007 0.59028 0.192294
0.915343 0.602533 0.1944
0.915679 0.61474 0.19646
0.915953 0.626581 0.198428
0.916289 0.637324 0.200336
0.916304 0.637476 0.200366
0.916304 0.638148 0.200473
0.916304 0.638651 0.200534
0.098909 0.432868 0.211887
0.115526 0.436393 0.203754
0.128756 0.440146 0.19794
0.140276 0.444678 0.194553
0.151965 0.449363 0.191424
0.166003 0.455024 0.187137
0.18526 0.46453 0.182788
0.218814 0.478843 0.185687
0.258488 0.495094 0.190539
0.30454 0.512642 0.196216
0.362325 0.532586 0.203006
0.432761 0.554528 0.211002
0.509483 0.574792 0.218921
0.572137 0.584482 0.222217
0.632517 0.573068 0.187106
0.677943 0.522179 0.150591
0.725124 0.503273 0.152575
0.763287 0.505577 0.157885
0.792584 0.513436 0.163119
0.817334 0.522087 0.167895
0.839811 0.534035 0.172915
0.860105 0.549233 0.178195
0.880522 0.564782 0.183505
0.901335 0.580255 0.188876
0.914748 0.594278 0.192935
0.91545 0.606851 0.195117
0.91577 0.619043 0.197192
0.916091 0.630533 0.199176
0.916411 0.642588 0.201266
0.91664 0.650538 0.202716
0.91664 0.650767 0.202762
0.91664 0.650828 0.202777
0.91664 0.651362 0.202838
0.107012 0.466239 0.219898
0.12369 0.470359 0.211322
0.136706 0.474586 0.205753
0.147875 0.478782 0.202197
0.159564 0.483314 0.198718
0.173556 0.488838 0.194064
0.192493 0.496818 0.189731
0.225574 0.510872 0.192691
0.264515 0.526696 0.197391
0.309834 0.544137 0.202899
0.365164 0.563485 0.209613
0.432563 0.584802 0.217395
0.506935 0.605722 0.225574
0.576699 0.621607 0.23267
0.629587 0.626841 0.234943
0.681285 0.602228 0.182864
0.72221 0.559136 0.162036
0.763668 0.541878 0.164111
0.795499 0.543999 0.168582
0.820325 0.550576 0.173007
0.84268 0.558389 0.177295
0.864027 0.568795 0.181903
0.884245 0.583185 0.18703
0.90547 0.597879 0.192325
0.915511 0.61117 0.195819
0.915877 0.62298 0.197879
0.916152 0.634241 0.199817
0.916487 0.645853 0.201877
0.916808 0.658045 0.204044
0.916976 0.663508 0.20502
0.916976 0.663462 0.20502
0.916976 0.6636 0.205051
0.917052 0.664042 0.205127
0.115679 0.500252 0.227543
0.132113 0.504479 0.218814
0.144518 0.508385 0.213199
0.155627 0.512489 0.209522
0.1673 0.51693 0.205798
0.181323 0.522576 0.200931
0.199985 0.529351 0.196536
0.232441 0.541894 0.199527
0.27071 0.557412 0.204059
0.315038 0.574411 0.209491
0.369284 0.5935 0.216068
0.434394 0.614176 0.22388
0.505364 0.634668 0.231922
0.576867 0.65301 0.239536
0.634943 0.663096 0.245426
0.682383 0.66804 0.246525
0.724147 0.634791 0.186557
0.758068 0.591974 0.172244
0.794675 0.578866 0.174487
0.823072 0.579934 0.178378
0.845396 0.586404 0.182376
0.866835 0.593179 0.186374
0.887785 0.601801 0.1906
0.908415 0.614939 0.195514
0.915984 0.627161 0.198596
0.91632 0.63859 0.200549
0.916579 0.649821 0.202564
0.916884 0.66006 0.204379
0.91722 0.672114 0.206592
0.917342 0.675593 0.207263
0.917311 0.675517 0.207233
0.917311 0.675624 0.207248
0.917601 0.675746 0.207294
0.123751 0.533516 0.23534
0.140078 0.538064 0.226352
0.152377 0.542062 0.220676
0.163485 0.546166 0.216724
0.17528 0.550713 0.212772
0.189456 0.555825 0.207416
0.207919 0.560876 0.203113
0.239689 0.572473 0.206287
0.277806 0.587274 0.210605
0.321309 0.604059 0.21593
0.373785 0.622232 0.222385
0.436393 0.642283 0.229969
0.504509 0.661616 0.237873
0.5738 0.679744 0.245747
0.639338 0.695018 0.253086
0.685191 0.700328 0.257908
0.725505 0.699138 0.245472
0.75668 0.663767 0.188052
0.7888 0.627985 0.182589
0.820462 0.616129 0.18439
0.847761 0.615152 0.187732
0.869123 0.620371 0.191379
0.890532 0.626245 0.195178
0.911177 0.63331 0.199008
0.916411 0.643244 0.201404
0.916701 0.653849 0.203281
0.917006 0.664256 0.205188
0.917296 0.673945 0.206928
0.917617 0.685344 0.209003
0.917678 0.687938 0.209476
0.917678 0.687861 0.209461
0.917678 0.687877 0.209461
0.917952 0.687999 0.209522
0.132311 0.566354 0.242252
0.148013 0.571267 0.233509
0.16025 0.575296 0.227832
0.171496 0.579583 0.223789
0.183246 0.583551 0.219379
0.197406 0.588495 0.213794
0.216632 0.592966 0.209918
0.247517 0.602502 0.21297
0.285374 0.617044 0.217182
0.327443 0.632654 0.222202
0.378744 0.65008 0.228458
0.439353 0.669245 0.235935
0.505135 0.688045 0.2439
0.571847 0.705577 0.251911
0.635966 0.720745 0.259449
0.689769 0.731121 0.265843
0.727749 0.734279 0.270634
0.760876 0.730465 0.25362
0.786175 0.694911 0.198337
0.814832 0.663111 0.192279
0.843626 0.650523 0.19353
0.870222 0.648737 0.196506
0.892989 0.652232 0.199985
0.91342 0.65713 0.203449
0.916915 0.661021 0.204562
0.917144 0.669078 0.206043
0.917418 0.678401 0.207767
0.917708 0.688197 0.209522
0.917998 0.698314 0.211383
0.918044 0.699687 0.211643
0.918044 0.699611 0.211612
0.918044 0.699535 0.211612
0.91812 0.699763 0.211627
0.140597 0.599237 0.249378
0.156176 0.604303 0.240742
0.168093 0.60827 0.234974
0.179339 0.612131 0.230533
0.191089 0.61619 0.226123
0.205325 0.62063 0.220096
0.225513 0.625055 0.216709
0.25565 0.632181 0.219684
0.292134 0.645548 0.223575
0.333837 0.660685 0.228367
0.383505 0.676875 0.234424
0.443351 0.695659 0.241947
0.505913 0.713191 0.249805
0.570504 0.72987 0.257908
0.632044 0.744366 0.26569
0.689799 0.757214 0.273213
0.731807 0.763104 0.27892
0.763485 0.765362 0.283604
0.789654 0.759777 0.262715
0.809049 0.724636 0.205035
0.837003 0.693187 0.200565
0.865232 0.682689 0.202029
0.893202 0.680278 0.205081
0.915496 0.68188 0.208118
0.91754 0.683375 0.208667
0.917632 0.685527 0.209049
0.917845 0.692851 0.210407
0.918105 0.702358 0.212146
0.918379 0.710842 0.213718
0.918425 0.711635 0.213855
0.918425 0.711589 0.213855
0.918425 0.711391 0.213809
0.918425 0.711681 0.213886
0.148684 0.631373 0.256397
0.164019 0.636194 0.247318
0.17583 0.640208 0.241627
0.187121 0.643977 0.237003
0.199069 0.647761 0.232181
0.213474 0.652522 0.226123
0.234241 0.656168 0.223499
0.26331 0.661555 0.226184
0.299596 0.673747 0.229984
0.340581 0.687739 0.234546
0.389319 0.703517 0.240482
0.447166 0.720668 0.247807
0.507881 0.737316 0.255711
0.568963 0.752316 0.263783
0.628855 0.766186 0.271885
0.684627 0.778271 0.279957
0.732937 0.787594 0.287343
0.766323 0.791119 0.292699
0.793027 0.792996 0.297978
0.813504 0.784421 0.273869
0.828962 0.751873 0.211093
0.857969 0.724208 0.208988
0.886427 0.713115 0.210269
0.913832 0.709026 0.212802
0.918288 0.706859 0.21297
0.918303 0.707424 0.213077
0.918334 0.708995 0.213336
0.918532 0.716304 0.21474
0.918776 0.723293 0.216037
0.918791 0.723491 0.216068
0.918791 0.723476 0.216052
0.918791 0.723629 0.216098
0.918791 0.72369 0.216114
0.157046 0.662806 0.262867
0.171847 0.667674 0.25417
0.183658 0.671443 0.248157
0.19501 0.67538 0.243473
0.207034 0.678996 0.238392
0.221408 0.683116 0.232044
0.243061 0.686198 0.230152
0.271778 0.690028 0.232792
0.306767 0.701015 0.236423
0.347723 0.714199 0.240879
0.394766 0.728557 0.246494
0.451118 0.744533 0.253803
0.509499 0.75964 0.261616
0.56968 0.774166 0.270176
0.626368 0.78648 0.278477
0.680095 0.797665 0.28687
0.728527 0.807248 0.295018
0.768078 0.814282 0.302449
0.794781 0.816251 0.307851
0.818051 0.817761 0.313695
0.835233 0.808209 0.287572
0.848737 0.777478 0.22327
0.877989 0.751965 0.216678
0.907774 0.73959 0.217746
0.919097 0.733211 0.217899
0.91899 0.729549 0.217212
0.91899 0.729381 0.217182
0.919081 0.73225 0.217716
0.919158 0.735439 0.218341
0.919158 0.735225 0.21828
0.919158 0.735302 0.218296
0.919158 0.735439 0.218326
0.919203 0.735714 0.218402
0.164874 0.693614 0.269825
0.179995 0.69894 0.260716
0.191669 0.702602 0.25481
0.203067 0.705974 0.249683
0.21503 0.7093 0.24448
0.229664 0.713207 0.237873
0.252399 0.716075 0.236957
0.280598 0.718929 0.239628
0.314656 0.727581 0.242985
0.353857 0.739788 0.247166
0.401022 0.752911 0.252811
0.456046 0.767712 0.260136
0.513222 0.78146 0.268193
0.569589 0.794278 0.276738
0.624964 0.805844 0.285542
0.676295 0.816251 0.294316
0.722622 0.825162 0.30277
0.763973 0.833417 0.311345
0.795956 0.838682 0.318807
0.818616 0.839597 0.324132
0.839673 0.84004 0.329534
0.855024 0.830625 0.306554
0.866987 0.80029 0.231952
0.899367 0.774166 0.223362
0.919478 0.761837 0.223362
0.919783 0.754467 0.221958
0.919676 0.750332 0.22118
0.919722 0.752285 0.221592
0.919676 0.750454 0.221225
0.919539 0.747463 0.220615
0.919539 0.747173 0.220554
0.919539 0.747616 0.220645
0.919554 0.747936 0.220691
0.173571 0.72398 0.276158
0.188281 0.728695 0.267277
0.199863 0.732235 0.261234
0.211383 0.735531 0.256016
0.223499 0.738659 0.250538
0.238895 0.742367 0.244358
0.262699 0.744762 0.243946
0.289906 0.74699 0.246479
0.322408 0.75317 0.249775
0.361349 0.763836 0.25391
0.407172 0.776165 0.259541
0.460517 0.789364 0.266819
0.515724 0.801801 0.275135
0.570397 0.813428 0.283909
0.62298 0.824308 0.293019
0.672541 0.83418 0.302312
0.717296 0.842878 0.311192
0.756786 0.850599 0.319997
0.791592 0.857694 0.328695
0.818738 0.861708 0.336065
0.839811 0.861784 0.341253
0.859983 0.861906 0.346593
0.87425 0.850706 0.322225
0.884764 0.818982 0.234409
0.918349 0.794171 0.229419
0.920714 0.781292 0.227192
0.920501 0.774868 0.22594
0.920363 0.771893 0.225345
0.920302 0.76968 0.224903
0.920104 0.763546 0.223713
0.919966 0.759655 0.22295
0.919966 0.759823 0.222995
0.919966 0.760098 0.223041
0.182422 0.753002 0.282841
0.196918 0.757366 0.273716
0.208301 0.760403 0.267628
0.219974 0.763714 0.262379
0.232334 0.766781 0.256886
0.248096 0.770016 0.251164
0.272404 0.771801 0.251118
0.299489 0.773541 0.253773
0.33109 0.778134 0.257069
0.369329 0.787457 0.26128
0.413809 0.798077 0.266865
0.465522 0.81001 0.27422
0.518776 0.821332 0.282597
0.571344 0.832364 0.291829
0.621759 0.842786 0.301381
0.668849 0.852064 0.310903
0.711543 0.860655 0.320226
0.749874 0.868132 0.329091
0.783459 0.874983 0.337835
0.813794 0.881407 0.346716
0.838834 0.884504 0.353841
0.858793 0.883894 0.358572
0.879454 0.882856 0.363378
0.893431 0.869902 0.338125
0.905333 0.837324 0.245701
0.92166 0.812497 0.233371
0.921355 0.799313 0.230793
0.921172 0.794903 0.229892
0.921019 0.789853 0.22887
0.92079 0.783444 0.227619
0.920531 0.776761 0.226291
0.920424 0.772534 0.225483
0.920409 0.772107 0.225391
0.192386 0.780774 0.289677
0.206241 0.784482 0.280522
0.217624 0.787488 0.274662
0.229068 0.790082 0.269093
