public/LUTS/Cinematic/Cinematic_10.cube
TITLE "Generated by Resolve"
LUT_3D_SIZE 9
0.0413519 0.0563668 0.0614023
0.0707103 0.0629282 0.062089
0.143328 0.0846876 0.0673228
0.243015 0.0905928 0.0370947
0.418555 0.112322 0.059266
0.642695 0.160891 0.0975967
0.792859 0.243778 0.129259
0.897383 0.33402 0.155352
0.911803 0.433524 0.168978
0.0451667 0.083238 0.0641337
0.0616312 0.0825666 0.0622263
0.117082 0.0871138 0.0581979
0.199054 0.110307 0.0496681
0.33872 0.126101 0.0495308
0.579095 0.153857 0.0867475
0.762936 0.192828 0.120134
0.865888 0.285206 0.145449
0.911192 0.393835 0.164111
0.0554055 0.132387 0.0820783
0.0688945 0.130388 0.0803845
0.106172 0.141863 0.0891737
0.194842 0.13228 0.0680095
0.343038 0.162402 0.0537575
0.589426 0.223026 0.0944686
0.771511 0.269215 0.127855
0.877363 0.323232 0.150973
0.911238 0.398886 0.164691
0.0637217 0.188281 0.108415
0.0757916 0.188022 0.105821
0.10045 0.198688 0.106981
0.192264 0.236576 0.117586
0.363043 0.20708 0.0632792
0.637613 0.276905 0.10753
0.799908 0.353338 0.141497
0.897368 0.434821 0.166964
0.913329 0.514046 0.180255
0.0649424 0.290745 0.142779
0.0753643 0.292805 0.138537
0.0972763 0.302541 0.134585
0.17789 0.356359 0.139193
0.402808 0.424704 0.167514
0.681758 0.367803 0.125628
0.833021 0.443061 0.158251
0.913573 0.526894 0.182208
0.915053 0.591394 0.192508
0.0961166 0.444968 0.189975
0.105852 0.449516 0.186481
0.129809 0.462684 0.180682
0.205951 0.518853 0.176776
0.430488 0.603784 0.211231
0.720012 0.591348 0.167819
0.857282 0.554192 0.178607
0.915602 0.612314 0.196063
0.916686 0.652903 0.203098
0.133974 0.603601 0.227314
0.138689 0.608591 0.226902
0.168475 0.626001 0.217914
0.253468 0.670176 0.211124
0.467597 0.740017 0.242847
0.744411 0.794324 0.283543
0.863523 0.716121 0.208103
0.91812 0.701915 0.21207
0.918441 0.712825 0.214069
0.173022 0.750423 0.259266
0.17583 0.756909 0.261707
0.212726 0.774624 0.248127
0.309728 0.799054 0.246509
0.511406 0.845014 0.279683
0.739406 0.888518 0.32781
0.874357 0.911925 0.368719
0.922164 0.821363 0.235187
0.920958 0.787976 0.228519
0.220981 0.871656 0.303288
0.238788 0.883741 0.300603
0.279484 0.898375 0.289433
0.382177 0.909209 0.299748
0.555795 0.941756 0.333852
0.726055 0.945373 0.356954
0.859037 0.949508 0.385626
0.952407 0.952407 0.404807
0.947021 0.923461 0.362554
0.0352789 0.118975 0.147265
0.0515297 0.115145 0.135714
0.0897078 0.111299 0.119524
0.164279 0.131075 0.121782
0.321263 0.173983 0.128893
0.6056 0.2215 0.0967727
0.793759 0.254627 0.130312
0.897444 0.333165 0.155306
0.911803 0.432685 0.168856
0.0357671 0.100557 0.114992
0.0476539 0.101534 0.112108
0.0836652 0.0996567 0.105226
0.159564 0.123568 0.11429
0.309819 0.131502 0.069688
0.551705 0.166766 0.0834974
0.746487 0.215839 0.118975
0.856367 0.294408 0.144656
0.911162 0.391135 0.16376
0.0380407 0.132723 0.124788
0.0407416 0.139956 0.120394
0.0854505 0.132036 0.11162
0.167483 0.137407 0.106538
0.308431 0.159564 0.0628824
0.558465 0.202411 0.0877546
0.748592 0.236484 0.12105
0.855573 0.284733 0.143633
0.910674 0.357412 0.159945
0.0422217 0.21181 0.155749
0.0413062 0.198718 0.139116
0.0856947 0.191791 0.12636
0.152514 0.214206 0.127031
0.325551 0.199359 0.0809186
0.591608 0.268711 0.0998245
0.771939 0.342092 0.135729
0.865248 0.405356 0.158267
0.912276 0.460761 0.172641
0.06009 0.312428 0.188327
0.0566873 0.298451 0.16997
0.0846265 0.29659 0.152026
0.138659 0.323217 0.141039
0.340749 0.395285 0.165881
0.638666 0.354147 0.117739
0.80911 0.434592 0.15346
0.909422 0.516335 0.179995
0.914977 0.587304 0.191821
0.0985122 0.467109 0.232959
0.0953841 0.454704 0.214221
0.118578 0.456825 0.196231
0.168734 0.478828 0.180041
0.35378 0.557961 0.201175
0.667628 0.609323 0.188281
0.835431 0.548287 0.174655
0.915496 0.608927 0.195453
0.916808 0.657404 0.203906
0.138918 0.6224 0.271244
0.136797 0.614389 0.252354
0.15729 0.619593 0.23447
0.212406 0.637964 0.213916
0.39295 0.699168 0.233936
0.694026 0.77528 0.274907
0.835401 0.736095 0.209949
0.917983 0.698268 0.211337
0.918547 0.71664 0.214786
0.176562 0.763363 0.309804
0.175616 0.759808 0.289418
0.198627 0.766674 0.268086
0.265034 0.780255 0.247852
0.442481 0.815152 0.270069
0.690394 0.866133 0.316701
0.847089 0.895888 0.358831
0.922103 0.822049 0.235294
0.920821 0.785016 0.227955
0.207019 0.874907 0.369268
0.208484 0.874495 0.347509
0.258747 0.886809 0.310063
0.338491 0.896269 0.301091
0.500282 0.920424 0.327123
0.683986 0.945953 0.366537
0.822461 0.949203 0.38616
0.952728 0.952728 0.408408
0.942946 0.913558 0.331655
0.0349126 0.186618 0.245045
0.0355535 0.181384 0.226001
0.0437629 0.177569 0.203967
0.102495 0.178653 0.185199
0.242329 0.196765 0.168917
0.491661 0.284459 0.213153
0.74931 0.333165 0.191852
0.876417 0.392096 0.169238
0.912077 0.449607 0.17113
0.0353552 0.161913 0.199313
0.0354925 0.161486 0.197436
0.047837 0.157565 0.188891
0.102968 0.156741 0.16994
0.220157 0.173526 0.155734
0.460868 0.238468 0.173419
0.719448 0.294591 0.14934
0.852491 0.333852 0.147951
0.911284 0.400427 0.164874
0.0361181 0.154955 0.18323
0.0369268 0.156451 0.178164
0.0453956 0.161776 0.181628
0.109163 0.165209 0.181109
0.245884 0.187442 0.170901
0.522759 0.222675 0.135882
0.73228 0.269261 0.121416
0.846937 0.309361 0.144518
0.910964 0.380804 0.162585
0.0402686 0.191852 0.196918
0.041474 0.201007 0.193835
0.04271 0.216648 0.196979
0.0941482 0.218799 0.190539
0.281727 0.220279 0.170123
0.553338 0.271214 0.12285
0.749813 0.32282 0.130037
0.852628 0.35906 0.150713
0.911498 0.412161 0.166323
0.0771496 0.38262 0.311131
0.0724346 0.363317 0.269734
0.0669261 0.340856 0.235401
0.0977951 0.326879 0.206134
0.255253 0.371511 0.186084
0.592615 0.359121 0.135973
0.783154 0.440574 0.15053
0.886152 0.517113 0.176852
0.914656 0.574151 0.189609
0.115785 0.53402 0.365438
0.110338 0.513039 0.316808
0.105058 0.492607 0.277333
0.140642 0.48603 0.239689
0.278492 0.529976 0.2206
0.610117 0.617075 0.250721
0.810681 0.548089 0.171237
0.914778 0.615228 0.196429
0.917098 0.668589 0.205982
0.151705 0.67071 0.412055
0.147921 0.656504 0.361425
0.144244 0.642329 0.318761
0.190143 0.645747 0.272023
0.333593 0.675212 0.255741
0.619791 0.752041 0.287892
0.808804 0.753643 0.242237
0.918044 0.700145 0.211719
0.918883 0.725856 0.21651
0.183307 0.78822 0.457267
0.181537 0.781811 0.405493
0.179873 0.775769 0.360891
0.241184 0.78558 0.302617
0.392264 0.799603 0.29456
0.632227 0.847883 0.329534
0.819181 0.884825 0.370428
0.916426 0.83183 0.243687
0.920775 0.783917 0.227741
0.210742 0.888594 0.515084
0.209918 0.885695 0.46569
0.209232 0.883177 0.423026
0.30576 0.899458 0.350561
0.457206 0.907088 0.351003
0.64538 0.945342 0.388479
0.792264 0.951171 0.412467
0.939406 0.954177 0.426719
0.942763 0.910201 0.330114
0.0582895 0.296315 0.398764
0.0564736 0.290288 0.373159
0.055024 0.286763 0.340108
0.0540932 0.285634 0.3075
0.10515 0.291676 0.265538
0.397589 0.300511 0.209247
0.651408 0.381567 0.24062
0.829923 0.47924 0.313161
0.935836 0.529259 0.351751
0.046891 0.249149 0.324941
0.0469825 0.24889 0.32845
0.0455329 0.243885 0.311116
0.0445869 0.242145 0.280003
0.10309 0.249241 0.250263
0.347204 0.26154 0.204898
0.609934 0.357427 0.248249
0.810651 0.425895 0.262943
0.927916 0.480156 0.267109
0.0439307 0.236667 0.302251
0.0448005 0.241443 0.300023
0.0463264 0.247913 0.310536
0.0458839 0.24596 0.306462
0.1131 0.249973 0.268254
0.369558 0.27393 0.229633
0.632959 0.363546 0.266545
0.823285 0.410758 0.250736
0.925612 0.466804 0.247196
0.0435035 0.235767 0.290196
0.04448 0.241215 0.287694
0.0465553 0.250599 0.29572
0.0503548 0.267033 0.313619
0.128954 0.274083 0.314076
0.435889 0.313588 0.280537
0.709758 0.361791 0.267323
0.847639 0.408774 0.245869
0.920897 0.449393 0.212375
0.057557 0.29955 0.330709
0.0607309 0.314107 0.329747
0.0657359 0.335698 0.335378
0.0735637 0.368078 0.349599
0.117464 0.392935 0.348165
0.5243 0.405493 0.317983
0.754681 0.469154 0.286061
0.867292 0.515496 0.265553
0.924773 0.55172 0.23653
0.117403 0.540246 0.509438
0.126574 0.575448 0.507027
0.126223 0.574258 0.469337
0.122408 0.559564 0.424628
0.160891 0.546044 0.37351
0.515084 0.608377 0.336812
0.786572 0.576745 0.285313
0.896712 0.637415 0.254414
0.918364 0.681315 0.210636
0.164828 0.71986 0.621195
0.162158 0.709743 0.569574
0.159442 0.699672 0.518273
0.156542 0.688823 0.466438
0.238331 0.690013 0.395483
0.533639 0.734066 0.369772
0.785595 0.777081 0.389502
0.916335 0.71426 0.238285
0.919951 0.743389 0.221149
0.190433 0.814557 0.66511
0.189151 0.80975 0.616922
0.187991 0.805478 0.5664
0.186511 0.799908 0.510216
0.319631 0.811643 0.414145
0.563653 0.832395 0.404746
0.769299 0.868955 0.434867
0.902556 0.850675 0.359304
0.921157 0.793378 0.229541
0.215625 0.906554 0.70663
0.21474 0.903426 0.664088
0.214099 0.901061 0.618341
0.213138 0.897398 0.563195
0.396674 0.917479 0.456092
0.593729 0.927092 0.460883
0.753429 0.955917 0.481437
0.903227 0.957168 0.473259
0.946624 0.909773 0.359915
0.0940108 0.440604 0.574746
0.0926833 0.436698 0.549584
0.0903792 0.430289 0.504311
0.0886091 0.426322 0.45536
0.0859998 0.417823 0.388602
0.237675 0.431418 0.280308
0.599634 0.411704 0.190051
0.791241 0.490257 0.315892
0.943282 0.606928 0.570825
0.0793317 0.382696 0.502831
0.0795605 0.383383 0.509178
0.0780346 0.378439 0.486488
0.0761425 0.373846 0.439567
0.0742809 0.369879 0.38378
0.181781 0.382788 0.302388
0.532921 0.373892 0.215564
0.75346 0.449104 0.257221
0.901915 0.56672 0.489876
0.0754406 0.367559 0.478538
0.0767376 0.37293 0.481178
0.0776837 0.376211 0.493614
0.0765698 0.371893 0.485313
0.0742962 0.367239 0.418067
0.19527 0.379065 0.330159
0.537224 0.374746 0.254994
0.755489 0.458839 0.296361
0.903136 0.566155 0.493553
0.0743114 0.363043 0.468513
0.0759442 0.370489 0.470085
0.0785687 0.381323 0.480873
0.0820478 0.394598 0.502312
0.0814832 0.392432 0.49868
0.243534 0.398825 0.391989
0.576989 0.405859 0.328222
0.783841 0.490944 0.389731
0.92369 0.562966 0.480598
0.0758221 0.370199 0.465492
0.0778668 0.37911 0.468162
0.0808881 0.391638 0.476783
0.0858778 0.411765 0.495125
0.0941482 0.445121 0.523156
0.324056 0.462318 0.520485
0.663142 0.511711 0.485801
0.841749 0.560113 0.511879
0.94519 0.579385 0.480079
0.0939803 0.444495 0.51928
0.0981918 0.462425 0.519173
0.103288 0.483528 0.523476
0.110445 0.511986 0.535836
0.120699 0.552544 0.560311
0.345525 0.626535 0.600275
0.734417 0.642756 0.578866
0.872038 0.685206 0.57174
0.950225 0.693034 0.52134
0.146731 0.65005 0.68217
0.152956 0.675044 0.682338
0.160922 0.705257 0.687465
0.168811 0.7346 0.690669
0.168078 0.731991 0.652186
0.409033 0.745724 0.587121
0.737789 0.778393 0.55465
0.901518 0.751125 0.507973
0.947677 0.770779 0.44332
0.191211 0.817288 0.810193
0.195743 0.833799 0.800763
0.194919 0.830777 0.767071
0.194034 0.827573 0.728237
0.192462 0.821836 0.674067
0.490654 0.839994 0.572351
0.721187 0.85745 0.560952
0.887953 0.871321 0.548333
0.944457 0.815717 0.368338
0.219104 0.919295 0.852918
0.219104 0.919295 0.822324
0.218814 0.918273 0.789914
0.218128 0.915984 0.752987
0.216999 0.911696 0.696178
0.565133 0.939391 0.57998
0.723018 0.945876 0.589853
0.860517 0.963058 0.570809
0.95552 0.917601 0.458808
0.128603 0.574807 0.7131
0.128054 0.573663 0.696941
0.125856 0.567391 0.659861
0.123018 0.558709 0.614252
0.119326 0.54699 0.562844
0.172183 0.538781 0.510002
0.511681 0.543267 0.425925
0.765438 0.556481 0.465232
0.921874 0.618021 0.58468
0.114366 0.5196 0.66128
0.114733 0.520851 0.666529
0.113405 0.516732 0.646616
0.109758 0.505745 0.58967
0.106447 0.496254 0.527871
0.112566 0.482689 0.449241
0.418112 0.501457 0.354864
0.713787 0.496544 0.354314
0.87744 0.574655 0.497185
0.110246 0.503899 0.642374
0.110597 0.505119 0.644984
0.110323 0.503487 0.65185
0.108339 0.496056 0.64184
0.104707 0.486336 0.568872
0.110765 0.471611 0.470863
0.425986 0.49424 0.373434
0.708156 0.49337 0.371588
0.875364 0.574807 0.512123
0.108614 0.497902 0.634287
0.109529 0.501198 0.636255
0.110552 0.505089 0.642267
0.111406 0.507759 0.654276
0.110018 0.501778 0.657618
0.151278 0.494621 0.556069
0.496971 0.501869 0.449363
0.732067 0.512428 0.442145
0.890074 0.600244 0.581079
0.108675 0.498207 0.632197
0.109972 0.50341 0.634516
0.112184 0.512032 0.640116
0.115846 0.526528 0.651804
0.121965 0.550347 0.676097
0.221958 0.55317 0.687663
0.566262 0.544076 0.604959
0.789639 0.586221 0.593088
0.922683 0.660899 0.696696
0.111528 0.509712 0.637201
0.113848 0.519142 0.639735
0.116808 0.531197 0.644388
0.121157 0.54847 0.65478
0.129076 0.579232 0.678203
0.260487 0.63624 0.727443
0.650904 0.653498 0.719799
0.837842 0.704204 0.731884
0.9635 0.726345 0.728679
0.129442 0.580133 0.684367
0.133623 0.597223 0.68542
0.138491 0.616602 0.68867
0.144106 0.638666 0.69688
0.151766 0.668315 0.714839
0.259251 0.721752 0.752209
0.682322 0.776654 0.758221
0.871717 0.792889 0.743801
0.966262 0.800366 0.72958
0.172702 0.744747 0.8112
0.177127 0.76199 0.812802
0.181949 0.780911 0.815061
0.187472 0.802304 0.819226
0.195193 0.831769 0.823774
0.205737 0.83682 0.788571
0.690089 0.860655 0.728969
0.86949 0.878126 0.701137
0.962371 0.843748 0.639887
0.205173 0.866102 0.903334
0.211322 0.890013 0.903517
0.218341 0.916503 0.904585
0.219104 0.919295 0.88394
0.219104 0.919295 0.844556
0.328374 0.939086 0.79086
0.715816 0.951034 0.708888
0.834684 0.958053 0.695155
0.965164 0.927581 0.603906
0.159777 0.693355 0.806485
0.159976 0.694652 0.800473
0.158907 0.691707 0.785214
0.156741 0.684749 0.765087
0.153719 0.674037 0.743664
0.148547 0.655238 0.71693
0.421164 0.656352 0.722637
0.748089 0.643641 0.696574
0.91313 0.67599 0.722179
0.14612 0.641001 0.773465
0.146685 0.643 0.776928
0.146197 0.641718 0.769665
0.143313 0.632578 0.739635
0.139879 0.621271 0.7037
0.1355 0.606577 0.657221
0.331273 0.6112 0.642039
0.676204 0.607217 0.608209
0.86389 0.634455 0.631907
0.141451 0.623194 0.761898
0.141344 0.622385 0.764294
0.140642 0.619272 0.768185
0.139605 0.614984 0.768414
0.136217 0.604669 0.727245
0.13225 0.592508 0.669581
0.33254 0.596979 0.646204
0.671275 0.595239 0.605066
0.856413 0.62327 0.622889
0.13959 0.615946 0.757061
0.139437 0.615045 0.759335
0.139315 0.614359 0.763027
0.138888 0.612085 0.769192
0.137362 0.60502 0.776913
0.133654 0.594919 0.718639
0.369665 0.594507 0.689723
0.692699 0.589929 0.63827
0.864302 0.623316 0.645426
0.138933 0.613321 0.756252
0.139223 0.614389 0.759182
0.140475 0.618952 0.763561
0.142428 0.626413 0.769757
0.145037 0.635874 0.781155
0.144045 0.628977 0.790097
0.453986 0.625483 0.771572
0.743832 0.614786 0.718608
0.889265 0.656443 0.716182
0.139635 0.615885 0.759884
0.140932 0.62089 0.76321
0.143084 0.629267 0.767437
0.146151 0.641184 0.773724
0.151751 0.66276 0.786206
0.159197 0.691142 0.805753
0.543862 0.698222 0.831296
0.797162 0.69453 0.796048
0.925063 0.734859 0.799634
0.144045 0.632807 0.771115
0.146487 0.64242 0.774289
0.149538 0.654643 0.777615
0.153048 0.668376 0.782879
0.158389 0.688853 0.794354
0.175738 0.720119 0.811597
0.58056 0.771634 0.846754
0.83299 0.784985 0.833127
0.960266 0.811231 0.849867
0.160662 0.696773 0.808438
0.164279 0.710979 0.810605
0.16788 0.725277 0.813107
0.171801 0.74049 0.817731
0.176944 0.760327 0.825849
0.183688 0.782391 0.831769
0.565698 0.833707 0.860212
0.841535 0.868864 0.845975
0.974762 0.878279 0.836728
0.191684 0.812696 0.90309
0.194919 0.825238 0.90486
0.198459 0.839277 0.906783
0.202914 0.856565 0.90927
0.209247 0.881437 0.91075
0.216907 0.911238 0.902617
0.536599 0.951171 0.873091
0.83389 0.953811 0.821653
0.973449 0.950286 0.782162
0.185672 0.79118 0.871565
0.186069 0.792782 0.869627
0.18587 0.792386 0.864378
0.184939 0.789197 0.858763
0.18262 0.780392 0.855253
0.17969 0.768856 0.854627
0.35729 0.764904 0.870436
0.730739 0.750896 0.873762
0.907713 0.73048 0.860868
0.174029 0.746761 0.84828
0.174762 0.749401 0.851164
0.175204 0.751247 0.850294
0.173709 0.746319 0.838773
0.171069 0.736919 0.825574
0.167971 0.725673 0.812757
0.262562 0.723995 0.818311
0.633478 0.707546 0.821225
0.85478 0.69279 0.80351
0.169467 0.728969 0.842496
0.169162 0.727535 0.845624
0.168887 0.72607 0.849104
0.168582 0.724453 0.852445
0.166171 0.716381 0.834669
0.163241 0.706477 0.813352
0.259052 0.708598 0.814588
0.622995 0.692546 0.815015
0.846479 0.679789 0.793103
0.167254 0.720272 0.841169
0.166735 0.717815 0.844724
0.165972 0.714366 0.847776
0.165148 0.710674 0.851331
0.163882 0.705119 0.857191
0.161135 0.696239 0.832609
0.275425 0.701152 0.829725
0.642588 0.687297 0.826627
0.851621 0.675685 0.80238
0.166339 0.716487 0.842588
0.166033 0.714794 0.846494
0.165896 0.713939 0.849561
0.166125 0.714717 0.852537
0.166354 0.715038 0.858366
0.164141 0.705135 0.867658
0.319158 0.71107 0.864469
0.688121 0.703365 0.855756
0.867903 0.6907 0.828702
0.166323 0.716091 0.846342
0.166552 0.716533 0.849897
0.167193 0.718898 0.85275
0.16878 0.724849 0.856504
0.171496 0.735241 0.863539
0.174731 0.747189 0.875853
0.381537 0.745678 0.900862
0.743175 0.750256 0.893111
0.894926 0.738567 0.863569
0.16791 0.72166 0.853941
0.168826 0.725155 0.856977
0.170123 0.730159 0.859358
0.172152 0.737835 0.862776
0.175525 0.750866 0.870039
0.18088 0.771191 0.882689
0.423133 0.795575 0.914061
0.791241 0.80441 0.917433
0.928115 0.798581 0.892332
0.172305 0.738201 0.866743
0.174228 0.745632 0.869169
0.176135 0.753231 0.871336
0.178378 0.761929 0.874586
0.181537 0.774105 0.880858
0.185962 0.790875 0.889769
0.475624 0.820096 0.919448
0.810636 0.863249 0.922423
0.946853 0.868925 0.910201
0.1841 0.782864 0.898344
0.186526 0.792218 0.901518
0.188952 0.801816 0.904005
0.191516 0.811856 0.907225
0.194965 0.825208 0.910658
0.19913 0.841489 0.912642
0.504311 0.876554 0.935134
0.8094 0.920287 0.929244
0.946853 0.951171 0.905318
0.195193 0.826978 0.897612
0.195514 0.828138 0.896651
0.195422 0.827985 0.894087
0.194629 0.825071 0.891875
0.192523 0.816785 0.893202
0.189822 0.805753 0.898024
0.3131 0.799939 0.916106
0.716533 0.785245 0.928603
0.905669 0.760891 0.919158
0.193606 0.82031 0.902235
0.194385 0.82324 0.905211
0.195102 0.826001 0.906584
0.194186 0.822477 0.902632
0.192218 0.815152 0.898436
0.189578 0.804715 0.896864
0.187167 0.79501 0.89958
0.591104 0.785275 0.929091
0.845396 0.772045 0.925032
0.191028 0.809995 0.905287
0.190784 0.808591 0.909682
0.190738 0.808118 0.913527
0.19057 0.807614 0.914031
0.189288 0.802686 0.909743
0.18706 0.794293 0.90248
0.185367 0.787594 0.902312
0.571557 0.779217 0.931991
0.833494 0.769085 0.927626
0.188937 0.801511 0.907515
0.188037 0.797436 0.911986
0.186938 0.793042 0.913207
0.186069 0.789578 0.91397
0.185321 0.786496 0.914061
0.183764 0.780484 0.911894
0.182544 0.776089 0.907866
0.589532 0.769207 0.937285
0.835691 0.761212 0.929992
0.187808 0.796414 0.911635
0.186648 0.791897 0.913817
0.185641 0.787625 0.914031
0.184909 0.784848 0.914015
0.1841 0.781628 0.913893
0.182055 0.773648 0.913603
0.181598 0.771618 0.913603
0.615534 0.765728 0.952651
0.846418 0.761608 0.94229
0.186236 0.790326 0.913405
0.185397 0.786633 0.914107
0.184878 0.784741 0.914
0.184924 0.784909 0.914
0.185718 0.787976 0.914122
0.186267 0.790265 0.914229
0.226444 0.786908 0.923812
0.672862 0.780285 0.960739
0.871977 0.777737 0.954467
0.184771 0.784482 0.913802
0.184466 0.783276 0.914
0.184634 0.783749 0.914
0.185336 0.786465 0.914107
0.187015 0.793332 0.914305
0.18999 0.805234 0.914778
0.321111 0.816724 0.936339
0.758282 0.813626 0.967926
0.912551 0.809384 0.956008
0.184314 0.782757 0.913909
0.184848 0.784726 0.914031
0.185702 0.787961 0.914137
0.186923 0.792966 0.914305
0.188952 0.801083 0.914595
0.19234 0.814359 0.915084
0.411887 0.835828 0.94464
0.791455 0.867491 0.963516
0.93785 0.868284 0.956756
0.186969 0.792935 0.915038
0.188418 0.798856 0.914656
0.190036 0.805417 0.914748
0.191775 0.812161 0.915038
0.194354 0.822339 0.915389
0.197574 0.835126 0.915877
0.496071 0.860029 0.951385
0.807645 0.89984 0.958099
0.945571 0.951843 0.95201
