public/LUTS/Cinematic/Cinematic_26.cube
TITLE "Generated by Resolve"
LUT_3D_SIZE 33
0.0552834 0.081529 0.0893568
0.0617533 0.0808118 0.0869917
0.0695048 0.0798657 0.0838941
0.0805982 0.0815137 0.082887
0.0944686 0.0874037 0.0865187
0.110369 0.095201 0.0921187
0.129488 0.101396 0.0943923
0.150286 0.106523 0.0947585
0.172915 0.110094 0.0921035
0.200641 0.111315 0.0834516
0.230884 0.108858 0.0646983
0.266804 0.102556 0.0459144
0.304967 0.100999 0.0458686
0.347936 0.107774 0.0493477
0.399664 0.115694 0.0567788
0.454795 0.121538 0.0652476
0.510475 0.128054 0.0741588
0.56437 0.13547 0.0831617
0.611948 0.15465 0.0921492
0.656947 0.172183 0.100725
0.697002 0.192126 0.108873
0.733822 0.209766 0.116411
0.76585 0.22681 0.123156
0.793942 0.243381 0.129381
0.81886 0.261769 0.135256
0.842084 0.280522 0.140932
0.864576 0.303059 0.146883
0.887999 0.325505 0.152911
0.910613 0.348989 0.159014
0.910903 0.370565 0.161395
0.911177 0.394339 0.164157
0.911559 0.416663 0.166842
0.911803 0.433951 0.16907
0.0516823 0.0761273 0.0783093
0.0578012 0.0764019 0.0782025
0.065507 0.076585 0.0778058
0.0772106 0.0787213 0.076936
0.0915847 0.0841077 0.0784619
0.108797 0.0901808 0.0797894
0.12726 0.0957504 0.0796826
0.147448 0.10016 0.0773938
0.167712 0.104524 0.0738842
0.189563 0.109224 0.0688029
0.214435 0.113619 0.0599222
0.240864 0.118212 0.0496986
0.270878 0.123003 0.0428931
0.308049 0.128008 0.0459602
0.354208 0.135897 0.0523384
0.406928 0.144564 0.0603037
0.462715 0.151843 0.068864
0.520088 0.158038 0.0778821
0.574548 0.163836 0.0868544
0.626169 0.16907 0.095491
0.673106 0.174395 0.103532
0.714504 0.180514 0.110933
0.750027 0.189059 0.117632
0.779278 0.204044 0.123766
0.803632 0.228595 0.12987
0.826139 0.254032 0.135836
0.848051 0.278248 0.141787
0.870542 0.301732 0.147768
0.893919 0.326101 0.154009
0.910567 0.350759 0.159213
0.910903 0.373556 0.161746
0.911254 0.39675 0.164416
0.911574 0.421149 0.167422
0.0507668 0.0890211 0.0822766
0.0573281 0.0879988 0.0805676
0.0649577 0.0861219 0.0787976
0.0735485 0.0872053 0.0795453
0.0875105 0.0874189 0.0765087
0.103624 0.0916915 0.0772717
0.120912 0.0975662 0.0786145
0.13959 0.103014 0.0784466
0.159899 0.107958 0.076524
0.181262 0.111955 0.0724804
0.206256 0.115633 0.0649271
0.232975 0.11928 0.05449
0.261692 0.123705 0.0443275
0.297276 0.128817 0.0447547
0.340597 0.135698 0.05066
0.393896 0.144427 0.0584573
0.449653 0.152224 0.0669566
0.506661 0.159335 0.0759442
0.561486 0.16611 0.0849165
0.613687 0.172763 0.0937514
0.661845 0.17882 0.101991
0.704952 0.184924 0.109636
0.741741 0.191546 0.116396
0.773251 0.199496 0.122332
0.799466 0.21474 0.128069
0.822324 0.238483 0.133944
0.844327 0.261936 0.139696
0.866133 0.285328 0.145525
0.888869 0.310063 0.151583
0.909316 0.33576 0.157504
0.910719 0.359274 0.160143
0.91104 0.383505 0.16289
0.911406 0.407752 0.165743
0.0523995 0.10164 0.085359
0.0589609 0.0996414 0.082887
0.0661021 0.0979782 0.0814527
0.0732128 0.098558 0.0822156
0.0839399 0.101686 0.0834821
0.100175 0.0987106 0.0777142
0.117647 0.100572 0.0776074
0.135882 0.106462 0.0784772
0.155688 0.111986 0.0771649
0.176623 0.116884 0.07364
0.201007 0.121294 0.066804
0.227893 0.124636 0.0568093
0.257435 0.128176 0.0462959
0.292073 0.132525 0.0445411
0.334752 0.138811 0.050248
0.387701 0.146914 0.0578622
0.444358 0.154543 0.066453
0.501915 0.162036 0.0754711
0.55758 0.169451 0.0845502
0.610193 0.176898 0.0935225
0.658198 0.183764 0.101762
0.701183 0.19089 0.109438
0.737987 0.198276 0.116228
0.769665 0.20705 0.122286
0.796979 0.217563 0.127855
0.821088 0.23183 0.133227
0.843671 0.248341 0.138476
0.865187 0.271031 0.144106
0.88716 0.296559 0.150057
0.907408 0.323095 0.155947
0.910552 0.347723 0.158907
0.910872 0.372396 0.161593
0.911238 0.397238 0.164508
0.0542306 0.113298 0.0880751
0.0604868 0.111543 0.0856947
0.0676432 0.109941 0.0842603
0.073991 0.110201 0.0852827
0.0824445 0.113146 0.0870069
0.0961624 0.116838 0.0892958
0.11368 0.110933 0.0804303
0.133242 0.110719 0.0789197
0.153628 0.115679 0.0784619
0.174517 0.120821 0.0753796
0.19852 0.125643 0.0693065
0.224964 0.130373 0.0599069
0.253803 0.135744 0.0499123
0.287434 0.142275 0.0454719
0.329015 0.150637 0.0507973
0.380743 0.160784 0.0583352
0.437263 0.170184 0.0669261
0.496193 0.178271 0.0760967
0.554025 0.185504 0.0854353
0.607858 0.19266 0.0944381
0.656138 0.199619 0.102724
0.699336 0.20705 0.110414
0.736095 0.214923 0.117205
0.767849 0.223621 0.123262
0.795148 0.233555 0.128786
0.819577 0.245075 0.134005
0.842252 0.258289 0.13904
0.864485 0.273686 0.144183
0.88748 0.291264 0.14966
0.909407 0.3131 0.155337
0.910399 0.336583 0.157763
0.910735 0.360525 0.160296
0.91104 0.386374 0.16321
0.0557412 0.125017 0.0912642
0.0619821 0.123522 0.0891432
0.0693828 0.122011 0.0875257
0.0749218 0.12195 0.0886702
0.0822003 0.123964 0.0902113
0.0936904 0.128222 0.092256
0.110643 0.131014 0.093431
0.130114 0.124758 0.0841535
0.150652 0.122011 0.0808728
0.172854 0.125414 0.0780957
0.196887 0.130175 0.0726024
0.224125 0.135149 0.0637522
0.253574 0.140414 0.0530251
0.286854 0.147387 0.0471046
0.32842 0.156588 0.0513771
0.379492 0.1691 0.0590677
0.437598 0.18262 0.0682841
0.495872 0.195315 0.0776989
0.552254 0.205005 0.0870832
0.605966 0.213153 0.0960098
0.655253 0.220462 0.104387
0.69897 0.227878 0.112123
0.736171 0.235599 0.118914
0.767758 0.243824 0.124926
0.79498 0.253117 0.130419
0.819318 0.263722 0.135515
0.842145 0.27628 0.140566
0.864103 0.290394 0.145647
0.886687 0.306706 0.150927
0.90866 0.324758 0.156298
0.910475 0.341344 0.158251
0.910704 0.359197 0.160143
0.910979 0.380758 0.162585
0.0569619 0.136919 0.09514
0.0632944 0.135561 0.0929122
0.0703746 0.134249 0.0914321
0.0759136 0.134157 0.0923018
0.0825971 0.135332 0.093843
0.0926833 0.139391 0.0956436
0.107118 0.14374 0.0985122
0.128679 0.145693 0.0975509
0.149111 0.137011 0.0869154
0.169619 0.133288 0.0837873
0.195758 0.13579 0.0770581
0.22388 0.140337 0.0680552
0.253437 0.145678 0.0573739
0.287572 0.152834 0.0494087
0.329641 0.163119 0.0522774
0.382681 0.175799 0.0602121
0.441901 0.190036 0.0696269
0.500755 0.205188 0.0795453
0.557717 0.219715 0.0893568
0.60882 0.231998 0.0982986
0.656397 0.242771 0.106767
0.700175 0.250843 0.114443
0.737194 0.25861 0.121157
0.769024 0.266407 0.127169
0.79617 0.275639 0.132662
0.820447 0.285969 0.137789
0.843091 0.297795 0.142733
0.864912 0.311025 0.147692
0.887388 0.326162 0.152895
0.907942 0.343099 0.158007
0.910704 0.35906 0.160098
0.910933 0.375448 0.161959
0.911162 0.392798 0.163973
0.0580148 0.148684 0.0991226
0.0644083 0.147356 0.0971084
0.0714122 0.146136 0.095613
0.0768292 0.146273 0.0963912
0.0832227 0.14699 0.0976883
0.0922866 0.15024 0.0991226
0.105119 0.15491 0.101198
0.123903 0.159838 0.104372
0.149844 0.16202 0.100664
0.169589 0.150484 0.0911879
0.192142 0.145342 0.0858778
0.22298 0.147158 0.0745251
0.254124 0.151553 0.0619821
0.289464 0.159564 0.0526436
0.332738 0.170047 0.0533608
0.386618 0.183307 0.0615396
0.44712 0.197925 0.0712444
0.508156 0.213581 0.0814527
0.565866 0.229648 0.0916304
0.618463 0.244907 0.101091
0.663981 0.258518 0.109545
0.704143 0.271626 0.117189
0.739696 0.282551 0.123964
0.770871 0.291829 0.130007
0.797833 0.300877 0.135378
0.822019 0.310903 0.140444
0.844648 0.322438 0.145464
0.866712 0.335241 0.150454
0.889586 0.350256 0.155795
0.909056 0.366293 0.160632
0.911009 0.380453 0.162539
0.911208 0.395789 0.164324
0.911421 0.412039 0.166247
0.0589761 0.161379 0.103929
0.0654459 0.160311 0.101869
0.072282 0.159457 0.100389
0.0775158 0.159472 0.100832
0.0839094 0.160006 0.101915
0.0921035 0.162646 0.103059
0.10338 0.167895 0.104295
0.119966 0.173571 0.107225
0.142306 0.17969 0.109606
0.171511 0.180926 0.102525
0.194842 0.167803 0.0912032
0.22063 0.159594 0.0835737
0.25481 0.160983 0.0682383
0.291875 0.167605 0.0565805
0.335317 0.178637 0.0550088
0.390707 0.191989 0.0631113
0.453712 0.207401 0.0732128
0.516503 0.223774 0.0838026
0.575525 0.239872 0.0941634
0.628092 0.256229 0.103777
0.674434 0.272358 0.112642
0.714412 0.286687 0.120378
0.74789 0.30106 0.12723
0.775845 0.315267 0.133288
0.801282 0.328206 0.138857
0.824247 0.340887 0.14406
0.846708 0.35285 0.149065
0.86923 0.365957 0.154208
0.892119 0.380072 0.159472
0.910811 0.394949 0.164172
0.911421 0.408392 0.165835
0.911635 0.422782 0.16762
0.911894 0.438148 0.169619
0.0601511 0.175204 0.109407
0.0666972 0.17406 0.107317
0.0732586 0.173236 0.105608
0.0784924 0.17351 0.105852
0.0843519 0.174197 0.106554
0.0920272 0.176455 0.1075
0.101946 0.181613 0.108248
0.116732 0.188205 0.109758
0.137041 0.194919 0.112932
0.162707 0.202747 0.11632
0.198474 0.204837 0.104128
0.224811 0.185275 0.0899367
0.253391 0.175601 0.0784009
0.29369 0.178592 0.0627604
0.338949 0.188418 0.0573129
0.395697 0.202258 0.0650187
0.460243 0.21828 0.0753643
0.524727 0.234897 0.086244
0.584329 0.251987 0.096788
0.638621 0.26836 0.106706
0.684977 0.284932 0.115633
0.724346 0.302632 0.123659
0.75758 0.318303 0.130724
0.785229 0.332464 0.136675
0.808362 0.347784 0.142214
0.83006 0.363958 0.147616
0.850843 0.381323 0.153017
0.872496 0.397833 0.15845
0.895048 0.41387 0.163973
0.911742 0.42884 0.168429
0.911971 0.441489 0.170031
0.912169 0.455436 0.171908
0.912459 0.468849 0.173739
0.0616465 0.189319 0.115648
0.0679789 0.188449 0.11342
0.0742199 0.187793 0.11165
0.0792706 0.188296 0.111604
0.0849775 0.189441 0.112078
0.0919966 0.191135 0.112612
0.101137 0.195926 0.112871
0.113497 0.20296 0.112734
0.132631 0.21088 0.114611
0.156756 0.219501 0.117082
0.18703 0.22884 0.118578
0.228595 0.226719 0.103258
0.25835 0.204334 0.0867781
0.293156 0.195346 0.0737316
0.342473 0.201404 0.0634012
0.40087 0.21384 0.0671702
0.467231 0.230243 0.0777447
0.532906 0.247425 0.0889143
0.594537 0.264805 0.0997482
0.648798 0.282277 0.109865
0.694972 0.299626 0.118837
0.734356 0.316564 0.126848
0.766247 0.333639 0.133822
0.793179 0.350759 0.140124
0.817029 0.367697 0.145998
0.838499 0.383658 0.151354
0.85893 0.401251 0.156725
0.879683 0.41976 0.16231
0.900908 0.439445 0.168093
0.91223 0.457908 0.172244
0.912551 0.474052 0.174441
0.91281 0.489021 0.176608
0.913115 0.503563 0.178698
0.0631266 0.204761 0.122454
0.0693065 0.204211 0.120134
0.0753033 0.203784 0.118364
0.0801251 0.204379 0.117906
0.0854353 0.205722 0.117968
0.0918593 0.207568 0.117952
0.0997177 0.212299 0.117327
0.110109 0.220661 0.115526
0.127047 0.22948 0.115251
0.150378 0.238727 0.11722
0.179248 0.248722 0.119783
0.219821 0.259571 0.120378
0.269673 0.255772 0.0995193
0.299107 0.22472 0.0843671
0.343343 0.220203 0.0738231
0.40502 0.228641 0.070161
0.474556 0.243793 0.080415
0.541848 0.261479 0.0918593
0.604135 0.279698 0.102968
0.658305 0.297627 0.113069
0.705043 0.315129 0.122148
0.743389 0.332937 0.130175
0.774701 0.350469 0.137148
0.801312 0.367788 0.143465
0.825254 0.386007 0.149523
0.846189 0.405341 0.155261
0.867155 0.423331 0.160845
0.888563 0.44155 0.166522
0.908827 0.461143 0.172152
0.912657 0.479957 0.175326
0.912978 0.498558 0.177996
0.913359 0.517006 0.180682
0.913725 0.532723 0.183062
0.0615702 0.22565 0.128328
0.0674144 0.225559 0.125826
0.073167 0.225299 0.123629
0.0776379 0.226139 0.123033
0.0828412 0.227634 0.122621
0.0892653 0.229496 0.122103
0.0968185 0.233433 0.12105
0.106264 0.241764 0.118822
0.120912 0.251438 0.116213
0.144366 0.261295 0.117876
0.173068 0.271885 0.120912
0.212818 0.285389 0.12639
0.2589 0.296391 0.129168
0.312947 0.287434 0.107622
0.349676 0.252842 0.0847486
0.406851 0.251194 0.0763104
0.481498 0.262196 0.0838331
0.551568 0.278065 0.0953384
0.613596 0.296605 0.106401
0.667781 0.3149 0.116625
0.713863 0.333333 0.125719
0.752132 0.351553 0.133822
0.783246 0.369055 0.14078
0.809277 0.387121 0.147173
0.832197 0.405478 0.153063
0.85417 0.424536 0.159014
0.875959 0.444648 0.164996
0.897917 0.465324 0.171084
0.912581 0.484977 0.175982
0.913069 0.502434 0.178546
0.913451 0.520058 0.181155
0.913848 0.538842 0.184054
0.914153 0.551888 0.186069
0.0601358 0.251347 0.135653
0.0656443 0.251453 0.133028
0.0711223 0.251698 0.130663
0.0755474 0.252811 0.129641
0.0806592 0.254734 0.129046
0.0869154 0.256886 0.128038
0.0943465 0.259663 0.126604
0.103792 0.267567 0.1243
0.117632 0.278386 0.120836
0.14052 0.289525 0.122072
0.170077 0.301106 0.126741
0.208606 0.315373 0.133104
0.254826 0.331228 0.140597
0.307866 0.343175 0.144427
0.370855 0.332921 0.1187
0.415488 0.290486 0.0869612
0.485267 0.290257 0.088304
0.560037 0.301732 0.0996414
0.624308 0.317052 0.110613
0.679103 0.336294 0.120989
0.723781 0.354772 0.129931
0.76141 0.373297 0.137957
0.791012 0.391531 0.1449
0.816648 0.409689 0.151217
0.840299 0.428473 0.157366
0.862562 0.447578 0.163378
0.884352 0.467323 0.169375
0.906386 0.487739 0.175479
0.913191 0.507317 0.179263
0.913588 0.526513 0.182101
0.913985 0.54551 0.185092
0.914397 0.562936 0.187869
0.91458 0.570932 0.189105
0.0619821 0.280156 0.144549
0.0670634 0.280537 0.141939
0.0722515 0.281132 0.139528
0.0767376 0.282673 0.138491
0.0820172 0.284672 0.137652
0.0885939 0.287114 0.136431
0.0963149 0.29012 0.134783
0.106065 0.29659 0.133013
0.119814 0.308644 0.130114
0.140932 0.320851 0.130068
0.169848 0.333486 0.134722
0.207401 0.348989 0.140932
0.251499 0.365362 0.147906
0.306935 0.384039 0.156634
0.366979 0.395804 0.159472
0.438361 0.374594 0.12134
0.492149 0.330541 0.0953078
0.564797 0.333318 0.104784
0.632471 0.345098 0.115602
0.688289 0.359258 0.125338
0.732692 0.377295 0.134249
0.769192 0.396017 0.142168
0.798321 0.414237 0.14905
0.824186 0.433143 0.15555
0.846952 0.452033 0.161639
0.869337 0.470848 0.16762
0.891783 0.490654 0.173754
0.91133 0.510292 0.179416
0.913619 0.528206 0.182406
0.914046 0.546914 0.18529
0.914458 0.565698 0.188296
0.914885 0.584146 0.191302
0.915007 0.588144 0.191989
0.0680095 0.312245 0.155047
0.0729839 0.313329 0.152682
0.0779889 0.314076 0.150332
0.082536 0.315587 0.149172
0.0879377 0.31783 0.148318
0.0945754 0.32047 0.147097
0.102464 0.323995 0.145586
0.11194 0.329152 0.14345
0.12491 0.341268 0.140871
0.143801 0.354849 0.139376
0.172061 0.368444 0.143099
0.209476 0.38497 0.149264
0.252399 0.402121 0.1561
0.305959 0.421424 0.164538
0.373007 0.442115 0.173999
0.440528 0.449653 0.171405
0.514778 0.411444 0.119402
0.572213 0.37319 0.11191
0.638407 0.378805 0.121294
0.695003 0.389685 0.130632
0.740826 0.401907 0.138827
0.776577 0.419455 0.146548
0.806027 0.437812 0.15346
0.830228 0.456397 0.159716
0.853758 0.475395 0.165957
0.876204 0.494072 0.171969
0.89926 0.513436 0.17818
0.913695 0.532021 0.183017
0.914076 0.549233 0.185672
0.914458 0.567132 0.18854
0.914885 0.584558 0.191379
0.915282 0.599985 0.193927
0.915343 0.602258 0.194339
0.0753033 0.347219 0.166094
0.0800641 0.348135 0.163653
0.085069 0.349355 0.161456
0.0894484 0.351049 0.160342
0.0950484 0.353597 0.15935
0.101656 0.356634 0.158053
0.109514 0.359991 0.156268
0.118868 0.364874 0.153933
0.131212 0.375601 0.151278
0.148241 0.390143 0.14815
0.176242 0.404944 0.151736
0.213367 0.421653 0.157733
0.25568 0.439658 0.164492
0.307927 0.459419 0.172702
0.37229 0.480858 0.181979
0.448936 0.500023 0.191226
0.523964 0.501701 0.176608
0.587976 0.446128 0.12781
0.644587 0.416999 0.128023
0.701045 0.424338 0.136599
0.746792 0.435035 0.144518
0.78323 0.445884 0.151308
0.812268 0.46099 0.157778
0.836988 0.479927 0.164218
0.859998 0.498146 0.17023
0.883421 0.51725 0.176486
0.906188 0.535851 0.182513
0.914199 0.55317 0.186313
0.914534 0.569268 0.188891
0.914931 0.585779 0.191577
0.915343 0.603098 0.194491
0.915663 0.615579 0.196597
0.915724 0.617472 0.196948
0.0829175 0.383825 0.176913
0.087602 0.384985 0.174517
0.0924239 0.386419 0.172366
0.0968643 0.388342 0.171313
0.102449 0.390845 0.17023
0.109255 0.393973 0.168688
0.117159 0.397513 0.166613
0.12636 0.401892 0.164096
0.13843 0.411521 0.161105
0.154131 0.427192 0.157107
0.182055 0.441962 0.160494
0.218875 0.459495 0.166354
0.260731 0.477623 0.172946
0.312474 0.497459 0.180819
0.375891 0.519646 0.190234
0.455787 0.543374 0.200732
0.527932 0.554559 0.207614
0.598383 0.540505 0.166217
0.65333 0.4822 0.140124
0.707179 0.462058 0.143404
0.751812 0.46949 0.150484
0.787945 0.479072 0.157046
0.81738 0.489494 0.162783
0.842466 0.502831 0.168444
0.866224 0.520424 0.174517
0.889296 0.53933 0.180682
0.912413 0.55758 0.186725
0.914626 0.572976 0.189471
0.914977 0.588602 0.19205
0.915404 0.60499 0.194766
0.915801 0.620966 0.197513
0.916045 0.629786 0.199008
0.916075 0.631464 0.199298
0.0908827 0.421057 0.187549
0.0953994 0.422599 0.185199
0.100008 0.424216 0.183185
0.104631 0.426444 0.18201
0.110338 0.429007 0.180667
0.117098 0.432135 0.178958
0.125399 0.436179 0.176898
0.134707 0.44062 0.174182
0.146471 0.449042 0.170901
0.161669 0.463996 0.166506
0.18938 0.479225 0.169085
0.226154 0.496956 0.174929
0.267506 0.514672 0.181277
0.31928 0.535134 0.189059
0.380758 0.556405 0.198016
0.457801 0.579889 0.208347
0.541299 0.599588 0.21799
0.602258 0.604608 0.222995
0.668498 0.574716 0.168093
0.711345 0.519448 0.153674
0.758068 0.505226 0.157168
0.792523 0.512581 0.162951
0.821942 0.521828 0.168521
0.847227 0.531762 0.173587
0.871656 0.542947 0.178759
0.895613 0.560708 0.184939
0.914336 0.57731 0.190158
0.915084 0.593088 0.192752
0.915465 0.60798 0.1953
0.915846 0.622461 0.197787
0.916289 0.638666 0.200565
0.916411 0.644099 0.201541
0.916457 0.645212 0.201755
0.0988174 0.458625 0.197559
0.103288 0.460304 0.19527
0.107683 0.461921 0.19324
0.112551 0.46421 0.192157
0.118379 0.46714 0.190753
0.125505 0.47068 0.18883
0.133608 0.474403 0.186633
0.143328 0.479118 0.183383
0.154788 0.486061 0.179721
0.169314 0.49955 0.175204
0.197696 0.516045 0.177569
0.23505 0.533654 0.183413
0.276158 0.551278 0.189578
0.326589 0.570779 0.196902
0.387076 0.591608 0.205615
0.462791 0.614572 0.215778
0.547768 0.637079 0.226383
0.614252 0.646723 0.232792
0.670863 0.649287 0.226703
0.722316 0.603037 0.170321
0.758358 0.557977 0.166262
0.797665 0.547433 0.169467
0.825772 0.554284 0.174365
0.851225 0.562295 0.179141
0.876081 0.571633 0.184009
0.901091 0.582147 0.189105
0.91519 0.597513 0.193469
0.915572 0.611566 0.19588
0.915953 0.625452 0.198276
0.916335 0.640421 0.200855
0.916732 0.654902 0.203494
0.916793 0.658289 0.204105
0.916899 0.659556 0.204303
0.107149 0.495766 0.207019
0.111116 0.497383 0.204868
0.115343 0.499092 0.20322
0.120439 0.501762 0.201831
0.126665 0.505013 0.200198
0.133898 0.5084 0.198032
0.14229 0.512337 0.195575
0.152102 0.516686 0.192218
0.163058 0.52192 0.188159
0.178958 0.536339 0.183841
0.206958 0.551598 0.185779
0.2439 0.568978 0.191363
0.285527 0.586389 0.197543
0.335485 0.605188 0.204593
0.395148 0.62594 0.213092
0.469017 0.647898 0.223087
0.550042 0.669276 0.233494
0.625986 0.685573 0.242435
0.676219 0.688563 0.246586
0.724514 0.682353 0.220157
0.766415 0.633631 0.180987
0.796078 0.594934 0.177539
0.829374 0.587976 0.180575
0.855436 0.593469 0.184939
0.880323 0.601282 0.189563
0.905547 0.609888 0.194339
0.91574 0.617823 0.196948
0.91606 0.629938 0.199054
0.916442 0.643549 0.20148
0.916838 0.657298 0.203922
0.917159 0.6701 0.206226
0.91725 0.672099 0.206622
0.917266 0.672938 0.206744
0.115923 0.532799 0.215946
0.118914 0.533776 0.214038
0.12311 0.536492 0.212741
0.128435 0.539117 0.211124
0.134874 0.542229 0.209293
0.142412 0.545892 0.20708
0.151019 0.549828 0.20412
0.161105 0.554513 0.200534
0.172244 0.559243 0.196155
0.187778 0.570626 0.191638
0.216266 0.586465 0.193668
0.253025 0.602823 0.1991
0.295628 0.620462 0.205295
0.344488 0.63859 0.212131
0.403204 0.657755 0.220249
0.475151 0.678782 0.230076
0.553201 0.698756 0.240314
0.629755 0.716899 0.250233
0.68632 0.724681 0.256367
0.729427 0.727352 0.260929
0.764858 0.708995 0.215717
0.800198 0.662745 0.190448
0.827283 0.631571 0.188006
0.858671 0.626413 0.191104
0.884306 0.631128 0.195224
0.909407 0.637613 0.199542
0.916396 0.642985 0.201358
0.916594 0.649332 0.202502
0.916884 0.660975 0.204578
0.917327 0.674479 0.207034
0.917617 0.684977 0.208942
0.917632 0.685985 0.20911
0.917662 0.686992 0.209308
0.124971 0.569497 0.224231
0.126802 0.570489 0.223011
0.130968 0.572808 0.221592
0.136431 0.575738 0.22002
0.143252 0.579065 0.217899
0.151141 0.582803 0.215381
0.160037 0.58703 0.212268
0.170062 0.591272 0.208362
0.18146 0.596002 0.203662
0.197147 0.605188 0.199191
0.226246 0.620203 0.201404
0.262959 0.636423 0.20679
0.304646 0.652659 0.21265
0.353491 0.670024 0.219409
0.411185 0.688212 0.227268
0.481804 0.708095 0.236896
0.557168 0.727306 0.247211
0.630884 0.744045 0.257237
0.694377 0.75639 0.265919
0.736095 0.759243 0.270466
0.771817 0.761822 0.275456
0.797009 0.734417 0.215457
0.827726 0.692668 0.199435
0.855161 0.666972 0.197955
0.886366 0.662455 0.201007
0.912383 0.665904 0.204898
0.917159 0.669398 0.206104
0.917266 0.673259 0.206821
0.917403 0.67892 0.207828
0.9178 0.691936 0.210224
0.918013 0.698238 0.211383
0.918029 0.699504 0.211597
0.91809 0.700893 0.211841
0.134615 0.606058 0.231983
0.135256 0.606485 0.231266
0.138827 0.608637 0.230167
0.144503 0.611643 0.228473
0.151843 0.615671 0.2262
0.159945 0.619165 0.223301
0.169024 0.623148 0.219883
0.179294 0.627497 0.215793
0.190814 0.63183 0.210727
0.207187 0.63978 0.206653
0.236805 0.65333 0.209079
0.272969 0.668452 0.214176
0.314458 0.68397 0.219944
0.362493 0.699992 0.226551
0.419959 0.717708 0.234424
0.489799 0.736477 0.244038
0.561898 0.753643 0.254093
0.632136 0.768734 0.26424
0.695674 0.781689 0.274037
0.743603 0.788556 0.281285
0.776516 0.790204 0.285756
0.805188 0.790448 0.287114
0.823911 0.759121 0.219928
0.852308 0.720256 0.207553
0.88246 0.700206 0.207401
0.914031 0.696071 0.210513
0.917937 0.695857 0.210925
0.917983 0.697917 0.211322
0.918105 0.701717 0.211994
0.918334 0.708934 0.213367
0.91841 0.711925 0.213901
0.918456 0.71313 0.21413
0.918486 0.714412 0.214374
0.14406 0.641733 0.239475
0.144305 0.64213 0.238987
0.146777 0.643854 0.238376
0.152651 0.647227 0.236713
0.16022 0.650828 0.234043
0.168872 0.654841 0.230991
0.17821 0.658671 0.227268
0.188312 0.662547 0.222889
0.200549 0.667445 0.217533
0.217319 0.673365 0.213687
0.246983 0.685023 0.216434
0.283314 0.699336 0.221485
0.324483 0.713909 0.227207
0.372747 0.729458 0.233921
0.428794 0.745373 0.241657
0.49662 0.762295 0.251118
0.5664 0.778027 0.261311
0.633616 0.791669 0.271626
0.694713 0.803784 0.28191
0.746777 0.813214 0.291554
0.781338 0.816449 0.297566
0.808713 0.817578 0.302419
0.831769 0.814664 0.298619
0.847547 0.783215 0.226612
0.876921 0.746746 0.215503
0.910597 0.730358 0.216358
0.918761 0.723934 0.216175
0.918776 0.72282 0.215915
0.918868 0.725551 0.216449
0.919005 0.730114 0.217319
0.918883 0.726986 0.216724
0.918883 0.72697 0.216739
0.918944 0.728206 0.216938
0.153262 0.676631 0.246815
0.153399 0.677226 0.24654
0.155215 0.678599 0.24625
0.160708 0.681788 0.244724
0.169055 0.686 0.241856
0.177737 0.689418 0.238315
0.187411 0.693507 0.234363
0.198108 0.697612 0.229694
0.210422 0.701869 0.223972
0.22771 0.706127 0.220798
0.257908 0.716167 0.224018
0.293904 0.729366 0.228931
0.335714 0.743221 0.234745
0.3832 0.756985 0.241352
0.439002 0.771801 0.249332
0.504738 0.787152 0.258961
0.572 0.801007 0.269291
0.636362 0.813352 0.279789
0.69308 0.823941 0.289937
0.743648 0.833463 0.300374
0.784649 0.84094 0.309957
0.811765 0.842191 0.315465
0.836027 0.843076 0.320714
0.856138 0.8374 0.311192
0.869184 0.804089 0.229328
0.903365 0.77084 0.223224
0.91986 0.756237 0.222278
0.919661 0.749996 0.221103
0.919631 0.749676 0.221027
0.919707 0.751904 0.2215
0.91957 0.747005 0.220554
0.919371 0.741833 0.219547
0.919371 0.741955 0.219547
0.162402 0.710781 0.254337
0.162585 0.711299 0.254078
0.164019 0.712566 0.254063
0.16936 0.715434 0.25243
0.178073 0.71957 0.249134
0.187259 0.723537 0.245472
0.197101 0.72726 0.241321
0.208057 0.731044 0.236393
0.220676 0.735103 0.230411
0.239734 0.738155 0.228382
0.269963 0.746044 0.231876
0.306249 0.757992 0.236744
0.346822 0.770336 0.242435
0.394232 0.783154 0.249363
0.449393 0.796414 0.257679
0.513497 0.810407 0.267796
0.578164 0.823285 0.278492
0.638285 0.834531 0.289097
0.692515 0.844541 0.299565
0.740261 0.853315 0.309834
0.78146 0.861723 0.320546
0.814176 0.867185 0.329625
0.837919 0.867781 0.335073
0.861021 0.867704 0.340322
0.87953 0.858625 0.323964
0.892332 0.82359 0.23241
0.921096 0.792767 0.229419
0.920668 0.779644 0.226871
