public/LUTS/Cinematic/Cinematic_11.cube
TITLE "Generated by Resolve"
LUT_3D_SIZE 5
0.141207 0.120073 0.112917
0.281071 0.155169 0.137224
0.430213 0.200259 0.175494
0.561791 0.250355 0.22002
0.642786 0.290608 0.2533
0.161593 0.242725 0.144701
0.355276 0.31284 0.19292
0.534112 0.372702 0.250568
0.656519 0.435645 0.303029
0.728008 0.494545 0.343603
0.206378 0.403067 0.18761
0.428321 0.522759 0.282353
0.599588 0.557 0.333181
0.727062 0.630961 0.393347
0.785489 0.682506 0.446952
0.312566 0.598795 0.265324
0.518898 0.679393 0.358236
0.656672 0.696345 0.406897
0.748989 0.722744 0.443137
0.799756 0.753796 0.489494
0.398459 0.72607 0.329183
0.576226 0.751537 0.398138
0.691493 0.765911 0.447013
0.764462 0.779538 0.4795
0.801755 0.787106 0.49424
0.14844 0.144732 0.217182
0.264149 0.141726 0.202274
0.383169 0.165682 0.208362
0.516457 0.205631 0.23856
0.616297 0.240986 0.270314
0.137453 0.243381 0.229603
0.357763 0.36965 0.338323
0.551583 0.383337 0.330266
0.68127 0.423377 0.359823
0.741238 0.485435 0.414832
0.196399 0.408118 0.282353
0.383261 0.572183 0.39675
0.6262 0.618067 0.472694
0.738155 0.656779 0.505272
0.787366 0.701976 0.574823
0.273701 0.603387 0.345922
0.543191 0.725505 0.518593
0.690028 0.743816 0.573831
0.760891 0.750957 0.58584
0.807797 0.776837 0.633127
0.346532 0.728466 0.400046
0.638224 0.784817 0.559991
0.728954 0.796765 0.606088
0.780194 0.803067 0.631998
0.811795 0.807828 0.639811
0.15494 0.161456 0.323171
0.281971 0.184543 0.355276
0.399558 0.186618 0.299535
0.493034 0.205539 0.299901
0.577585 0.235859 0.325795
0.174105 0.286564 0.349218
0.287709 0.347753 0.429511
0.508141 0.360555 0.433967
0.64683 0.38323 0.431968
0.714183 0.436301 0.477119
0.21004 0.400809 0.371206
0.277272 0.483131 0.427344
0.640299 0.661677 0.628626
0.727718 0.681865 0.646174
0.779355 0.720378 0.687114
0.288258 0.578668 0.44828
0.394064 0.674144 0.523262
0.702632 0.765332 0.700114
0.773251 0.777264 0.714244
0.813214 0.796445 0.740597
0.332082 0.684642 0.491142
0.553445 0.778058 0.632593
0.761395 0.815091 0.736156
0.800275 0.822965 0.751263
0.822446 0.825177 0.751995
0.17499 0.184649 0.43267
0.289448 0.208499 0.471946
0.40824 0.2177 0.422141
0.488014 0.21825 0.380865
0.557977 0.239231 0.395361
0.199344 0.30135 0.444846
0.281865 0.346563 0.540719
0.524605 0.402258 0.58468
0.636255 0.396567 0.552163
0.700847 0.424521 0.568902
0.240421 0.429023 0.47834
0.28513 0.469612 0.531243
0.591745 0.643641 0.673335
0.711971 0.66566 0.692302
0.764218 0.700252 0.721828
0.291524 0.558297 0.515969
0.350652 0.630426 0.577844
0.591089 0.728222 0.690089
0.787274 0.797833 0.781704
0.820249 0.812497 0.798795
0.354665 0.682109 0.585916
0.44509 0.752499 0.653498
0.714336 0.808164 0.763989
0.811948 0.832242 0.806149
0.831403 0.836667 0.809064
0.197101 0.205798 0.518898
0.290715 0.221546 0.539635
0.42562 0.24329 0.512779
0.521523 0.258213 0.491341
0.548562 0.247639 0.459632
0.218494 0.315496 0.522805
0.303258 0.363149 0.633646
0.537316 0.424262 0.661402
0.655695 0.446815 0.65481
0.692943 0.434241 0.640269
0.262455 0.445319 0.557198
0.311345 0.483192 0.618967
0.619669 0.661753 0.727367
0.732876 0.691798 0.74638
0.76524 0.693294 0.750362
0.316228 0.578286 0.598886
0.366155 0.632822 0.652354
0.591989 0.73135 0.738537
0.787366 0.800046 0.805035
0.817517 0.808438 0.813626
0.359274 0.665446 0.632166
0.412528 0.724392 0.685878
0.640009 0.791074 0.766827
0.800656 0.829419 0.820676
0.8392 0.843107 0.835294
