public/LUTS/Cinematic/Cinematic_27.cube
TITLE "Generated by Resolve"
LUT_3D_SIZE 9
0.0479438 0.0686656 0.0747997
0.0823224 0.0747539 0.0738842
0.157412 0.0973373 0.0798657
0.269215 0.0985885 0.0392309
0.463142 0.120424 0.0664073
0.67126 0.173342 0.103166
0.806455 0.253086 0.132403
0.904891 0.341604 0.157351
0.911803 0.433646 0.169009
0.0492866 0.0983597 0.0757763
0.0711223 0.0974899 0.0741436
0.134798 0.101061 0.0670481
0.224948 0.122408 0.0489509
0.386221 0.147799 0.0577401
0.619806 0.175845 0.0949874
0.780758 0.211124 0.124514
0.877668 0.285191 0.147463
0.911147 0.391775 0.163821
0.0565042 0.146761 0.092958
0.0758373 0.144533 0.0911574
0.123583 0.159579 0.100526
0.223545 0.145098 0.0683604
0.395941 0.184009 0.0628519
0.636088 0.246921 0.10399
0.787488 0.298543 0.133394
0.885817 0.351049 0.155245
0.911528 0.417472 0.166964
0.0630961 0.20502 0.119203
0.0802167 0.205097 0.11516
0.109819 0.223453 0.111955
0.224628 0.265599 0.121355
0.420645 0.232944 0.072282
0.679896 0.304509 0.117144
0.817578 0.378958 0.147433
0.908614 0.459709 0.171923
0.913802 0.535439 0.183505
0.0691234 0.318486 0.154696
0.084123 0.322362 0.149203
0.113176 0.337881 0.143526
0.216114 0.398749 0.152087
0.462089 0.466529 0.179065
0.719173 0.401907 0.135775
0.847379 0.471611 0.164492
0.914046 0.548791 0.185626
0.915358 0.604379 0.19469
0.100832 0.470436 0.198795
0.11519 0.47744 0.193912
0.145815 0.492912 0.185107
0.246052 0.55404 0.187167
0.492531 0.638392 0.222889
0.744839 0.611292 0.174304
0.869566 0.578393 0.184268
0.915999 0.628122 0.198734
0.917006 0.663355 0.20502
0.139025 0.622827 0.233173
0.148135 0.630091 0.231281
0.184161 0.647486 0.218082
0.289189 0.693385 0.219135
0.519631 0.760281 0.252171
0.764706 0.805844 0.290608
0.870588 0.731655 0.211872
0.918471 0.713542 0.214176
0.918685 0.720821 0.215595
0.176257 0.762295 0.264759
0.186511 0.770642 0.263264
0.227634 0.78587 0.245853
0.340719 0.810056 0.253254
0.553155 0.856321 0.289677
0.756619 0.896345 0.334722
0.88101 0.917006 0.37319
0.922362 0.826795 0.236271
0.921294 0.793927 0.229679
0.225528 0.878035 0.307836
0.247822 0.88957 0.30164
0.296605 0.90193 0.289937
0.409415 0.915114 0.305989
0.584207 0.94255 0.340078
0.740093 0.945998 0.361166
0.866835 0.949798 0.387457
0.952407 0.952407 0.404715
0.947997 0.924147 0.371572
0.0352178 0.13164 0.163653
0.0559548 0.128222 0.150271
0.0990311 0.124773 0.13286
0.182605 0.144976 0.133059
0.356893 0.194049 0.144442
0.632944 0.243961 0.111818
0.804105 0.275456 0.133974
0.90367 0.342428 0.157275
0.911803 0.431571 0.168734
0.0361944 0.114397 0.129778
0.0522927 0.116411 0.128267
0.0955825 0.11519 0.121355
0.181735 0.138552 0.127199
0.351476 0.152468 0.0844587
0.59411 0.1906 0.092134
0.76492 0.232395 0.12343
0.865385 0.30042 0.146761
0.911177 0.393698 0.16405
0.0387427 0.149493 0.138308
0.0408179 0.157397 0.135531
0.0958114 0.149905 0.128084
0.191638 0.155245 0.121645
0.354604 0.181735 0.0746166
0.602762 0.226596 0.0968643
0.767498 0.259831 0.126299
0.863233 0.305058 0.146868
0.910842 0.372946 0.161669
0.0447242 0.236515 0.174502
0.043061 0.220096 0.155016
0.0913405 0.213458 0.140658
0.171038 0.241642 0.134417
0.374044 0.225666 0.0916457
0.634119 0.297978 0.109606
0.790616 0.36965 0.142046
0.875715 0.433982 0.163577
0.912779 0.488243 0.176501
0.0687572 0.348409 0.208835
0.0648814 0.33254 0.187793
0.0979171 0.331487 0.167056
0.162387 0.362661 0.153552
0.391211 0.43888 0.181064
0.675853 0.390646 0.128115
0.82356 0.465721 0.160128
0.913283 0.542351 0.184482
0.915373 0.603708 0.194568
0.106508 0.498405 0.250233
0.103212 0.485573 0.229221
0.133288 0.489113 0.206729
0.195468 0.514443 0.1897
0.406165 0.595224 0.215213
0.697734 0.636545 0.197894
0.846479 0.574426 0.180499
0.915984 0.628107 0.198749
0.917174 0.669261 0.206104
0.144808 0.644617 0.287526
0.142535 0.636164 0.265644
0.171557 0.643397 0.24184
0.24036 0.661219 0.222675
0.442924 0.724804 0.246601
0.718883 0.78999 0.285435
0.840223 0.752575 0.213458
0.918425 0.711299 0.213794
0.918822 0.725139 0.216388
0.17969 0.775067 0.325719
0.178805 0.77174 0.302632
0.213184 0.780697 0.273411
0.29575 0.792325 0.258289
0.486061 0.828931 0.282872
0.710536 0.875074 0.32784
0.854246 0.902144 0.36733
0.922438 0.828656 0.236683
0.92105 0.79115 0.229129
0.208408 0.880186 0.384207
0.211643 0.880446 0.360082
0.272496 0.893553 0.315847
0.36556 0.901686 0.311025
0.532586 0.928969 0.339269
0.699626 0.946883 0.374609
0.830152 0.949737 0.391913
0.952941 0.952941 0.410925
0.94435 0.915846 0.34406
0.0368658 0.202243 0.267048
0.03682 0.197467 0.24477
0.0421912 0.194537 0.221714
0.107439 0.198108 0.202258
0.268391 0.215518 0.17998
0.518898 0.304753 0.224537
0.756817 0.356451 0.21593
0.882185 0.413397 0.206073
0.914763 0.464683 0.182742
0.0357519 0.177859 0.217929
0.0357977 0.178347 0.218173
0.0459602 0.175143 0.210086
0.111162 0.175662 0.189425
0.249714 0.194125 0.170764
0.500816 0.263142 0.193149
0.738964 0.313893 0.170886
0.857603 0.358373 0.151431
0.911513 0.413245 0.166445
0.0366522 0.171603 0.200793
0.0373388 0.174197 0.198215
0.0432593 0.181872 0.205737
0.116396 0.186404 0.205249
0.279347 0.209186 0.188952
0.56405 0.24741 0.160098
0.751278 0.294148 0.134005
0.85478 0.331334 0.148058
0.911131 0.390478 0.163699
0.0419471 0.213794 0.218219
0.0435492 0.225895 0.217716
0.0460517 0.245716 0.224079
0.0968948 0.247333 0.214679
0.322118 0.249805 0.193652
0.596353 0.303426 0.148257
0.765469 0.357717 0.136629
0.861295 0.392004 0.155993
0.91191 0.437644 0.169543
0.0863203 0.419059 0.340581
0.0820783 0.402289 0.299687
0.0766613 0.380529 0.263798
0.112902 0.36788 0.231281
0.297642 0.417395 0.209476
0.633692 0.400031 0.15845
0.79707 0.47451 0.157565
0.896559 0.547295 0.182925
0.915236 0.598627 0.193729
0.123552 0.563973 0.392813
0.118822 0.545785 0.344823
0.113771 0.526146 0.303059
0.159228 0.522347 0.260487
0.324437 0.569009 0.242786
0.643809 0.646601 0.269993
0.821576 0.575219 0.177356
0.915877 0.634897 0.199863
0.917479 0.681376 0.20827
0.156863 0.690059 0.436606
0.153658 0.67808 0.387137
0.150332 0.665309 0.342458
0.210895 0.671214 0.287312
0.379919 0.703273 0.275898
0.647425 0.769253 0.306569
0.819608 0.770657 0.265583
0.918502 0.713237 0.21413
0.919142 0.734936 0.218219
0.186114 0.798459 0.481758
0.184527 0.792767 0.429908
0.183047 0.787289 0.383597
0.26305 0.79942 0.316625
0.432303 0.813611 0.313893
0.653468 0.857282 0.348302
0.826215 0.890944 0.384756
0.91873 0.83975 0.254841
0.921004 0.789929 0.228885
0.2121 0.893645 0.537133
0.211368 0.89099 0.488304
0.210956 0.888624 0.444511
0.326604 0.906447 0.365057
0.487984 0.913924 0.369635
0.662074 0.947875 0.404639
0.799939 0.952132 0.423713
0.943297 0.954696 0.433906
0.944274 0.912139 0.34432
0.0640879 0.320134 0.430106
0.0622568 0.314702 0.399954
0.0610513 0.312245 0.365362
0.0599985 0.310796 0.32903
0.118914 0.318654 0.279667
0.427832 0.322896 0.213199
0.666484 0.39202 0.23621
0.833234 0.497597 0.352239
0.939941 0.547723 0.405539
0.0527352 0.274128 0.355825
0.0530556 0.275059 0.362264
0.0517433 0.270466 0.345632
0.0506294 0.268925 0.310231
0.113588 0.277409 0.271824
0.380697 0.28751 0.22182
0.629068 0.373053 0.254078
0.812589 0.451911 0.284688
0.930816 0.499474 0.295109
0.0497444 0.262043 0.33228
0.0510872 0.268757 0.334249
0.0532235 0.277348 0.350225
0.0527504 0.275425 0.345006
0.127779 0.279759 0.29688
0.40679 0.298634 0.248585
0.651118 0.384405 0.283314
0.826566 0.437507 0.281147
0.92929 0.48838 0.280827
0.0493782 0.26183 0.32047
0.0509041 0.269078 0.32195
0.0538033 0.281483 0.334768
0.0583658 0.300893 0.354757
0.151812 0.30901 0.354345
0.476402 0.346563 0.31223
0.723537 0.39733 0.311101
0.85684 0.437003 0.286152
0.926818 0.474342 0.257603
0.0653391 0.33167 0.365316
0.0690776 0.348272 0.366415
0.0746319 0.371878 0.374731
0.0831159 0.406378 0.391089
0.141131 0.441566 0.396674
0.562036 0.453803 0.369985
0.770596 0.512215 0.345663
0.877745 0.551781 0.321614
0.930785 0.581918 0.284092
0.124071 0.566003 0.537957
0.133333 0.601297 0.539651
0.134432 0.605463 0.509255
0.131197 0.593057 0.467216
0.190417 0.585534 0.415534
0.553216 0.640543 0.377844
0.80032 0.609232 0.334768
0.905791 0.661845 0.301228
0.926925 0.700847 0.247318
0.169223 0.73611 0.648295
0.166903 0.727703 0.601511
0.164752 0.719554 0.553491
0.162402 0.710826 0.50457
0.275319 0.715755 0.427268
0.564172 0.753475 0.404456
0.797436 0.791974 0.423239
0.92607 0.731395 0.275303
0.927016 0.756374 0.246113
0.192874 0.823407 0.688258
0.191806 0.81944 0.643809
0.190875 0.815976 0.597711
0.189395 0.810544 0.542931
0.356588 0.824781 0.441718
0.587152 0.842466 0.436469
0.778042 0.875914 0.461418
0.908049 0.85803 0.392157
0.92134 0.799435 0.230762
0.216754 0.910719 0.72398
0.216236 0.908919 0.685359
0.215686 0.906798 0.642603
0.214664 0.903075 0.588754
0.429084 0.924895 0.480705
0.614725 0.934203 0.485679
0.761883 0.957275 0.499474
0.90724 0.958206 0.486732
0.948913 0.912963 0.383856
0.0992599 0.461067 0.598947
0.0976883 0.456718 0.567803
0.0951705 0.449668 0.519142
0.093019 0.444114 0.46743
0.090135 0.434195 0.39234
0.280522 0.449851 0.276585
0.620737 0.429114 0.216419
0.798184 0.502556 0.338643
0.945739 0.613046 0.58233
0.0854353 0.407126 0.530785
0.0857099 0.40766 0.538964
0.0839704 0.401862 0.515679
0.0818036 0.396582 0.464576
0.0789807 0.389425 0.396063
0.219913 0.406317 0.303716
0.561639 0.392142 0.218235
0.764157 0.464897 0.286412
0.9075 0.576303 0.51046
0.0817578 0.392859 0.507164
0.0832227 0.398871 0.51281
0.0840925 0.401663 0.526467
0.082887 0.397101 0.518685
0.0797742 0.3897 0.439994
0.239918 0.404196 0.339712
0.56669 0.395453 0.268803
0.768093 0.476081 0.332723
0.90869 0.58024 0.526299
0.0806134 0.388785 0.497108
0.0826429 0.397177 0.502205
0.0854963 0.408728 0.513954
0.0893873 0.423651 0.536049
0.088304 0.419593 0.529686
0.297963 0.42797 0.417105
0.608576 0.4336 0.357702
0.798642 0.513603 0.437964
0.930205 0.584115 0.528603
0.0825666 0.397528 0.49575
0.0849012 0.407233 0.49984
0.0882734 0.420951 0.509911
0.0937362 0.442771 0.529122
0.102541 0.47805 0.556695
0.38381 0.499687 0.558724
0.691478 0.550439 0.539574
0.854505 0.594491 0.563378
0.948638 0.606455 0.52842
0.101091 0.472679 0.546532
0.105333 0.490394 0.547585
0.110765 0.512322 0.553094
0.118181 0.541833 0.567514
0.128222 0.581231 0.592554
0.406836 0.65301 0.631418
0.755535 0.669154 0.609171
0.881575 0.706554 0.603403
0.95285 0.711498 0.556863
0.151232 0.667216 0.699245
0.157107 0.690547 0.700359
0.164309 0.717922 0.705959
0.172961 0.750027 0.714855
0.172015 0.746548 0.674754
0.458259 0.763699 0.612589
0.756268 0.791592 0.58088
0.909316 0.765118 0.538079
0.950225 0.780682 0.476646
0.192462 0.82182 0.817243
0.197498 0.84033 0.811765
0.197116 0.838941 0.782605
0.196323 0.835966 0.746532
0.194507 0.829328 0.691661
0.527703 0.849912 0.595697
0.736751 0.864988 0.583749
0.89424 0.87602 0.56379
0.947021 0.821622 0.396918
0.219104 0.919295 0.860121
0.219104 0.919295 0.831006
0.219059 0.919173 0.801068
0.218799 0.918288 0.765972
0.222126 0.915785 0.709102
0.592386 0.945098 0.600107
0.735897 0.949248 0.608759
0.866819 0.96405 0.586038
0.957412 0.920729 0.485252
0.132418 0.589166 0.72784
0.131579 0.587289 0.707774
0.128908 0.579202 0.669703
0.125917 0.569589 0.6271
0.122011 0.556893 0.577356
0.209598 0.554925 0.534173
0.547036 0.554742 0.460853
0.778317 0.569955 0.496513
0.924224 0.623621 0.596567
0.118593 0.535805 0.677958
0.118624 0.53579 0.683818
0.116915 0.530159 0.664408
0.113344 0.519158 0.610147
0.110033 0.509636 0.546746
0.153368 0.505287 0.479484
0.462425 0.515816 0.386358
0.726177 0.51751 0.401541
0.882704 0.583658 0.518822
0.114427 0.520104 0.659358
0.114626 0.520699 0.663111
0.114244 0.51838 0.67068
0.112398 0.511177 0.664042
0.108934 0.502235 0.592752
0.159396 0.497566 0.508522
0.48127 0.504067 0.403708
0.722026 0.516548 0.423041
0.882185 0.586328 0.540444
0.112978 0.514443 0.65185
0.113771 0.517739 0.655161
0.115084 0.522622 0.661997
0.116304 0.526513 0.674647
0.115129 0.521233 0.681529
0.200031 0.517235 0.593774
0.535027 0.524575 0.515251
0.753414 0.534234 0.491249
0.897963 0.616388 0.616129
0.113222 0.515557 0.650462
0.114656 0.521492 0.653758
0.117128 0.531228 0.660029
0.121279 0.547631 0.672541
0.128267 0.57435 0.6981
0.279118 0.577829 0.715862
0.608743 0.567864 0.644007
0.806348 0.612222 0.635279
0.931701 0.678462 0.723461
0.116533 0.529183 0.656352
0.119036 0.539315 0.65919
0.122255 0.552178 0.664714
0.126955 0.570596 0.676173
0.135286 0.602853 0.700389
0.318395 0.659052 0.750011
0.685649 0.677821 0.739391
0.848844 0.72314 0.751568
0.965301 0.74165 0.748043
0.134691 0.600427 0.701045
0.138827 0.617105 0.702678
0.143435 0.63534 0.706401
0.149126 0.657496 0.716091
0.156695 0.686702 0.734142
0.311635 0.740612 0.771634
0.707347 0.789349 0.771618
0.878996 0.803571 0.757412
0.967788 0.809995 0.745998
0.175174 0.75378 0.818296
0.179263 0.769802 0.820111
0.183902 0.787915 0.82295
0.189197 0.808545 0.826703
0.196979 0.838315 0.830823
0.254612 0.85182 0.803525
0.711559 0.867826 0.743008
0.875669 0.882734 0.714351
0.963851 0.850629 0.660243
0.20589 0.868437 0.905974
0.211719 0.891264 0.90631
0.217731 0.914275 0.90695
0.219104 0.919295 0.889693
0.219104 0.919295 0.848646
0.372595 0.943328 0.796048
0.7308 0.954116 0.722484
0.841886 0.960922 0.707378
0.966857 0.932067 0.629313
0.162203 0.702296 0.814221
0.162188 0.702953 0.806516
0.160769 0.698711 0.790707
0.158373 0.690669 0.771984
0.155169 0.679377 0.753155
0.154238 0.662379 0.729671
0.461646 0.662287 0.738888
0.763439 0.649607 0.713207
0.916716 0.681651 0.738231
0.148379 0.649546 0.781964
0.148638 0.650324 0.785687
0.14786 0.647776 0.779232
0.145068 0.638575 0.751125
0.141726 0.627924 0.715709
0.137346 0.613245 0.671702
0.374899 0.618967 0.665476
0.697734 0.614191 0.632029
0.869596 0.64303 0.65594
0.143984 0.632609 0.771008
0.143496 0.630365 0.773739
0.142718 0.626841 0.778012
0.141787 0.622629 0.780972
0.13843 0.612604 0.741131
0.134447 0.600412 0.68632
0.378271 0.604974 0.672541
0.695003 0.601144 0.631189
0.863081 0.631769 0.649042
0.142016 0.624933 0.766384
0.141848 0.624063 0.769467
0.142077 0.624537 0.773358
0.141863 0.623194 0.779751
0.140215 0.615564 0.78883
0.136751 0.606241 0.735561
0.4206 0.603983 0.717342
0.716793 0.598123 0.667475
0.872099 0.6327 0.67274
0.141405 0.622492 0.765972
0.142031 0.62472 0.769314
0.143618 0.630869 0.773831
0.145998 0.639948 0.780545
0.149096 0.651438 0.79292
0.169436 0.6486 0.805402
0.506844 0.643168 0.791989
0.765728 0.632654 0.746288
0.89778 0.672663 0.742123
0.142596 0.627115 0.770214
0.144045 0.632593 0.773266
0.146349 0.641764 0.777508
0.149798 0.655009 0.784253
0.155886 0.67837 0.797879
0.185275 0.709316 0.819409
0.586831 0.713939 0.840543
0.812512 0.710613 0.808667
0.931807 0.747219 0.811017
0.14757 0.646281 0.78117
0.150179 0.656535 0.784176
0.153063 0.667979 0.787579
0.15668 0.682002 0.793149
0.16231 0.703563 0.805417
0.217639 0.737865 0.826932
0.615885 0.782666 0.853666
0.841917 0.796231 0.840513
0.964553 0.818067 0.855436
0.16379 0.708446 0.815946
0.167178 0.721843 0.818067
0.170611 0.735378 0.821088
0.174456 0.750286 0.825788
0.179538 0.769955 0.83418
0.207767 0.794247 0.842557
0.60444 0.841321 0.865934
0.849882 0.873259 0.850156
0.975769 0.883177 0.842008
0.192828 0.816999 0.905898
0.195804 0.828702 0.907652
0.199283 0.84239 0.909545
0.203769 0.8598 0.91162
0.210178 0.884855 0.912993
0.217014 0.911604 0.903288
0.574609 0.954421 0.876829
0.841779 0.95613 0.828916
0.973449 0.953552 0.789349
0.186465 0.793973 0.875471
0.186816 0.795499 0.873045
0.186419 0.794278 0.867811
0.185016 0.789349 0.862272
0.182406 0.779355 0.858671
0.179706 0.768719 0.857435
0.401755 0.765393 0.876097
0.746273 0.752682 0.877455
0.912245 0.732616 0.86453
0.174792 0.749432 0.853193
0.175387 0.751461 0.856443
0.175586 0.752239 0.856367
0.173861 0.746349 0.844602
0.171206 0.737026 0.830777
0.168444 0.72697 0.818936
0.30956 0.727825 0.82945
0.662806 0.711116 0.829099
0.861677 0.696086 0.811902
0.170245 0.73167 0.8477
0.169802 0.729564 0.851072
0.169253 0.726955 0.854246
0.16878 0.724758 0.858183
0.166415 0.716854 0.840162
0.16376 0.708125 0.820096
0.308309 0.711879 0.826963
0.6533 0.696498 0.824338
0.854276 0.684123 0.804166
0.168154 0.723278 0.846479
0.167559 0.72047 0.850141
0.166796 0.717311 0.852674
0.165942 0.713664 0.856046
0.164538 0.707286 0.862669
0.162158 0.699794 0.839612
0.325734 0.705074 0.842374
0.67332 0.6925 0.836393
0.859846 0.681071 0.813169
0.167193 0.719478 0.847745
0.16701 0.718196 0.851286
0.167163 0.71873 0.854154
0.167788 0.720913 0.857633
0.168353 0.722622 0.86421
0.166155 0.713008 0.872801
0.372519 0.718547 0.876158
0.716426 0.713085 0.86537
0.876234 0.700893 0.83978
0.167452 0.720073 0.851484
0.167819 0.721096 0.854643
0.168673 0.724529 0.857359
0.170474 0.731441 0.861402
0.173663 0.743389 0.869398
0.176806 0.755016 0.881224
0.435813 0.752789 0.908278
0.765927 0.76025 0.899214
0.903136 0.748638 0.871229
0.169284 0.726787 0.858808
0.170291 0.730724 0.861357
0.171725 0.736156 0.863539
0.173938 0.744778 0.867445
0.177539 0.758434 0.875761
0.182559 0.7776 0.887007
0.480491 0.801373 0.919875
0.805905 0.811994 0.920882
0.933989 0.805997 0.897444
0.174044 0.7449 0.871336
0.175799 0.75172 0.873243
0.177707 0.759243 0.875288
0.180041 0.768261 0.87892
0.183337 0.780682 0.886168
0.187366 0.796063 0.893324
0.529397 0.826001 0.924208
0.822538 0.868833 0.9243
0.949844 0.874266 0.913069
0.185428 0.7879 0.901686
0.187701 0.79675 0.904494
0.18996 0.805585 0.906981
0.192538 0.815518 0.909941
0.196109 0.829496 0.912779
0.200031 0.845045 0.913695
0.550118 0.881819 0.937545
0.821225 0.924315 0.930419
0.949752 0.953826 0.907698
0.195285 0.827131 0.899794
0.19559 0.828443 0.898619
0.195239 0.827237 0.896025
0.19408 0.822675 0.89369
0.191623 0.813062 0.894591
0.189212 0.803174 0.898528
0.367208 0.79736 0.92018
0.73695 0.784909 0.929122
0.909346 0.759945 0.919188
0.192996 0.817655 0.905074
0.19379 0.820493 0.908583
0.194202 0.821988 0.910292
0.192966 0.817716 0.905241
0.190982 0.810132 0.900389
0.188602 0.800656 0.898573
0.209644 0.794476 0.905318
0.627817 0.78294 0.930709
0.852171 0.769482 0.925048
0.190738 0.808423 0.908949
0.190127 0.805768 0.913542
0.189746 0.804364 0.914336
0.189578 0.803326 0.914534
0.188357 0.798581 0.912856
0.186313 0.791104 0.905516
0.195743 0.787015 0.908202
0.60914 0.777127 0.93547
0.841596 0.766796 0.929168
0.188479 0.799283 0.910796
0.187411 0.794965 0.913252
0.186313 0.790585 0.913802
0.185428 0.786969 0.914122
0.184436 0.783062 0.913954
0.183078 0.777676 0.912871
0.203906 0.776837 0.916136
0.62504 0.76788 0.941253
0.843534 0.759869 0.932692
0.187182 0.794003 0.914199
0.186175 0.789929 0.914199
0.185306 0.786328 0.914107
0.184771 0.784405 0.914
0.184207 0.781979 0.913909
0.182086 0.773678 0.913619
0.219791 0.775906 0.922408
0.651591 0.767086 0.955703
0.855817 0.762142 0.943954
0.185733 0.788067 0.914153
0.185 0.785275 0.914061
0.184756 0.78436 0.914
0.185138 0.78584 0.914107
0.186175 0.78996 0.914199
0.186999 0.793088 0.914336
0.290455 0.791287 0.932708
0.710277 0.784894 0.963561
0.882078 0.780804 0.954467
0.184604 0.783673 0.914
0.184421 0.783078 0.914
0.184771 0.784405 0.914
0.185748 0.788098 0.914137
0.187716 0.795911 0.914397
0.190829 0.80853 0.9149
0.396246 0.818479 0.942901
0.780972 0.819806 0.96849
0.919951 0.813931 0.955703
0.184619 0.783703 0.914
0.185153 0.78584 0.914092
0.186191 0.790036 0.914199
0.187518 0.795163 0.914397
0.189776 0.804242 0.914702
0.193088 0.817212 0.915206
0.47718 0.838956 0.949462
0.806287 0.872953 0.96289
0.941894 0.873152 0.956436
0.187625 0.795605 0.914824
0.189105 0.801572 0.914626
0.190738 0.808072 0.914855
0.192584 0.815351 0.915129
0.195224 0.825986 0.915541
0.198169 0.837537 0.915999
0.546685 0.864073 0.954894
0.820706 0.904479 0.957626
0.948669 0.954284 0.951812
