public/LUTS/Cinematic/Cinematic_05.cube
TITLE "Generated by Resolve"
LUT_3D_SIZE 9
0.0126192 0.06804 0.0865187
0.163272 0.0612192 0.0796979
0.313954 0.0543832 0.0728618
0.464622 0.0475624 0.066041
0.615305 0.0407416 0.0592203
0.765988 0.0339208 0.0523842
0.916655 0.0270848 0.0455634
1 0.020264 0.0387427
1 0.0134432 0.0319219
0 0.202777 0.0637675
0.14052 0.195956 0.0569467
0.291203 0.18912 0.0501259
0.441886 0.1823 0.0432898
0.592554 0.175479 0.0364691
0.743236 0.168643 0.0296483
0.893919 0.161822 0.0228122
1 0.155001 0.0159915
1 0.148165 0.00917067
0 0.33753 0.0410163
0.117784 0.330709 0.0341955
0.268452 0.323873 0.0273747
0.419135 0.317052 0.0205386
0.569802 0.310231 0.0137179
0.720485 0.303395 0.00689708
0.871168 0.296574 6.10361e-05
1 0.289754 0
1 0.282918 0
0 0.472282 0.018265
0.0950332 0.465461 0.0114443
0.245701 0.458625 0.00462348
0.396384 0.451804 0
0.547051 0.444984 0
0.697734 0.438148 0
0.848417 0.431327 0
0.999084 0.424506 0
1 0.41767 0
0 0.607034 0
0.072282 0.600214 0
0.22295 0.593378 0
0.373632 0.586557 0
0.524315 0.579736 0
0.674983 0.5729 0
0.825666 0.566079 0
0.976333 0.559258 0
1 0.552422 0
0 0.741787 0
0.0495308 0.734966 0
0.200198 0.72813 0
0.350881 0.721309 0
0.501564 0.714488 0
0.652232 0.707652 0
0.802915 0.700832 0
0.953582 0.694011 0
1 0.687175 0
0 0.876539 0
0.0267796 0.869718 0
0.177447 0.862882 0
0.32813 0.856062 0
0.478813 0.849241 0
0.62948 0.842405 0
0.780163 0.835584 0
0.930846 0.828763 0
1 0.821927 0
0 1 0
0.00402838 1 0
0.154696 0.997635 0
0.305379 0.990814 0
0.456062 0.983993 0
0.606729 0.977157 0
0.757412 0.970336 0
0.908095 0.963516 0
1 0.95668 0
0 1 0
0 1 0
0.131945 1 0
0.282628 1 0
0.43331 1 0
0.583978 1 0
0.734661 1 0
0.885344 1 0
1 1 0
0.00968948 0.0651102 0.241077
0.160357 0.0582895 0.234257
0.311025 0.0514687 0.22742
0.461707 0.0446479 0.2206
0.612375 0.0378119 0.213779
0.763058 0.0309911 0.206943
0.913741 0.0241703 0.200122
1 0.0173342 0.193301
1 0.0105135 0.186481
0 0.199847 0.218326
0.137606 0.193027 0.211505
0.288273 0.186206 0.204685
0.438956 0.17937 0.197848
0.589639 0.172549 0.191028
0.740307 0.165728 0.184207
0.89099 0.158892 0.177371
1 0.152071 0.17055
1 0.145251 0.163729
0 0.3346 0.195575
0.114855 0.327779 0.188754
0.265522 0.320958 0.181933
0.416205 0.314122 0.175097
0.566888 0.307301 0.168276
0.717556 0.300481 0.161456
0.868238 0.293645 0.15462
1 0.286824 0.147799
1 0.280003 0.140978
0 0.469352 0.172824
0.0921035 0.462531 0.166003
0.242786 0.455711 0.159182
0.393454 0.448875 0.152346
0.544137 0.442054 0.145525
0.694804 0.435233 0.138705
0.845487 0.428397 0.131868
0.99617 0.421576 0.125048
1 0.414755 0.118227
0 0.604105 0.150072
0.0693523 0.597284 0.143252
0.220035 0.590463 0.136431
0.370703 0.583627 0.129595
0.521385 0.576806 0.122774
0.672053 0.569986 0.115953
0.822736 0.563149 0.109117
0.973419 0.556329 0.102296
1 0.549508 0.0954757
0 0.738857 0.127321
0.0466011 0.732036 0.1205
0.197284 0.725216 0.11368
0.347951 0.718379 0.106844
0.498634 0.711559 0.100023
0.649317 0.704738 0.0932021
0.799985 0.697902 0.0863813
0.950668 0.691081 0.0795453
1 0.68426 0.0727245
0 0.87361 0.10457
0.0238499 0.866789 0.0977493
0.174533 0.859968 0.0909285
0.3252 0.853132 0.0840925
0.475883 0.846311 0.0772717
0.626566 0.83949 0.0704509
0.777234 0.832654 0.0636301
0.927916 0.825833 0.0567941
1 0.819013 0.0499733
0 1 0.0818189
0.00109865 1 0.0749981
0.151781 0.99472 0.0681773
0.302449 0.987884 0.0613413
0.453132 0.981064 0.0545205
0.603815 0.974243 0.0476997
0.754482 0.967407 0.0408789
0.905165 0.960586 0.0340429
1 0.953765 0.0272221
0 1 0.0590677
0 1 0.0522469
0.12903 1 0.0454261
0.279698 1 0.0385901
0.430381 1 0.0317693
0.581064 1 0.0249485
0.731731 1 0.0181277
0.882414 1 0.0112917
1 1 0.00447089
0.00675975 0.0621958 0.395651
0.157427 0.055375 0.38883
0.308095 0.0485389 0.38201
0.458778 0.0417182 0.375174
0.609461 0.0348974 0.368353
0.760128 0.0280613 0.361532
0.910811 0.0212406 0.354696
1 0.0144198 0.347875
1 0.00758373 0.341054
0 0.196933 0.3729
0.134676 0.190097 0.366079
0.285359 0.183276 0.359258
0.436027 0.176455 0.352438
0.586709 0.169619 0.345602
0.737392 0.162799 0.338781
0.88806 0.155978 0.33196
1 0.149142 0.325124
1 0.142321 0.318303
0 0.331685 0.350149
0.111925 0.324849 0.343328
0.262608 0.318029 0.336507
0.413275 0.311208 0.329686
0.563958 0.304372 0.32285
0.714641 0.297551 0.31603
0.865309 0.29073 0.309209
1 0.283894 0.302373
1 0.277073 0.295552
0 0.466438 0.327398
0.0891737 0.459602 0.320577
0.239857 0.452781 0.313756
0.390524 0.44596 0.306935
0.541207 0.439124 0.300099
0.69189 0.432303 0.293278
0.842557 0.425483 0.286458
0.99324 0.418647 0.279622
1 0.411826 0.272801
0 0.60119 0.304646
0.0664225 0.594354 0.297826
0.217105 0.587533 0.291005
0.367788 0.580713 0.284184
0.518456 0.573877 0.277348
0.669139 0.567056 0.270527
0.819806 0.560235 0.263706
0.970489 0.553399 0.25687
1 0.546578 0.25005
0 0.735943 0.281895
0.0436713 0.729107 0.275074
0.194354 0.722286 0.268254
0.345037 0.715465 0.261433
0.495705 0.708629 0.254597
0.646387 0.701808 0.247776
0.797055 0.694987 0.240955
0.947738 0.688151 0.234119
1 0.681331 0.227298
0 0.870695 0.259159
0.0209201 0.863859 0.252323
0.171603 0.857038 0.245502
0.322286 0.850217 0.238682
0.472953 0.843381 0.231846
0.623636 0.836561 0.225025
0.774319 0.82974 0.218204
0.924987 0.822904 0.211383
1 0.816083 0.204547
0 1 0.236408
0 0.998611 0.229572
0.148852 0.991791 0.222751
0.299535 0.98497 0.21593
0.450202 0.978134 0.209094
0.600885 0.971313 0.202274
0.751568 0.964492 0.195453
0.902235 0.957656 0.188632
1 0.950835 0.181796
0 1 0.213657
0 1 0.206821
0.126101 1 0.2
0.276783 1 0.193179
0.427451 1 0.186343
0.578134 1 0.179522
0.728817 1 0.172702
0.879484 1 0.165881
1 1 0.159045
0.00384527 0.059266 0.550225
0.154498 0.0524453 0.543404
0.30518 0.0456245 0.536583
0.455848 0.0387884 0.529763
0.606531 0.0319677 0.522927
0.757214 0.0251469 0.516106
0.907881 0.0183108 0.509285
1 0.01149 0.502449
1 0.00466926 0.495628
0 0.194003 0.527489
0.131746 0.187182 0.520653
0.282429 0.180346 0.513832
0.433112 0.173526 0.507012
0.58378 0.166705 0.500175
0.734462 0.159869 0.493355
0.885145 0.153048 0.486534
1 0.146227 0.479713
1 0.139391 0.472877
0 0.328756 0.504738
0.108995 0.321935 0.497902
0.259678 0.315099 0.491081
0.410361 0.308278 0.48426
0.561028 0.301457 0.47744
0.711711 0.294621 0.470603
0.862394 0.2878 0.463783
1 0.28098 0.456962
1 0.274144 0.450126
0 0.463508 0.481987
0.0862593 0.456687 0.475151
0.236927 0.449851 0.46833
0.38761 0.44303 0.461509
0.538277 0.43621 0.454688
0.68896 0.429374 0.447852
0.839643 0.422553 0.441032
0.990311 0.415732 0.434211
1 0.408896 0.427375
0 0.59826 0.459236
0.063508 0.59144 0.452399
0.214176 0.584604 0.445579
0.364858 0.577783 0.438758
0.515526 0.570962 0.431937
0.666209 0.564126 0.425101
0.816892 0.557305 0.41828
0.967559 0.550484 0.41146
1 0.543648 0.404623
0 0.733013 0.436484
0.0407568 0.726192 0.429648
0.191424 0.719356 0.422827
0.342107 0.712535 0.416007
0.49279 0.705715 0.409186
0.643458 0.698878 0.40235
0.794141 0.692058 0.395529
0.944808 0.685237 0.388708
1 0.678401 0.381872
0 0.867765 0.413733
0.0180056 0.860945 0.406912
0.168673 0.854109 0.400076
0.319356 0.847288 0.393256
0.470039 0.840467 0.386435
0.620706 0.833631 0.379599
0.771389 0.82681 0.372778
0.922072 0.819989 0.365957
1 0.813153 0.359121
0 1 0.390982
0 0.995697 0.384161
0.145922 0.988861 0.377325
0.296605 0.98204 0.370504
0.447288 0.975219 0.363684
0.597955 0.968383 0.356847
0.748638 0.961563 0.350027
0.899321 0.954742 0.343206
1 0.947906 0.336385
0 1 0.368231
0 1 0.36141
0.123171 1 0.354574
0.273854 1 0.347753
0.424536 1 0.340932
0.575204 1 0.334096
0.725887 1 0.327276
0.87657 1 0.320455
1 1 0.313634
0.000915541 0.0563363 0.704814
0.151568 0.0495155 0.697978
0.302251 0.0426947 0.691157
0.452934 0.035874 0.684337
0.603601 0.0290379 0.677516
0.754284 0.0222171 0.67068
0.904967 0.0153964 0.663859
1 0.00856031 0.657038
1 0.00173953 0.650202
0 0.191073 0.682063
0.128832 0.184253 0.675242
0.2795 0.177432 0.668406
0.430182 0.170596 0.661585
0.580865 0.163775 0.654765
0.731533 0.156954 0.647929
0.882216 0.150118 0.641108
1 0.143297 0.634287
1 0.136477 0.627466
0 0.325826 0.659312
0.106081 0.319005 0.652491
0.256748 0.312184 0.645655
0.407431 0.305348 0.638834
0.558114 0.298528 0.632013
0.708782 0.291707 0.625177
0.859464 0.284871 0.618357
1 0.27805 0.611536
1 0.271229 0.604715
0 0.460578 0.636561
0.0833295 0.453758 0.62974
0.233997 0.446937 0.622904
0.38468 0.440101 0.616083
0.535363 0.43328 0.609262
0.68603 0.426459 0.602441
0.836713 0.419623 0.595605
0.987396 0.412802 0.588785
1 0.405982 0.581964
0 0.595331 0.613809
0.0605783 0.58851 0.606989
0.211261 0.581689 0.600153
0.361929 0.574853 0.593332
0.512612 0.568032 0.586511
0.663279 0.561212 0.57969
0.813962 0.554376 0.572854
0.964645 0.547555 0.566033
1 0.540734 0.559213
0 0.730083 0.591058
0.0378271 0.723262 0.584237
0.18851 0.716442 0.577401
0.339178 0.709606 0.570581
0.48986 0.702785 0.56376
0.640528 0.695964 0.556939
0.791211 0.689128 0.550103
0.941894 0.682307 0.543282
1 0.675486 0.536461
0 0.864836 0.568307
0.0150759 0.858015 0.561486
0.165759 0.851194 0.55465
0.316426 0.844358 0.547829
0.467109 0.837537 0.541009
0.617792 0.830716 0.534188
0.76846 0.82388 0.527352
0.919142 0.81706 0.520531
1 0.810239 0.51371
0 0.999588 0.545556
0 0.992767 0.538735
0.143008 0.985946 0.531914
0.293675 0.97911 0.525078
0.444358 0.97229 0.518257
0.595041 0.965469 0.511437
0.745708 0.958633 0.504601
0.896391 0.951812 0.49778
1 0.944991 0.490959
0 1 0.522805
0 1 0.515984
0.120256 1 0.509163
0.270924 1 0.502327
0.421607 1 0.495506
0.57229 1 0.488685
0.722957 1 0.481849
0.87364 1 0.475029
1 1 0.468208
0 0.0534218 0.859388
0.148653 0.0466011 0.852567
0.299321 0.039765 0.845731
0.450004 0.0329442 0.838911
0.600687 0.0261234 0.83209
0.751354 0.0192874 0.825269
0.902037 0.0124666 0.818433
1 0.00564584 0.811612
1 0 0.804791
0 0.188159 0.836637
0.125902 0.181323 0.829816
0.276585 0.174502 0.822995
0.427253 0.167681 0.816159
0.577935 0.160845 0.809339
0.728618 0.154025 0.802518
0.879286 0.147204 0.795682
1 0.140383 0.788861
1 0.133547 0.78204
0 0.322911 0.813886
0.103151 0.316075 0.807065
0.253834 0.309255 0.800244
0.404501 0.302434 0.793408
0.555184 0.295598 0.786587
0.705867 0.288777 0.779767
0.856535 0.281956 0.772931
1 0.27512 0.76611
1 0.268299 0.759289
0 0.457664 0.791135
0.0803998 0.450828 0.784314
0.231083 0.444007 0.777493
0.38175 0.437186 0.770657
0.532433 0.43035 0.763836
0.683116 0.423529 0.757015
0.833783 0.416709 0.750179
0.984466 0.409873 0.743358
1 0.403052 0.736538
0 0.592416 0.768383
0.0576486 0.58558 0.761563
0.208331 0.578759 0.754742
0.358999 0.571939 0.747906
0.509682 0.565103 0.741085
0.660365 0.558282 0.734264
0.811032 0.551461 0.727443
0.961715 0.544625 0.720607
1 0.537804 0.713787
0 0.727169 0.745632
0.0348974 0.720333 0.738811
0.18558 0.713512 0.731991
0.336263 0.706691 0.725155
0.486931 0.699855 0.718334
0.637613 0.693034 0.711513
0.788281 0.686213 0.704692
0.938964 0.679377 0.697856
1 0.672557 0.691035
0 0.861921 0.722881
0.0121462 0.855085 0.71606
0.162829 0.848264 0.709239
0.313512 0.841443 0.702403
0.464179 0.834607 0.695583
0.614862 0.827787 0.688762
0.76553 0.820966 0.681941
0.916213 0.81413 0.675105
1 0.807309 0.668284
0 0.996674 0.70013
0 0.989837 0.693309
0.140078 0.983017 0.686488
0.290761 0.976196 0.679652
0.441428 0.96936 0.672831
0.592111 0.962539 0.66601
0.742794 0.955718 0.65919
0.893462 0.948882 0.652354
1 0.942061 0.645533
0 1 0.677378
0 1 0.670558
0.117327 1 0.663737
0.268009 1 0.656916
0.418677 1 0.65008
0.56936 1 0.643259
0.720043 1 0.636439
0.87071 1 0.629602
1 1 0.622782
0 0.0504921 1
0.145724 0.0436713 1
0.296407 0.0368505 1
0.447074 0.0300145 0.993484
0.597757 0.0231937 0.986664
0.74844 0.0163729 0.979843
0.899107 0.00953689 0.973007
1 0.00271611 0.966186
1 0 0.959365
0 0.185229 0.991211
0.122972 0.178408 0.98439
0.273655 0.171572 0.977569
0.424338 0.164752 0.970748
0.575006 0.157931 0.963912
0.725689 0.15111 0.957092
0.876356 0.144274 0.950271
1 0.137453 0.943435
1 0.130632 0.936614
0 0.319982 0.96846
0.100221 0.313161 0.961639
0.250904 0.306325 0.954818
0.401587 0.299504 0.947997
0.552254 0.292683 0.941161
0.702937 0.285847 0.93434
0.85362 0.279026 0.92752
1 0.272206 0.920684
1 0.265385 0.913863
0 0.454734 0.945708
0.0774701 0.447913 0.938888
0.228153 0.441077 0.932067
0.378836 0.434256 0.925246
0.529503 0.427436 0.91841
0.680186 0.4206 0.911589
0.830869 0.413779 0.904768
0.981537 0.406958 0.897932
1 0.400122 0.891112
0 0.589487 0.922957
0.0547189 0.582666 0.916136
0.205402 0.57583 0.909316
0.356085 0.569009 0.902495
0.506752 0.562188 0.895659
0.657435 0.555352 0.888838
0.808118 0.548531 0.882017
0.958785 0.541711 0.875181
1 0.534874 0.86836
0 0.724239 0.900221
0.0319829 0.717418 0.893385
0.18265 0.710582 0.886564
0.333333 0.703761 0.879744
0.484001 0.696941 0.872908
0.634684 0.690105 0.866087
0.785367 0.683284 0.859266
0.936034 0.676463 0.852445
1 0.669627 0.845609
0 0.858991 0.87747
0.00923171 0.852171 0.870634
0.159899 0.845335 0.863813
0.310582 0.838514 0.856992
0.461265 0.831693 0.850156
0.611933 0.824857 0.843336
0.762615 0.818036 0.836515
0.913283 0.811215 0.829694
1 0.804379 0.822858
0 0.993744 0.854719
0 0.986923 0.847883
0.137148 0.980087 0.841062
0.287831 0.973266 0.834241
0.438514 0.966445 0.827405
0.589181 0.959609 0.820584
0.739864 0.952789 0.813764
0.890532 0.945968 0.806943
1 0.939132 0.800107
0 1 0.831968
0 1 0.825132
0.114397 1 0.818311
0.26508 1 0.81149
0.415763 1 0.804654
0.56643 1 0.797833
0.717113 1 0.791012
0.867796 1 0.784192
1 1 0.777356
0 0.0475776 1
0.142794 0.0407416 1
0.293477 0.0339208 1
0.44416 0.0271 1
0.594827 0.020264 1
0.74551 0.0134432 1
0.896193 0.00662242 1
1 0 1
1 0 1
0 0.1823 1
0.120058 0.175479 1
0.270726 0.168658 1
0.421408 0.161837 1
0.572091 0.155001 1
0.722759 0.14818 1
0.873442 0.14136 1
1 0.134524 1
1 0.127703 1
0 0.317052 1
0.0973068 0.310231 1
0.247974 0.30341 1
0.398657 0.296574 1
0.54934 0.289754 1
0.700008 0.282933 1
0.85069 0.276112 1
1 0.269276 1
1 0.262455 1
0 0.451804 1
0.0745556 0.444984 1
0.225223 0.438163 1
0.375906 0.431327 1
0.526589 0.424506 1
0.677256 0.417685 1
0.827939 0.410849 1
0.978622 0.404028 1
1 0.397208 1
0 0.586557 1
0.0518044 0.579736 1
0.202472 0.572915 1
0.353155 0.566079 1
0.503838 0.559258 1
0.654505 0.552438 1
0.805188 0.545602 1
0.955871 0.538781 1
1 0.53196 1
0 0.721309 1
0.0290532 0.714488 1
0.179721 0.707668 1
0.330404 0.700832 1
0.481086 0.694011 1
0.631754 0.68719 1
0.782437 0.680354 1
0.93312 0.673533 1
1 0.666712 1
0 0.856062 1
0.00630198 0.849241 1
0.156985 0.84242 1
0.307652 0.835584 1
0.458335 0.828763 1
0.609003 0.821942 0.997909
0.759686 0.815106 0.991089
0.910369 0.808286 0.984268
1 0.801465 0.977447
0 0.990814 1
0 0.983993 1
0.134234 0.977172 0.995636
0.284901 0.970336 0.988815
0.435584 0.963516 0.981994
0.586267 0.956695 0.975158
0.736934 0.949859 0.968338
0.887617 0.943038 0.961517
1 0.936217 0.954696
0 1 0.986542
0 1 0.979721
0.111482 1 0.972885
0.26215 1 0.966064
0.412833 1 0.959243
0.563516 1 0.952407
0.714183 1 0.945586
0.864866 1 0.938766
1 1 0.931945
0 0.0446479 1
0.139879 0.0378271 1
0.290547 0.0309911 1
0.44123 0.0241703 1
0.591913 0.0173495 1
0.74258 0.0105135 1
0.893263 0.00369268 1
1 0 1
1 0 1
0 0.179385 1
0.117128 0.172564 1
0.267811 0.165728 1
0.418479 0.158907 1
0.569162 0.152087 1
0.719829 0.145251 1
0.870512 0.13843 1
1 0.131609 1
1 0.124773 1
0 0.314137 1
0.094377 0.307301 1
0.24506 0.300481 1
0.395727 0.29366 1
0.54641 0.286839 1
0.697093 0.280003 1
0.847761 0.273182 1
0.998444 0.266361 1
1 0.259525 1
0 0.44889 1
0.0716259 0.442054 1
0.222309 0.435233 1
0.372976 0.428412 1
0.523659 0.421576 1
0.674342 0.414755 1
0.82501 0.407935 1
0.975692 0.401114 1
1 0.394278 1
0 0.583642 1
0.0488746 0.576806 1
0.199557 0.569986 1
0.350225 0.563165 1
0.500908 0.556329 1
0.651591 0.549508 1
0.802258 0.542687 1
0.952941 0.535851 1
1 0.52903 1
0 0.718395 1
0.0261234 0.711559 1
0.176806 0.704738 1
0.327474 0.697917 1
0.478157 0.691081 1
0.62884 0.68426 1
0.779507 0.67744 1
0.93019 0.670604 1
1 0.663783 1
0 0.853147 1
0.00337224 0.846311 1
0.154055 0.83949 1
0.304723 0.83267 1
0.455406 0.825833 1
0.606088 0.819013 1
0.756756 0.812192 1
0.907439 0.805356 1
1 0.798535 1
0 0.9879 1
0 0.981064 1
0.131304 0.974243 1
0.281987 0.967422 1
0.432654 0.960586 1
0.583337 0.953765 1
0.734005 0.946944 1
0.884688 0.940108 1
1 0.933288 1
0 1 1
0 1 1
0.108553 1 1
0.259236 1 1
0.409903 1 1
0.560586 1 1
0.711254 1 1
0.861936 1 1
1 1 1
