public/LUTS/Cinematic/Cinematic_17.cube
TITLE "Generated by Resolve"
LUT_3D_SIZE 9
0.073518 0.0581979 0.0581979
0.133211 0.0612192 0.0600748
0.20116 0.0673533 0.06392
0.274815 0.078584 0.0716869
0.35668 0.0942702 0.0845655
0.437598 0.114733 0.100542
0.530953 0.134646 0.117754
0.631769 0.160174 0.136995
0.686336 0.175906 0.149004
0.0713512 0.0975509 0.0501564
0.131838 0.0996109 0.0500343
0.213031 0.11371 0.0578164
0.307164 0.137118 0.0747234
0.414755 0.163348 0.0956436
0.521721 0.191287 0.114183
0.620584 0.216587 0.133623
0.69984 0.242741 0.154742
0.744244 0.257801 0.167147
0.061738 0.140581 0.0417792
0.132692 0.158724 0.0450141
0.216342 0.17174 0.05832
0.32549 0.20351 0.0781872
0.449332 0.237873 0.100908
0.567803 0.27248 0.123156
0.665003 0.302342 0.14667
0.740337 0.338827 0.170962
0.781338 0.361364 0.184375
0.0530404 0.185962 0.0355077
0.13492 0.222126 0.0489204
0.234775 0.248631 0.0642405
0.331792 0.272755 0.081529
0.466316 0.316182 0.106432
0.594003 0.360342 0.134554
0.690364 0.398703 0.160037
0.763455 0.444251 0.184085
0.804776 0.475929 0.198184
0.0521706 0.241962 0.0372168
0.140169 0.300603 0.0552529
0.252384 0.348562 0.0758984
0.356817 0.374716 0.0907912
0.475151 0.404822 0.11339
0.609323 0.457145 0.143847
0.704982 0.504417 0.16939
0.776791 0.552178 0.190219
0.8215 0.584817 0.20473
0.063386 0.307271 0.0442817
0.15639 0.389303 0.0665446
0.27631 0.463004 0.0889754
0.388708 0.493614 0.108324
0.500847 0.512276 0.12604
0.611688 0.542992 0.148821
0.71075 0.589807 0.174868
0.778851 0.628626 0.193698
0.822019 0.656703 0.207111
0.0835431 0.414328 0.0601205
0.181933 0.504585 0.0815442
0.302815 0.582284 0.104723
0.419974 0.613382 0.12195
0.528298 0.621698 0.139361
0.625208 0.63151 0.15729
0.702831 0.6477 0.173037
0.772793 0.681956 0.192523
0.81413 0.70428 0.204395
0.113924 0.566735 0.0847028
0.216617 0.639155 0.102068
0.331853 0.688533 0.119188
0.448524 0.709712 0.134478
0.557534 0.715373 0.150195
0.641764 0.711269 0.164904
0.705821 0.711772 0.176822
0.757961 0.714824 0.186572
0.802945 0.737224 0.202411
0.149432 0.69572 0.109346
0.249058 0.738705 0.121019
0.36318 0.760128 0.129931
0.470695 0.768872 0.141024
0.571481 0.768536 0.153887
0.648997 0.762814 0.166766
0.711192 0.758389 0.178515
0.759762 0.75816 0.18764
0.794598 0.761166 0.197299
0.0830549 0.063798 0.108614
0.129976 0.0605783 0.0997177
0.194476 0.065095 0.100084
0.261662 0.0736248 0.105333
0.333364 0.0843519 0.111727
0.409842 0.098085 0.122026
0.496284 0.115724 0.136233
0.595438 0.136843 0.153628
0.657832 0.151492 0.163378
0.0674601 0.0977951 0.0967269
0.144015 0.111131 0.100069
0.247669 0.122591 0.102403
0.356207 0.134264 0.10663
0.467018 0.15436 0.119875
0.565667 0.177493 0.138796
0.658671 0.202976 0.160403
0.737545 0.229801 0.181704
0.779843 0.248676 0.19411
0.0551308 0.145022 0.0847334
0.136751 0.192233 0.0978103
0.270588 0.2103 0.0960098
0.398611 0.229603 0.106126
0.522957 0.254887 0.132036
0.628458 0.277806 0.15346
0.714885 0.302998 0.174975
0.782513 0.333364 0.194446
0.821912 0.354116 0.20824
0.0448768 0.198001 0.0773785
0.108675 0.265843 0.084123
0.259754 0.317784 0.0956436
0.40528 0.331518 0.110048
0.550713 0.361547 0.139849
0.665797 0.389487 0.165698
0.750393 0.425315 0.188907
0.817105 0.467201 0.209689
0.853315 0.496468 0.223545
0.0434272 0.267247 0.0760967
0.098085 0.35967 0.0758984
0.255192 0.442451 0.100038
0.407507 0.465202 0.123812
0.558175 0.479576 0.146624
0.681819 0.514672 0.174472
0.769757 0.556466 0.19823
0.828412 0.598917 0.222904
0.861112 0.624964 0.244312
0.0518196 0.346502 0.0829328
0.122271 0.478019 0.0801862
0.273243 0.573495 0.110964
0.425193 0.599008 0.140688
0.56556 0.598245 0.162982
0.683742 0.615183 0.185443
0.773281 0.650278 0.208927
0.826642 0.682551 0.238834
0.855955 0.705425 0.263279
0.067689 0.464179 0.0957198
0.156664 0.600336 0.0908522
0.306035 0.676951 0.123217
0.454276 0.697444 0.153201
0.583169 0.695033 0.177691
0.684916 0.697444 0.198703
0.765743 0.711971 0.220279
0.8177 0.734417 0.247898
0.846143 0.750729 0.273335
0.0958724 0.615259 0.111604
0.202609 0.714931 0.111513
0.347951 0.746807 0.13904
0.48603 0.75761 0.165576
0.601862 0.758541 0.194827
0.694209 0.759075 0.219028
0.759213 0.762448 0.235584
0.802777 0.765637 0.244923
0.836042 0.781628 0.270665
0.114717 0.721767 0.126146
0.23508 0.787442 0.126925
0.378363 0.797406 0.155352
0.508736 0.796918 0.175814
0.612741 0.79556 0.198718
0.69482 0.796475 0.225116
0.756512 0.797009 0.242985
0.79913 0.79852 0.252171
0.827543 0.799237 0.26331
0.0898146 0.0719921 0.171832
0.148363 0.0693828 0.167041
0.194446 0.0661326 0.144717
0.257664 0.0731975 0.145861
0.32314 0.0831159 0.150301
0.394049 0.0955825 0.158236
0.476539 0.110369 0.168307
0.569284 0.12668 0.183215
0.625788 0.13814 0.194095
0.0716564 0.106676 0.160891
0.145251 0.123766 0.183017
0.232227 0.112261 0.162371
0.325673 0.116884 0.15375
0.424689 0.128252 0.157183
0.525795 0.142199 0.163226
0.629206 0.16228 0.178653
0.722698 0.187274 0.196857
0.777813 0.2038 0.211673
0.0559091 0.153368 0.149783
0.101274 0.184802 0.168368
0.248234 0.230793 0.200076
0.397604 0.23888 0.186664
0.550454 0.246311 0.178042
0.670207 0.259312 0.188174
0.758068 0.2804 0.203754
0.823468 0.310201 0.226612
0.862165 0.333989 0.243809
0.0520638 0.215015 0.148165
0.0767987 0.265049 0.155032
0.206394 0.35256 0.197208
0.407126 0.374075 0.194934
0.583947 0.373907 0.187228
0.703914 0.38616 0.20029
0.785992 0.412131 0.21976
0.842771 0.452796 0.248219
0.874464 0.4813 0.270741
0.0588998 0.304768 0.157534
0.072694 0.366781 0.151186
0.174289 0.479072 0.17731
0.389624 0.536706 0.211933
0.574182 0.523903 0.213947
0.709026 0.538521 0.224094
0.793408 0.568978 0.247715
0.843671 0.606989 0.288197
0.867887 0.635569 0.326207
0.0691691 0.409918 0.173434
0.0879988 0.49752 0.152087
0.207965 0.625986 0.190265
0.407553 0.667552 0.240269
0.57641 0.653101 0.261692
0.696239 0.650828 0.267247
0.784924 0.675151 0.292821
0.837156 0.704829 0.331044
0.860258 0.724514 0.374945
0.0816205 0.525048 0.181338
0.111894 0.632334 0.152483
0.28777 0.72874 0.218357
0.461295 0.745968 0.272267
0.59826 0.733257 0.299733
0.691554 0.726589 0.309255
0.7738 0.737209 0.325399
0.826688 0.754894 0.357321
0.850706 0.768048 0.394339
0.0995193 0.646143 0.190097
0.152529 0.742184 0.16144
0.364614 0.788907 0.234531
0.512551 0.79115 0.276905
0.617823 0.786969 0.310643
0.699092 0.781537 0.33434
0.763653 0.782589 0.35053
0.812818 0.788037 0.361349
0.837324 0.794812 0.391974
0.115724 0.728099 0.199832
0.192126 0.803372 0.172122
0.415229 0.818494 0.242329
0.543618 0.817792 0.275196
0.639445 0.815503 0.309865
0.709987 0.815137 0.345922
0.768231 0.815244 0.368353
0.808957 0.815106 0.378347
0.83328 0.813443 0.385657
0.0944839 0.0803082 0.238636
0.159854 0.0839857 0.246204
0.22916 0.0854047 0.23473
0.275715 0.080293 0.19765
0.347173 0.0892195 0.197406
0.41648 0.0996719 0.202976
0.494087 0.112459 0.211154
0.575753 0.126528 0.220951
0.62594 0.135119 0.229358
0.0784161 0.116884 0.233204
0.141726 0.134722 0.274006
0.248173 0.132769 0.281804
0.338033 0.119799 0.228519
0.424201 0.125246 0.217212
0.507866 0.139208 0.214252
0.596704 0.156374 0.22446
0.685924 0.17789 0.238468
0.738125 0.192279 0.251041
0.067277 0.171099 0.224079
0.101793 0.19794 0.262242
0.216846 0.244663 0.306508
0.35903 0.218296 0.276631
0.504326 0.216617 0.248615
0.633448 0.224308 0.238331
0.74374 0.241428 0.245853
0.822248 0.2701 0.266163
0.864942 0.293095 0.283772
0.0627451 0.234424 0.222248
0.0830396 0.27071 0.24889
0.141024 0.317021 0.272221
0.36965 0.401785 0.335363
0.549828 0.387793 0.310353
0.702358 0.390967 0.293294
0.793759 0.409125 0.303059
0.850034 0.448264 0.330632
0.877287 0.483726 0.35996
0.0674754 0.32697 0.236606
0.0850538 0.372137 0.249348
0.120363 0.44065 0.257557
0.309239 0.547158 0.329458
0.561135 0.567269 0.359716
0.700496 0.558526 0.335927
0.786191 0.573327 0.349233
0.834089 0.610346 0.390204
0.858946 0.637736 0.435431
0.0762341 0.443992 0.258671
0.0959182 0.495689 0.253834
0.133089 0.580285 0.253315
0.322301 0.671214 0.344076
0.57023 0.689845 0.412131
0.685649 0.673945 0.403189
0.775143 0.685863 0.41207
0.827253 0.711589 0.452216
0.851698 0.725017 0.499138
0.0877699 0.553643 0.268574
0.108919 0.614954 0.255772
0.197803 0.706371 0.286793
0.423224 0.756527 0.408042
0.59704 0.761425 0.451301
0.691554 0.74905 0.454047
0.760357 0.745876 0.453162
0.81561 0.762081 0.484062
0.84332 0.773007 0.51664
0.0999924 0.640681 0.269215
0.12871 0.717174 0.259724
0.282109 0.790524 0.329427
0.527504 0.804593 0.441108
0.636011 0.803174 0.465614
0.704295 0.796735 0.480552
0.757366 0.791516 0.485573
0.802701 0.792752 0.489067
0.830381 0.799588 0.516976
0.111528 0.704158 0.270314
0.147845 0.786023 0.264332
0.351217 0.829328 0.351797
0.576028 0.82707 0.435187
0.656977 0.826978 0.462348
0.714656 0.82446 0.489769
0.76109 0.821668 0.505333
0.799176 0.820233 0.510781
0.825055 0.819257 0.511727
0.100069 0.0898146 0.304387
0.161852 0.097261 0.325307
0.240162 0.104814 0.335973
0.311498 0.101991 0.302464
0.382315 0.0998398 0.260868
0.456626 0.10753 0.25835
0.525628 0.116457 0.260975
0.595758 0.128161 0.267308
0.637919 0.13666 0.272312
0.0876631 0.130449 0.304601
0.138827 0.143862 0.359609
0.238712 0.150332 0.391653
0.350362 0.144793 0.358251
0.443259 0.140139 0.297063
0.515587 0.146227 0.281117
0.587167 0.156893 0.278553
0.668437 0.175448 0.288792
0.716228 0.187961 0.299947
0.0814527 0.19089 0.298634
0.110063 0.215671 0.354589
0.185046 0.240528 0.406561
0.353979 0.241276 0.419348
0.496986 0.217823 0.358862
0.620447 0.215702 0.325933
0.719799 0.229847 0.317739
0.799252 0.253132 0.331197
0.844114 0.274495 0.349615
0.0778058 0.267399 0.309926
0.100221 0.305318 0.350103
0.13521 0.31632 0.3794
0.306981 0.390463 0.448768
0.509133 0.374563 0.427771
0.663783 0.365835 0.391974
0.76846 0.379919 0.386908
0.832105 0.412192 0.409415
0.862943 0.442481 0.434318
0.0731365 0.34435 0.316106
0.098146 0.373907 0.336583
0.115969 0.408423 0.351919
0.213245 0.4813 0.391531
0.539025 0.593698 0.51165
0.670588 0.577295 0.492912
0.761685 0.592309 0.497566
0.815015 0.619638 0.522698
0.83888 0.648264 0.55938
0.0786297 0.448463 0.33254
0.108171 0.485512 0.345525
0.12311 0.541085 0.35053
0.213764 0.618616 0.387274
0.512078 0.693721 0.533074
0.68246 0.698924 0.562585
0.760906 0.704265 0.554604
0.810178 0.719432 0.580072
0.83769 0.738659 0.616526
0.0918593 0.558206 0.347143
0.121813 0.598398 0.356115
0.147601 0.666224 0.360861
0.280873 0.729763 0.429633
0.566674 0.763836 0.574624
0.699763 0.768429 0.595911
0.756252 0.760998 0.588144
0.80679 0.77113 0.603601
0.833249 0.783169 0.628702
0.102327 0.638651 0.350988
0.130022 0.690028 0.360113
0.186023 0.763943 0.385855
0.429297 0.79733 0.514046
0.647562 0.809903 0.605402
0.717098 0.810147 0.614023
0.764797 0.804166 0.615442
0.799069 0.801556 0.611185
0.828672 0.808225 0.627176
0.109911 0.694026 0.345937
0.137606 0.749569 0.357763
0.237293 0.817594 0.420554
0.53463 0.829496 0.558709
0.679988 0.831113 0.602213
0.73315 0.832593 0.618448
0.771634 0.830762 0.629709
0.802274 0.82829 0.630594
0.824582 0.826246 0.628885
0.109361 0.10164 0.371664
0.169223 0.111299 0.398505
0.244144 0.120165 0.415244
0.308934 0.118029 0.39469
0.391485 0.110857 0.345251
0.472892 0.113451 0.317449
0.539025 0.120439 0.314549
0.604395 0.12929 0.31635
0.639994 0.13756 0.32105
0.0990616 0.14551 0.372915
0.144259 0.153933 0.444022
0.235065 0.164767 0.485939
0.330449 0.163424 0.47042
0.436606 0.156924 0.405905
0.518959 0.156359 0.35697
0.583398 0.16051 0.339361
0.658549 0.174258 0.343114
0.704051 0.186084 0.352544
0.0932326 0.212634 0.376547
0.12285 0.226352 0.4365
0.17911 0.238666 0.492393
0.329 0.255024 0.539269
0.496406 0.243229 0.503944
0.615488 0.228305 0.437461
0.705821 0.231693 0.406012
0.782238 0.248554 0.409888
0.82443 0.26949 0.424796
0.0894484 0.29012 0.391196
0.11812 0.317708 0.434318
0.146563 0.317067 0.47187
0.262348 0.373938 0.543847
0.498131 0.393515 0.564965
0.651789 0.363409 0.514855
0.759548 0.363561 0.487572
0.823041 0.390341 0.497154
0.857618 0.420066 0.520333
0.0868849 0.379294 0.404944
0.115846 0.402014 0.429252
0.133272 0.412802 0.449622
0.193133 0.454597 0.493462
0.467185 0.570596 0.595621
0.644785 0.565011 0.590982
0.733715 0.566827 0.581292
0.791089 0.593164 0.593561
0.821561 0.621271 0.623758
0.0836652 0.451041 0.398367
0.113481 0.470726 0.414023
0.13341 0.505745 0.43064
0.175891 0.573022 0.467536
0.376287 0.654108 0.54934
0.68719 0.719326 0.663066
0.752026 0.717845 0.661128
0.795575 0.734081 0.676875
0.823499 0.749065 0.692714
0.0964523 0.558999 0.417197
0.130434 0.594797 0.438331
0.147707 0.641505 0.454734
0.212619 0.696208 0.49221
0.428458 0.74313 0.582574
0.692546 0.77409 0.686427
0.760769 0.77612 0.687373
0.8038 0.784085 0.695857
0.828626 0.793286 0.711437
0.11104 0.643626 0.430747
0.144686 0.68249 0.453574
0.166415 0.739345 0.475822
0.306233 0.780972 0.547356
0.55758 0.803708 0.642359
0.723171 0.814847 0.703182
0.772229 0.814878 0.704692
0.802823 0.812436 0.702724
0.828229 0.8177 0.714458
0.121187 0.700221 0.436576
0.153155 0.738537 0.457984
0.193729 0.797299 0.498589
0.399924 0.829358 0.592615
0.651057 0.831312 0.67982
0.745434 0.836332 0.710353
0.780087 0.836637 0.717006
0.80647 0.834546 0.716075
0.825818 0.83415 0.712016
0.12253 0.116426 0.445365
0.182712 0.127672 0.477745
0.252232 0.135241 0.493736
0.3075 0.131289 0.476005
0.383124 0.122591 0.427115
0.464225 0.119799 0.389654
0.537774 0.123262 0.369055
0.60206 0.131533 0.370214
0.638132 0.137575 0.372747
0.111528 0.159823 0.43946
0.155093 0.166278 0.524758
0.239826 0.178256 0.574838
0.331777 0.1776 0.55967
0.429145 0.172702 0.502342
0.51725 0.170459 0.450141
0.579797 0.166934 0.409171
0.647974 0.176562 0.406668
0.690333 0.187533 0.411719
0.106493 0.227329 0.45388
0.138888 0.232486 0.508247
0.187015 0.243076 0.58436
0.313695 0.261967 0.646632
0.480705 0.260868 0.63151
0.61915 0.256458 0.573297
0.695308 0.245945 0.512627
0.762264 0.255009 0.500511
0.806821 0.269398 0.509453
0.102892 0.305028 0.475212
0.136217 0.321843 0.512505
0.164508 0.318532 0.561975
0.256809 0.368566 0.642329
0.476829 0.401129 0.678477
0.65095 0.390631 0.652873
0.746365 0.372641 0.607294
0.814817 0.384726 0.597757
0.852567 0.40911 0.610422
0.0997635 0.390631 0.486625
0.13257 0.40618 0.511482
0.154925 0.413779 0.544747
0.200427 0.444312 0.595499
0.42945 0.562127 0.6757
0.649073 0.579599 0.679667
0.731228 0.559991 0.664668
0.790829 0.576455 0.666651
0.820813 0.606714 0.683558
0.0988632 0.470405 0.486946
0.130007 0.488548 0.505608
0.152941 0.511284 0.530678
0.182712 0.553414 0.569589
0.332021 0.629999 0.629358
0.653468 0.710674 0.713069
0.738079 0.7084 0.710262
0.78471 0.720363 0.719722
0.813336 0.737865 0.732128
0.100114 0.544427 0.478737
0.133684 0.570901 0.500069
0.157031 0.609094 0.526329
0.194461 0.663691 0.564279
0.347494 0.718029 0.623713
0.613046 0.761028 0.70164
0.764172 0.786023 0.748455
0.804181 0.792294 0.756512
0.82652 0.802029 0.76791
0.120439 0.643153 0.503548
0.157168 0.675929 0.533349
0.174502 0.722805 0.561273
0.248844 0.761288 0.600275
0.437919 0.792615 0.661189
0.660319 0.809277 0.728161
0.773678 0.819974 0.761212
0.806424 0.819928 0.7617
0.82974 0.825101 0.769696
0.134615 0.703182 0.518822
0.168307 0.734478 0.546822
0.18941 0.783902 0.579995
0.301106 0.818173 0.627207
0.543847 0.83061 0.703197
0.722744 0.834821 0.753826
0.785183 0.839612 0.770031
0.811856 0.840604 0.770153
0.829313 0.839139 0.768093
0.138903 0.134524 0.532647
0.203113 0.145068 0.56556
0.261723 0.148943 0.572808
0.309743 0.143984 0.553002
0.38294 0.135256 0.513863
0.464729 0.13196 0.47631
0.538003 0.132235 0.447868
0.597086 0.134386 0.428885
0.63183 0.138918 0.431022
0.123186 0.173617 0.513176
0.169909 0.182025 0.605814
0.24123 0.189761 0.646998
0.323369 0.189578 0.634318
0.427878 0.188312 0.594079
0.532113 0.192691 0.555932
0.597665 0.191318 0.516625
0.639887 0.18323 0.478111
0.679225 0.191043 0.479286
0.120333 0.243305 0.538216
0.153552 0.239994 0.580346
0.202441 0.252064 0.673152
0.310811 0.269398 0.735546
0.478721 0.27541 0.726726
0.62417 0.279713 0.684764
0.707057 0.277028 0.641993
0.745937 0.266133 0.594614
0.78497 0.27512 0.59321
0.118227 0.318715 0.560021
0.153399 0.327794 0.592798
0.183047 0.323857 0.646616
0.271153 0.376394 0.735012
0.477821 0.412131 0.763073
0.654521 0.411673 0.742794
0.746868 0.406149 0.716808
0.802258 0.392752 0.688792
0.841489 0.40856 0.692714
0.116182 0.396292 0.566613
0.149813 0.410193 0.595697
0.176333 0.418265 0.633234
0.225513 0.451194 0.692164
0.439033 0.564767 0.75317
0.645869 0.589944 0.745357
0.737285 0.584344 0.743481
0.791806 0.573266 0.733608
0.82356 0.594202 0.741192
0.116442 0.475807 0.5682
0.148363 0.495399 0.590723
0.174914 0.516655 0.620005
0.203479 0.550851 0.663035
0.339971 0.62446 0.713344
0.648966 0.710094 0.764324
0.744778 0.717937 0.759945
0.786786 0.713329 0.761746
0.815457 0.727871 0.769177
0.119005 0.560159 0.566827
0.153353 0.582498 0.588632
0.17734 0.612512 0.614313
0.206394 0.652522 0.652201
0.330999 0.704433 0.695521
0.58265 0.755184 0.746365
0.754833 0.785061 0.781888
0.797772 0.789166 0.784817
0.822522 0.796399 0.794247
0.125887 0.630289 0.566583
0.161181 0.657664 0.59202
0.181781 0.694942 0.619989
0.226078 0.736675 0.655268
0.370901 0.776135 0.698421
0.600519 0.801617 0.750607
0.749828 0.816068 0.786862
0.812924 0.825467 0.799619
0.829648 0.829602 0.806256
0.146304 0.699199 0.58851
0.180102 0.72726 0.614404
0.195239 0.76875 0.645151
0.265232 0.802152 0.679942
0.451896 0.823789 0.727169
0.667109 0.833692 0.771969
0.770382 0.838209 0.795651
0.816892 0.843107 0.8094
0.833036 0.841459 0.808087
0.151446 0.145907 0.586038
0.216434 0.155673 0.615564
0.268757 0.157443 0.614404
0.314931 0.149126 0.596124
0.38706 0.144442 0.565621
0.467887 0.140581 0.531807
0.53962 0.13962 0.501167
0.595865 0.140978 0.479637
0.625544 0.141955 0.468498
0.131533 0.182162 0.562173
0.17969 0.190799 0.655146
0.246876 0.19675 0.685908
0.321096 0.195346 0.672465
0.428748 0.197772 0.644633
0.540093 0.2065 0.618402
0.613809 0.208057 0.588678
0.652049 0.200656 0.548775
0.671382 0.194064 0.528603
0.129015 0.25536 0.592493
0.163058 0.24596 0.627161
0.211505 0.265019 0.725689
0.316304 0.275349 0.782681
0.475517 0.284153 0.772869
0.625437 0.293904 0.741726
0.714153 0.299489 0.713771
0.755901 0.290806 0.679118
0.773114 0.282078 0.651179
0.129091 0.329747 0.61532
0.162295 0.333959 0.64445
0.19794 0.331334 0.698604
0.286366 0.385107 0.790646
0.484428 0.420569 0.811383
0.654597 0.426383 0.794934
0.749264 0.430259 0.777615
0.804059 0.422721 0.762631
0.832395 0.412634 0.748226
0.127718 0.401465 0.621393
0.163104 0.416312 0.647868
0.191852 0.424491 0.688869
0.245701 0.462928 0.755032
0.46714 0.575372 0.801541
0.659464 0.59971 0.788632
0.745052 0.599985 0.786084
0.796139 0.59678 0.784619
0.824689 0.591913 0.780606
0.126757 0.478676 0.622507
0.161929 0.501808 0.646647
0.190661 0.521416 0.678706
0.221958 0.555322 0.726238
0.383597 0.64062 0.772747
0.668559 0.719692 0.794827
0.750332 0.726589 0.794553
0.792126 0.725978 0.796017
0.816297 0.724193 0.796429
0.133074 0.562387 0.625971
0.167849 0.589853 0.647547
0.192584 0.617914 0.67747
0.221149 0.652873 0.714702
0.355779 0.709102 0.753887
0.606668 0.760098 0.789273
0.758556 0.789425 0.807614
0.802457 0.794064 0.811597
0.822675 0.793881 0.814343
0.143328 0.638239 0.630396
0.178149 0.663798 0.651164
0.195453 0.694469 0.680766
0.233158 0.732128 0.715221
0.377737 0.775647 0.751705
0.60444 0.801724 0.788266
0.749187 0.818601 0.810178
0.810468 0.826535 0.82034
0.829267 0.828504 0.820676
0.151034 0.68658 0.630884
0.186038 0.712367 0.65359
0.198093 0.746242 0.685328
0.245182 0.781064 0.717983
0.400305 0.814115 0.753994
0.619516 0.831037 0.789654
0.753994 0.834745 0.816037
0.813245 0.83975 0.822889
0.836255 0.844724 0.827787
