public/LUTS/Cinematic/Cinematic_06.cube
TITLE "Generated by Resolve"
LUT_3D_SIZE 33
0 0.000457771 0.000457771
0.00996414 0 0
0.0436866 0 0
0.077409 0 0
0.111131 0 0
0.144854 0 0
0.178561 0 0
0.212284 0 0
0.246006 0 0
0.279728 0 0
0.313451 0 0
0.347158 0 0
0.38088 0 0
0.414603 0 0
0.448325 0 0
0.482048 0 0
0.515755 0 0
0.549477 0 0
0.5832 0 0
0.616922 0 0
0.650645 0 0
0.684352 0 0
0.718074 0 0
0.751797 0 0
0.785519 0 0
0.819226 0 0
0.852949 0 0
0.886671 0 0
0.920394 0 0
0.954116 0 0
0.987823 0 0
1 0 0
1 0 0
0 0.032639 0
0.0077821 0.0319829 0
0.0415045 0.0313268 0
0.075227 0.0306706 0
0.108949 0.0300145 0
0.142657 0.0293584 0
0.176379 0.0287022 0
0.210101 0.0280461 0
0.243824 0.0273899 0
0.277546 0.0267338 0
0.311254 0.0260777 0
0.344976 0.0254215 0
0.378698 0.0247501 0
0.412421 0.024094 0
0.446128 0.0234379 0
0.47985 0.0227817 0
0.513573 0.0221256 0
0.547295 0.0214694 0
0.581018 0.0208133 0
0.614725 0.0201572 0
0.648447 0.019501 0
0.68217 0.0188449 0
0.715892 0.0181888 0
0.749615 0.0175326 0
0.783322 0.0168765 0
0.817044 0.0162203 0
0.850767 0.0155642 0
0.884489 0.0149081 0
0.918212 0.0142519 0
0.951919 0.0135958 0
0.985641 0.0129397 0
1 0.0122835 0
1 0.0116274 0
0 0.0648203 0
0.00560006 0.0641642 0
0.0393225 0.063508 0
0.0730297 0.0628519 0
0.106752 0.0621958 0
0.140475 0.0615396 0
0.174197 0.0608835 0
0.207919 0.0602274 0
0.241627 0.0595712 0
0.275349 0.0589151 0
0.309071 0.0582589 0
0.342794 0.0576028 0
0.376516 0.0569467 0
0.410224 0.0562905 0
0.443946 0.0556344 0
0.477668 0.0549783 0
0.511391 0.0543221 0
0.545098 0.053666 0
0.57882 0.0530098 0
0.612543 0.0523537 0
0.646265 0.0516976 0
0.679988 0.0510414 0
0.713695 0.0503853 0
0.747417 0.0497292 0
0.78114 0.049073 0
0.814862 0.0484169 0
0.848585 0.0477607 0
0.882292 0.0471046 0
0.916014 0.0464485 0
0.949737 0.0457923 0
0.983459 0.0451362 0
1 0.04448 0
1 0.0438239 0
0 0.0970169 0
0.00340276 0.0963607 0
0.0371252 0.0957046 0
0.0708476 0.0950484 0
0.10457 0.0943923 0
0.138293 0.0937362 0
0.172 0.0930648 0
0.205722 0.0924086 0
0.239445 0.0917525 0
0.273167 0.0910964 0
0.306889 0.0904402 0
0.340597 0.0897841 0
0.374319 0.089128 0
0.408042 0.0884718 0
0.441764 0.0878157 0
0.475486 0.0871595 0
0.509194 0.0865034 0
0.542916 0.0858473 0
0.576638 0.0851911 0
0.610361 0.084535 0
0.644068 0.0838788 0
0.677791 0.0832227 0
0.711513 0.0825666 0
0.745235 0.0819104 0
0.778958 0.0812543 0
0.812665 0.0805982 0
0.846387 0.079942 0
0.88011 0.0792859 0
0.913832 0.0786297 0
0.947555 0.0779736 0
0.981262 0.0773175 0
1 0.0766613 0
1 0.0760052 0
0 0.129198 0
0.00122072 0.128542 0
0.0349432 0.127886 0
0.0686656 0.12723 0
0.102373 0.126574 0
0.136095 0.125917 0
0.169818 0.125261 0
0.20354 0.124605 0
0.237263 0.123949 0
0.27097 0.123293 0
0.304692 0.122637 0
0.338415 0.121981 0
0.372137 0.121324 0
0.405859 0.120668 0
0.439567 0.120012 0
0.473289 0.119356 0
0.507012 0.1187 0
0.540734 0.118044 0
0.574456 0.117388 0
0.608164 0.116732 0
0.641886 0.116075 0
0.675608 0.115419 0
0.709331 0.114763 0
0.743053 0.114107 0
0.776761 0.113451 0
0.810483 0.112795 0
0.844205 0.112139 0
0.877928 0.111482 0
0.911635 0.110826 0
0.945357 0.11017 0
0.97908 0.109514 0
1 0.108843 0
1 0.108186 0
0 0.161379 0
0 0.160723 0
0.0327611 0.160067 0
0.0664683 0.159411 0
0.100191 0.158755 0
0.133913 0.158099 0
0.167636 0.157443 0
0.201343 0.156786 0
0.235065 0.15613 0
0.268788 0.155474 0
0.30251 0.154818 0
0.336233 0.154162 0
0.36994 0.153506 0
0.403662 0.15285 0
0.437385 0.152193 0
0.471107 0.151537 0
0.504829 0.150881 0
0.538537 0.150225 0
0.572259 0.149569 0
0.605982 0.148913 0
0.639704 0.148257 0
0.673426 0.147601 0
0.707134 0.146944 0
0.740856 0.146288 0
0.774578 0.145632 0
0.808301 0.144976 0
0.842023 0.14432 0
0.875731 0.143664 0
0.909453 0.143008 0
0.943175 0.142351 0
0.976898 0.141695 0
1 0.141039 0
1 0.140383 0
0 0.193576 0
0 0.19292 0
0.0305638 0.192264 0
0.0642863 0.191608 0
0.0980087 0.190951 0
0.131731 0.190295 0
0.165438 0.189639 0
0.199161 0.188983 0
0.232883 0.188327 0
0.266606 0.187671 0
0.300313 0.187015 0
0.334035 0.186358 0
0.367758 0.185702 0
0.40148 0.185046 0
0.435203 0.18439 0
0.46891 0.183734 0
0.502632 0.183078 0
0.536355 0.182422 0
0.570077 0.181765 0
0.6038 0.181109 0
0.637507 0.180453 0
0.671229 0.179797 0
0.704952 0.179141 0
0.738674 0.178485 0
0.772396 0.177813 0
0.806104 0.177157 0
0.839826 0.176501 0
0.873549 0.175845 0
0.907271 0.175189 0
0.940993 0.174533 0
0.974701 0.173877 0
1 0.17322 0
1 0.172564 0
0 0.225757 0
0 0.225101 0
0.0283818 0.224445 0
0.0621042 0.223789 0
0.0958114 0.223133 0
0.129534 0.222477 0
0.163256 0.22182 0
0.196979 0.221164 0
0.230701 0.220508 0
0.264408 0.219852 0
0.298131 0.219196 0
0.331853 0.21854 0
0.365576 0.217884 0
0.399298 0.217227 0
0.433005 0.216571 0
0.466728 0.215915 0
0.50045 0.215259 0
0.534173 0.214603 0
0.56788 0.213947 0
0.601602 0.213291 0
0.635325 0.212634 0
0.669047 0.211978 0
0.70277 0.211322 0
0.736477 0.210666 0
0.770199 0.21001 0
0.803922 0.209354 0
0.837644 0.208698 0
0.871366 0.208042 0
0.905074 0.207385 0
0.938796 0.206729 0
0.972519 0.206073 0
1 0.205417 0
1 0.204761 0
0 0.257954 0
0 0.257298 0
0.0261845 0.256641 0
0.0599069 0.255985 0
0.0936294 0.255329 0
0.127352 0.254673 0
0.161074 0.254017 0
0.194781 0.253361 0
0.228504 0.252705 0
0.262226 0.252049 0
0.295949 0.251392 0
0.329671 0.250736 0
0.363378 0.25008 0
0.397101 0.249424 0
0.430823 0.248768 0
0.464546 0.248112 0
0.498268 0.247456 0
0.531975 0.246799 0
0.565698 0.246128 0
0.59942 0.245472 0
0.633143 0.244816 0
0.66685 0.24416 0
0.700572 0.243503 0
0.734295 0.242847 0
0.768017 0.242191 0
0.80174 0.241535 0
0.835447 0.240879 0
0.869169 0.240223 0
0.902892 0.239567 0
0.936614 0.238911 0
0.970336 0.238254 0
1 0.237598 0
1 0.236942 0
0 0.290135 0
0 0.289479 0
0.0240024 0.288823 0
0.0577249 0.288167 0
0.0914473 0.28751 0
0.125154 0.286854 0
0.158877 0.286198 0
0.192599 0.285542 0
0.226322 0.284886 0
0.260044 0.28423 0
0.293751 0.283574 0
0.327474 0.282918 0
0.361196 0.282261 0
0.394919 0.281605 0
0.428641 0.280949 0
0.462348 0.280293 0
0.496071 0.279637 0
0.529793 0.278981 0
0.563516 0.278325 0
0.597238 0.277668 0
0.630945 0.277012 0
0.664668 0.276356 0
0.69839 0.2757 0
0.732113 0.275044 0
0.765835 0.274388 0
0.799542 0.273732 0
0.833265 0.273075 0
0.866987 0.272419 0
0.90071 0.271763 0
0.934417 0.271107 0
0.968139 0.270451 0
1 0.269795 0
1 0.269139 0
0 0.322332 0
0 0.321675 0
0.0218204 0.321019 0
0.0555428 0.320363 0
0.08925 0.319707 0
0.122972 0.319051 0
0.156695 0.318395 0
0.190417 0.317739 0
0.224125 0.317082 0
0.257847 0.316426 0
0.291569 0.31577 0
0.325292 0.315099 0
0.359014 0.314443 0
0.392721 0.313787 0
0.426444 0.31313 0
0.460166 0.312474 0
0.493889 0.311818 0
0.527611 0.311162 0
0.561318 0.310506 0
0.595041 0.30985 0
0.628763 0.309194 0
0.662486 0.308537 0
0.696208 0.307881 0
0.729915 0.307225 0
0.763638 0.306569 0
0.79736 0.305913 0
0.831083 0.305257 0
0.864805 0.304601 0
0.898512 0.303944 0
0.932235 0.303288 0
0.965957 0.302632 0
0.99968 0.301976 0
1 0.30132 0
0 0.354513 0
0 0.353857 0
0.0196231 0.353201 0
0.0533455 0.352544 0
0.087068 0.351888 0
0.12079 0.351232 0
0.154513 0.350576 0
0.18822 0.34992 0
0.221942 0.349264 0
0.255665 0.348608 0
0.289387 0.347951 0
0.323095 0.347295 0
0.356817 0.346639 0
0.390539 0.345983 0
0.424262 0.345327 0
0.457984 0.344671 0
0.491691 0.344015 0
0.525414 0.343359 0
0.559136 0.342702 0
0.592859 0.342046 0
0.626581 0.34139 0
0.660288 0.340734 0
0.694011 0.340078 0
0.727733 0.339422 0
0.761456 0.338766 0
0.795178 0.338109 0
0.828885 0.337453 0
0.862608 0.336797 0
0.89633 0.336141 0
0.930053 0.335485 0
0.963775 0.334829 0
0.997482 0.334173 0
1 0.333516 0
0 0.386709 0
0 0.386053 0
0.0174411 0.385397 0
0.0511635 0.384741 0
0.0848859 0.38407 0
0.118593 0.383413 0
0.152316 0.382757 0
0.186038 0.382101 0
0.21976 0.381445 0
0.253483 0.380789 0
0.28719 0.380133 0
0.320912 0.379477 0
0.354635 0.37882 0
0.388357 0.378164 0
0.42208 0.377508 0
0.455787 0.376852 0
0.489509 0.376196 0
0.523232 0.37554 0
0.556954 0.374884 0
0.590661 0.374228 0
0.624384 0.373571 0
0.658106 0.372915 0
0.691829 0.372259 0
0.725551 0.371603 0
0.759258 0.370947 0
0.792981 0.370291 0
0.826703 0.369635 0
0.860426 0.368978 0
0.894148 0.368322 0
0.927855 0.367666 0
0.961578 0.36701 0
0.9953 0.366354 0
1 0.365698 0
0 0.418891 0
0 0.418235 0
0.015259 0.417578 0
0.0489662 0.416922 0
0.0826886 0.416266 0
0.116411 0.41561 0
0.150134 0.414954 0
0.183856 0.414298 0
0.217563 0.413642 0
0.251286 0.412985 0
0.285008 0.412329 0
0.31873 0.411673 0
0.352453 0.411017 0
0.38616 0.410361 0
0.419883 0.409705 0
0.453605 0.409049 0
0.487327 0.408392 0
0.52105 0.407736 0
0.554757 0.40708 0
0.588479 0.406424 0
0.622202 0.405768 0
0.655924 0.405112 0
0.689632 0.404456 0
0.723354 0.4038 0
0.757076 0.403143 0
0.790799 0.402487 0
0.824521 0.401831 0
0.858228 0.401175 0
0.891951 0.400519 0
0.925673 0.399847 0
0.959396 0.399191 0
0.993118 0.398535 0
1 0.397879 0
0 0.451072 0
0 0.450416 0
0.0130617 0.44976 0
0.0467842 0.449104 0
0.0805066 0.448447 0
0.114229 0.447791 0
0.147936 0.447135 0
0.181659 0.446479 0
0.215381 0.445823 0
0.249104 0.445167 0
0.282826 0.444511 0
0.316533 0.443854 0
0.350256 0.443198 0
0.383978 0.442542 0
0.4177 0.441886 0
0.451423 0.44123 0
0.48513 0.440574 0
0.518853 0.439918 0
0.552575 0.439261 0
0.586297 0.438605 0
0.62002 0.437949 0
0.653727 0.437293 0
0.687449 0.436637 0
0.721172 0.435981 0
0.754894 0.435325 0
0.788602 0.434669 0
0.822324 0.434012 0
0.856046 0.433356 0
0.889769 0.4327 0
0.923491 0.432044 0
0.957198 0.431388 0
0.990921 0.430732 0
1 0.430076 0
0 0.483268 0
0 0.482612 0
0.0108797 0.481956 0
0.0446021 0.4813 0
0.0783246 0.480644 0
0.112032 0.479988 0
0.145754 0.479332 0
0.179477 0.478676 0
0.213199 0.478019 0
0.246906 0.477363 0
0.280629 0.476707 0
0.314351 0.476051 0
0.348074 0.475395 0
0.381796 0.474739 0
0.415503 0.474083 0
0.449226 0.473426 0
0.482948 0.47277 0
0.51667 0.472114 0
0.550393 0.471458 0
0.5841 0.470802 0
0.617823 0.470146 0
0.651545 0.46949 0
0.685267 0.468833 0
0.71899 0.468162 0
0.752697 0.467506 0
0.786419 0.46685 0
0.820142 0.466194 0
0.853864 0.465537 0
0.887587 0.464881 0
0.921294 0.464225 0
0.955016 0.463569 0
0.988739 0.462913 0
1 0.462257 0
0 0.51545 0
0 0.514794 0
0.00869764 0.514138 0
0.0424048 0.513481 0
0.0761273 0.512825 0
0.10985 0.512169 0
0.143572 0.511513 0
0.177295 0.510857 0
0.211002 0.510201 0
0.244724 0.509544 0
0.278447 0.508888 0
0.312169 0.508232 0
0.345876 0.507576 0
0.379599 0.50692 0
0.413321 0.506264 0
0.447044 0.505608 0
0.480766 0.504952 0
0.514473 0.504295 0
0.548196 0.503639 0
0.581918 0.502983 0
0.615641 0.502327 0
0.649363 0.501671 0
0.68307 0.501015 0
0.716793 0.500359 0
0.750515 0.499702 0
0.784237 0.499046 0
0.81796 0.49839 0
0.851667 0.497734 0
0.88539 0.497078 0
0.919112 0.496422 0
0.952834 0.495766 0
0.986557 0.495109 0
1 0.494453 0
0 0.547646 0
0 0.54699 0
0.00650034 0.546334 0
0.0402228 0.545678 0
0.0739452 0.545022 0
0.107668 0.544366 0
0.141375 0.543709 0
0.175097 0.543053 0
0.20882 0.542397 0
0.242542 0.541741 0
0.276265 0.541085 0
0.309972 0.540429 0
0.343694 0.539773 0
0.377417 0.539117 0
0.411139 0.53846 0
0.444846 0.537804 0
0.478569 0.537133 0
0.512291 0.536477 0
0.546014 0.535821 0
0.579736 0.535164 0
0.613443 0.534508 0
0.647166 0.533852 0
0.680888 0.533196 0
0.714611 0.53254 0
0.748333 0.531884 0
0.78204 0.531228 0
0.815763 0.530571 0
0.849485 0.529915 0
0.883207 0.529259 0
0.91693 0.528603 0
0.950637 0.527947 0
0.98436 0.527291 0
1 0.526635 0
0 0.579828 0
0 0.579171 0
0.0043183 0.578515 0
0.0380407 0.577859 0
0.0717479 0.577203 0
0.10547 0.576547 0
0.139193 0.575891 0
0.172915 0.575235 0
0.206638 0.574578 0
0.240345 0.573922 0
0.274067 0.573266 0
0.30779 0.57261 0
0.341512 0.571954 0
0.375235 0.571298 0
0.408942 0.570642 0
0.442664 0.569986 0
0.476387 0.569329 0
0.510109 0.568673 0
0.543832 0.568017 0
0.577539 0.567361 0
0.611261 0.566705 0
0.644984 0.566049 0
0.678706 0.565393 0
0.712413 0.564736 0
0.746136 0.56408 0
0.779858 0.563424 0
0.813581 0.562768 0
0.847303 0.562112 0
0.88101 0.561456 0
0.914733 0.5608 0
0.948455 0.560143 0
0.982177 0.559487 0
1 0.558831 0
0 0.612024 0
0 0.611368 0
0.002121 0.610712 0
0.0358434 0.610056 0
0.0695659 0.6094 0
0.103288 0.608743 0
0.137011 0.608087 0
0.170718 0.607431 0
0.20444 0.606775 0
0.238163 0.606104 0
0.271885 0.605447 0
0.305608 0.604791 0
0.339315 0.604135 0
0.373037 0.603479 0
0.40676 0.602823 0
0.440482 0.602167 0
0.474205 0.601511 0
0.507912 0.600855 0
0.541634 0.600198 0
0.575357 0.599542 0
0.609079 0.598886 0
0.642802 0.59823 0
0.676509 0.597574 0
0.710231 0.596918 0
0.743954 0.596262 0
0.777676 0.595605 0
0.811399 0.594949 0
0.845106 0.594293 0
0.878828 0.593637 0
0.912551 0.592981 0
0.946273 0.592325 0
0.97998 0.591669 0
1 0.591012 0
0 0.644205 0
0 0.643549 0
0 0.642893 0
0.0336614 0.642237 0
0.0673838 0.641581 0
0.101091 0.640925 0
0.134813 0.640269 0
0.168536 0.639612 0
0.202258 0.638956 0
0.235981 0.6383 0
0.269688 0.637644 0
0.30341 0.636988 0
0.337133 0.636332 0
0.370855 0.635676 0
0.404578 0.635019 0
0.438285 0.634363 0
0.472007 0.633707 0
0.50573 0.633051 0
0.539452 0.632395 0
0.573175 0.631739 0
0.606882 0.631083 0
0.640604 0.630426 0
0.674327 0.62977 0
0.708049 0.629114 0
0.741772 0.628458 0
0.775479 0.627802 0
0.809201 0.627146 0
0.842924 0.62649 0
0.876646 0.625834 0
0.910369 0.625177 0
0.944076 0.624521 0
0.977798 0.623865 0
1 0.623209 0
0 0.676402 0
0 0.675746 0
0 0.67509 0
0.0314794 0.674418 0
0.0651865 0.673762 0
0.098909 0.673106 0
0.132631 0.67245 0
0.166354 0.671794 0
0.200076 0.671138 0
0.233783 0.670481 0
0.267506 0.669825 0
0.301228 0.669169 0
0.334951 0.668513 0
0.368658 0.667857 0
0.40238 0.667201 0
0.436103 0.666545 0
0.469825 0.665888 0
0.503548 0.665232 0
0.537255 0.664576 0
0.570977 0.66392 0
0.6047 0.663264 0
0.638422 0.662608 0
0.672145 0.661952 0
0.705852 0.661295 0
0.739574 0.660639 0
0.773297 0.659983 0
0.807019 0.659327 0
0.840742 0.658671 0
0.874449 0.658015 0
0.908171 0.657359 0
0.941894 0.656703 0
0.975616 0.656046 0
1 0.65539 0
0 0.708583 0
0 0.707927 0
0 0.707271 0
0.0292821 0.706615 0
0.0630045 0.705959 0
0.0967269 0.705303 0
0.130449 0.704646 0
0.164157 0.70399 0
0.197879 0.703334 0
0.231601 0.702678 0
0.265324 0.702022 0
0.299046 0.701366 0
0.332753 0.70071 0
0.366476 0.700053 0
0.400198 0.699397 0
0.433921 0.698741 0
0.467628 0.698085 0
0.50135 0.697429 0
0.535073 0.696773 0
0.568795 0.696117 0
0.602518 0.69546 0
0.636225 0.694804 0
0.669947 0.694148 0
0.70367 0.693492 0
0.737392 0.692836 0
0.771115 0.69218 0
0.804822 0.691524 0
0.838544 0.690867 0
0.872267 0.690196 0
0.905989 0.68954 0
0.939712 0.688884 0
0.973419 0.688228 0
1 0.687572 0
0 0.740764 0
0 0.740108 0
0 0.739452 0
0.0271 0.738796 0
0.0608225 0.73814 0
0.0945296 0.737484 0
0.128252 0.736828 0
0.161975 0.736171 0
0.195697 0.735515 0
0.229419 0.734859 0
0.263127 0.734203 0
0.296849 0.733547 0
0.330571 0.732891 0
0.364294 0.732235 0
0.398016 0.731579 0
0.431724 0.730922 0
0.465446 0.730266 0
0.499168 0.72961 0
0.532891 0.728954 0
0.566613 0.728298 0
0.60032 0.727642 0
0.634043 0.726986 0
0.667765 0.726329 0
0.701488 0.725673 0
0.735195 0.725017 0
0.768917 0.724361 0
0.80264 0.723705 0
0.836362 0.723049 0
0.870085 0.722393 0
0.903792 0.721736 0
0.937514 0.72108 0
0.971237 0.720424 0
1 0.719768 0
0 0.772961 0
0 0.772305 0
0 0.771649 0
0.0249027 0.770993 0
0.0586252 0.770336 0
0.0923476 0.76968 0
0.12607 0.769024 0
0.159792 0.768368 0
0.1935 0.767712 0
0.227222 0.767056 0
0.260945 0.7664 0
0.294667 0.765743 0
0.328389 0.765087 0
0.362097 0.764431 0
0.395819 0.763775 0
0.429541 0.763119 0
0.463264 0.762463 0
0.496986 0.761807 0
0.530694 0.761151 0
0.564416 0.760494 0
0.598138 0.759838 0
0.631861 0.759167 0
0.665583 0.758511 0
0.69929 0.757855 0
0.733013 0.757198 0
0.766735 0.756542 0
0.800458 0.755886 0
0.834165 0.75523 0
0.867887 0.754574 0
0.90161 0.753918 0
0.935332 0.753262 0
0.969055 0.752605 0
1 0.751949 0
0 0.805142 0
0 0.804486 0
0 0.80383 0
0.0227207 0.803174 0
0.0564431 0.802518 0
0.0901656 0.801862 0
0.123873 0.801205 0
0.157595 0.800549 0
0.191318 0.799893 0
0.22504 0.799237 0
0.258762 0.798581 0
0.29247 0.797925 0
0.326192 0.797269 0
0.359915 0.796613 0
0.393637 0.795956 0
0.427359 0.7953 0
0.461067 0.794644 0
0.494789 0.793988 0
0.528511 0.793332 0
0.562234 0.792676 0
0.595956 0.79202 0
0.629664 0.791363 0
0.663386 0.790707 0
0.697108 0.790051 0
0.730831 0.789395 0
0.764553 0.788739 0
0.79826 0.788083 0
0.831983 0.787427 0
0.865705 0.78677 0
0.899428 0.786114 0
0.93315 0.785458 0
0.966857 0.784802 0
1 0.784146 0
0 0.837339 0
0 0.836683 0
0 0.836027 0
0.0205386 0.83537 0
0.0542611 0.834714 0
0.0879683 0.834058 0
0.121691 0.833402 0
0.155413 0.832746 0
0.189136 0.83209 0
0.222858 0.831434 0
0.256565 0.830777 0
0.290288 0.830121 0
0.32401 0.829465 0
0.357733 0.828809 0
0.39144 0.828153 0
0.425162 0.827482 0
0.458885 0.826825 0
0.492607 0.826169 0
0.526329 0.825513 0
0.560037 0.824857 0
0.593759 0.824201 0
0.627482 0.823545 0
0.661204 0.822889 0
0.694926 0.822232 0
0.728634 0.821576 0
0.762356 0.82092 0
0.796078 0.820264 0
0.829801 0.819608 0
0.863523 0.818952 0
0.897231 0.818296 0
0.930953 0.817639 0
0.964675 0.816983 0
0.998398 0.816327 0
0 0.86952 0
0 0.868864 0
0 0.868208 0
0.0183413 0.867552 0
0.0520638 0.866896 0
0.0857862 0.866239 0
0.119509 0.865583 0
0.153231 0.864927 0
0.186938 0.864271 0
