public/LUTS/Cinematic/Cinematic_13.cube
TITLE "Generated by Resolve"
LUT_3D_SIZE 33
0.0688029 0.0594797 0.0594797
0.0784009 0.0605631 0.0606851
0.0888838 0.0626993 0.0627604
0.0998093 0.0645914 0.0644388
0.111421 0.0670634 0.0663462
0.123613 0.0699779 0.0684672
0.136019 0.072755 0.0704356
0.148684 0.075288 0.0730297
0.161486 0.0779431 0.0758068
0.174655 0.0814984 0.0785992
0.188724 0.0852674 0.0821698
0.202731 0.0893873 0.0855421
0.217777 0.0937514 0.0894026
0.232898 0.0988479 0.0935225
0.249042 0.103716 0.0981003
0.266835 0.109209 0.103212
0.282017 0.114122 0.107897
0.297108 0.12018 0.11252
0.313375 0.12546 0.118257
0.330297 0.131792 0.12282
0.347387 0.138628 0.129458
0.365743 0.144656 0.133852
0.384634 0.150774 0.139315
0.404135 0.157198 0.145937
0.423514 0.163119 0.15201
0.445808 0.170779 0.157626
0.467582 0.178119 0.164233
0.487556 0.185245 0.170657
0.508278 0.192828 0.17731
0.528283 0.199985 0.183841
0.545602 0.206699 0.189349
0.555367 0.210681 0.192477
0.555184 0.210513 0.192355
0.0706188 0.0662242 0.0603494
0.0790723 0.0677348 0.0611734
0.0892042 0.0696269 0.0631266
0.10045 0.0715038 0.0646067
0.112871 0.0741588 0.0665904
0.126726 0.0776837 0.0696727
0.139895 0.0811322 0.0724956
0.153613 0.0849928 0.0757
0.168292 0.0884413 0.078645
0.181598 0.0918593 0.0813153
0.196414 0.0961318 0.0850996
0.211414 0.100099 0.08925
0.227329 0.104906 0.0937514
0.243488 0.110323 0.0986496
0.26154 0.116884 0.103716
0.28188 0.12372 0.110445
0.298512 0.12958 0.115023
0.315465 0.136492 0.120607
0.333486 0.142016 0.126131
0.350851 0.148699 0.131426
0.369406 0.155642 0.137728
0.388373 0.16228 0.142535
0.408713 0.169253 0.149142
0.428824 0.176028 0.155993
0.448783 0.18294 0.161837
0.470344 0.19089 0.16791
0.491875 0.198764 0.174548
0.51162 0.206378 0.180911
0.530663 0.21323 0.187427
0.548653 0.219608 0.193606
0.565286 0.226825 0.199268
0.574365 0.230747 0.202258
0.574365 0.230747 0.202258
0.0729381 0.0736095 0.062089
0.0811017 0.0751812 0.0628519
0.0897231 0.0763104 0.0636606
0.100237 0.0780041 0.0647288
0.113405 0.0809186 0.0667277
0.127779 0.084947 0.0699016
0.141939 0.0895552 0.073518
0.156939 0.0943465 0.0772717
0.173281 0.0990921 0.0809033
0.187579 0.103349 0.0843977
0.203113 0.108278 0.0887465
0.219562 0.112474 0.0935836
0.236027 0.118395 0.0985733
0.253529 0.12401 0.104189
0.272038 0.131182 0.10985
0.293065 0.138994 0.116732
0.312154 0.146517 0.122728
0.331487 0.154055 0.129015
0.350179 0.16054 0.134646
0.369436 0.167117 0.140749
0.389563 0.173922 0.146624
0.409934 0.18146 0.152758
0.430518 0.188632 0.159258
0.45034 0.196139 0.165133
0.469184 0.20351 0.17113
0.488838 0.210819 0.178042
0.508888 0.218509 0.184573
0.52726 0.225895 0.190616
0.545159 0.233127 0.196826
0.5617 0.24036 0.202518
0.576776 0.247288 0.20798
0.586877 0.25156 0.211719
0.586618 0.251331 0.211551
0.0754406 0.0829786 0.0636454
0.0839399 0.0845808 0.0644694
0.0919509 0.0853895 0.0652781
0.102556 0.0865187 0.0662394
0.115831 0.0893721 0.068101
0.129671 0.0933852 0.0712291
0.144656 0.098436 0.0749981
0.160525 0.1037 0.0789044
0.177066 0.10898 0.0828412
0.193286 0.115007 0.0873426
0.210269 0.120775 0.0928817
0.22797 0.125795 0.0982986
0.244739 0.133135 0.103822
0.263569 0.139391 0.109697
0.282414 0.14667 0.116564
0.304173 0.155138 0.123461
0.325185 0.162646 0.12987
0.345342 0.170504 0.13637
0.365499 0.178454 0.143038
0.386542 0.185794 0.149432
0.408804 0.193484 0.155871
0.42858 0.200778 0.162493
0.449882 0.208118 0.16846
0.470146 0.215534 0.174441
0.489281 0.222919 0.18117
0.508858 0.230426 0.188403
0.526833 0.237583 0.194629
0.543542 0.244831 0.200397
0.560586 0.252293 0.206256
0.575845 0.259693 0.21178
0.589899 0.26685 0.217395
0.599725 0.271275 0.220539
0.599588 0.271107 0.220386
0.0781109 0.0940108 0.0652476
0.0868696 0.0953994 0.0661784
0.0952621 0.0966659 0.0673533
0.106401 0.0983902 0.0687114
0.120531 0.100893 0.0706798
0.133822 0.104372 0.0737316
0.14876 0.109148 0.0773785
0.164309 0.114626 0.0815137
0.181384 0.120287 0.085893
0.199405 0.127504 0.0912947
0.217975 0.134508 0.0976577
0.235599 0.14078 0.103182
0.254688 0.149111 0.110384
0.274449 0.156008 0.116991
0.294209 0.164828 0.123903
0.317098 0.173098 0.132052
0.339391 0.181399 0.138842
0.35935 0.189853 0.144884
0.381491 0.199313 0.151843
0.403037 0.20708 0.158389
0.425391 0.21474 0.165576
0.445869 0.222141 0.17171
0.467308 0.229892 0.178164
0.487495 0.237476 0.184939
0.506279 0.24477 0.191058
0.524514 0.252323 0.197375
0.542412 0.259556 0.203922
0.558419 0.266987 0.210697
0.572885 0.27422 0.216724
0.588098 0.28159 0.222248
0.600458 0.288045 0.227985
0.610666 0.291142 0.231556
0.610605 0.291035 0.231479
0.0796368 0.103899 0.0667735
0.0891127 0.106386 0.0682231
0.0987564 0.108278 0.0694591
0.110185 0.110842 0.0711986
0.124651 0.113359 0.0736095
0.138415 0.116518 0.0764019
0.15288 0.121477 0.0803388
0.167788 0.127092 0.0845197
0.185657 0.133181 0.0897231
0.203525 0.139666 0.0959793
0.222721 0.147631 0.102235
0.242893 0.156039 0.108812
0.262791 0.1635 0.115877
0.283803 0.172229 0.123796
0.304494 0.181125 0.129717
0.329152 0.190829 0.139483
0.35169 0.200412 0.147509
0.373251 0.208621 0.153857
0.395346 0.218067 0.159915
0.417166 0.226047 0.166537
0.439399 0.233738 0.173648
0.462379 0.241794 0.181231
0.483879 0.250645 0.188556
0.503426 0.259022 0.195377
0.522057 0.266606 0.201541
0.539788 0.274205 0.207935
0.557122 0.281743 0.214801
0.573602 0.289021 0.220737
0.587106 0.2963 0.226154
0.600061 0.30338 0.232715
0.613046 0.310948 0.238743
0.621607 0.316472 0.242374
0.621424 0.316182 0.242145
0.0804761 0.113024 0.0680247
0.091249 0.11754 0.0699779
0.102434 0.120485 0.0719463
0.114275 0.122789 0.0737774
0.128939 0.126421 0.0769513
0.14287 0.130159 0.0803082
0.157382 0.133974 0.0847944
0.171817 0.139315 0.0888228
0.188983 0.14641 0.0938582
0.207172 0.153262 0.10045
0.22884 0.162615 0.107774
0.249134 0.170428 0.113115
0.271229 0.177737 0.120516
0.291157 0.187976 0.127916
0.313558 0.196841 0.135378
0.339498 0.207385 0.145678
0.36257 0.217456 0.153979
0.384604 0.226429 0.161639
0.407416 0.236011 0.1691
0.430304 0.244282 0.176608
0.453162 0.252155 0.18378
0.475593 0.261387 0.190829
0.4963 0.270344 0.198123
0.515526 0.279072 0.204807
0.533867 0.287678 0.211215
0.551705 0.295995 0.21825
0.568627 0.30399 0.225238
0.58407 0.311467 0.231937
0.598642 0.319005 0.238285
0.612131 0.326177 0.243503
0.623575 0.333425 0.249546
0.632441 0.33872 0.253223
0.632303 0.338521 0.253071
0.0821851 0.122377 0.0699168
0.0934157 0.126726 0.0723278
0.105623 0.131319 0.0745251
0.11751 0.135103 0.076936
0.133059 0.139559 0.0808423
0.14815 0.14316 0.0845808
0.162829 0.14667 0.0886244
0.176547 0.151217 0.0927901
0.193271 0.158526 0.0981918
0.21236 0.166247 0.104875
0.232212 0.175204 0.11223
0.25481 0.184787 0.119554
0.277394 0.192889 0.127169
0.300465 0.20322 0.134829
0.323095 0.211887 0.142351
0.347143 0.222568 0.150668
0.371664 0.233417 0.159442
0.39556 0.24448 0.168215
0.418494 0.25359 0.17612
0.44097 0.262989 0.183581
0.464668 0.271153 0.190814
0.487083 0.280232 0.19823
0.508003 0.289158 0.205783
0.527352 0.296803 0.213107
0.54522 0.305943 0.220539
0.562707 0.316136 0.227909
0.57998 0.32575 0.235462
0.594644 0.333837 0.242023
0.608957 0.341543 0.247623
0.622858 0.34876 0.254398
0.63418 0.355993 0.260685
0.643732 0.36228 0.264332
0.643503 0.361929 0.264103
0.0831922 0.131258 0.0710155
0.0949569 0.13727 0.0744945
0.108965 0.143145 0.07776
0.122103 0.147219 0.0804303
0.137545 0.153292 0.0845045
0.153094 0.157427 0.0889906
0.169512 0.161852 0.0944991
0.183368 0.166659 0.0990311
0.199268 0.172244 0.103578
0.216327 0.180026 0.110491
0.238041 0.188647 0.117739
0.260807 0.199084 0.1243
0.284367 0.210117 0.133822
0.306645 0.219669 0.141512
0.330297 0.229404 0.14934
0.356146 0.240345 0.157336
0.38146 0.251377 0.167102
0.405264 0.262303 0.175647
0.429465 0.27277 0.183536
0.452552 0.28217 0.190982
0.476097 0.292073 0.199023
0.497688 0.300435 0.206638
0.517906 0.309239 0.214054
0.537148 0.318074 0.221363
0.555062 0.326741 0.228733
0.573007 0.33753 0.237095
0.59028 0.347417 0.245701
0.604944 0.356191 0.25301
0.619058 0.365881 0.260044
0.633371 0.374029 0.266972
0.644663 0.383429 0.272374
0.654582 0.389883 0.278218
0.654414 0.389639 0.27805
0.0840162 0.141192 0.0730602
0.0964981 0.146624 0.0757916
0.111299 0.153567 0.0799268
0.125383 0.158816 0.0837415
0.142092 0.165774 0.0885023
0.158419 0.172488 0.0941176
0.17612 0.177295 0.0994888
0.190829 0.181659 0.103532
0.206394 0.188006 0.110231
0.222446 0.19295 0.114733
0.244129 0.202731 0.122179
0.265202 0.212177 0.129946
0.289357 0.22472 0.138033
0.31368 0.236545 0.146761
0.338323 0.246311 0.156313
0.365316 0.258457 0.165026
0.390661 0.269764 0.174334
0.414527 0.280171 0.1832
0.440192 0.291295 0.191394
0.464057 0.301198 0.199435
0.486427 0.310246 0.207843
0.507759 0.32018 0.215946
0.527596 0.329702 0.223575
0.546914 0.339483 0.23151
0.564614 0.349325 0.238819
0.582681 0.359106 0.24683
0.600107 0.369696 0.255909
0.615137 0.37882 0.263676
0.629007 0.38851 0.271214
0.642054 0.397269 0.278096
0.654871 0.408072 0.283299
0.665339 0.416327 0.289876
0.665248 0.416205 0.289784
0.0856184 0.149462 0.0739147
0.0980697 0.156191 0.0779583
0.114061 0.165805 0.0831769
0.128344 0.172473 0.0874495
0.145586 0.180621 0.093492
0.164187 0.188022 0.0991226
0.182956 0.194369 0.10573
0.197436 0.198657 0.110369
0.215228 0.206088 0.117189
0.231357 0.210636 0.121614
0.250309 0.217884 0.128145
0.270726 0.227695 0.136339
0.295796 0.239475 0.144625
0.320043 0.251469 0.152743
0.344762 0.263859 0.162661
0.372839 0.276585 0.173327
0.399893 0.289296 0.182177
0.425269 0.300832 0.191928
0.450217 0.310933 0.200595
0.473732 0.320653 0.208011
0.496345 0.33077 0.216541
0.51838 0.341619 0.22565
0.538476 0.35169 0.233738
0.557061 0.361181 0.241443
0.575006 0.372 0.249805
0.592676 0.383108 0.258473
0.60972 0.394125 0.266957
0.624796 0.40296 0.275151
0.639048 0.41326 0.282551
0.651713 0.423178 0.289693
0.665248 0.433005 0.296559
0.675975 0.442252 0.303487
0.675792 0.441962 0.303304
0.0869001 0.160052 0.0769207
0.0997787 0.167193 0.0812238
0.117372 0.177722 0.0861677
0.132235 0.184741 0.0914931
0.150927 0.194461 0.0982986
0.168658 0.202792 0.105333
0.188418 0.210468 0.112184
0.206241 0.216785 0.117342
0.224231 0.222431 0.124651
0.241016 0.229221 0.129274
0.259602 0.236378 0.135805
0.277638 0.244114 0.142031
0.30132 0.254688 0.150851
0.325765 0.266102 0.15903
0.350347 0.279347 0.169009
0.379232 0.293034 0.179522
0.406729 0.306096 0.18938
0.432563 0.318456 0.199145
0.458335 0.329702 0.208667
0.483192 0.341024 0.218006
0.50634 0.351888 0.226688
0.527871 0.362325 0.234638
0.547692 0.372625 0.242802
0.566659 0.382696 0.251637
0.584833 0.393942 0.260288
0.602548 0.405249 0.268727
0.619196 0.417304 0.278279
0.634211 0.42742 0.285954
0.648081 0.438346 0.293629
0.661784 0.448005 0.302205
0.673884 0.458274 0.308278
0.685054 0.468589 0.315648
0.68481 0.468116 0.315404
0.0893873 0.170809 0.0786603
0.101839 0.177508 0.0832685
0.118761 0.188815 0.0917525
0.135683 0.197971 0.0972915
0.157214 0.209796 0.105379
0.175402 0.219898 0.112612
0.195804 0.227176 0.120211
0.21326 0.234394 0.124498
0.233799 0.2421 0.131777
0.250858 0.249119 0.138491
0.269398 0.256336 0.143679
0.286717 0.264118 0.150118
0.307591 0.272251 0.157778
0.331777 0.283177 0.165667
0.357229 0.296483 0.175708
0.38555 0.309895 0.186496
0.413245 0.32285 0.196567
0.439628 0.336492 0.206806
0.466377 0.349935 0.217517
0.491402 0.362005 0.22739
0.515206 0.37348 0.23653
0.537163 0.38407 0.244999
0.557183 0.39498 0.253925
0.576562 0.405753 0.262806
0.593896 0.41619 0.270771
0.611521 0.428046 0.279728
0.628779 0.441154 0.289219
0.644144 0.452415 0.297719
0.65742 0.463508 0.305455
0.670924 0.473487 0.313619
0.683055 0.484352 0.319844
0.694377 0.49546 0.327352
0.694667 0.495613 0.327474
0.0920272 0.181827 0.081529
0.103197 0.187915 0.0862593
0.121782 0.20087 0.0955062
0.140429 0.212543 0.101946
0.163455 0.226642 0.111879
0.183536 0.236606 0.119738
0.203494 0.245853 0.12726
0.222156 0.254505 0.13402
0.241901 0.262348 0.140078
0.260441 0.269627 0.147204
0.279149 0.276707 0.152972
0.297749 0.284413 0.158999
0.317082 0.292805 0.166018
0.33814 0.302068 0.173373
0.362875 0.313268 0.182452
0.39205 0.328008 0.19382
0.421271 0.341985 0.204562
0.448203 0.355535 0.214923
0.474723 0.369757 0.225498
0.500053 0.382483 0.235447
0.523903 0.394217 0.245716
0.546365 0.405875 0.255451
0.56669 0.417868 0.264454
0.58558 0.428824 0.273548
0.603372 0.440024 0.281941
0.620706 0.452216 0.291798
0.638468 0.465034 0.300587
0.65301 0.476509 0.309895
0.666758 0.487907 0.316594
0.680018 0.499092 0.324742
0.692546 0.510521 0.331563
0.704311 0.52137 0.33875
0.705211 0.522164 0.339284
0.0950942 0.193103 0.0848554
0.106111 0.200443 0.089601
0.12491 0.214328 0.0988632
0.144411 0.226352 0.106706
0.170123 0.243885 0.118624
0.190494 0.255207 0.12665
0.212406 0.266392 0.134997
0.231617 0.274769 0.141939
0.252766 0.284031 0.149172
0.27129 0.292073 0.156191
0.290517 0.299626 0.163119
0.309117 0.306783 0.168872
0.328466 0.314183 0.174884
0.348882 0.323522 0.182544
0.371237 0.332921 0.190921
0.399298 0.346548 0.201266
0.429114 0.361837 0.212451
0.456046 0.37554 0.223087
0.482979 0.389654 0.23389
0.509575 0.403128 0.244648
0.532601 0.415045 0.255268
0.554528 0.427359 0.26566
0.574975 0.440146 0.274556
0.595041 0.452583 0.28423
0.612726 0.465034 0.29305
0.629786 0.476249 0.302602
0.648112 0.489647 0.311498
0.661997 0.500847 0.320424
0.676036 0.5131 0.327367
0.689906 0.523842 0.336034
0.701534 0.534524 0.342214
0.713695 0.546181 0.349401
0.71519 0.54757 0.350286
0.100069 0.207752 0.0898909
0.111513 0.214435 0.0950637
0.130587 0.229755 0.103395
0.150088 0.243198 0.111727
0.176913 0.262837 0.125536
0.199481 0.276905 0.135744
0.222507 0.289006 0.144823
0.242435 0.298573 0.152148
0.264302 0.307927 0.15993
0.283803 0.317342 0.167163
0.303868 0.324971 0.174319
0.321645 0.331731 0.179431
0.341222 0.338903 0.185443
0.362158 0.34786 0.193057
0.383429 0.356756 0.201266
0.407889 0.367681 0.210513
0.435599 0.381415 0.22092
0.464698 0.39675 0.232486
0.492332 0.410941 0.24358
0.518425 0.42472 0.254597
0.541543 0.43772 0.265476
0.563012 0.449928 0.275883
0.583703 0.463569 0.285435
0.603891 0.47567 0.294377
0.621469 0.489113 0.303426
0.639323 0.500923 0.312978
0.65687 0.515694 0.321935
0.672084 0.526665 0.330129
0.684855 0.537636 0.337697
0.698543 0.548547 0.345983
0.710124 0.558145 0.35259
0.722774 0.57026 0.359915
0.724697 0.572015 0.360998
0.104173 0.220676 0.0950027
0.116945 0.228611 0.0999161
0.137209 0.245823 0.109667
0.156603 0.258824 0.117723
0.183398 0.279988 0.13228
0.208774 0.296513 0.144121
0.233204 0.311498 0.154467
0.254047 0.322377 0.162676
0.275227 0.332204 0.170687
0.2963 0.342107 0.178119
0.317739 0.351171 0.18616
0.33576 0.35816 0.191531
0.354192 0.364752 0.197299
0.374929 0.372824 0.204456
0.396475 0.381018 0.21207
0.419471 0.390921 0.221073
0.443839 0.402335 0.23032
0.471412 0.415732 0.240452
0.500679 0.431434 0.252445
0.527398 0.446632 0.2645
0.551125 0.461112 0.275822
0.572625 0.473823 0.286229
0.592508 0.486244 0.295415
0.61236 0.498482 0.304601
0.630579 0.511955 0.313802
0.648737 0.524575 0.323476
0.664622 0.539269 0.332067
0.680934 0.550195 0.34049
0.693538 0.561044 0.347555
0.705852 0.571527 0.355337
0.717266 0.581399 0.36202
0.730831 0.592325 0.369314
0.733455 0.594247 0.370672
0.109712 0.234119 0.0996262
0.123156 0.244404 0.10547
0.1449 0.261952 0.116533
0.163531 0.275776 0.12546
0.19089 0.297444 0.139223
0.217716 0.316091 0.152071
0.243183 0.333211 0.163622
0.265431 0.3458 0.172869
0.286839 0.356558 0.180896
0.30959 0.367742 0.189151
0.331151 0.377295 0.197574
0.34992 0.384344 0.203449
0.368353 0.390921 0.209384
0.388281 0.398596 0.21651
0.409857 0.406287 0.223804
0.432151 0.414801 0.231571
0.45449 0.424369 0.239689
0.478325 0.434989 0.248524
0.506798 0.450324 0.260334
0.535225 0.466773 0.273411
0.559365 0.481498 0.28481
0.58172 0.496056 0.295476
0.601785 0.50782 0.30518
0.620432 0.519814 0.314199
0.638605 0.532891 0.32282
0.656626 0.545312 0.333089
0.672892 0.559243 0.34078
0.688731 0.571008 0.349935
0.70016 0.581521 0.356176
0.71313 0.589868 0.363943
0.723735 0.599649 0.369207
0.736507 0.610376 0.376074
0.73991 0.613169 0.377951
0.115434 0.24828 0.104753
0.130877 0.259937 0.112291
0.153292 0.279026 0.123339
0.172381 0.295186 0.134142
0.199374 0.317449 0.146532
0.226856 0.33698 0.160204
0.253132 0.355825 0.172793
0.277012 0.370474 0.183108
0.30016 0.382712 0.192309
0.322652 0.393927 0.200824
0.344366 0.403403 0.20882
0.364508 0.411246 0.215457
0.383658 0.418433 0.22211
0.402899 0.42565 0.229404
0.422827 0.432059 0.236271
0.444724 0.440131 0.243534
0.467613 0.450019 0.251545
0.489738 0.458701 0.259983
0.513512 0.470085 0.269306
0.540764 0.485466 0.28098
0.565393 0.500252 0.292668
0.590188 0.515694 0.303685
0.610315 0.528328 0.313664
0.628748 0.54052 0.32285
0.645014 0.5514 0.330312
0.663325 0.564965 0.340612
0.679683 0.577478 0.348653
0.694728 0.588907 0.356832
0.706554 0.598688 0.363851
0.718135 0.607904 0.370764
0.729595 0.616648 0.376257
0.741253 0.626566 0.382971
0.744396 0.629099 0.384848
0.121935 0.263401 0.111513
0.138796 0.2766 0.119371
0.162402 0.298131 0.13167
0.182193 0.314656 0.142672
0.208911 0.338048 0.155459
0.237613 0.359335 0.169085
0.264759 0.379507 0.182147
0.289067 0.395651 0.193057
0.312734 0.40827 0.203586
0.335805 0.420554 0.213214
0.358526 0.43122 0.221622
0.378378 0.438224 0.228794
0.397406 0.445029 0.235721
0.416876 0.451469 0.2421
0.436896 0.457984 0.249042
0.457938 0.465751 0.256489
0.480323 0.47509 0.263844
0.502434 0.484016 0.271595
0.524102 0.492561 0.279652
0.547143 0.504463 0.290135
0.571389 0.519356 0.30135
0.596872 0.534249 0.312322
0.617243 0.546914 0.321706
0.635111 0.560281 0.331518
0.652033 0.571389 0.339284
0.669306 0.58114 0.347326
0.685328 0.594263 0.355215
0.700603 0.605051 0.362799
0.712627 0.614694 0.370169
0.724193 0.624292 0.37734
0.735195 0.633051 0.382895
0.746303 0.642527 0.388724
0.749874 0.645716 0.390646
0.130297 0.279881 0.118578
0.145708 0.295125 0.126314
0.171633 0.317403 0.14023
0.192889 0.336049 0.151492
0.22031 0.360235 0.166339
0.249592 0.384192 0.17995
0.276967 0.404288 0.192752
0.301045 0.421042 0.204211
0.325628 0.435599 0.215274
0.349645 0.449088 0.225589
0.371649 0.459434 0.234531
0.392126 0.466957 0.242466
0.411582 0.472679 0.24828
0.432197 0.479606 0.253986
0.451225 0.486076 0.260563
0.470924 0.4925 0.267659
0.492943 0.49958 0.275135
0.514855 0.508186 0.283375
0.535714 0.516075 0.291112
0.557504 0.526528 0.300267
0.577142 0.537194 0.307958
0.602167 0.550774 0.318669
0.623056 0.563943 0.32845
0.642084 0.578317 0.339239
0.658274 0.588037 0.347036
0.675029 0.598245 0.354421
0.689021 0.609155 0.361715
0.704234 0.620508 0.369314
0.715969 0.62884 0.376623
0.728252 0.638056 0.381674
0.73872 0.646876 0.387762
0.749584 0.655146 0.395056
0.753521 0.657832 0.397589
0.137728 0.298528 0.126253
0.154208 0.314305 0.134203
0.181735 0.338323 0.148562
0.205264 0.359106 0.160861
0.231754 0.383795 0.175982
0.260197 0.408667 0.190951
0.288899 0.430564 0.204364
0.314672 0.448692 0.216571
0.339132 0.464271 0.227512
0.36318 0.477531 0.237369
0.385901 0.488136 0.246998
0.407126 0.496834 0.255436
0.426932 0.503563 0.261234
0.446571 0.509285 0.267033
0.465446 0.514153 0.273899
0.485252 0.51986 0.280812
0.506783 0.525963 0.288228
0.527108 0.531884 0.295186
0.547158 0.540002 0.303014
0.569223 0.549569 0.310369
0.588861 0.558068 0.317876
0.606012 0.566857 0.325154
0.627741 0.579736 0.334524
0.647395 0.592065 0.345022
0.663905 0.604776 0.353552
0.681132 0.615961 0.36202
0.694804 0.625132 0.368704
0.708064 0.634409 0.375784
0.719936 0.642588 0.380819
0.731456 0.650294 0.387076
0.741634 0.658 0.392676
0.752209 0.667353 0.398489
0.756649 0.671366 0.400961
0.147616 0.322026 0.135821
0.165911 0.338308 0.144656
0.193286 0.362081 0.160052
0.217762 0.385077 0.172824
0.244297 0.409842 0.186984
0.273396 0.435874 0.202045
0.302556 0.458747 0.216327
0.328237 0.476387 0.228717
0.352483 0.490822 0.239506
0.376852 0.503975 0.2495
0.400275 0.515053 0.25861
0.421653 0.523766 0.266636
0.441184 0.5308 0.273411
0.460563 0.535912 0.279408
0.48043 0.540261 0.286183
0.498604 0.544259 0.292439
0.518822 0.549966 0.298528
0.537865 0.55552 0.304234
0.555673 0.561028 0.310918
0.577127 0.570275 0.319097
0.596124 0.57731 0.326299
0.614313 0.585946 0.333669
0.63003 0.591928 0.340215
0.649744 0.605463 0.349203
0.667323 0.616449 0.357427
0.68423 0.627039 0.367239
0.698283 0.637537 0.375051
0.712367 0.646296 0.380529
0.723476 0.654063 0.38645
0.734325 0.661646 0.39147
0.743511 0.668818 0.39588
0.753567 0.677119 0.40206
0.758724 0.681224 0.405371
0.159258 0.346716 0.1467
0.176699 0.364218 0.155337
0.203357 0.387579 0.169924
0.229557 0.412985 0.184024
0.257282 0.436881 0.198657
0.286732 0.462989 0.214588
0.315404 0.486 0.228428
0.341802 0.504784 0.241413
0.366476 0.519768 0.252186
0.390936 0.531792 0.261311
0.41413 0.542153 0.270527
0.435019 0.550668 0.278264
0.455894 0.557977 0.285634
0.476234 0.563561 0.292134
0.494697 0.567041 0.298207
0.512489 0.570825 0.30396
0.532296 0.575326 0.30956
0.550698 0.579202 0.316121
0.567941 0.584802 0.321782
0.586709 0.590478 0.327764
0.604669 0.597467 0.335546
0.621637 0.604791 0.342321
0.637232 0.610925 0.348287
0.652399 0.6168 0.352773
0.668193 0.627497 0.362417
0.684932 0.638422 0.37084
0.700694 0.648737 0.378576
0.71519 0.658656 0.38558
0.72639 0.666072 0.390829
0.73698 0.672999 0.39498
0.746349 0.679454 0.400412
0.755978 0.686549 0.406149
0.761273 0.69041 0.408698
0.174517 0.377188 0.160174
0.190967 0.394659 0.168383
0.217136 0.418479 0.181689
0.244297 0.442832 0.196521
0.271351 0.464927 0.211109
0.299779 0.488365 0.225666
0.328359 0.511833 0.239475
0.354269 0.529885 0.251881
0.3794 0.543526 0.26305
0.403525 0.555611 0.272496
0.426093 0.566415 0.281193
0.448447 0.57409 0.289357
0.469169 0.58114 0.296635
0.488533 0.586908 0.303288
0.507774 0.590631 0.309331
0.525902 0.594354 0.314397
0.544747 0.598459 0.32108
0.5626 0.601678 0.326116
0.578088 0.605188 0.332036
0.596628 0.610452 0.336706
0.612757 0.616388 0.343816
0.629282 0.623331 0.350774
0.643397 0.62742 0.355291
0.65716 0.632395 0.359731
0.669871 0.638132 0.364874
0.685649 0.647562 0.373465
0.701183 0.658335 0.381537
0.715389 0.667628 0.38819
0.727352 0.675135 0.393835
0.738613 0.682612 0.39852
0.748547 0.688823 0.403891
0.757458 0.695201 0.409491
0.761929 0.698863 0.411826
0.188525 0.408118 0.17438
0.20795 0.426764 0.182727
0.232074 0.448966 0.195377
0.258625 0.472816 0.210346
0.286534 0.495048 0.224765
0.314672 0.51783 0.2383
0.341955 0.538338 0.251133
0.368063 0.556039 0.263554
0.392767 0.570123 0.274037
0.416999 0.581155 0.283055
0.439429 0.591073 0.292073
0.461402 0.598795 0.300526
0.48246 0.605768 0.308019
0.502739 0.611826 0.314199
0.521843 0.615793 0.32047
0.53994 0.618967 0.326314
0.558465 0.622278 0.332158
0.575601 0.625605 0.337957
0.591257 0.628382 0.34287
0.606607 0.631235 0.347143
0.62208 0.635874 0.353719
0.637278 0.640894 0.358312
0.651209 0.644862 0.362921
0.663508 0.648966 0.367788
0.674846 0.652537 0.37229
0.687129 0.656626 0.377584
0.701793 0.665583 0.383734
0.715267 0.674739 0.389929
0.727764 0.682353 0.395682
0.739437 0.689601 0.400854
0.749218 0.696666 0.406241
0.758572 0.703655 0.411856
0.764126 0.707561 0.414862
0.20531 0.443778 0.190768
0.224918 0.463767 0.199619
0.24892 0.484749 0.212284
0.275639 0.50721 0.225605
0.302129 0.526604 0.237491
0.329366 0.54609 0.250202
0.35697 0.565515 0.263188
0.382376 0.582132 0.274769
0.405798 0.59559 0.284901
0.429404 0.604898 0.293965
0.452674 0.61384 0.302815
0.474479 0.621424 0.310704
0.495048 0.629297 0.318364
0.516213 0.634455 0.325231
0.534798 0.638544 0.331365
0.552666 0.64152 0.336492
0.571176 0.645151 0.342794
0.58819 0.648203 0.347906
0.602975 0.64979 0.353185
0.617945 0.652415 0.357137
0.630869 0.654353 0.361761
0.645838 0.658061 0.365896
0.658473 0.661433 0.370031
0.669978 0.664851 0.374731
0.681071 0.667506 0.378317
0.690898 0.669703 0.381979
0.702403 0.674174 0.386099
0.715297 0.681285 0.391974
0.727642 0.688685 0.397375
0.739361 0.696086 0.402228
0.749355 0.703548 0.407813
0.758694 0.710491 0.413931
0.765057 0.714351 0.417838
