public/LUTS/Cinematic/Cinematic_07.cube
TITLE "Generated by Resolve"
LUT_3D_SIZE 5
0 0.000335698 0.0164645
0.245869 0 0.0112154
0.515633 0 0.00596628
0.785382 0 0.000701915
1 0 0
0 0.257816 0
0.228382 0.252567 0
0.498131 0.247318 0
0.76788 0.242069 0
1 0.23682 0
0 0.515328 0
0.21088 0.510079 0
0.480629 0.504814 0
0.750378 0.499565 0
1 0.494316 0
0 0.772824 0
0.193378 0.767575 0
0.463127 0.762325 0
0.732876 0.757076 0
1 0.751827 0
0 1 0
0.175875 1 0
0.445624 1 0
0.715389 1 0
0.985138 1 0
0 0 0.289204
0.243626 0 0.28394
0.513375 0 0.278691
0.783139 0 0.273442
1 0 0.268193
0 0.255573 0.271702
0.226123 0.250324 0.266453
0.495872 0.24506 0.261204
0.765637 0.239811 0.25594
1 0.234562 0.25069
0 0.513069 0.2542
0.208621 0.50782 0.248951
0.478386 0.502571 0.243702
0.748135 0.497322 0.238453
1 0.492073 0.233188
0 0.770581 0.236698
0.191119 0.765332 0.231449
0.460883 0.760082 0.2262
0.730632 0.754818 0.220951
1 0.749569 0.215702
0 1 0.219196
0.173617 1 0.213947
0.443381 1 0.208698
0.71313 1 0.203449
0.982879 1 0.198199
0 0 0.561959
0.241367 0 0.556695
0.511131 0 0.551446
0.78088 0 0.546197
1 0 0.540948
0 0.253315 0.544457
0.22388 0.248066 0.539208
0.493629 0.242817 0.533959
0.763378 0.237568 0.528695
1 0.232319 0.523445
0 0.510826 0.526955
0.206378 0.505577 0.521706
0.476127 0.500328 0.516457
0.745876 0.495064 0.511208
1 0.489815 0.505943
0 0.768322 0.509453
0.188876 0.763073 0.504204
0.458625 0.757824 0.498955
0.728389 0.752575 0.493706
0.998138 0.747326 0.488457
0 1 0.491951
0.171374 1 0.486702
0.441123 1 0.481453
0.710887 1 0.476204
0.980636 1 0.470954
0 0 0.834714
0.239124 0 0.829465
0.508873 0 0.824201
0.778637 0 0.818952
1 0 0.813703
0 0.251072 0.817212
0.221622 0.245823 0.811963
0.491386 0.240574 0.806714
0.761135 0.235325 0.80145
1 0.23006 0.796201
0 0.508568 0.79971
0.20412 0.503319 0.794461
0.473884 0.49807 0.789212
0.743633 0.492821 0.783963
1 0.487572 0.778698
0 0.766079 0.782208
0.186618 0.76083 0.776959
0.456382 0.755581 0.77171
0.726131 0.750332 0.766461
0.99588 0.745068 0.761212
0 1 0.764706
0.169131 1 0.759457
0.43888 1 0.754208
0.708629 1 0.748959
0.978393 1 0.743709
0 0 1
0.236881 0 1
0.50663 0 1
0.776379 0 1
1 0 1
0 0.248829 1
0.219379 0.243565 1
0.489128 0.238315 1
0.758877 0.233066 1
1 0.227817 1
0 0.506325 1
0.201877 0.501076 1
0.471626 0.495827 1
0.74139 0.490578 1
1 0.485328 1
0 0.763836 1
0.184375 0.758587 1
0.454124 0.753323 1
0.723888 0.748074 1
0.993637 0.742824 1
0 1 1
0.166873 1 1
0.436622 1 1
0.706386 1 1
0.976135 1 1
