public/LUTS/Cinematic/Cinematic_21.cube
TITLE "Generated by Resolve"
LUT_3D_SIZE 33
0.0552529 0.0821393 0.0895247
0.0621347 0.0813458 0.0873121
0.0706035 0.0806287 0.0843366
0.0823224 0.0828107 0.083772
0.0969863 0.0893568 0.0881514
0.114794 0.0966201 0.0923323
0.135302 0.102693 0.0940719
0.157214 0.107515 0.0936446
0.182834 0.109041 0.0865644
0.213123 0.107362 0.071397
0.244388 0.106783 0.0533761
0.280537 0.104585 0.044419
0.321065 0.107286 0.046479
0.370459 0.114702 0.0526894
0.426017 0.12163 0.0610208
0.483589 0.128054 0.0700694
0.540429 0.135424 0.0793164
0.593469 0.146929 0.0885939
0.641917 0.161791 0.0975357
0.685725 0.178973 0.106004
0.72401 0.199756 0.114
0.757839 0.21973 0.121202
0.787198 0.239124 0.12784
0.813336 0.258152 0.133989
0.837674 0.276448 0.139803
0.860899 0.298985 0.145892
0.885069 0.322133 0.152087
0.909377 0.347112 0.158648
0.910872 0.369192 0.161227
0.911162 0.393072 0.164004
0.911559 0.41648 0.166827
0.911803 0.434195 0.169116
0.911803 0.434806 0.169207
0.0553445 0.0831311 0.0878614
0.0626841 0.0831006 0.0877546
0.071397 0.0827192 0.0854047
0.0835584 0.0856336 0.0858473
0.100298 0.0912947 0.0882887
0.12015 0.0969863 0.0897688
0.142809 0.099733 0.0859388
0.166186 0.102083 0.079942
0.189227 0.107118 0.0745861
0.217121 0.109682 0.0608072
0.245975 0.113451 0.0475471
0.278126 0.117632 0.042298
0.318608 0.122194 0.0467079
0.368856 0.129625 0.053727
0.424979 0.136843 0.0621347
0.482689 0.143572 0.0710918
0.540429 0.149615 0.0803235
0.595315 0.155505 0.0894942
0.646433 0.161624 0.0982834
0.691432 0.170977 0.106386
0.730129 0.183215 0.113787
0.761975 0.203433 0.120699
0.789242 0.228046 0.127321
0.814115 0.251942 0.133623
0.837644 0.275319 0.139712
0.860929 0.297261 0.145739
0.884764 0.32105 0.151934
0.90927 0.34612 0.158526
0.910857 0.369726 0.161273
0.911162 0.391882 0.163851
0.911559 0.417044 0.166918
0.911788 0.433783 0.169055
0.911803 0.434806 0.169207
0.0552987 0.0858625 0.0870222
0.062562 0.0860304 0.0867933
0.0724346 0.0861982 0.0864118
0.0860609 0.0883192 0.0852827
0.102464 0.0940414 0.086244
0.121614 0.100435 0.0871443
0.142275 0.106188 0.0864729
0.164218 0.110307 0.0828412
0.187961 0.115023 0.0775006
0.214527 0.119722 0.0686503
0.243183 0.123857 0.0563363
0.275013 0.12929 0.0460975
0.315084 0.135592 0.0475624
0.365942 0.144594 0.0547036
0.422843 0.152972 0.0632639
0.481895 0.159884 0.072343
0.540093 0.166247 0.0816205
0.595529 0.172488 0.0907912
0.646723 0.178592 0.0995499
0.692317 0.184512 0.107485
0.73228 0.190646 0.114687
0.766033 0.198749 0.12108
0.794385 0.211643 0.126986
0.817868 0.236866 0.133013
0.840345 0.262211 0.138979
0.862989 0.286778 0.145113
0.886519 0.311452 0.151369
0.9093 0.337591 0.157687
0.91075 0.361547 0.160403
0.911055 0.385855 0.163165
0.911437 0.410727 0.16611
0.911757 0.430411 0.168597
0.911788 0.432044 0.168795
0.0549477 0.0990768 0.0928206
0.062974 0.0978866 0.0910811
0.0735485 0.0961929 0.0896162
0.0858625 0.0968795 0.0886702
0.102296 0.0983597 0.0867018
0.120897 0.104448 0.0883955
0.141085 0.110491 0.0886091
0.162493 0.115862 0.0867628
0.186969 0.119997 0.0818189
0.214786 0.123461 0.0724193
0.244297 0.127153 0.0598154
0.276951 0.132555 0.0485389
0.317861 0.139528 0.0484016
0.370352 0.148241 0.0556802
0.428611 0.15639 0.0643778
0.48806 0.164111 0.07364
0.546456 0.171664 0.0830549
0.601083 0.178683 0.0922255
0.651392 0.185382 0.100786
0.695979 0.192142 0.108659
0.734997 0.198474 0.11574
0.768383 0.205524 0.121935
0.796643 0.214389 0.127565
0.821195 0.230686 0.133135
0.8439 0.253468 0.138888
0.866117 0.27808 0.144869
0.889052 0.304082 0.15108
0.909499 0.330861 0.157061
0.910628 0.355428 0.159701
0.910979 0.380346 0.162524
0.91136 0.405615 0.165484
0.911681 0.425513 0.167956
0.911696 0.427192 0.168185
0.0556649 0.112352 0.0975814
0.0644083 0.110109 0.0950332
0.0750896 0.108049 0.0935073
0.0855421 0.109529 0.0945144
0.101793 0.108507 0.0903182
0.121019 0.109148 0.0888685
0.14107 0.115663 0.090425
0.162264 0.121477 0.0889754
0.186831 0.126116 0.0839399
0.215106 0.12987 0.0746166
0.246128 0.132723 0.0612192
0.280201 0.137377 0.0496223
0.321782 0.144228 0.0493019
0.376028 0.152453 0.0568704
0.435935 0.160616 0.0658274
0.49601 0.168917 0.0752117
0.554223 0.177188 0.0847181
0.608454 0.185046 0.0938888
0.657755 0.192615 0.102403
0.701091 0.200214 0.11014
0.738994 0.207385 0.117082
0.770947 0.216098 0.123171
0.798596 0.226535 0.128786
0.823316 0.238727 0.134112
0.846738 0.254597 0.139483
0.869642 0.27245 0.144976
0.892683 0.295735 0.150927
0.909728 0.322911 0.156313
0.910582 0.348486 0.158999
0.910887 0.374121 0.161807
0.911284 0.400061 0.164858
0.911589 0.419989 0.167239
0.91162 0.421698 0.167483
0.0566415 0.124224 0.101305
0.0659342 0.122026 0.0986191
0.0767376 0.120104 0.0971847
0.0860304 0.121233 0.0985275
0.0999313 0.125719 0.100801
0.119768 0.120638 0.0928359
0.141512 0.121126 0.0916609
0.163272 0.126574 0.0912032
0.188113 0.131655 0.0864881
0.216464 0.136355 0.0775616
0.246983 0.141024 0.0651102
0.281086 0.147158 0.0537728
0.323293 0.155993 0.0510719
0.378271 0.166445 0.0586557
0.438605 0.176303 0.0677653
0.500343 0.185 0.0773785
0.559518 0.19324 0.0870069
0.614298 0.201373 0.0962539
0.662898 0.20914 0.10457
0.705715 0.217273 0.112306
0.742336 0.225483 0.119051
0.773587 0.23447 0.125124
0.800702 0.244419 0.130617
0.825025 0.256199 0.135821
0.848234 0.26978 0.141039
0.871077 0.285664 0.146349
0.894911 0.303899 0.152041
0.909987 0.322454 0.156313
0.910491 0.342519 0.158373
0.91078 0.367285 0.161028
0.911147 0.392447 0.163943
0.911467 0.412299 0.166323
0.911482 0.413886 0.166476
0.0575418 0.136126 0.104906
0.0671092 0.134066 0.10222
0.0780652 0.132403 0.100893
0.0869306 0.133181 0.10222
0.0987564 0.137179 0.103868
0.118288 0.139971 0.103548
0.140948 0.133455 0.0949722
0.163729 0.132906 0.0938735
0.18938 0.137346 0.0896773
0.218601 0.142016 0.080766
0.249958 0.1467 0.0684825
0.284886 0.15346 0.0571298
0.327657 0.164324 0.0531319
0.383291 0.17763 0.0605325
0.444541 0.191333 0.0701762
0.505714 0.203418 0.0800488
0.564477 0.21387 0.0897688
0.618647 0.223285 0.0989548
0.667491 0.231373 0.107362
0.709834 0.239628 0.114961
0.745846 0.247578 0.121569
0.776638 0.256107 0.127504
0.803113 0.265644 0.132891
0.827237 0.276646 0.138033
0.850172 0.289372 0.14316
0.872938 0.304479 0.148425
0.896574 0.321294 0.153964
0.910369 0.33872 0.157946
0.910674 0.355627 0.159731
0.910903 0.373816 0.161761
0.911162 0.392859 0.163989
0.911391 0.408606 0.165866
0.911406 0.409094 0.165881
0.0581521 0.148089 0.108629
0.0679484 0.146242 0.105928
0.0790112 0.144778 0.104402
0.0878157 0.145159 0.105745
0.0984054 0.148547 0.107271
0.115557 0.153613 0.109392
0.142016 0.154482 0.105089
0.162875 0.143908 0.0969863
0.189563 0.144594 0.0943923
0.220142 0.148104 0.0851606
0.252674 0.152789 0.072694
0.289219 0.160342 0.0601968
0.333394 0.172 0.0555581
0.390539 0.186007 0.0623789
0.452979 0.200961 0.0724041
0.514702 0.216663 0.0827802
0.573419 0.231327 0.0929427
0.626291 0.243229 0.102129
0.672648 0.254292 0.11046
0.713832 0.264012 0.117968
0.749493 0.272053 0.124483
0.779828 0.280262 0.130327
0.805722 0.289204 0.135515
0.829679 0.29987 0.140612
0.852384 0.312108 0.145678
0.875074 0.325978 0.150851
0.898604 0.34226 0.156374
0.910643 0.358373 0.160037
0.910872 0.373877 0.161776
0.911131 0.390707 0.163699
0.911406 0.408606 0.165835
0.911574 0.419547 0.167224
0.911574 0.418479 0.167056
0.0587015 0.160525 0.112673
0.0686351 0.158923 0.110002
0.0796368 0.157733 0.108217
0.0884413 0.158099 0.109422
0.0984054 0.160723 0.110887
0.113298 0.166567 0.112245
0.135943 0.172747 0.114763
0.167834 0.173419 0.106737
0.18941 0.158465 0.0989242
0.221195 0.156909 0.0904097
0.255665 0.160647 0.076524
0.293492 0.168383 0.0639963
0.339254 0.180301 0.0584726
0.397925 0.194934 0.0643931
0.462425 0.210681 0.0747845
0.526345 0.226627 0.0855268
0.584802 0.243168 0.0959029
0.637278 0.259754 0.105577
0.682765 0.274205 0.114168
0.721401 0.286412 0.121462
0.75436 0.298344 0.127977
0.783078 0.308232 0.133715
0.808713 0.317891 0.138949
0.832364 0.327886 0.143938
0.854841 0.339452 0.148959
0.877546 0.352407 0.15407
0.901228 0.367544 0.159487
0.911025 0.382467 0.162799
0.911223 0.396963 0.164462
0.911498 0.412543 0.166323
0.911711 0.428733 0.168353
0.911849 0.436545 0.169406
0.911833 0.435325 0.169192
0.059144 0.174319 0.117494
0.0691997 0.17293 0.114626
0.0801709 0.171908 0.112673
0.088838 0.172717 0.113497
0.0981155 0.174945 0.114778
0.111452 0.180911 0.115267
0.131167 0.187884 0.117144
0.15845 0.195163 0.118441
0.194156 0.192065 0.106096
0.221866 0.175448 0.0962539
0.257359 0.172564 0.0828107
0.297765 0.17818 0.0686809
0.345083 0.19028 0.0623331
0.405356 0.205402 0.0666514
0.471977 0.221714 0.077348
0.536706 0.238636 0.0883803
0.597055 0.255543 0.0990768
0.649989 0.272465 0.108888
0.695293 0.289174 0.117678
0.732906 0.305882 0.125353
0.764462 0.320638 0.132067
0.790722 0.334249 0.137804
0.813748 0.34815 0.143145
0.835737 0.361044 0.148241
0.857755 0.373663 0.153231
0.880385 0.385992 0.158312
0.904204 0.399939 0.163729
0.911513 0.413306 0.166445
0.911711 0.426474 0.168124
0.911925 0.441062 0.169986
0.9122 0.455543 0.171908
0.912276 0.459434 0.172442
0.912245 0.45771 0.172183
0.0598764 0.188708 0.122713
0.0699474 0.18761 0.11986
0.0806134 0.186847 0.117601
0.0889906 0.187945 0.117922
0.0978256 0.189761 0.118807
0.109758 0.195666 0.118639
0.127504 0.20325 0.118929
0.151827 0.211521 0.121324
0.186191 0.220233 0.120806
0.228092 0.211322 0.101869
0.257649 0.191928 0.0915999
0.300664 0.191592 0.0762646
0.350958 0.201389 0.0670787
0.41207 0.216831 0.068986
0.480446 0.233661 0.079942
0.547707 0.251133 0.0914015
0.608652 0.268894 0.102281
0.661143 0.286564 0.11223
0.705852 0.303761 0.120943
0.743862 0.320455 0.128801
0.774227 0.338293 0.135637
0.800275 0.355383 0.141802
0.822889 0.370504 0.147234
0.843748 0.385916 0.152453
0.863905 0.40383 0.157809
0.884535 0.421042 0.163256
0.90753 0.436576 0.168765
0.912047 0.449042 0.171069
0.912291 0.461357 0.172732
0.91252 0.474174 0.174487
0.912734 0.486702 0.176242
0.912749 0.486778 0.176287
0.912734 0.484581 0.175952
0.0610361 0.20415 0.128954
0.0708476 0.20325 0.125811
0.0810407 0.202838 0.12311
0.0890364 0.204318 0.122881
0.097322 0.20647 0.123156
0.107958 0.2121 0.122179
0.123064 0.221012 0.120455
0.145724 0.23035 0.121294
0.177371 0.240986 0.123644
0.221302 0.25005 0.120211
0.267765 0.236774 0.0991379
0.301823 0.214054 0.0871595
0.354726 0.217105 0.0752117
0.419013 0.229816 0.0718242
0.489235 0.247242 0.082887
0.557031 0.265278 0.0944686
0.618326 0.283772 0.105486
0.672129 0.301823 0.115663
0.716594 0.319875 0.124468
0.752972 0.337591 0.13225
0.783368 0.355291 0.139116
0.808698 0.372885 0.145312
0.831601 0.391012 0.151156
0.852628 0.409293 0.156771
0.873243 0.42649 0.162173
0.894423 0.444572 0.167788
0.91162 0.463249 0.172839
0.912657 0.481117 0.175463
0.912947 0.497108 0.177768
0.913283 0.512352 0.180011
0.913497 0.521508 0.181384
0.91342 0.520516 0.181216
0.91342 0.518013 0.180865
0.0598459 0.224292 0.134798
0.0692912 0.223758 0.131167
0.0790265 0.223911 0.128145
0.086717 0.225757 0.127367
0.0949722 0.228199 0.126833
0.104723 0.233005 0.12546
0.117632 0.242527 0.121843
0.139101 0.252537 0.121294
0.170108 0.263584 0.123842
0.211536 0.27686 0.128466
0.263096 0.285374 0.124071
0.313436 0.263371 0.100816
0.357107 0.241947 0.0862745
0.424231 0.248493 0.0769055
0.4972 0.262882 0.0859998
0.566583 0.281544 0.0978408
0.628565 0.300496 0.109102
0.681514 0.319402 0.119142
0.726101 0.338201 0.128161
0.762341 0.356466 0.135988
0.791913 0.37435 0.142824
0.817044 0.392828 0.149081
0.839673 0.411368 0.154986
0.861387 0.430045 0.160815
0.882994 0.450065 0.166751
0.904799 0.470253 0.172839
0.912779 0.4878 0.176394
0.913161 0.504631 0.178851
0.913451 0.522118 0.181476
0.913848 0.540276 0.184283
0.914061 0.548577 0.185595
0.914061 0.549889 0.185779
0.914092 0.549966 0.185794
0.0586099 0.249897 0.141756
0.0675975 0.249851 0.137728
0.0766461 0.250599 0.134279
0.0840925 0.252674 0.132952
0.092256 0.25539 0.131731
0.10164 0.259495 0.129854
0.113802 0.268788 0.125673
0.133867 0.279622 0.123796
0.16524 0.291661 0.127825
0.205509 0.306065 0.133959
0.254337 0.321569 0.141131
0.312779 0.330907 0.136721
0.371969 0.302281 0.105089
0.42681 0.277562 0.0852522
0.5037 0.286793 0.0901045
0.57612 0.301732 0.101793
0.638148 0.320851 0.1131
0.691005 0.340337 0.123217
0.73579 0.359625 0.132326
0.770687 0.378622 0.140063
0.799939 0.397238 0.147021
0.824933 0.416022 0.153338
0.848569 0.434928 0.159472
0.870832 0.454246 0.16553
0.892592 0.474479 0.171588
0.912444 0.494789 0.17734
0.913314 0.513237 0.180117
0.91371 0.531441 0.182895
0.914061 0.549065 0.185687
0.914397 0.564477 0.188128
0.914534 0.567926 0.188663
0.914549 0.570108 0.189014
0.914565 0.571725 0.189273
0.0605783 0.279347 0.15024
0.0686503 0.279927 0.146334
0.0775006 0.281056 0.142596
0.0851301 0.283467 0.140948
0.0934615 0.286534 0.139452
0.103182 0.290333 0.137591
0.115724 0.298558 0.134524
0.133486 0.311147 0.13138
0.164141 0.324285 0.13547
0.203159 0.339651 0.141573
0.249699 0.35642 0.148486
0.308812 0.37525 0.156649
0.37377 0.38323 0.152285
0.443229 0.343603 0.105501
0.506691 0.320424 0.0955062
0.58204 0.330892 0.106691
0.648142 0.344121 0.117632
0.700603 0.363439 0.127718
0.743832 0.383047 0.136645
0.778698 0.402319 0.144488
0.80734 0.421118 0.151354
0.832227 0.440177 0.157717
0.855116 0.4598 0.163989
0.878294 0.479347 0.170184
0.90161 0.499153 0.176394
0.913405 0.517845 0.180774
0.913802 0.535729 0.183581
0.914199 0.554803 0.186542
0.914611 0.573877 0.189654
0.914931 0.585733 0.191577
0.914931 0.587976 0.191913
0.915022 0.58912 0.192142
0.915038 0.590234 0.192294
0.067155 0.31281 0.160876
0.0750286 0.313771 0.156924
0.0835737 0.315404 0.153338
0.0911879 0.317952 0.15169
0.0995956 0.321386 0.150072
0.109239 0.325216 0.147951
0.121096 0.332311 0.145205
0.136736 0.34519 0.140795
0.165682 0.359289 0.143786
0.203449 0.375631 0.149722
0.248341 0.3935 0.156603
0.304173 0.412818 0.164416
0.373266 0.432502 0.172961
0.450584 0.435706 0.158938
0.518013 0.383734 0.10811
0.586603 0.367086 0.112718
0.653468 0.37734 0.123095
0.70837 0.38938 0.132448
0.751812 0.406897 0.141161
0.785367 0.426062 0.148775
0.813748 0.44509 0.155688
0.838483 0.464652 0.162173
0.861799 0.48394 0.168383
0.88484 0.503273 0.174624
0.909056 0.52285 0.180957
0.913909 0.540887 0.184375
0.914244 0.558236 0.187137
0.914717 0.575799 0.189914
0.915114 0.593469 0.192874
0.915328 0.600717 0.194095
0.915328 0.602579 0.194415
0.915358 0.604334 0.19469
0.915434 0.60557 0.194903
0.0749065 0.349203 0.171969
0.0825513 0.350469 0.168017
0.0908675 0.352285 0.164462
0.0983597 0.355169 0.162707
0.106691 0.358709 0.160891
0.11635 0.362722 0.158633
0.127764 0.368811 0.155642
0.14258 0.381064 0.151537
0.169162 0.396353 0.152316
0.206195 0.413413 0.158251
0.250034 0.431815 0.165042
0.303471 0.451759 0.172671
0.371572 0.473503 0.18143
0.451759 0.492988 0.190387
0.532479 0.487388 0.162173
0.592844 0.427008 0.123293
0.657664 0.415152 0.129442
0.712551 0.424872 0.138231
0.757321 0.436103 0.146197
0.791684 0.450813 0.153262
0.819455 0.468894 0.159976
0.843839 0.488182 0.1664
0.86775 0.507424 0.172747
0.891493 0.526345 0.178973
0.913695 0.545846 0.185061
0.914336 0.56202 0.187701
0.914733 0.578607 0.190356
0.91519 0.595605 0.193225
0.915602 0.613336 0.196201
0.915724 0.617304 0.196887
0.915724 0.61825 0.19707
0.915816 0.619928 0.197345
0.915831 0.62092 0.197498
0.0832074 0.387518 0.182895
0.0905776 0.388983 0.179034
0.0987259 0.391318 0.175479
0.106126 0.394308 0.173632
0.11458 0.398093 0.171756
0.124041 0.401999 0.169207
0.135058 0.407065 0.165972
0.149386 0.418311 0.161776
0.173816 0.434394 0.161013
0.210773 0.451743 0.166857
0.252918 0.46978 0.173281
0.305333 0.49015 0.180896
0.370748 0.512612 0.189609
0.455436 0.537484 0.199786
0.530831 0.549691 0.205646
0.606973 0.5308 0.161288
0.658488 0.470329 0.138674
0.717464 0.462669 0.144854
0.761303 0.471733 0.152148
0.796033 0.482139 0.158602
0.824765 0.493523 0.164462
0.8495 0.511742 0.170779
0.873167 0.529778 0.176913
0.897353 0.549233 0.183352
0.914443 0.566812 0.188464
0.914824 0.582116 0.190951
0.915221 0.598337 0.193668
0.915602 0.614191 0.196338
0.91603 0.629999 0.199039
0.916121 0.63209 0.199435
0.916121 0.633677 0.199725
0.916197 0.635142 0.199985
0.916213 0.636011 0.200137
0.0917983 0.426917 0.193622
0.0989548 0.428565 0.189578
0.106889 0.431312 0.186328
0.114275 0.434318 0.184298
0.12253 0.437964 0.182177
0.132418 0.442222 0.179416
0.143343 0.446998 0.175967
0.156741 0.456138 0.171633
0.180117 0.472206 0.169619
0.216373 0.489662 0.175235
0.258564 0.507912 0.181659
0.309483 0.528618 0.189181
0.37258 0.550484 0.19762
0.453834 0.575296 0.207675
0.540825 0.596857 0.217472
0.605386 0.602518 0.218296
0.668421 0.566094 0.158862
0.714549 0.514168 0.153124
0.764767 0.508568 0.158572
0.798795 0.516564 0.164431
0.82739 0.526131 0.170001
0.853422 0.53666 0.175265
0.878019 0.552377 0.181155
0.902342 0.570413 0.187442
0.914916 0.586709 0.191714
0.915312 0.60209 0.194293
0.915709 0.61735 0.196933
0.916091 0.631342 0.199283
0.916487 0.64506 0.201724
0.916518 0.646769 0.202029
0.916533 0.64802 0.202274
0.916594 0.648936 0.202411
0.916609 0.649882 0.202609
0.100587 0.466194 0.203738
0.107591 0.468315 0.199847
0.115175 0.471138 0.196674
0.122591 0.474403 0.194537
0.131212 0.478172 0.192187
0.140932 0.482338 0.18909
0.15198 0.487175 0.185382
0.164797 0.49456 0.180697
0.187549 0.510155 0.17821
0.223133 0.527123 0.183627
0.264836 0.545144 0.189853
0.313924 0.564706 0.196902
0.375647 0.586709 0.205402
0.453895 0.610742 0.215244
0.540581 0.633982 0.225513
0.612726 0.646616 0.232837
0.66891 0.648569 0.228946
0.72343 0.603693 0.170581
0.760922 0.558434 0.166659
0.802258 0.552377 0.170901
0.830549 0.559808 0.175952
0.856809 0.568261 0.180865
0.882292 0.577554 0.185855
0.90753 0.59118 0.19144
0.915419 0.6065 0.195056
0.915801 0.620935 0.197528
0.916197 0.634974 0.199969
0.916594 0.649042 0.202457
0.916899 0.660456 0.204456
0.916915 0.661479 0.204654
0.91693 0.662623 0.204883
0.916991 0.663447 0.205051
0.917006 0.664164 0.205203
0.109972 0.505577 0.213184
0.116091 0.507668 0.209583
0.123445 0.510491 0.206607
0.131075 0.513848 0.204211
0.139788 0.517815 0.201541
0.149615 0.522087 0.198428
0.160601 0.526497 0.194446
0.173236 0.53196 0.18938
0.194934 0.546563 0.186526
0.230503 0.563241 0.191608
0.272007 0.581216 0.197726
0.320333 0.600107 0.204593
0.379797 0.620935 0.212741
0.455344 0.644236 0.2224
0.538323 0.666499 0.232486
0.619272 0.685618 0.242084
0.674434 0.69131 0.247196
0.72401 0.690333 0.232319
0.766033 0.640833 0.182239
0.796872 0.600778 0.178668
0.833326 0.594232 0.182132
0.859007 0.600565 0.186679
0.88484 0.608011 0.191302
0.910491 0.616464 0.196033
0.915923 0.625513 0.198276
0.916289 0.638498 0.200519
0.916686 0.652689 0.203128
0.917082 0.66714 0.205707
0.917296 0.674876 0.207111
0.917327 0.675792 0.207248
0.917388 0.676844 0.207446
0.917403 0.677699 0.207614
0.917403 0.678157 0.20766
0.119265 0.544594 0.222309
0.124224 0.546304 0.219074
0.131777 0.549645 0.216175
0.139574 0.553155 0.213642
0.148486 0.557061 0.210742
0.158328 0.561044 0.207309
0.169619 0.565789 0.20296
0.182086 0.570794 0.197711
0.20293 0.58262 0.194522
0.238758 0.598733 0.199573
0.279149 0.615732 0.205249
0.32726 0.634379 0.21207
0.38471 0.654047 0.219898
0.457145 0.675883 0.229358
0.537148 0.697169 0.239322
0.616541 0.716335 0.249271
0.681453 0.728359 0.257145
0.726009 0.731426 0.261631
0.76408 0.72314 0.232776
0.798733 0.677501 0.193042
0.826459 0.64152 0.18967
0.860258 0.634546 0.192752
0.887282 0.63888 0.196918
0.91371 0.645396 0.201404
0.916594 0.649927 0.202594
0.916793 0.656367 0.203769
0.917113 0.669306 0.206104
0.917571 0.683742 0.208698
0.917723 0.689403 0.209735
0.9178 0.69041 0.209964
0.9178 0.690929 0.210025
0.9178 0.692058 0.210208
0.9178 0.6925 0.2103
0.128679 0.583291 0.230884
0.132616 0.584726 0.22829
0.140032 0.588251 0.225284
0.148211 0.591913 0.222431
0.157015 0.595483 0.219379
0.167163 0.599832 0.215625
0.178393 0.604181 0.211109
0.190982 0.608942 0.205676
0.211124 0.618021 0.20235
0.246342 0.632776 0.20705
0.286152 0.649287 0.212696
0.333867 0.666911 0.219257
0.389838 0.685481 0.226871
0.459556 0.705898 0.236133
0.536553 0.725902 0.246067
0.612726 0.743786 0.256123
0.6822 0.759182 0.265843
0.73109 0.764889 0.271946
0.767803 0.767254 0.276539
0.795346 0.754299 0.239139
0.824994 0.713115 0.202945
0.852674 0.679973 0.199969
0.886305 0.672892 0.202884
0.91577 0.67451 0.206836
0.917388 0.676997 0.207507
0.917479 0.680247 0.208087
0.917586 0.68571 0.209064
0.918074 0.70106 0.211872
0.918181 0.703822 0.212375
0.918196 0.70486 0.212573
0.918212 0.705776 0.212772
0.918288 0.706813 0.212955
0.918288 0.70695 0.21297
0.138705 0.621439 0.238849
0.141207 0.622599 0.236912
0.14818 0.625818 0.234104
0.156771 0.62977 0.231052
0.165866 0.633539 0.227741
0.175982 0.63769 0.22385
0.187213 0.641871 0.21912
0.199817 0.64622 0.213291
0.21976 0.652522 0.210086
0.254673 0.666438 0.214649
0.294102 0.681514 0.219974
0.339651 0.697948 0.226246
0.394507 0.71519 0.233738
0.462486 0.73463 0.242954
0.536278 0.752789 0.252964
0.609384 0.769375 0.263203
0.676936 0.783276 0.273106
0.734859 0.794354 0.282719
0.770886 0.797116 0.287877
0.800824 0.798505 0.292927
0.821591 0.783444 0.251408
0.847807 0.745861 0.211948
0.87747 0.715267 0.209552
0.912703 0.707622 0.212421
0.918166 0.704723 0.212543
0.918273 0.706127 0.212833
0.918364 0.709133 0.213397
0.918578 0.71664 0.214771
0.918578 0.71809 0.215091
0.918669 0.719127 0.215228
0.918685 0.720195 0.215396
0.918685 0.720974 0.215595
0.918685 0.721355 0.215702
0.148684 0.659068 0.246555
0.149905 0.659586 0.245212
0.156619 0.66305 0.242771
0.165362 0.666972 0.23946
0.174624 0.670619 0.235721
0.184878 0.674739 0.231678
0.196201 0.678843 0.226688
0.208942 0.682933 0.220661
0.229252 0.687663 0.218051
0.263157 0.699077 0.222171
0.301915 0.713268 0.227329
0.346746 0.728328 0.233371
0.399847 0.743801 0.240726
0.465766 0.761364 0.249943
0.537118 0.778225 0.260212
0.606912 0.792798 0.270771
0.671443 0.805661 0.281102
0.728923 0.816632 0.291356
0.773953 0.824384 0.30045
0.802533 0.825528 0.305776
0.828443 0.82652 0.311162
0.844999 0.810712 0.270085
0.869276 0.775509 0.220264
0.902571 0.746685 0.218509
0.919234 0.737331 0.218677
0.919066 0.732296 0.217746
0.919158 0.734234 0.218112
0.919249 0.738705 0.218936
0.919097 0.732967 0.217853
0.919081 0.733242 0.217899
0.919158 0.734325 0.218097
0.919173 0.735302 0.218296
0.919173 0.735805 0.218402
0.158419 0.695857 0.254414
0.158862 0.695979 0.25333
0.165042 0.699062 0.251118
0.173922 0.702998 0.247517
0.183536 0.706966 0.243778
0.193957 0.710674 0.239261
0.205539 0.714504 0.234028
0.218479 0.718441 0.227665
0.239689 0.722148 0.226032
0.272114 0.730892 0.229862
0.310323 0.74342 0.23476
0.354177 0.756741 0.240726
0.406912 0.771405 0.248234
0.47042 0.787198 0.257771
0.538384 0.802197 0.268223
0.605081 0.815091 0.278981
0.666758 0.82678 0.289738
0.721202 0.837003 0.300252
0.768231 0.846296 0.310857
0.803876 0.852018 0.31986
0.828733 0.852354 0.3252
0.852689 0.852705 0.330831
0.867308 0.83624 0.294011
0.890532 0.801434 0.227771
0.920302 0.77409 0.225757
0.920119 0.763775 0.223804
0.919951 0.759411 0.222889
0.920043 0.761776 0.223377
0.91986 0.755978 0.222217
0.9196 0.749599 0.221042
0.91957 0.74876 0.220844
0.919646 0.74963 0.221088
0.919646 0.750225 0.22118
0.167788 0.730831 0.262257
0.167941 0.730938 0.261601
0.174212 0.734203 0.25919
0.183108 0.737942 0.255512
0.192767 0.741482 0.251453
0.203494 0.745129 0.246708
0.215244 0.74876 0.241291
0.22826 0.752697 0.234989
0.251209 0.755352 0.234424
0.2822 0.761059 0.237858
0.319738 0.772274 0.242786
0.363272 0.784329 0.24892
0.413413 0.796948 0.256352
0.47538 0.810987 0.266087
0.5402 0.824582 0.276951
0.604395 0.83711 0.28835
0.662654 0.848173 0.299382
0.714214 0.857786 0.310185
0.759106 0.866377 0.320806
0.797543 0.874434 0.331441
0.828458 0.879423 0.340627
0.851942 0.87921 0.346059
0.876463 0.878889 0.351919
0.890013 0.860975 0.319692
0.912993 0.824857 0.235126
0.921309 0.797391 0.230335
0.920989 0.788907 0.228717
0.920851 0.785779 0.228107
0.920653 0.778607 0.226688
0.920363 0.772229 0.225422
