public/LUTS/Color Shift/ColorShift_11.cube
TITLE "Generated by Resolve"
LUT_3D_SIZE 33
0 0 0
0 0.0130922 0
0 0.0261997 0
0 0.0393072 0
0 0.0523995 0
0 0.065507 0
0 0.0786145 0
0 0.091722 0
0 0.104814 0
0 0.117922 0
0 0.131029 0
0 0.144137 0
0 0.157229 0
0 0.170336 0
0 0.183444 0
0 0.196536 0
0 0.209644 0
0 0.222751 0
0 0.235859 0
0 0.248951 0
0 0.262058 0
0 0.275166 0
0 0.288273 0
0 0.301366 0
0 0.314473 0
0 0.327581 0
0 0.340673 0
0 0.35378 0
0 0.366888 0
0 0.379995 0
0 0.393088 0
0 0.406195 0
0 0.419303 0
0.00552377 0.0233921 0.0481422
0 0.0364843 0.03299
0 0.0495918 0.0178378
0 0.0626993 0.00268559
0 0.0757916 0
0 0.0888991 0
0 0.102007 0
0 0.115114 0
0 0.128206 0
0 0.141314 0
0 0.154421 0
0 0.167514 0
0 0.180621 0
0 0.193729 0
0 0.206836 0
0 0.219928 0
0 0.233036 0
0 0.246143 0
0 0.259251 0
0 0.272343 0
0 0.285451 0
0 0.298558 0
0 0.31165 0
0 0.324758 0
0 0.337865 0
0 0.350973 0
0 0.364065 0
0 0.377172 0
0 0.39028 0
0 0.403388 0
0 0.41648 0
0 0.429587 0
0 0.442695 0
0.0110475 0.0467842 0.0962997
0.00511177 0.0598917 0.0811627
0 0.0729992 0.0660105
0 0.0860914 0.0508583
0 0.0991989 0.0357061
0 0.112306 0.0205539
0 0.125399 0.00540169
0 0.138506 0
0 0.151614 0
0 0.164721 0
0 0.177813 0
0 0.190921 0
0 0.204028 0
0 0.217136 0
0 0.230228 0
0 0.243336 0
0 0.256443 0
0 0.269535 0
0 0.282643 0
0 0.29575 0
0 0.308858 0
0 0.32195 0
0 0.335058 0
0 0.348165 0
0 0.361273 0
0 0.374365 0
0 0.387472 0
0 0.40058 0
0 0.413672 0
0 0.42678 0
0 0.439887 0
0 0.452995 0
0 0.466087 0
0.016556 0.0701915 0.144472
0.0106355 0.0832837 0.12932
0.00469978 0.0963912 0.114168
0 0.109499 0.0990158
0 0.122606 0.0838636
0 0.135698 0.0687114
0 0.148806 0.0535592
0 0.161913 0.038407
0 0.175021 0.0232548
0 0.188113 0.00810254
0 0.201221 0
0 0.214328 0
0 0.22742 0
0 0.240528 0
0 0.253635 0
0 0.266743 0
0 0.279835 0
0 0.292943 0
0 0.30605 0
0 0.319158 0
0 0.33225 0
0 0.345357 0
0 0.358465 0
0 0.371557 0
0 0.384665 0
0 0.397772 0
0 0.41088 0
0 0.423972 0
0 0.437079 0
0 0.450187 0
0 0.463294 0
0 0.476387 0
0 0.489494 0
0.0220798 0.0935988 0.19263
0.0161593 0.106691 0.177493
0.0102235 0.119799 0.162341
0.00428779 0.132891 0.147189
0 0.145998 0.132036
0 0.159106 0.116884
0 0.172213 0.101717
0 0.185306 0.0865644
0 0.198413 0.0714122
0 0.211521 0.05626
0 0.224628 0.0411078
0 0.23772 0.0259556
0 0.250828 0.0108034
0 0.263935 0
0 0.277028 0
0 0.290135 0
0 0.303243 0
0 0.31635 0
0 0.329442 0
0 0.34255 0
0 0.355657 0
0 0.368765 0
0 0.381857 0
0 0.394965 0
0 0.408072 0
0 0.421164 0
0 0.434272 0
0 0.447379 0
0 0.460487 0
0 0.473579 0
0 0.486686 0
0 0.499794 0
0 0.512901 0
0.0276036 0.116991 0.240803
0.0216831 0.130098 0.22565
0.0157473 0.143191 0.210498
0.00981155 0.156298 0.195346
0.00387579 0.169406 0.180194
0 0.182513 0.165042
0 0.195605 0.149889
0 0.208713 0.134737
0 0.22182 0.119585
0 0.234913 0.104433
0 0.24802 0.0892805
0 0.261128 0.0741283
0 0.274235 0.0589761
0 0.287327 0.0438239
0 0.300435 0.0286717
0 0.313542 0.0135195
0 0.32665 0
0 0.339742 0
0 0.35285 0
0 0.365957 0
0 0.379049 0
0 0.392157 0
0 0.405264 0
0 0.418372 0
0 0.431464 0
0 0.444572 0
0 0.457679 0
0 0.470787 0
0 0.483879 0
0 0.496986 0
0 0.510094 0
0 0.523186 0
0 0.536294 0
0.0331273 0.140398 0.28896
0.0271916 0.15349 0.273808
0.0212711 0.166598 0.258656
0.0153353 0.179706 0.243503
0.00939956 0.192798 0.228351
0.0034638 0.205905 0.213199
0 0.219013 0.198047
0 0.23212 0.182895
0 0.245212 0.167742
0 0.25832 0.15259
0 0.271427 0.137438
0 0.284535 0.122286
0 0.297627 0.107134
0 0.310735 0.0919814
0 0.323842 0.0768292
0 0.336934 0.061677
0 0.350042 0.0465248
0 0.363149 0.0313726
0 0.376257 0.0162203
0 0.389349 0.00106813
0 0.402457 0
0 0.415564 0
0 0.428672 0
0 0.441764 0
0 0.454871 0
0 0.467979 0
0 0.481071 0
0 0.494179 0
0 0.507286 0
0 0.520394 0
0 0.533486 0
0 0.546593 0
0 0.559701 0
0.0386511 0.163806 0.337118
0.0327153 0.176898 0.321981
0.0267948 0.190005 0.306828
0.0208591 0.203098 0.291676
0.0149233 0.216205 0.276524
0.00898756 0.229313 0.261372
0.0030518 0.24242 0.24622
0 0.255512 0.231067
0 0.26862 0.215915
0 0.281727 0.200763
0 0.29482 0.185611
0 0.307927 0.170459
0 0.321035 0.155306
0 0.334142 0.140154
0 0.347234 0.125002
0 0.360342 0.10985
0 0.373449 0.0946975
0 0.386557 0.07953
0 0.399649 0.0643778
0 0.412757 0.0492256
0 0.425864 0.0340734
0 0.438956 0.0189212
0 0.452064 0.00376898
0 0.465171 0
0 0.478279 0
0 0.491371 0
0 0.504479 0
0 0.517586 0
0 0.530694 0
0 0.543786 0
0 0.556893 0
0 0.570001 0
0 0.583093 0
0.0441749 0.187198 0.38529
0.0382391 0.200305 0.370138
0.0323033 0.213397 0.354986
0.0263828 0.226505 0.339834
0.0204471 0.239612 0.324681
0.0145113 0.252705 0.309529
0.00857557 0.265812 0.294377
0.00263981 0.27892 0.279225
0 0.292027 0.264073
0 0.305119 0.24892
0 0.318227 0.233768
0 0.331334 0.218616
0 0.344442 0.203464
0 0.357534 0.188312
0 0.370642 0.173159
0 0.383749 0.158007
0 0.396841 0.142855
0 0.409949 0.127703
0 0.423056 0.112551
0 0.436164 0.0973983
0 0.449256 0.0822461
0 0.462364 0.0670939
0 0.475471 0.0519417
0 0.488579 0.0367895
0 0.501671 0.0216373
0 0.514778 0.00648508
0 0.527886 0
0 0.540978 0
0 0.554086 0
0 0.567193 0
0 0.580301 0
0 0.593393 0
0 0.6065 0
0.0496986 0.210605 0.433448
0.0437629 0.223697 0.418311
0.0378271 0.236805 0.403159
0.0318914 0.249912 0.388006
0.0259709 0.263005 0.372854
0.0200351 0.276112 0.357702
0.0140993 0.289219 0.34255
0.00816358 0.302327 0.327398
0.00222782 0.315419 0.312245
0 0.328527 0.297093
0 0.341634 0.281926
0 0.354726 0.266773
0 0.367834 0.251621
0 0.380941 0.236469
0 0.394049 0.221317
0 0.407141 0.206165
0 0.420249 0.191012
0 0.433356 0.17586
0 0.446448 0.160708
0 0.459556 0.145556
0 0.472663 0.130404
0 0.485771 0.115251
0 0.498863 0.100099
0 0.511971 0.084947
0 0.525078 0.0697948
0 0.538186 0.0546426
0 0.551278 0.0394903
0 0.564385 0.0243381
0 0.577493 0.00918593
0 0.590585 0
0 0.603693 0
0 0.6168 0
0 0.629908 0
0.0552224 0.233997 0.481621
0.0492866 0.247105 0.466468
0.0433509 0.260197 0.451316
0.0374151 0.273304 0.436164
0.0314794 0.286412 0.421012
0.0255589 0.299519 0.405859
0.0196231 0.312612 0.390707
0.0136873 0.325719 0.375555
0.00775158 0.338827 0.360403
0.00181582 0.351934 0.345251
0 0.365026 0.330098
0 0.378134 0.314946
0 0.391241 0.299794
0 0.404334 0.284642
0 0.417441 0.26949
0 0.430549 0.254337
0 0.443656 0.239185
0 0.456748 0.224033
0 0.469856 0.208881
0 0.482963 0.193729
0 0.496071 0.178576
0 0.509163 0.163424
0 0.522271 0.148272
0 0.535378 0.13312
0 0.54847 0.117968
0 0.561578 0.102815
0 0.574685 0.0876631
0 0.587793 0.0724956
0 0.600885 0.0573434
0 0.613993 0.0421912
0 0.6271 0.027039
0 0.640208 0.0118868
0 0.6533 0
0.0607462 0.257404 0.529778
0.0548104 0.270497 0.514641
0.0488746 0.283604 0.499474
0.0429389 0.296712 0.484321
0.0370031 0.309819 0.469169
0.0310826 0.322911 0.454017
0.0251469 0.336019 0.438865
0.0192111 0.349126 0.423713
0.0132753 0.362219 0.40856
0.00733959 0.375326 0.393408
0.00140383 0.388434 0.378256
0 0.401541 0.363104
0 0.414633 0.347951
0 0.427741 0.332799
0 0.440848 0.317647
0 0.453956 0.302495
0 0.467048 0.287343
0 0.480156 0.27219
0 0.493263 0.257038
0 0.506355 0.241886
0 0.519463 0.226734
0 0.53257 0.211582
0 0.545678 0.196429
0 0.55877 0.181277
0 0.571878 0.166125
0 0.584985 0.150973
0 0.598093 0.135821
0 0.611185 0.120668
0 0.624292 0.105516
0 0.6374 0.0903639
0 0.650492 0.0752117
0 0.6636 0.0600595
0 0.676707 0.0449073
0.0662547 0.280812 0.577935
0.0603342 0.293904 0.562799
0.0543984 0.307012 0.547646
0.0484627 0.320104 0.532494
0.0425269 0.333211 0.517342
0.0365911 0.346319 0.50219
0.0306706 0.359426 0.487037
0.0247349 0.372519 0.471885
0.0187991 0.385626 0.456733
0.0128634 0.398733 0.441581
0.0069276 0.411841 0.426429
0.000991836 0.424933 0.411276
0 0.438041 0.396124
0 0.451148 0.380972
0 0.46424 0.36582
0 0.477348 0.350668
0 0.490455 0.335515
0 0.503563 0.320363
0 0.516655 0.305211
0 0.529763 0.290059
0 0.54287 0.274907
0 0.555978 0.259739
0 0.56907 0.244587
0 0.582177 0.229435
0 0.595285 0.214282
0 0.608377 0.19913
0 0.621485 0.183978
0 0.634592 0.168826
0 0.6477 0.153674
0 0.660792 0.138521
0 0.673899 0.123369
0 0.687007 0.108217
0 0.700114 0.0930648
0.0717784 0.304204 0.626108
0.0658579 0.317311 0.610956
0.0599222 0.330404 0.595804
0.0539864 0.343511 0.580652
0.0480507 0.356619 0.565499
0.0421149 0.369726 0.550347
0.0361791 0.382818 0.535195
0.0302586 0.395926 0.520043
0.0243229 0.409033 0.504891
0.0183871 0.422126 0.489738
0.0124514 0.435233 0.474586
0.0065156 0.448341 0.459434
0.000579843 0.461448 0.444282
0 0.47454 0.429129
0 0.487648 0.413977
0 0.500755 0.398825
0 0.513863 0.383673
0 0.526955 0.368521
0 0.540063 0.353368
0 0.55317 0.338216
0 0.566262 0.323064
0 0.57937 0.307912
0 0.592477 0.29276
0 0.605585 0.277607
0 0.618677 0.262455
0 0.631785 0.247303
0 0.644892 0.232151
0 0.658 0.216999
0 0.671092 0.201846
0 0.684199 0.186694
0 0.697307 0.171542
0 0.710399 0.15639
0 0.723507 0.141238
0.0773022 0.327611 0.674266
0.0713817 0.340703 0.659129
0.0654459 0.353811 0.643977
0.0595102 0.366918 0.628824
0.0535744 0.380011 0.613672
0.0476387 0.393118 0.59852
0.0417029 0.406226 0.583368
0.0357824 0.419333 0.568215
0.0298466 0.432425 0.553063
0.0239109 0.445533 0.537911
0.0179751 0.45864 0.522759
0.0120394 0.471748 0.507607
0.00610361 0.48484 0.492454
0.000167849 0.497948 0.477302
0 0.511055 0.462135
0 0.524147 0.446983
0 0.537255 0.43183
0 0.550362 0.416678
0 0.56347 0.401526
0 0.576562 0.386374
0 0.58967 0.371221
0 0.602777 0.356069
0 0.615885 0.340917
0 0.628977 0.325765
0 0.642084 0.310613
0 0.655192 0.29546
0 0.668284 0.280308
0 0.681392 0.265156
0 0.694499 0.250004
0 0.707607 0.234852
0 0.720699 0.219699
0 0.733806 0.204547
0 0.746914 0.189395
0.082826 0.351019 0.722438
0.0768902 0.364111 0.707286
0.0709697 0.377218 0.692134
0.0650339 0.390311 0.676982
0.0590982 0.403418 0.66183
0.0531624 0.416526 0.646677
0.0472267 0.429618 0.631525
0.0412909 0.442725 0.616373
0.0353704 0.455833 0.601221
0.0294347 0.46894 0.586069
0.0234989 0.482033 0.570916
0.0175631 0.49514 0.555764
0.0116274 0.508247 0.540612
0.00569162 0.521355 0.52546
0 0.534447 0.510307
0 0.547555 0.495155
0 0.560662 0.480003
0 0.573754 0.464851
0 0.586862 0.449699
0 0.59997 0.434546
0 0.613077 0.419394
0 0.626169 0.404242
0 0.639277 0.38909
0 0.652384 0.373938
0 0.665492 0.358785
0 0.678584 0.343633
0 0.691691 0.328481
0 0.704799 0.313329
0 0.717891 0.298177
0 0.730999 0.283024
0 0.744106 0.267872
0 0.757214 0.25272
0 0.770306 0.237552
0.0883497 0.374411 0.770596
0.082414 0.387503 0.755459
0.0764935 0.40061 0.740307
0.0705577 0.413718 0.725155
0.064622 0.426825 0.710002
0.0586862 0.439918 0.69485
0.0527504 0.453025 0.679698
0.0468147 0.466133 0.66453
0.0408789 0.47924 0.649378
0.0349584 0.492332 0.634226
0.0290227 0.50544 0.619074
0.0230869 0.518547 0.603922
0.0171511 0.53164 0.588769
0.0112154 0.544747 0.573617
0.00527962 0.557855 0.558465
0 0.570962 0.543313
0 0.584054 0.528161
0 0.597162 0.513008
0 0.610269 0.497856
0 0.623377 0.482704
0 0.636469 0.467552
0 0.649577 0.452399
0 0.662684 0.437247
0 0.675776 0.422095
0 0.688884 0.406943
0 0.701991 0.391791
0 0.715099 0.376638
0 0.728191 0.361486
0 0.741299 0.346334
0 0.754406 0.331182
0 0.767514 0.31603
0 0.780606 0.300877
0 0.793713 0.285725
0.0938735 0.397818 0.818769
0.0879377 0.41091 0.803616
0.082002 0.424018 0.788464
0.0760815 0.437125 0.773312
0.0701457 0.450217 0.75816
0.06421 0.463325 0.743008
0.0582742 0.476432 0.727855
0.0523384 0.489525 0.712703
0.0464027 0.502632 0.697551
0.0404669 0.51574 0.682399
0.0345464 0.528847 0.667247
0.0286107 0.541939 0.652094
0.0226749 0.555047 0.636942
0.0167391 0.568154 0.62179
0.0108034 0.581262 0.606638
0.00486763 0.594354 0.591485
0 0.607462 0.576333
0 0.620569 0.561181
0 0.633661 0.546029
0 0.646769 0.530877
0 0.659876 0.515724
0 0.672984 0.500572
0 0.686076 0.48542
0 0.699184 0.470268
0 0.712291 0.4551
0 0.725399 0.439948
0 0.738491 0.424796
0 0.751598 0.409644
0 0.764706 0.394491
0 0.777798 0.379339
0 0.790906 0.364187
0 0.804013 0.349035
0 0.817121 0.333883
0.0993973 0.42121 0.866926
0.0934615 0.434318 0.851774
0.0875257 0.44741 0.836622
0.08159 0.460517 0.821469
0.0756695 0.473625 0.806317
0.0697337 0.486732 0.791165
0.063798 0.499825 0.776013
0.0578622 0.512932 0.760861
0.0519265 0.52604 0.745708
0.0459907 0.539147 0.730556
0.0400702 0.552239 0.715404
0.0341344 0.565347 0.700252
0.0281987 0.578454 0.6851
0.0222629 0.591546 0.669947
0.0163272 0.604654 0.654795
0.0103914 0.617761 0.639643
0.00445563 0.630869 0.624491
0 0.643961 0.609339
0 0.657069 0.594186
0 0.670176 0.579034
0 0.683284 0.563882
0 0.696376 0.54873
0 0.709484 0.533578
0 0.722591 0.518425
0 0.735683 0.503273
0 0.748791 0.488121
0 0.761898 0.472969
0 0.775006 0.457816
0 0.788098 0.442664
0 0.801205 0.427512
0 0.814313 0.41236
0 0.82742 0.397208
0 0.840513 0.382055
0.104921 0.444617 0.915084
0.0989853 0.45771 0.899947
0.0930495 0.470817 0.884794
0.0871138 0.483925 0.869642
0.081178 0.497032 0.85449
0.0752575 0.510124 0.839338
0.0693217 0.523232 0.824186
0.063386 0.536339 0.809033
0.0574502 0.549432 0.793881
0.0515145 0.562539 0.778729
0.0455787 0.575647 0.763577
0.0396582 0.588754 0.748425
0.0337224 0.601846 0.733272
0.0277867 0.614954 0.71812
0.0218509 0.628061 0.702968
0.0159152 0.641169 0.687816
0.0099794 0.654261 0.672663
0.00404364 0.667369 0.657511
0 0.680476 0.642344
0 0.693568 0.627192
0 0.706676 0.612039
0 0.719783 0.596887
0 0.732891 0.581735
0 0.745983 0.566583
0 0.759091 0.551431
0 0.772198 0.536278
0 0.785306 0.521126
0 0.798398 0.505974
0 0.811505 0.490822
0 0.824613 0.47567
0 0.837705 0.460517
0 0.850813 0.445365
0 0.86392 0.430213
0.110445 0.468025 0.963256
0.104509 0.481117 0.948104
0.0985733 0.494224 0.932952
0.0926375 0.507317 0.9178
0.0867018 0.520424 0.902647
0.0807813 0.533532 0.887495
0.0748455 0.546639 0.872343
0.0689097 0.559731 0.857191
0.062974 0.572839 0.842039
0.0570382 0.585946 0.826886
0.0511025 0.599054 0.811734
0.0451667 0.612146 0.796582
0.0392462 0.625254 0.78143
0.0333104 0.638361 0.766278
0.0273747 0.651453 0.751125
0.0214389 0.664561 0.735973
0.0155032 0.677668 0.720821
0.00956741 0.690776 0.705669
0.00363165 0.703868 0.690517
0 0.716976 0.675364
0 0.730083 0.660212
0 0.743191 0.64506
0 0.756283 0.629908
0 0.76939 0.614755
0 0.782498 0.599603
0 0.79559 0.584451
0 0.808698 0.569299
0 0.821805 0.554147
0 0.834913 0.538994
0 0.848005 0.523842
0 0.861112 0.50869
0 0.87422 0.493538
0 0.887312 0.478386
0.115953 0.491417 1
0.110033 0.504524 0.996277
0.104097 0.517617 0.981125
0.0981613 0.530724 0.965972
0.0922255 0.543832 0.95082
0.0862898 0.556924 0.935668
0.0803693 0.570031 0.920516
0.0744335 0.583139 0.905364
0.0684977 0.596246 0.890211
0.062562 0.609339 0.875059
0.0566262 0.622446 0.859907
0.0506905 0.635554 0.844739
0.0447547 0.648661 0.829587
0.0388342 0.661753 0.814435
0.0328985 0.674861 0.799283
0.0269627 0.687968 0.784131
0.0210269 0.70106 0.768978
0.0150912 0.714168 0.753826
0.00915541 0.727275 0.738674
0.00323491 0.740383 0.723522
0 0.753475 0.70837
0 0.766583 0.693217
0 0.77969 0.678065
0 0.792798 0.662913
0 0.80589 0.647761
0 0.818998 0.632609
0 0.832105 0.617456
0 0.845197 0.602304
0 0.858305 0.587152
0 0.871412 0.572
0 0.88452 0.556848
0 0.897612 0.541695
0 0.910719 0.526543
0.121477 0.514824 1
0.115557 0.527916 1
0.109621 0.541024 1
0.103685 0.554131 1
0.0977493 0.567224 0.998978
0.0918135 0.580331 0.983825
0.0858778 0.593439 0.968673
0.0799573 0.606546 0.953521
0.0740215 0.619638 0.938369
0.0680858 0.632746 0.923217
0.06215 0.645853 0.908064
0.0562142 0.658946 0.892912
0.0502785 0.672053 0.87776
0.044358 0.685161 0.862608
0.0384222 0.698268 0.847456
0.0324865 0.71136 0.832303
0.0265507 0.724468 0.817151
0.0206149 0.737575 0.801999
0.0146792 0.750683 0.786847
0.00874342 0.763775 0.771695
0.00282292 0.776883 0.756542
0 0.78999 0.74139
0 0.803082 0.726238
0 0.81619 0.711086
0 0.829297 0.695933
0 0.842405 0.680781
0 0.855497 0.665629
0 0.868605 0.650477
0 0.881712 0.635309
0 0.89482 0.620157
0 0.907912 0.605005
0 0.921019 0.589853
0 0.934127 0.574701
0.127001 0.538231 1
0.12108 0.551324 1
0.115145 0.564431 1
0.109209 0.577523 1
0.103273 0.590631 1
0.0973373 0.603738 1
0.0914015 0.616831 1
0.0854658 0.629938 1
0.0795453 0.643046 0.986526
0.0736095 0.656153 0.971374
0.0676738 0.669245 0.956222
0.061738 0.682353 0.94107
0.0558022 0.69546 0.925917
0.0498665 0.708568 0.910765
0.043946 0.72166 0.895613
0.0380102 0.734768 0.880461
0.0320745 0.747875 0.865309
0.0261387 0.760967 0.850156
0.0202029 0.774075 0.835004
0.0142672 0.787182 0.819852
0.00833143 0.80029 0.8047
0.00241093 0.813382 0.789548
0 0.82649 0.774395
0 0.839597 0.759243
0 0.852705 0.744091
0 0.865797 0.728939
0 0.878904 0.713787
0 0.892012 0.698634
0 0.905104 0.683482
0 0.918212 0.66833
0 0.931319 0.653178
0 0.944427 0.638025
0 0.957519 0.622873
0.132525 0.561624 1
0.126589 0.574716 1
0.120668 0.587823 1
0.114733 0.600931 1
0.108797 0.614038 1
0.102861 0.627131 1
0.0969253 0.640238 1
0.0909895 0.653346 1
0.085069 0.666453 1
0.0791333 0.679545 1
0.0731975 0.692653 1
0.0672618 0.70576 0.989242
0.061326 0.718853 0.97409
0.0553902 0.73196 0.958938
0.0494545 0.745068 0.943786
0.043534 0.758175 0.928634
0.0375982 0.771267 0.913481
0.0316625 0.784375 0.898329
0.0257267 0.797482 0.883177
0.019791 0.81059 0.868025
0.0138552 0.823682 0.852872
0.00793469 0.836789 0.83772
0.00199893 0.849897 0.822553
0 0.862989 0.807401
0 0.876097 0.792248
0 0.889204 0.777096
0 0.902312 0.761944
0 0.915404 0.746792
0 0.928512 0.73164
0 0.941619 0.716487
0 0.954726 0.701335
0 0.967819 0.686183
0 0.980926 0.671031
0.138048 0.585031 1
0.132113 0.598123 1
0.126192 0.611231 1
0.120256 0.624338 1
0.114321 0.63743 1
0.108385 0.650538 1
0.102449 0.663645 1
0.0965133 0.676738 1
0.0905776 0.689845 1
0.0846571 0.702953 1
0.0787213 0.71606 1
0.0727855 0.729152 1
0.0668498 0.74226 1
0.060914 0.755367 1
0.0549783 0.768475 0.991943
0.0490425 0.781567 0.976791
0.043122 0.794675 0.961639
0.0371862 0.807782 0.946487
0.0312505 0.820874 0.931334
0.0253147 0.833982 0.916182
0.019379 0.847089 0.90103
0.0134432 0.860197 0.885878
0.0075227 0.873289 0.870726
0.00158694 0.886397 0.855573
0 0.899504 0.840421
0 0.912596 0.825269
0 0.925704 0.810117
0 0.938811 0.794965
0 0.951919 0.779812
0 0.965011 0.76466
0 0.978119 0.749508
0 0.991226 0.734356
0 1 0.719203
0.143572 0.608423 1
0.137636 0.62153 1
0.131701 0.634623 1
0.12578 0.64773 1
0.119844 0.660838 1
0.113909 0.673945 1
0.107973 0.687037 1
0.102037 0.700145 1
0.0961013 0.713252 1
0.0901656 0.726345 1
0.0842451 0.739452 1
0.0783093 0.75256 1
0.0723735 0.765667 1
0.0664378 0.778759 1
0.060502 0.791867 1
0.0545663 0.804974 1
0.0486458 0.818082 1
0.04271 0.831174 0.994644
0.0367742 0.844282 0.979492
0.0308385 0.857389 0.96434
0.0249027 0.870481 0.949187
0.018967 0.883589 0.934035
0.0130312 0.896696 0.918883
0.0071107 0.909804 0.903731
0.00117494 0.922896 0.888579
0 0.936004 0.873426
0 0.949111 0.858274
0 0.962219 0.843122
0 0.975311 0.82797
0 0.988418 0.812818
0 1 0.797665
0 1 0.782513
0 1 0.767361
0.149096 0.63183 1
0.14316 0.644923 1
0.137224 0.65803 1
0.131289 0.671138 1
0.125368 0.68423 1
0.119432 0.697337 1
0.113497 0.710445 1
0.107561 0.723552 1
0.101625 0.736645 1
