public/LUTS/Color Shift/ColorShift_43.cube
TITLE "Generated by Resolve"
LUT_3D_SIZE 9
0 0 0
0 0.0335546 0.107927
0 0.0671092 0.215854
0 0.100664 0.323796
0 0.134218 0.431724
0 0.167773 0.539666
0 0.201328 0.647608
0 0.234882 0.755535
0 0.268437 0.863478
0.212268 0.0484474 0.100023
0.179156 0.082002 0.20795
0.146059 0.115557 0.315892
0.112947 0.149111 0.423819
0.0798505 0.182666 0.531762
0.0467384 0.21622 0.639689
0.0136263 0.249775 0.747631
0 0.28333 0.855573
0 0.316884 0.9635
0.424552 0.0968948 0.200076
0.391455 0.130449 0.307988
0.358343 0.164004 0.41593
0.325246 0.197559 0.523873
0.292134 0.231113 0.6318
0.259022 0.264668 0.739742
0.225925 0.298222 0.847669
0.192813 0.331777 0.955612
0.159716 0.365332 1
0.636851 0.145342 0.300114
0.603738 0.178897 0.408042
0.570642 0.212451 0.515969
0.53753 0.246006 0.623911
0.504433 0.279561 0.731838
0.471321 0.313115 0.83978
0.438209 0.346685 0.947707
0.405112 0.38024 1
0.372 0.413794 1
0.849134 0.193805 0.400153
0.816037 0.227344 0.50808
0.782925 0.260914 0.616007
0.749828 0.294469 0.723949
0.716716 0.328023 0.831891
0.683619 0.361578 0.939818
0.650507 0.395132 1
0.617395 0.428687 1
0.584298 0.462242 1
1 0.242252 0.500191
1 0.275807 0.608118
0.995224 0.309361 0.71606
0.962112 0.342916 0.823987
0.929015 0.376471 0.93193
0.895903 0.410025 1
0.862791 0.44358 1
0.829694 0.477134 1
0.796582 0.510689 1
1 0.2907 0.600229
1 0.324254 0.708156
1 0.357809 0.816098
1 0.391363 0.924025
1 0.424918 1
1 0.458473 1
1 0.492027 1
1 0.525582 1
1 0.559136 1
1 0.339162 0.700282
1 0.372702 0.808194
1 0.406256 0.916136
1 0.439811 1
1 0.473381 1
1 0.506935 1
1 0.54049 1
1 0.574044 1
1 0.607599 1
1 0.38761 0.80032
1 0.421164 0.908248
1 0.454719 1
1 0.488273 1
1 0.521828 1
1 0.555383 1
1 0.588937 1
1 0.622492 1
1 0.656046 1
0 0.0429847 0
0 0.0765393 0.0249638
0 0.110094 0.132891
0 0.143648 0.240833
0 0.177203 0.34876
0 0.210758 0.456703
0 0.244312 0.56463
0 0.277882 0.672572
0 0.311437 0.780514
0.158083 0.0914321 0.0170596
0.124987 0.124987 0.124987
0.0918746 0.158541 0.232929
0.0587778 0.192096 0.340856
0.0256657 0.22565 0.448798
0 0.259205 0.556725
0 0.29276 0.664668
0 0.326314 0.772595
0 0.359869 0.880537
0.370382 0.139879 0.117098
0.337285 0.173434 0.225025
0.304173 0.206989 0.332967
0.271061 0.240543 0.440894
0.237964 0.274098 0.548837
0.204852 0.307668 0.656779
0.17174 0.341222 0.764706
0.138643 0.374777 0.872648
0.105531 0.408331 0.980575
0.582666 0.188342 0.217151
0.549569 0.221897 0.325063
0.516457 0.255451 0.433005
0.48336 0.289006 0.540948
0.450248 0.32256 0.648875
0.417151 0.356115 0.756817
0.384039 0.38967 0.864744
0.350927 0.423224 0.972686
0.31783 0.456779 1
0.794965 0.236789 0.317189
0.761868 0.270344 0.425116
0.728756 0.303899 0.533043
0.695644 0.337453 0.640986
0.662547 0.371008 0.748913
0.629435 0.404562 0.856855
0.596323 0.438117 0.964797
0.563226 0.471672 1
0.530114 0.505226 1
1 0.285237 0.417227
0.974151 0.318791 0.525154
0.941039 0.352346 0.633082
0.907942 0.385901 0.741024
0.87483 0.419455 0.848966
0.841733 0.45301 0.956893
0.808621 0.486564 1
0.775509 0.520119 1
0.742412 0.553689 1
1 0.3337 0.517266
1 0.367239 0.625193
1 0.400793 0.733135
1 0.434348 0.841062
1 0.467918 0.949004
1 0.501472 1
1 0.535027 1
0.987808 0.568582 1
0.954696 0.602136 1
1 0.382147 0.617319
1 0.415702 0.725231
1 0.449256 0.833173
1 0.482811 0.9411
1 0.516365 1
1 0.54992 1
1 0.583474 1
1 0.617029 1
1 0.650584 1
1 0.430594 0.717357
1 0.464149 0.825269
1 0.497704 0.933211
1 0.531258 1
1 0.564813 1
1 0.598367 1
1 0.631922 1
1 0.665476 1
1 0.699031 1
0 0.0859846 0
0 0.119539 0
0 0.153094 0.0499123
0 0.186648 0.157855
0 0.220203 0.265797
0 0.253758 0.373724
0 0.287312 0.481666
0 0.320867 0.589593
0 0.354421 0.697536
0.103899 0.134432 0
0.0708019 0.167987 0.0420081
0.0376898 0.201541 0.14995
0.00459297 0.235096 0.257877
0 0.26865 0.36582
0 0.302205 0.473762
0 0.33576 0.581689
0 0.369314 0.689632
0 0.402869 0.797559
0.316197 0.182879 0.0341344
0.283101 0.216434 0.142046
0.249989 0.249989 0.249989
0.216876 0.283543 0.357931
0.18378 0.317098 0.465858
0.150668 0.350652 0.5738
0.117571 0.384207 0.681727
0.0844587 0.417762 0.78967
0.0513466 0.451316 0.897597
0.528481 0.231327 0.134173
0.495384 0.264881 0.2421
0.462287 0.298436 0.350027
0.429175 0.331991 0.457969
0.396063 0.365545 0.565896
0.362966 0.3991 0.673838
0.329854 0.43267 0.781781
0.296742 0.466224 0.889708
0.263645 0.499779 0.99765
0.74078 0.279789 0.234211
0.707683 0.313329 0.342138
0.674571 0.346899 0.450065
0.641459 0.380453 0.558007
0.608362 0.414008 0.665949
0.57525 0.447562 0.773877
0.542153 0.481117 0.881819
0.509041 0.514672 0.989746
0.475929 0.548226 1
0.953079 0.328237 0.334249
0.919966 0.361791 0.442176
0.88687 0.395346 0.550118
0.853758 0.428901 0.658045
0.820645 0.462455 0.765988
0.787549 0.49601 0.873915
0.754437 0.529564 0.981857
0.721325 0.563119 1
0.688228 0.596674 1
1 0.376684 0.434302
1 0.410239 0.542214
1 0.443793 0.650156
1 0.477348 0.758083
1 0.510903 0.866026
0.999832 0.544457 0.973968
0.966735 0.578012 1
0.933623 0.611566 1
0.900511 0.645121 1
1 0.425147 0.53434
1 0.458686 0.642252
1 0.492241 0.750195
1 0.525795 0.858137
1 0.55935 0.966064
1 0.59292 1
1 0.626474 1
1 0.660029 1
1 0.693584 1
1 0.473594 0.634379
1 0.507149 0.742306
1 0.540703 0.850233
1 0.574258 0.958175
1 0.607813 1
1 0.641367 1
1 0.674922 1
1 0.708476 1
1 0.742031 1
0 0.128985 0
0 0.162524 0
0 0.196094 0
0 0.229648 0.074876
0 0.263203 0.182818
0 0.296757 0.290745
0 0.330312 0.398688
0 0.363867 0.506615
0 0.397421 0.614557
0.0497292 0.177432 0
0.0166171 0.210971 0
0 0.244526 0.0669718
0 0.27808 0.174914
0 0.31165 0.282841
0 0.345205 0.390784
0 0.378759 0.498711
0 0.412314 0.606653
0 0.445869 0.71458
0.262013 0.225879 0
0.228916 0.259434 0.0590829
0.195804 0.292988 0.16701
0.162692 0.326543 0.274952
0.129595 0.360098 0.382879
0.0964828 0.393652 0.490822
0.063386 0.427207 0.598764
0.0302739 0.460761 0.706691
0 0.494316 0.814633
0.474311 0.274327 0.051194
0.441199 0.307881 0.159121
0.408103 0.341436 0.267048
0.37499 0.37499 0.37499
0.341878 0.408545 0.482933
0.308782 0.4421 0.59086
0.275669 0.475654 0.698802
0.242573 0.509209 0.806729
0.209461 0.542763 0.914672
0.686595 0.322774 0.151232
0.653498 0.356329 0.259159
0.620386 0.389883 0.367102
0.587289 0.423438 0.475029
0.554177 0.456992 0.582971
0.521065 0.490547 0.690898
0.487968 0.524102 0.79884
0.454856 0.557671 0.906783
0.421744 0.591226 1
0.898894 0.371237 0.251286
0.865782 0.404776 0.359197
0.832685 0.438331 0.46714
0.799573 0.471901 0.575067
0.766461 0.505455 0.683009
0.733364 0.53901 0.790951
0.700252 0.572564 0.898878
0.667155 0.606119 1
0.634043 0.639673 1
1 0.419684 0.351324
1 0.453239 0.459236
1 0.486793 0.567178
1 0.520348 0.67512
0.978759 0.553903 0.783047
0.945647 0.587457 0.89099
0.912551 0.621012 0.998917
0.879438 0.654566 1
0.846326 0.688121 1
1 0.468132 0.451362
1 0.501686 0.559289
1 0.535241 0.667216
1 0.568795 0.775158
1 0.60235 0.883085
1 0.635904 0.991028
1 0.669459 1
1 0.703014 1
1 0.736568 1
1 0.516579 0.5514
1 0.550134 0.659327
1 0.583688 0.767254
1 0.617243 0.875196
1 0.650797 0.983139
1 0.684352 1
1 0.717922 1
1 0.751476 1
1 0.785031 1
0 0.171969 0
0 0.205524 0
0 0.239078 0
0 0.272633 0
0 0.306188 0.0998398
0 0.339742 0.207782
0 0.373297 0.315709
0 0.406851 0.423651
0 0.440421 0.531579
0 0.220417 0
0 0.253971 0
0 0.287526 0
0 0.32108 0.0919356
0 0.354635 0.199863
0 0.38819 0.307805
0 0.421744 0.415747
0 0.455299 0.523674
0 0.488853 0.631617
0.207828 0.268864 0
0.174731 0.302419 0
0.141619 0.335973 0.0840314
0.108522 0.369528 0.191974
0.0754101 0.403082 0.299916
0.042298 0.436652 0.407843
0.00920119 0.470207 0.515785
0 0.503761 0.623713
0 0.537316 0.731655
0.420127 0.317327 0
0.387015 0.350881 0.0761425
0.353918 0.384436 0.184085
0.320806 0.41799 0.292012
0.287694 0.451545 0.399954
0.254597 0.4851 0.507881
0.221485 0.518654 0.615824
0.188388 0.552209 0.723766
0.155276 0.585763 0.831693
0.63241 0.365774 0.0682689
0.599313 0.399329 0.176181
0.566201 0.432883 0.284123
0.533104 0.466438 0.39205
0.499992 0.499992 0.499992
0.46688 0.533547 0.607935
0.433783 0.567102 0.715862
0.400671 0.600656 0.823804
0.367575 0.634211 0.931731
0.844709 0.414221 0.168307
0.811597 0.447776 0.276219
0.7785 0.481331 0.384161
0.745388 0.514885 0.492103
0.712291 0.54844 0.600031
0.679179 0.581994 0.707973
0.646067 0.615549 0.8159
0.61297 0.649104 0.923842
0.579858 0.682673 1
1 0.462684 0.268345
1 0.496223 0.376272
0.990784 0.529778 0.484199
0.957687 0.563333 0.592142
0.924575 0.596902 0.700069
0.891463 0.630457 0.808011
0.858366 0.664012 0.915953
0.825254 0.697566 1
0.792157 0.731121 1
1 0.511131 0.368383
1 0.544686 0.47631
1 0.578241 0.584237
1 0.611795 0.69218
1 0.64535 0.800122
1 0.678904 0.908049
1 0.712459 1
1 0.746014 1
1 0.779568 1
1 0.559579 0.468421
1 0.593133 0.576349
1 0.626688 0.684291
1 0.660243 0.792218
1 0.693797 0.90016
1 0.727352 1
1 0.760906 1
1 0.794461 1
1 0.828016 1
0 0.214969 0
0 0.248524 0
0 0.282078 0
0 0.315633 0
0 0.349187 0.0168612
0 0.382742 0.124804
0 0.416297 0.232731
0 0.449851 0.340673
0 0.483406 0.4486
0 0.263416 0
0 0.296971 0
0 0.330526 0
0 0.36408 0.00895705
0 0.397635 0.116899
0 0.431189 0.224826
0 0.464744 0.332769
0 0.498299 0.440696
0 0.531853 0.548638
0.153643 0.311864 0
0.120546 0.345418 0
0.0874342 0.378973 0.00106813
0.0543374 0.412528 0.108995
0.0212253 0.446082 0.216938
0 0.479637 0.324865
0 0.513191 0.432807
0 0.546746 0.540749
0 0.580301 0.648676
0.365942 0.360311 0
0.33283 0.393866 0
0.299733 0.42742 0.101106
0.266621 0.460975 0.209033
0.233524 0.49453 0.316976
0.200412 0.528084 0.424918
0.1673 0.561654 0.532845
0.134203 0.595209 0.640787
0.101091 0.628763 0.748714
0.578225 0.408774 0
0.545129 0.442313 0.0932021
0.512016 0.475883 0.201144
0.47892 0.509438 0.309087
0.445808 0.542992 0.417014
0.412695 0.576547 0.524956
0.379599 0.610101 0.632883
0.346487 0.643656 0.740826
0.31339 0.677211 0.848768
0.790524 0.457221 0.0853285
0.757412 0.490776 0.193256
0.724315 0.52433 0.301183
0.691203 0.557885 0.409125
0.658106 0.59144 0.517052
0.624994 0.624994 0.624994
0.591882 0.658549 0.732937
0.558785 0.692103 0.840864
0.525673 0.725658 0.948806
1 0.505669 0.185367
0.969711 0.539223 0.293294
0.936599 0.572778 0.401221
0.903502 0.606332 0.509163
0.87039 0.639887 0.617105
0.837293 0.673442 0.725032
0.804181 0.706996 0.832975
0.771069 0.740551 0.940902
0.737972 0.774105 1
1 0.554116 0.285405
1 0.587671 0.393332
1 0.621225 0.501274
1 0.65478 0.609201
1 0.688334 0.717144
1 0.721904 0.825071
1 0.755459 0.933013
0.983368 0.789014 1
0.950256 0.822568 1
1 0.602579 0.385458
1 0.636133 0.49337
1 0.669688 0.601312
1 0.703243 0.709239
1 0.736797 0.817182
1 0.770352 0.925124
1 0.803906 1
1 0.837461 1
1 0.871015 1
0 0.257969 0
0 0.291508 0
0 0.325063 0
0 0.358633 0
0 0.392187 0
0 0.425742 0.041825
0 0.459297 0.149767
0 0.492851 0.257694
0 0.526406 0.365637
0 0.306416 0
0 0.339956 0
0 0.37351 0
0 0.407065 0
0 0.440635 0.0339208
0 0.474189 0.141848
0 0.507744 0.24979
0 0.541299 0.357733
0 0.574853 0.46566
0.0994583 0.354864 0
0.0663615 0.388418 0
0.0332494 0.421973 0
0.00015259 0.455528 0.0260166
0 0.489082 0.133959
0 0.522637 0.241901
0 0.556191 0.349828
0 0.589746 0.457771
0 0.623301 0.565698
0.311757 0.403311 0
0.27866 0.436866 0
0.245548 0.47042 0.0181277
0.212436 0.503975 0.12607
0.179339 0.53753 0.233997
0.146227 0.571084 0.341939
0.113115 0.604639 0.449866
0.0800183 0.638193 0.557809
0.0469062 0.671748 0.665751
0.524041 0.451759 0
0.490944 0.485313 0.0102388
0.457832 0.518868 0.118166
0.424735 0.552422 0.226108
0.391623 0.585977 0.334035
0.358526 0.619532 0.441978
0.325414 0.653086 0.54992
0.292302 0.686656 0.657847
0.259205 0.720211 0.765789
0.736339 0.500221 0.00234989
0.703243 0.533761 0.110277
0.67013 0.567315 0.218204
0.637018 0.600885 0.326146
0.603922 0.63444 0.434089
0.570809 0.667994 0.542016
0.537697 0.701549 0.649958
0.504601 0.735103 0.757885
0.471489 0.768658 0.865827
0.948623 0.548669 0.102388
0.915526 0.582223 0.210315
0.882414 0.615778 0.318257
0.849317 0.649332 0.426184
0.816205 0.682887 0.534127
0.783108 0.716442 0.642054
0.749996 0.749996 0.749996
0.716884 0.783551 0.857939
0.683787 0.817105 0.965866
1 0.597116 0.202441
1 0.630671 0.310353
1 0.664225 0.418296
1 0.69778 0.526223
1 0.731334 0.634165
0.995392 0.764889 0.742107
0.96228 0.798444 0.850034
0.929183 0.831998 0.957977
0.896071 0.865553 1
1 0.645563 0.30248
1 0.679118 0.410407
1 0.712673 0.518334
1 0.746227 0.626276
1 0.779782 0.734203
1 0.813336 0.842145
1 0.846906 0.950072
1 0.880461 1
1 0.914015 1
0 0.300954 0
0 0.334508 0
0 0.368063 0
0 0.401617 0
0 0.435172 0
0 0.468727 0
0 0.502281 0.0667887
0 0.535836 0.174716
0 0.569406 0.282658
0 0.349401 0
0 0.382956 0
0 0.41651 0
0 0.450065 0
0 0.483619 0
0 0.517174 0.0588846
0 0.550729 0.166812
0 0.584283 0.274754
0 0.617838 0.382681
0.0452888 0.397848 0
0.0121767 0.431403 0
0 0.464958 0
0 0.498512 0
0 0.532067 0.0509804
0 0.565637 0.158923
0 0.599191 0.26685
0 0.632746 0.374792
0 0.6663 0.482734
0.257572 0.446311 0
0.224475 0.479866 0
0.191363 0.51342 0
0.158251 0.546975 0.0430915
0.125154 0.58053 0.151019
0.0920424 0.614084 0.258961
0.0589456 0.647639 0.366903
0.0258335 0.681193 0.47483
0 0.714748 0.582773
0.469871 0.494759 0
0.436759 0.528313 0
0.403662 0.561868 0.0351873
0.37055 0.595422 0.14313
0.337438 0.628977 0.251072
0.304341 0.662531 0.358999
0.271229 0.696086 0.466941
0.238117 0.729641 0.574868
0.20502 0.763195 0.682811
0.682155 0.543206 0
0.649058 0.576761 0.0272984
0.615946 0.610315 0.135241
0.582834 0.64387 0.243168
0.549737 0.677424 0.35111
0.516625 0.710979 0.459037
0.483528 0.744533 0.566979
0.450416 0.778088 0.674922
0.417304 0.811658 0.782849
0.894453 0.591669 0.0194247
0.861341 0.625208 0.127337
0.828244 0.658763 0.235279
0.795132 0.692317 0.343206
0.76202 0.725887 0.451148
0.728923 0.759441 0.559091
0.695811 0.792996 0.667018
0.662699 0.826551 0.77496
0.629602 0.860105 0.882887
1 0.640116 0.119463
1 0.673671 0.22739
1 0.707225 0.335317
1 0.74078 0.443259
0.974319 0.774334 0.551186
0.941207 0.807889 0.659129
0.90811 0.841443 0.767056
0.874998 0.874998 0.874998
0.841886 0.908553 0.98294
1 0.688563 0.219501
1 0.722118 0.327428
1 0.755673 0.435355
1 0.789227 0.543297
1 0.822782 0.651225
1 0.856336 0.759167
1 0.889891 0.867109
1 0.923445 0.975036
1 0.957 1
0 0.343954 0
0 0.377508 0
0 0.411063 0
0 0.444617 0
0 0.478172 0
0 0.511727 0
0 0.545281 0
0 0.578836 0.0917525
0 0.61239 0.19968
0 0.392401 0
0 0.425956 0
0 0.45951 0
0 0.493065 0
0 0.526619 0
0 0.560174 0
0 0.593729 0.0838331
0 0.627283 0.191775
0 0.660838 0.299718
0 0.440848 0
0 0.474403 0
0 0.507958 0
0 0.541512 0
0 0.575067 0
0 0.608621 0.0759442
0 0.642176 0.183886
0 0.675731 0.291814
0 0.709285 0.399756
0.203387 0.489296 0
0.170291 0.52285 0
0.137179 0.556405 0
0.104082 0.58996 0
0.0709697 0.623514 0.0680552
0.0378576 0.657069 0.175982
0.00476081 0.690639 0.283925
0 0.724193 0.391852
0 0.757748 0.499794
0.415686 0.537758 0
0.382574 0.571298 0
0.349477 0.604868 0
0.316365 0.638422 0.0601511
0.283253 0.671977 0.168093
0.250156 0.705531 0.27602
0.217044 0.739086 0.383963
0.183948 0.772641 0.491905
0.150835 0.806195 0.599832
0.62797 0.586206 0
0.594873 0.61976 0
0.561761 0.653315 0.0522621
0.528664 0.68687 0.160189
0.495552 0.720424 0.268132
0.46244 0.753979 0.376074
0.429343 0.787533 0.484001
0.396231 0.821088 0.591943
0.363119 0.854643 0.69987
0.840269 0.634653 0
0.807157 0.668208 0.0443732
0.77406 0.701762 0.1523
0.740948 0.735317 0.260243
0.707835 0.768872 0.36817
0.674739 0.802426 0.476112
0.641627 0.835981 0.584039
0.60853 0.869535 0.691981
0.575418 0.90309 0.799924
1 0.683101 0.0364843
1 0.716655 0.144411
0.986343 0.75021 0.252338
0.953246 0.783764 0.360281
0.920134 0.817319 0.468208
0.887022 0.850889 0.57615
0.853925 0.884443 0.684092
0.820813 0.917998 0.79202
0.787701 0.951553 0.899962
1 0.731563 0.136522
1 0.765118 0.24445
1 0.798672 0.352392
1 0.832227 0.460319
1 0.865782 0.568261
1 0.899336 0.676188
1 0.932891 0.784131
1 0.966445 0.892058
1 1 1
