public/LUTS/Color Shift/ColorShift_94.cube
TITLE "Generated by Resolve"
LUT_3D_SIZE 33
0 0 0
0 0.011368 0.0379187
0 0.0227207 0.0758526
0 0.0340887 0.113802
0 0.0454566 0.151736
0 0.0568246 0.189685
0 0.0681926 0.227619
0 0.0795605 0.265553
0 0.0909285 0.303502
0 0.102296 0.341436
0 0.113649 0.37937
0 0.125017 0.417319
0 0.136385 0.455253
0 0.147753 0.493187
0 0.159121 0.531136
0 0.170489 0.56907
0 0.181857 0.607004
0 0.193225 0.644953
0 0.204578 0.682887
0 0.215946 0.720821
0 0.227314 0.75877
0 0.238682 0.796704
0 0.25005 0.834638
0 0.261418 0.872587
0 0.272786 0.910521
0 0.284153 0.948455
0 0.295506 0.986404
0 0.306874 1
0 0.318242 1
0 0.32961 1
0 0.340978 1
0 0.352346 1
0 0.363714 1
0.0737316 0.00479133 0.0336461
0.0508431 0.016144 0.0715648
0.0279545 0.027512 0.109514
0.005066 0.03888 0.147448
0 0.050248 0.185397
0 0.0616159 0.223331
0 0.0729839 0.261265
0 0.0843519 0.299214
0 0.0957046 0.337148
0 0.107073 0.375082
0 0.118441 0.413031
0 0.129809 0.450965
0 0.141176 0.488899
0 0.152544 0.526848
0 0.163912 0.564782
0 0.17528 0.602716
0 0.186633 0.640665
0 0.198001 0.678599
0 0.209369 0.716533
0 0.220737 0.754482
0 0.232105 0.792416
0 0.243473 0.83035
0 0.254841 0.868299
0 0.266209 0.906233
0 0.277577 0.944167
0 0.28893 0.982116
0 0.300298 1
0 0.311666 1
0 0.323033 1
0 0.334401 1
0 0.345769 1
0 0.357137 1
0 0.368505 1
0.147509 0.00958267 0.0673228
0.12462 0.0209354 0.105241
0.101717 0.0323033 0.143175
0.0788281 0.0436713 0.181125
0.0559396 0.0550393 0.219059
0.0330358 0.0664073 0.256992
0.0101472 0.0777752 0.294942
0 0.0891432 0.332876
0 0.100496 0.370809
0 0.111864 0.408759
0 0.123232 0.446693
0 0.1346 0.484627
0 0.145968 0.522576
0 0.157336 0.56051
0 0.168704 0.598444
0 0.180072 0.636393
0 0.191424 0.674327
0 0.202792 0.712261
0 0.21416 0.75021
0 0.225528 0.788144
0 0.236896 0.826078
0 0.248264 0.864027
0 0.259632 0.901961
0 0.271 0.93991
0 0.282353 0.977844
0 0.293721 1
0 0.305089 1
0 0.316457 1
0 0.327825 1
0 0.339193 1
0 0.350561 1
0 0.361929 1
0 0.373297 1
0.221271 0.014374 0.100984
0.198383 0.0257267 0.138903
0.175494 0.0370947 0.176852
0.152605 0.0484627 0.214786
0.129702 0.0598306 0.25272
0.106813 0.0711986 0.290669
0.0839094 0.0825666 0.328603
0.0610208 0.0939193 0.366537
0.038117 0.105287 0.404486
0.0152285 0.116655 0.44242
0 0.128023 0.480354
0 0.139391 0.518303
0 0.150759 0.556237
0 0.162127 0.594171
0 0.173495 0.63212
0 0.184863 0.670054
0 0.196216 0.707988
0 0.207584 0.745937
0 0.218952 0.783871
0 0.23032 0.82182
0 0.241688 0.859754
0 0.253056 0.897688
0 0.264424 0.935637
0 0.275792 0.973571
0 0.287144 1
0 0.298512 1
0 0.30988 1
0 0.321248 1
0 0.332616 1
0 0.343984 1
0 0.355352 1
0 0.36672 1
0 0.378073 1
0.295048 0.0191653 0.134661
0.27216 0.030518 0.17258
0.249271 0.041886 0.210513
0.226368 0.053254 0.248447
0.203479 0.064622 0.286397
0.180575 0.0759899 0.324331
0.157687 0.0873579 0.362264
0.134783 0.0987106 0.400214
0.111894 0.110079 0.438148
0.0889906 0.121447 0.476081
0.0661021 0.132815 0.514031
0.0431983 0.144183 0.551965
0.0203098 0.15555 0.589899
0 0.166918 0.627848
0 0.178286 0.665782
0 0.189639 0.703731
0 0.201007 0.741665
0 0.212375 0.779599
0 0.223743 0.817548
0 0.235111 0.855482
0 0.246479 0.893416
0 0.257847 0.931365
0 0.269215 0.969299
0 0.280583 1
0 0.291936 1
0 0.303304 1
0 0.314672 1
0 0.32604 1
0 0.337407 1
0 0.348775 1
0 0.360143 1
0 0.371511 1
0 0.382864 1
0.368811 0.0239567 0.168322
0.345922 0.0353094 0.206241
0.323033 0.0466773 0.244175
0.300145 0.0580453 0.282124
0.277241 0.0694133 0.320058
0.254353 0.0807813 0.357992
0.231449 0.0921492 0.395941
0.20856 0.103502 0.433875
0.185657 0.11487 0.471809
0.162768 0.126238 0.509758
0.139864 0.137606 0.547692
0.116976 0.148974 0.585641
0.0940871 0.160342 0.623575
0.0711833 0.17171 0.661509
0.0482948 0.183078 0.699458
0.025391 0.19443 0.737392
0.00250248 0.205798 0.775326
0 0.217166 0.813275
0 0.228534 0.851209
0 0.239902 0.889143
0 0.25127 0.927092
0 0.262638 0.965026
0 0.274006 1
0 0.285359 1
0 0.296727 1
0 0.308095 1
0 0.319463 1
0 0.330831 1
0 0.342199 1
0 0.353567 1
0 0.364935 1
0 0.376287 1
0 0.387655 1
0.442588 0.028748 0.201984
0.419699 0.0401007 0.239902
0.396811 0.0514687 0.277852
0.373907 0.0628367 0.315785
0.351019 0.0742046 0.353735
0.328115 0.0855726 0.391669
0.305226 0.0969253 0.429603
0.282322 0.108293 0.467552
0.259434 0.119661 0.505486
0.23653 0.131029 0.54342
0.213642 0.142397 0.581369
0.190738 0.153765 0.619303
0.167849 0.165133 0.657237
0.144961 0.176501 0.695186
0.122057 0.187869 0.73312
0.0991684 0.199222 0.771054
0.0762646 0.21059 0.809003
0.0533761 0.221958 0.846937
0.0304723 0.233326 0.884871
0.00758373 0.244694 0.92282
0 0.256062 0.960754
0 0.26743 0.998688
0 0.278798 1
0 0.29015 1
0 0.301518 1
0 0.312886 1
0 0.324254 1
0 0.335622 1
0 0.34699 1
0 0.358358 1
0 0.369726 1
0 0.381079 1
0 0.392447 1
0.51635 0.0335393 0.23566
0.493477 0.044892 0.273579
0.470573 0.05626 0.311513
0.447684 0.067628 0.349462
0.424781 0.078996 0.387396
0.401892 0.0903639 0.42533
0.378988 0.101717 0.463279
0.3561 0.113085 0.501213
0.333196 0.124453 0.539147
0.310307 0.135821 0.577096
0.287404 0.147189 0.61503
0.264515 0.158556 0.652964
0.241627 0.169924 0.690913
0.218723 0.181292 0.728847
0.195834 0.192645 0.766781
0.17293 0.204013 0.80473
0.150042 0.215381 0.842664
0.127138 0.226749 0.880598
0.10425 0.238117 0.918547
0.0813458 0.249485 0.956481
0.0584573 0.260853 0.994415
0.0355535 0.272221 1
0.012665 0.283574 1
0 0.294942 1
0 0.30631 1
0 0.317678 1
0 0.329046 1
0 0.340414 1
0 0.351781 1
0 0.363149 1
0 0.374517 1
0 0.38587 1
0 0.397238 1
0.590127 0.0383154 0.269322
0.567239 0.0496834 0.30724
0.54435 0.0610513 0.34519
0.521447 0.0724193 0.383124
0.498558 0.0837873 0.421057
0.475654 0.0951553 0.459007
0.452766 0.106508 0.496941
0.429862 0.117876 0.534874
0.406973 0.129244 0.572824
0.38407 0.140612 0.610758
0.361181 0.15198 0.648692
0.338293 0.163348 0.686641
0.315389 0.174716 0.724575
0.2925 0.186084 0.762509
0.269596 0.197436 0.800458
0.246708 0.208804 0.838392
0.223804 0.220172 0.876326
0.200916 0.23154 0.914275
0.178012 0.242908 0.952209
0.155123 0.254276 0.990158
0.132219 0.265644 1
0.109331 0.277012 1
0.0864424 0.288365 1
0.0635386 0.299733 1
0.04065 0.311101 1
0.0177462 0.322469 1
0 0.333837 1
0 0.345205 1
0 0.356573 1
0 0.367941 1
0 0.379294 1
0 0.390661 1
0 0.402029 1
0.66389 0.0431067 0.302998
0.641016 0.0544747 0.340917
0.618112 0.0658427 0.378851
0.595224 0.0772106 0.416785
0.57232 0.0885786 0.454734
0.549432 0.0999313 0.492668
0.526528 0.111299 0.530602
0.503639 0.122667 0.568551
0.480735 0.134035 0.606485
0.457847 0.145403 0.644419
0.434943 0.156771 0.682368
0.412055 0.168139 0.720302
0.389166 0.179507 0.758236
0.366262 0.19086 0.796185
0.343374 0.202228 0.834119
0.32047 0.213596 0.872068
0.297581 0.224964 0.910002
0.274678 0.236332 0.947936
0.251789 0.2477 0.985885
0.228885 0.259068 1
0.205997 0.270436 1
0.183108 0.281804 1
0.160204 0.293156 1
0.137316 0.304524 1
0.114412 0.315892 1
0.0915236 0.32726 1
0.0686198 0.338628 1
0.0457313 0.349996 1
0.0228275 0.361364 1
0 0.372732 1
0 0.384085 1
0 0.395453 1
0 0.406821 1
0.737667 0.0478981 0.33666
0.714778 0.059266 0.374578
0.69189 0.070634 0.412512
0.668986 0.082002 0.450462
0.646097 0.09337 0.488396
0.623194 0.104723 0.526329
0.600305 0.116091 0.564279
0.577401 0.127459 0.602213
0.554513 0.138827 0.640162
0.531609 0.150195 0.678096
0.508721 0.161563 0.71603
0.485832 0.17293 0.753979
0.462928 0.184298 0.791913
0.44004 0.195651 0.829847
0.417136 0.207019 0.867796
0.394247 0.218387 0.90573
0.371344 0.229755 0.943664
0.348455 0.241123 0.981613
0.325551 0.252491 1
0.302663 0.263859 1
0.279759 0.275227 1
0.25687 0.28658 1
0.233982 0.297948 1
0.211078 0.309316 1
0.18819 0.320684 1
0.165286 0.332052 1
0.142397 0.34342 1
0.119493 0.354788 1
0.0966049 0.366155 1
0.0737011 0.377523 1
0.0508125 0.388876 1
0.027924 0.400244 1
0.00502022 0.411612 1
0.811429 0.0526894 0.370321
0.788556 0.0640574 0.40824
0.765652 0.0754253 0.446189
0.742763 0.0867933 0.484123
0.71986 0.098146 0.522072
0.696971 0.109514 0.560006
0.674067 0.120882 0.59794
0.651179 0.13225 0.635889
0.628275 0.143618 0.673823
0.605386 0.154986 0.711757
0.582498 0.166354 0.749706
0.559594 0.177722 0.78764
0.536706 0.18909 0.825574
0.513802 0.200443 0.863523
0.490913 0.21181 0.901457
0.468009 0.223178 0.939391
0.445121 0.234546 0.97734
0.422217 0.245914 1
0.399329 0.257282 1
0.376425 0.26865 1
0.353536 0.280018 1
0.330648 0.291371 1
0.307744 0.302739 1
0.284855 0.314107 1
0.261952 0.325475 1
0.239063 0.336843 1
0.216159 0.348211 1
0.193271 0.359579 1
0.170367 0.370947 1
0.147478 0.3823 1
0.124575 0.393668 1
0.101686 0.405035 1
0.0787976 0.416403 1
0.885206 0.0574807 0.403998
0.862318 0.0688487 0.441917
0.839429 0.0802167 0.47985
0.816526 0.0915847 0.5178
0.793637 0.102937 0.555734
0.770733 0.114305 0.593668
0.747845 0.125673 0.631617
0.724941 0.137041 0.669551
0.702052 0.148409 0.707485
0.679149 0.159777 0.745434
0.65626 0.171145 0.783368
0.633371 0.182513 0.821302
0.610468 0.193866 0.859251
0.587579 0.205234 0.897185
0.564675 0.216602 0.935119
0.541787 0.22797 0.973068
0.518883 0.239338 1
0.495995 0.250706 1
0.473091 0.262074 1
0.450202 0.273442 1
0.427314 0.28481 1
0.40441 0.296162 1
0.381521 0.30753 1
0.358618 0.318898 1
0.335729 0.330266 1
0.312825 0.341634 1
0.289937 0.353002 1
0.267033 0.36437 1
0.244144 0.375738 1
0.221241 0.387091 1
0.198352 0.398459 1
0.175463 0.409827 1
0.15256 0.421195 1
0.958968 0.0622721 0.437659
0.936095 0.07364 0.475578
0.913191 0.085008 0.513527
0.890303 0.096376 0.551461
0.867399 0.107729 0.589395
0.844511 0.119097 0.627344
0.821607 0.130465 0.665278
0.798718 0.141833 0.703212
0.775814 0.153201 0.741161
0.752926 0.164569 0.779095
0.730037 0.175937 0.817029
0.707134 0.187304 0.854978
0.684245 0.198657 0.892912
0.661341 0.210025 0.930846
0.638453 0.221393 0.968795
0.615549 0.232761 1
0.59266 0.244129 1
0.569757 0.255497 1
0.546868 0.266865 1
0.523964 0.278233 1
0.501076 0.289586 1
0.478187 0.300954 1
0.455283 0.312322 1
0.432395 0.32369 1
0.409491 0.335058 1
0.386603 0.346426 1
0.363699 0.357794 1
0.34081 0.369162 1
0.317906 0.380514 1
0.295018 0.391882 1
0.272114 0.40325 1
0.249226 0.414618 1
0.226337 0.425986 1
1 0.0670634 0.471336
1 0.0784314 0.509255
0.986969 0.0897993 0.547189
0.964065 0.101152 0.585122
0.941176 0.11252 0.623072
0.918273 0.123888 0.661006
0.895384 0.135256 0.69894
0.87248 0.146624 0.736889
0.849592 0.157992 0.774823
0.826688 0.16936 0.812757
0.8038 0.180728 0.850706
0.780911 0.192096 0.88864
0.758007 0.203449 0.926574
0.735119 0.214817 0.964523
0.712215 0.226184 1
0.689326 0.237552 1
0.666423 0.24892 1
0.643534 0.260288 1
0.62063 0.271656 1
0.597742 0.283024 1
0.574853 0.294377 1
0.551949 0.305745 1
0.529061 0.317113 1
0.506157 0.328481 1
0.483268 0.339849 1
0.460365 0.351217 1
0.437476 0.362585 1
0.414572 0.373953 1
0.391684 0.385306 1
0.36878 0.396674 1
0.345892 0.408042 1
0.323003 0.419409 1
0.300099 0.430777 1
1 0.0718547 0.504997
1 0.0832227 0.542916
1 0.0945907 0.58085
1 0.105943 0.618799
1 0.117311 0.656733
0.99205 0.128679 0.694667
0.969146 0.140047 0.732616
0.946258 0.151415 0.77055
0.923354 0.162783 0.808499
0.900465 0.174151 0.846433
0.877577 0.185519 0.884367
0.854673 0.196872 0.922316
0.831785 0.20824 0.96025
0.808881 0.219608 0.998184
0.785992 0.230976 1
0.763088 0.242344 1
0.7402 0.253712 1
0.717296 0.26508 1
0.694408 0.276448 1
0.671504 0.2878 1
0.648615 0.299168 1
0.625727 0.310536 1
0.602823 0.321904 1
0.579934 0.333272 1
0.557031 0.34464 1
0.534142 0.356008 1
0.511238 0.367376 1
0.48835 0.378744 1
0.465446 0.390097 1
0.442557 0.401465 1
0.419669 0.412833 1
0.396765 0.424201 1
0.373877 0.435569 1
1 0.0766461 0.538659
1 0.088014 0.576577
1 0.099382 0.614527
1 0.110735 0.652461
1 0.122103 0.69041
1 0.133471 0.728344
1 0.144839 0.766278
1 0.156207 0.804227
0.997131 0.167575 0.842161
0.974243 0.178943 0.880095
0.951339 0.190311 0.918044
0.92845 0.201663 0.955978
0.905547 0.213031 0.993912
0.882658 0.224399 1
0.859754 0.235767 1
0.836866 0.247135 1
0.813962 0.258503 1
0.791074 0.269871 1
0.76817 0.281239 1
0.745281 0.292592 1
0.722393 0.30396 1
0.699489 0.315328 1
0.6766 0.326696 1
0.653696 0.338064 1
0.630808 0.349432 1
0.607904 0.3608 1
0.585016 0.372168 1
0.562112 0.38352 1
0.539223 0.394888 1
0.51632 0.406256 1
0.493431 0.417624 1
0.470542 0.428992 1
0.447639 0.44036 1
1 0.0814374 0.572335
1 0.0928054 0.610254
1 0.104158 0.648188
1 0.115526 0.686137
1 0.126894 0.724071
1 0.138262 0.762005
1 0.14963 0.799954
1 0.160998 0.837888
1 0.172366 0.875822
1 0.183734 0.913771
1 0.195087 0.951705
1 0.206455 0.989639
0.979324 0.217823 1
0.95642 0.229191 1
0.933532 0.240558 1
0.910628 0.251926 1
0.887739 0.263294 1
0.864836 0.274662 1
0.841947 0.28603 1
0.819059 0.297383 1
0.796155 0.308751 1
0.773266 0.320119 1
0.750362 0.331487 1
0.727474 0.342855 1
0.70457 0.354223 1
0.681682 0.365591 1
0.658778 0.376959 1
0.635889 0.388312 1
0.612985 0.39968 1
0.590097 0.411048 1
0.567208 0.422415 1
0.544305 0.433783 1
0.521416 0.445151 1
1 0.0862287 0.605997
1 0.0975967 0.643915
1 0.108949 0.681865
1 0.120317 0.719799
1 0.131685 0.757733
1 0.143053 0.795682
1 0.154421 0.833616
1 0.165789 0.87155
1 0.177157 0.909499
1 0.188525 0.947433
1 0.199878 0.985367
1 0.211246 1
1 0.222614 1
1 0.233982 1
1 0.24535 1
0.984405 0.256718 1
0.961501 0.268086 1
0.938613 0.279454 1
0.915709 0.290806 1
0.892821 0.302174 1
0.869932 0.313542 1
0.847028 0.32491 1
0.82414 0.336278 1
0.801236 0.347646 1
0.778347 0.359014 1
0.755444 0.370382 1
0.732555 0.38175 1
0.709651 0.393103 1
0.686763 0.404471 1
0.663874 0.415839 1
0.64097 0.427207 1
0.618082 0.438575 1
0.595178 0.449943 1
1 0.0910201 0.639673
1 0.102373 0.677592
1 0.113741 0.715526
1 0.125109 0.75346
1 0.136477 0.791409
1 0.147845 0.829343
1 0.159213 0.867277
1 0.170581 0.905226
1 0.181949 0.94316
1 0.193317 0.981094
1 0.204669 1
1 0.216037 1
1 0.227405 1
1 0.238773 1
1 0.250141 1
1 0.261509 1
1 0.272877 1
1 0.284245 1
0.989487 0.295598 1
0.966598 0.306966 1
0.943694 0.318334 1
0.920806 0.329702 1
0.897902 0.34107 1
0.875013 0.352438 1
0.85211 0.363806 1
0.829221 0.375174 1
0.806317 0.386526 1
0.783429 0.397894 1
0.760525 0.409262 1
0.737636 0.42063 1
0.714748 0.431998 1
0.691844 0.443366 1
0.668956 0.454734 1
1 0.0958114 0.673335
1 0.107164 0.711254
1 0.118532 0.749187
1 0.1299 0.787137
1 0.141268 0.825071
1 0.152636 0.863005
1 0.164004 0.900954
1 0.175372 0.938888
1 0.18674 0.976837
1 0.198093 1
1 0.209461 1
1 0.220829 1
1 0.232197 1
1 0.243565 1
1 0.254932 1
1 0.2663 1
1 0.277668 1
1 0.289036 1
1 0.300389 1
1 0.311757 1
1 0.323125 1
0.994568 0.334493 1
0.971679 0.345861 1
0.948775 0.357229 1
0.925887 0.368597 1
0.902983 0.379965 1
0.880095 0.391318 1
0.857191 0.402686 1
0.834302 0.414054 1
0.811414 0.425422 1
0.78851 0.43679 1
0.765621 0.448157 1
0.742718 0.459525 1
1 0.100603 0.706996
1 0.111955 0.744915
1 0.123323 0.782864
1 0.134691 0.820798
1 0.146059 0.858747
1 0.157427 0.896681
1 0.168795 0.934615
1 0.180163 0.972564
1 0.191531 1
1 0.202884 1
1 0.214252 1
1 0.22562 1
1 0.236988 1
1 0.248356 1
1 0.259724 1
1 0.271092 1
1 0.28246 1
1 0.293812 1
1 0.30518 1
1 0.316548 1
1 0.327916 1
1 0.339284 1
1 0.350652 1
1 0.36202 1
0.999649 0.373388 1
0.976761 0.384741 1
0.953857 0.396109 1
0.930968 0.407477 1
0.90808 0.418845 1
0.885176 0.430213 1
0.862287 0.441581 1
0.839384 0.452949 1
0.816495 0.464317 1
1 0.105394 0.740673
1 0.116747 0.778592
1 0.128115 0.816526
1 0.139483 0.854475
1 0.150851 0.892409
1 0.162219 0.930343
1 0.173587 0.968292
1 0.184955 1
1 0.196323 1
1 0.207675 1
1 0.219043 1
1 0.230411 1
1 0.241779 1
1 0.253147 1
1 0.264515 1
1 0.275883 1
1 0.287251 1
1 0.298604 1
1 0.309972 1
1 0.32134 1
1 0.332708 1
1 0.344076 1
1 0.355444 1
1 0.366812 1
1 0.37818 1
1 0.389532 1
1 0.4009 1
1 0.412268 1
0.981842 0.423636 1
0.958953 0.435004 1
0.936049 0.446372 1
0.913161 0.45774 1
0.890257 0.469108 1
1 0.110185 0.774334
1 0.121538 0.812253
1 0.132906 0.850202
1 0.144274 0.888136
1 0.155642 0.92607
1 0.16701 0.964019
1 0.178378 1
1 0.189746 1
1 0.201099 1
1 0.212467 1
1 0.223835 1
1 0.235203 1
1 0.246571 1
1 0.257939 1
1 0.269306 1
1 0.280674 1
1 0.292027 1
1 0.303395 1
1 0.314763 1
1 0.326131 1
1 0.337499 1
1 0.348867 1
1 0.360235 1
1 0.371603 1
1 0.382971 1
1 0.394324 1
1 0.405692 1
1 0.41706 1
1 0.428428 1
1 0.439796 1
1 0.451164 1
0.986923 0.462531 1
0.964034 0.473899 1
1 0.114977 0.808011
1 0.126329 0.84593
1 0.137697 0.883864
1 0.149065 0.921798
1 0.160433 0.959747
1 0.171801 0.997681
1 0.183169 1
1 0.194537 1
1 0.20589 1
1 0.217258 1
1 0.228626 1
1 0.239994 1
1 0.251362 1
1 0.26273 1
1 0.274098 1
1 0.285466 1
1 0.296818 1
1 0.308186 1
1 0.319554 1
1 0.330922 1
1 0.34229 1
1 0.353658 1
1 0.365026 1
1 0.376394 1
1 0.387747 1
1 0.399115 1
1 0.410483 1
1 0.421851 1
1 0.433219 1
1 0.444587 1
1 0.455955 1
1 0.467323 1
1 0.478676 1
1 0.119768 0.841672
1 0.131121 0.879591
1 0.142489 0.917525
1 0.153857 0.955474
1 0.165225 0.993408
1 0.176593 1
1 0.187961 1
1 0.199313 1
1 0.210681 1
1 0.222049 1
1 0.233417 1
1 0.244785 1
1 0.256153 1
1 0.267521 1
1 0.278889 1
1 0.290257 1
1 0.30161 1
1 0.312978 1
1 0.324346 1
1 0.335714 1
1 0.347082 1
1 0.35845 1
1 0.369818 1
1 0.381186 1
1 0.392538 1
1 0.403906 1
1 0.415274 1
1 0.426642 1
1 0.43801 1
1 0.449378 1
1 0.460746 1
1 0.472114 1
1 0.483467 1
1 0.124559 0.875334
1 0.135912 0.913252
1 0.14728 0.951202
1 0.158648 0.989136
1 0.170016 1
1 0.181384 1
1 0.192752 1
1 0.204105 1
1 0.215473 1
1 0.226841 1
1 0.238209 1
1 0.249577 1
1 0.260945 1
1 0.272312 1
1 0.28368 1
1 0.295033 1
1 0.306401 1
1 0.317769 1
1 0.329137 1
1 0.340505 1
1 0.351873 1
1 0.363241 1
1 0.374609 1
1 0.385962 1
1 0.39733 1
1 0.408698 1
1 0.420066 1
1 0.431434 1
1 0.442802 1
1 0.45417 1
1 0.465537 1
1 0.476905 1
1 0.488258 1
1 0.129351 0.90901
1 0.140703 0.946929
1 0.152071 0.984863
1 0.163439 1
1 0.174807 1
1 0.186175 1
1 0.197543 1
1 0.208896 1
1 0.220264 1
