public/LUTS/Color Shift/ColorShift_55.cube
TITLE "Generated by Resolve"
LUT_3D_SIZE 5
0 0 0
0 0.163836 0
0 0.327672 0
0 0.491508 0
0 0.65536 0
0.155581 0.127199 0.59202
0 0.291035 0.466651
0 0.454871 0.341283
0 0.618708 0.2159
0 0.782559 0.0905318
0.311177 0.254414 1
0.0687877 0.418235 1
0 0.582086 0.933333
0 0.745922 0.80795
0 0.909758 0.682582
0.466758 0.381613 1
0.224384 0.545449 1
0 0.709285 1
0 0.873121 1
0 1 1
0.622354 0.508827 1
0.379965 0.672648 1
0.13756 0.8365 1
0 1 1
0 1 1
0.336797 0 0
0.0944076 0.122789 0
0 0.286625 0
0 0.450477 0
0 0.614313 0
0.492378 0.0861524 0.375357
0.249989 0.249989 0.249989
0.00758373 0.413825 0.12462
0 0.577676 0
0 0.741512 0
0.647959 0.213367 0.967407
0.405585 0.377203 0.842039
0.16318 0.541039 0.71667
0 0.704875 0.591287
0 0.868727 0.465919
0.803555 0.340566 1
0.561166 0.504402 1
0.318776 0.668238 1
0.0763714 0.83209 1
0 0.995926 1
0.959152 0.467781 1
0.716762 0.631617 1
0.474357 0.795453 1
0.231952 0.959289 1
0 1 1
0.673609 0 0
0.43122 0.0817426 0
0.188815 0.245579 0
0 0.40943 0
0 0.573266 0
0.82919 0.0451057 0.158679
0.586801 0.208942 0.0333104
0.344396 0.372778 0
0.102007 0.536629 0
0 0.700465 0
0.984787 0.17232 0.750729
0.742397 0.336156 0.62536
0.499992 0.499992 0.499992
0.257588 0.663828 0.374624
0.015198 0.82768 0.249241
1 0.299519 1
0.897978 0.463355 1
0.655589 0.627207 1
0.413184 0.791043 0.966674
0.170779 0.954879 0.841291
1 0.426734 1
1 0.59057 1
0.81117 0.754406 1
0.56878 0.918242 1
0.326375 1 1
1 0 0
0.768032 0.0406958 0
0.525628 0.204547 0
0.283238 0.368383 0
0.0408331 0.532219 0
1 0.00407416 0
0.923613 0.167895 0
0.681208 0.331746 0
0.438819 0.495583 0
0.196414 0.659419 0
1 0.131273 0.534051
1 0.295109 0.408698
0.836805 0.458946 0.283314
0.5944 0.622782 0.157946
0.35201 0.786633 0.0325628
1 0.258488 1
1 0.422309 1
0.992401 0.58616 0.875364
0.749996 0.749996 0.749996
0.507591 0.913832 0.624628
1 0.385687 1
1 0.549523 1
1 0.713359 1
0.905592 0.877211 1
0.663188 1 1
1 0 0
1 0 0
0.862455 0.1635 0
0.62005 0.327337 0
0.377646 0.491173 0
1 0 0
1 0.126848 0
1 0.2907 0
0.775631 0.454536 0
0.533227 0.618372 0
1 0.0902266 0.317388
1 0.254063 0.19202
1 0.417899 0.0666361
0.931212 0.58175 0
0.688823 0.745586 0
1 0.217441 0.909438
1 0.381262 0.78407
1 0.545113 0.658701
1 0.708949 0.533318
0.844404 0.872786 0.40795
1 0.34464 1
1 0.508476 1
1 0.672312 1
1 0.836164 1
1 1 1
