public/LUTS/Color Shift/ColorShift_92.cube
TITLE "Generated by Resolve"
LUT_3D_SIZE 5
0 0 0
0 0.0633555 0.352544
0 0.126711 0.705119
0 0.190066 1
0 0.253422 1
0.601694 0.0482338 0.165255
0.489418 0.111589 0.5178
0.377142 0.174945 0.870375
0.264866 0.2383 1
0.15259 0.301656 1
1 0.0964675 0.330526
1 0.159823 0.68307
0.978866 0.223178 1
0.86659 0.286534 1
0.754314 0.349889 1
1 0.144701 0.495781
1 0.208057 0.848341
1 0.271412 1
1 0.334768 1
1 0.398123 1
1 0.192935 0.661051
1 0.256291 1
1 0.319646 1
1 0.383001 1
1 0.446357 1
0 0.138399 0
0 0.201755 0.0847334
0 0.26511 0.437308
0 0.328466 0.789868
0 0.391821 1
0.362264 0.186633 0
0.249989 0.249989 0.249989
0.137713 0.313344 0.602564
0.0254368 0.376699 0.955123
0 0.440055 1
0.963989 0.234867 0.0626993
0.851713 0.298222 0.415259
0.739437 0.361578 0.767819
0.627161 0.424933 1
0.514885 0.488289 1
1 0.283101 0.22797
1 0.346456 0.580514
1 0.409812 0.933089
1 0.473167 1
1 0.536522 1
1 0.33135 0.39324
1 0.39469 0.745785
1 0.458045 1
1 0.521401 1
1 0.584756 1
0 0.276814 0
0 0.340169 0
0 0.403525 0.169467
0 0.46688 0.522042
0 0.530236 0.874617
0.12282 0.325048 0
0.010544 0.388403 0
0 0.451759 0.334722
0 0.515114 0.687297
0 0.57847 1
0.724544 0.373281 0
0.612268 0.436637 0.147417
0.499992 0.499992 0.499992
0.387717 0.563348 0.852567
0.275441 0.626703 1
1 0.421515 0
1 0.484871 0.312688
1 0.548226 0.665263
0.989441 0.611582 1
0.877165 0.674937 1
1 0.469749 0.125399
1 0.533104 0.477958
1 0.59646 0.830518
1 0.659815 1
1 0.723171 1
0 0.415229 0
0 0.478584 0
0 0.541939 0
0 0.605295 0.254215
0 0.66865 0.606775
0 0.463462 0
0 0.526818 0
0 0.590173 0.0668956
0 0.653529 0.419471
0 0.716884 0.77203
0.4851 0.511696 0
0.372824 0.575051 0
0.260548 0.638407 0.232166
0.148272 0.701762 0.584726
0.035996 0.765118 0.937301
1 0.55993 0
0.974548 0.623285 0.0448615
0.862272 0.686641 0.397421
0.749996 0.749996 0.749996
0.63772 0.813352 1
1 0.608164 0
1 0.671519 0.210117
1 0.734874 0.562692
1 0.79823 0.915267
1 0.861585 1
0 0.553643 0
0 0.616999 0
0 0.680354 0
0 0.743709 0
0 0.807065 0.338949
0 0.601877 0
0 0.665232 0
0 0.728588 0
0 0.791943 0.151629
0 0.855299 0.504204
0.245655 0.650111 0
0.133379 0.713466 0
0.0211032 0.776822 0
0 0.840177 0.316899
0 0.903532 0.669474
0.847379 0.698344 0
0.735103 0.7617 0
0.622827 0.825055 0.129595
0.510552 0.888411 0.48217
0.398276 0.951766 0.83473
1 0.746578 0
1 0.809934 0
1 0.873289 0.294865
1 0.936645 0.647425
1 1 1
