public/LUTS/Color Shift/ColorShift_12.cube
TITLE "Generated by Resolve"
LUT_3D_SIZE 9
0 0 0
0 0.0496529 0
0 0.0993057 0
0 0.148943 0
0 0.198596 0
0 0.248249 0
0 0.297902 0
0 0.347555 0
0 0.397208 0
0.00917067 0.0985885 0.183871
0 0.148241 0.117754
0 0.197894 0.0516365
0 0.247547 0
0 0.2972 0
0 0.346853 0
0 0.396506 0
0 0.446159 0
0 0.495811 0
0.0183566 0.197208 0.367758
0.0061799 0.246845 0.30164
0 0.296498 0.235523
0 0.346151 0.169406
0 0.395804 0.103288
0 0.445457 0.037171
0 0.495109 0
0 0.544762 0
0 0.594415 0
0.0275273 0.295811 0.551644
0.0153658 0.345449 0.485527
0.00318914 0.395102 0.419409
0 0.444755 0.353292
0 0.494408 0.287175
0 0.54406 0.221057
0 0.593713 0.15494
0 0.643366 0.0888228
0 0.693019 0.0227054
0.0366979 0.394415 0.735531
0.0245365 0.444068 0.669413
0.0123598 0.493721 0.603296
0.000198367 0.543374 0.537179
0 0.593011 0.471061
0 0.642664 0.404944
0 0.692317 0.338827
0 0.74197 0.272709
0 0.791623 0.206592
0.0458839 0.493019 0.919417
0.0337072 0.542672 0.8533
0.0215457 0.592325 0.787182
0.00936904 0.641978 0.721065
0 0.69163 0.654948
0 0.741283 0.58883
0 0.790936 0.522713
0 0.840589 0.456596
0 0.890227 0.390478
0.0550546 0.591623 1
0.0428931 0.641276 1
0.0307164 0.690929 0.971069
0.018555 0.740581 0.904967
0.00637827 0.790234 0.838849
0 0.839887 0.772732
0 0.88954 0.706615
0 0.939193 0.640497
0 0.988846 0.57438
0.0642405 0.690242 1
0.0520638 0.739879 1
0.0399023 0.789532 1
0.0277256 0.839185 1
0.0155489 0.888838 1
0.0033875 0.938491 0.956619
0 0.988144 0.890501
0 1 0.824384
0 1 0.758267
0.0734112 0.788846 1
0.0612497 0.838483 1
0.049073 0.888136 1
0.0368963 0.937789 1
0.0247349 0.987442 1
0.0125582 1 1
0.000396735 1 1
0 1 1
0 1 0.942153
0.127977 0 0.00723278
0.115816 0.0263981 0
0.103639 0.076051 0
0.0914778 0.125689 0
0.0793011 0.175341 0
0.0671244 0.224994 0
0.054963 0.274647 0
0.0427863 0.3243 0
0.0306249 0.373953 0
0.137148 0.0753338 0.191089
0.124987 0.124987 0.124987
0.11281 0.17464 0.0588693
0.100649 0.224292 0
0.0884718 0.273945 0
0.0763104 0.323598 0
0.0641337 0.373251 0
0.0519722 0.422904 0
0.0397955 0.472557 0
0.146334 0.173953 0.37499
0.134157 0.22359 0.308873
0.121996 0.273243 0.242756
0.109819 0.322896 0.176638
0.0976577 0.372549 0.110521
0.085481 0.422202 0.0444038
0.0733196 0.471855 0
0.0611429 0.521508 0
0.0489815 0.57116 0
0.155505 0.272557 0.558877
0.143343 0.322194 0.49276
0.131167 0.371847 0.426642
0.119005 0.4215 0.360525
0.106828 0.471153 0.294408
0.094667 0.520806 0.22829
0.0824903 0.570459 0.162173
0.0703136 0.620111 0.0960555
0.0581521 0.669764 0.0299382
0.164691 0.37116 0.742763
0.152514 0.420813 0.676646
0.140352 0.470466 0.610529
0.128176 0.520119 0.544411
0.115999 0.569757 0.478294
0.103838 0.61941 0.412177
0.0916609 0.669062 0.346059
0.0794995 0.718715 0.279942
0.0673228 0.768368 0.213825
0.173861 0.469764 0.92665
0.1617 0.519417 0.860533
0.149523 0.56907 0.794415
0.137346 0.618723 0.728298
0.125185 0.668376 0.662181
0.113008 0.718029 0.596063
0.100847 0.767681 0.529946
0.0886702 0.817334 0.463828
0.0765087 0.866987 0.397711
0.183032 0.568368 1
0.170871 0.618021 1
0.158694 0.667674 0.978302
0.146532 0.717327 0.912184
0.134356 0.766979 0.846067
0.122194 0.816632 0.77995
0.110018 0.866285 0.713832
0.0978561 0.915938 0.647715
0.0856794 0.965591 0.581598
0.192218 0.666987 1
0.180041 0.716625 1
0.16788 0.766278 1
0.155703 0.81593 1
0.143542 0.865583 1
0.131365 0.915236 0.963836
0.119203 0.964889 0.897719
0.107027 1 0.831601
0.0948501 1 0.765484
0.201389 0.765591 1
0.189227 0.815229 1
0.17705 0.864881 1
0.164889 0.914534 1
0.152712 0.964187 1
0.140536 1 1
0.128374 1 1
0.116197 1 1
0.104036 1 0.949386
0.25597 0 0.0144656
0.243809 0.0031281 0
0.231632 0.052781 0
0.219471 0.102434 0
0.207294 0.152087 0
0.195132 0.20174 0
0.182956 0.251392 0
0.170794 0.301045 0
0.158618 0.350698 0
0.265156 0.052079 0.198322
0.252979 0.101732 0.132219
0.240818 0.151385 0.0661021
0.228641 0.201038 0
0.21648 0.25069 0
0.204303 0.300343 0
0.192126 0.349996 0
0.179965 0.399649 0
0.167788 0.449302 0
0.274327 0.150683 0.382208
0.262165 0.200336 0.316106
0.249989 0.249989 0.249989
0.237812 0.299641 0.183871
0.22565 0.349294 0.117754
0.213474 0.398947 0.0516365
0.201312 0.4486 0
0.189136 0.498253 0
0.176974 0.547906 0
0.283497 0.249302 0.56611
0.271336 0.298939 0.499992
0.259159 0.348592 0.433875
0.246998 0.398245 0.367758
0.234821 0.447898 0.30164
0.22266 0.497551 0.235523
0.210483 0.547204 0.169406
0.198322 0.596857 0.103288
0.186145 0.64651 0.037171
0.292683 0.347906 0.749996
0.280507 0.397543 0.683879
0.268345 0.447196 0.617761
0.256168 0.496849 0.551644
0.244007 0.546502 0.485527
0.23183 0.596155 0.419409
0.219669 0.645808 0.353292
0.207492 0.69546 0.287175
0.195315 0.745113 0.221057
0.301854 0.44651 0.933883
0.289693 0.496162 0.867765
0.277516 0.545815 0.801648
0.265354 0.595468 0.735531
0.253178 0.645121 0.669413
0.241001 0.694759 0.603296
0.22884 0.744411 0.537179
0.216663 0.794064 0.471061
0.204501 0.843717 0.404944
0.31104 0.545113 1
0.298863 0.594766 1
0.286702 0.644419 0.985534
0.274525 0.694072 0.919417
0.262348 0.743725 0.8533
0.250187 0.793378 0.787182
0.23801 0.84303 0.721065
0.225849 0.892683 0.654948
0.213672 0.942336 0.58883
0.320211 0.643732 1
0.308034 0.69337 1
0.295872 0.743023 1
0.283696 0.792676 1
0.271534 0.842329 1
0.259358 0.891981 0.971069
0.247196 0.941634 0.904952
0.235019 0.991287 0.838834
0.222858 1 0.772717
0.329381 0.742336 1
0.31722 0.791974 1
0.305043 0.841627 1
0.292882 0.891279 1
0.280705 0.940932 1
0.268544 0.990585 1
0.256367 1 1
0.244205 1 1
0.232029 1 0.956603
0.383963 0 0.0216983
0.371801 0 0
0.359625 0.0295262 0
0.347463 0.0791791 0
0.335286 0.128832 0
0.323125 0.178485 0
0.310948 0.228138 0
0.298787 0.27779 0
0.28661 0.327443 0
0.393149 0.0288243 0.205554
0.380972 0.0784772 0.139452
0.368811 0.12813 0.0733349
0.356634 0.177783 0.00721752
0.344472 0.227436 0
0.332296 0.277073 0
0.320134 0.326726 0
0.307958 0.376379 0
0.295781 0.426032 0
0.402319 0.127428 0.389441
0.390158 0.177081 0.323339
0.377981 0.226734 0.257221
0.36582 0.276387 0.191104
0.353643 0.32604 0.124987
0.341482 0.375692 0.0588693
0.329305 0.425345 0
0.317128 0.474998 0
0.304967 0.524651 0
0.411505 0.226047 0.573327
0.399329 0.275685 0.507225
0.387167 0.325338 0.441108
0.37499 0.37499 0.37499
0.362814 0.424643 0.308873
0.350652 0.474296 0.242756
0.338476 0.523949 0.176638
0.326314 0.573602 0.110521
0.314137 0.623255 0.0444038
0.420676 0.324651 0.757229
0.408499 0.374289 0.691112
0.396338 0.423941 0.624994
0.384161 0.473594 0.558877
0.372 0.523247 0.49276
0.359823 0.5729 0.426642
0.347662 0.622553 0.360525
0.335485 0.672206 0.294408
0.323323 0.721859 0.22829
0.429847 0.423255 0.941115
0.417685 0.472908 0.874998
0.405509 0.522545 0.808881
0.393347 0.572198 0.742763
0.38117 0.621851 0.676646
0.369009 0.671504 0.610529
0.356832 0.721157 0.544411
0.344671 0.770809 0.478294
0.332494 0.820462 0.412177
0.439033 0.521859 1
0.426856 0.571511 1
0.414694 0.621164 0.992767
0.402518 0.670817 0.92665
0.390356 0.72047 0.860533
0.37818 0.770123 0.794415
0.366003 0.81976 0.728298
0.353841 0.869413 0.662181
0.341665 0.919066 0.596063
0.448203 0.620462 1
0.436042 0.670115 1
0.423865 0.719768 1
0.411704 0.769421 1
0.399527 0.819074 1
0.38735 0.868727 0.978302
0.375189 0.918379 0.912184
0.363012 0.968032 0.846067
0.350851 1 0.77995
0.457374 0.719081 1
0.445212 0.768719 1
0.433036 0.818372 1
0.420874 0.868025 1
0.408698 0.917678 1
0.396536 0.96733 1
0.38436 1 1
0.372198 1 1
0.360021 1 0.963836
0.511971 0 0.0289311
0.499794 0 0
0.487633 0.00627146 0
0.475456 0.0559243 0
0.463294 0.105577 0
0.451118 0.15523 0
0.438941 0.204883 0
0.42678 0.254536 0
0.414603 0.304189 0
0.521141 0.00556954 0.212787
0.50898 0.0552224 0.146685
0.496803 0.10486 0.0805676
0.484627 0.154513 0.0144503
0.472465 0.204166 0
0.460288 0.253819 0
0.448127 0.303471 0
0.43595 0.353124 0
0.423789 0.402777 0
0.530312 0.104173 0.396674
0.518151 0.153826 0.330571
0.505974 0.203479 0.264454
0.493812 0.253132 0.198337
0.481636 0.302785 0.132219
0.469474 0.352438 0.0661021
0.457298 0.402075 0
0.445136 0.451728 0
0.432959 0.501381 0
0.539498 0.202777 0.58056
0.527321 0.25243 0.514458
0.51516 0.302083 0.448341
0.502983 0.351736 0.382223
0.490822 0.401389 0.316106
0.478645 0.451041 0.249989
0.466484 0.500694 0.183871
0.454307 0.550347 0.117754
0.44213 0.6 0.0516365
0.548669 0.301396 0.764446
0.536507 0.351034 0.698344
0.52433 0.400687 0.632227
0.512169 0.45034 0.56611
0.499992 0.499992 0.499992
0.487816 0.549645 0.433875
0.475654 0.599298 0.367758
0.463478 0.648951 0.30164
0.451316 0.698604 0.235523
0.557839 0.4 0.948348
0.545678 0.449638 0.882231
0.533501 0.49929 0.816114
0.52134 0.548943 0.749996
0.509163 0.598596 0.683879
0.497002 0.648249 0.617761
0.484825 0.697902 0.551644
0.472663 0.747555 0.485527
0.460487 0.797208 0.419409
0.567025 0.498604 1
0.554849 0.548257 1
0.542687 0.59791 1
0.53051 0.647547 0.933883
0.518349 0.6972 0.867765
0.506172 0.746853 0.801648
0.494011 0.796506 0.735531
0.481834 0.846159 0.669413
0.469673 0.895811 0.603296
0.576196 0.597208 1
0.564034 0.64686 1
0.551858 0.696513 1
0.539696 0.746166 1
0.52752 0.795819 1
0.515358 0.845472 0.985534
0.503182 0.895125 0.919417
0.491005 0.944762 0.8533
0.478843 0.994415 0.787182
0.585382 0.695811 1
0.573205 0.745464 1
0.561044 0.795117 1
0.548867 0.84477 1
0.536706 0.894423 1
0.524529 0.944076 1
0.512352 0.993729 1
0.500191 1 1
0.488014 1 0.971069
0.639963 0 0.0361639
0.627787 0 0
0.615625 0 0
0.603449 0.0326696 0
0.591287 0.0823224 0
0.57911 0.131975 0
0.566949 0.181628 0
0.554772 0.231281 0
0.542611 0.280934 0
0.649134 0 0.22002
0.636973 0.0319524 0.153918
0.624796 0.0816052 0.0878004
0.612634 0.131258 0.0216831
0.600458 0.180911 0
0.588281 0.230564 0
0.57612 0.280217 0
0.563943 0.32987 0
0.551781 0.379522 0
0.65832 0.0809186 0.403906
0.646143 0.130571 0.337804
0.633982 0.180224 0.271687
0.621805 0.229862 0.20557
0.609628 0.279515 0.139452
0.597467 0.329168 0.0733349
0.58529 0.37882 0.00721752
0.573129 0.428473 0
0.560952 0.478126 0
0.667491 0.179522 0.587793
0.655314 0.229175 0.521691
0.643153 0.278828 0.455573
0.630976 0.328481 0.389456
0.618814 0.378134 0.323339
0.606638 0.427787 0.257221
0.594476 0.47744 0.191104
0.5823 0.527077 0.124987
0.570138 0.57673 0.0588693
0.676661 0.278126 0.771679
0.6645 0.327779 0.705577
0.652323 0.377432 0.63946
0.640162 0.427085 0.573343
0.627985 0.476738 0.507225
0.615824 0.52639 0.441108
0.603647 0.576043 0.37499
0.591485 0.625696 0.308873
0.579309 0.675349 0.242756
0.685847 0.376745 0.955566
0.673671 0.426383 0.889464
0.661509 0.476036 0.823346
0.649332 0.525689 0.757229
0.637171 0.575341 0.691112
0.624994 0.624994 0.624994
0.612818 0.674647 0.558877
0.600656 0.7243 0.49276
0.588479 0.773953 0.426642
0.695018 0.475349 1
0.682857 0.524987 1
0.67068 0.574639 1
0.658503 0.624292 0.941115
0.646342 0.673945 0.874998
0.634165 0.723598 0.808881
0.622003 0.773251 0.742763
0.609827 0.822904 0.676646
0.597665 0.872557 0.610529
0.704189 0.573953 1
0.692027 0.623606 1
0.67985 0.673259 1
0.667689 0.722911 1
0.655512 0.772549 1
0.643351 0.822202 0.992767
0.631174 0.871855 0.92665
0.619013 0.921508 0.860533
0.606836 0.97116 0.794415
0.713375 0.672557 1
0.701198 0.72221 1
0.689036 0.771862 1
0.67686 0.821515 1
0.664698 0.871168 1
0.652522 0.920821 1
0.64036 0.970474 1
0.628183 1 1
0.616007 1 0.978302
0.767956 0 0.0433814
0.755795 0 0
0.743618 0 0
0.731441 0.00941482 0
0.71928 0.0590677 0
0.707103 0.108721 0
0.694942 0.158373 0
0.682765 0.208011 0
0.670604 0.257664 0
0.777127 0 0.227253
0.764965 0.00869764 0.161151
0.752789 0.0583505 0.0950332
0.740627 0.108003 0.0289158
0.72845 0.157656 0
0.716289 0.207309 0
0.704112 0.256962 0
0.691951 0.306615 0
0.679774 0.356268 0
0.786313 0.0576638 0.411139
0.774136 0.107301 0.345037
0.761975 0.156954 0.27892
0.749798 0.206607 0.212802
0.737636 0.25626 0.146685
0.72546 0.305913 0.0805676
0.713283 0.355566 0.0144503
0.701122 0.405219 0
0.688945 0.454871 0
0.795483 0.156268 0.595026
0.783322 0.205921 0.528923
0.771145 0.255573 0.462806
0.758984 0.305226 0.396689
0.746807 0.354864 0.330571
0.73463 0.404517 0.264454
0.722469 0.45417 0.198337
0.710292 0.503822 0.132219
0.698131 0.553475 0.0661021
0.804654 0.254871 0.778912
0.792493 0.304524 0.71281
0.780316 0.354177 0.646693
0.768154 0.40383 0.580575
0.755978 0.453483 0.514458
0.743816 0.503136 0.448341
0.73164 0.552789 0.382223
0.719478 0.602441 0.316106
0.707301 0.652079 0.249989
0.81384 0.353475 0.962798
0.801663 0.403128 0.896696
0.789502 0.452781 0.830579
0.777325 0.502434 0.764462
0.765164 0.552087 0.698344
0.752987 0.60174 0.632227
0.740826 0.651392 0.56611
0.728649 0.701045 0.499992
0.716487 0.750698 0.433875
0.823011 0.452094 1
0.810849 0.501732 1
0.798672 0.551385 1
0.786511 0.601038 0.948348
0.774334 0.65069 0.882231
0.762173 0.700343 0.816114
0.749996 0.749996 0.749996
0.737819 0.799649 0.683879
0.725658 0.849302 0.617761
0.832197 0.550698 1
0.82002 0.600336 1
0.807858 0.649989 1
0.795682 0.699641 1
0.783505 0.749294 1
0.771344 0.798947 1
0.759167 0.8486 0.933883
0.747005 0.898253 0.867765
0.734829 0.947906 0.801648
0.841367 0.649302 1
0.829206 0.698955 1
0.817029 0.748608 1
0.804852 0.79826 1
0.792691 0.847913 1
0.780514 0.897551 1
0.768353 0.947204 1
0.756176 0.996857 1
0.744015 1 0.985534
0.895949 0 0.0506142
0.883787 0 0
0.871611 0 0
0.859449 0 0
0.847272 0.0357977 0
0.835111 0.0854505 0
0.822934 0.135103 0
0.810758 0.184756 0
0.798596 0.234409 0
0.905119 0 0.234485
0.892958 0 0.168383
0.880781 0.0350958 0.102266
0.86862 0.0847486 0.0361486
0.856443 0.134401 0
0.844282 0.184054 0
0.832105 0.233707 0
0.819944 0.28336 0
0.807767 0.333013 0
0.914305 0.0344091 0.418372
0.902129 0.0840467 0.35227
0.889967 0.1337 0.286152
0.877791 0.183352 0.220035
0.865629 0.233005 0.153918
0.853452 0.282658 0.0878004
0.841291 0.332311 0.0216831
0.829114 0.381964 0
0.816953 0.431617 0
0.923476 0.133013 0.602258
0.911315 0.18265 0.536156
0.899138 0.232303 0.470039
0.886976 0.281956 0.403922
0.8748 0.331609 0.337804
0.862638 0.381262 0.271687
0.850462 0.430915 0.20557
0.838285 0.480568 0.139452
0.826123 0.530221 0.0733349
0.932662 0.231617 0.786145
0.920485 0.28127 0.720043
0.908324 0.330922 0.653925
0.896147 0.380575 0.587808
0.883986 0.430228 0.521691
0.871809 0.479866 0.455573
0.859632 0.529519 0.389456
0.847471 0.579171 0.323339
0.835294 0.628824 0.257221
0.941833 0.33022 0.970031
0.929671 0.379873 0.903929
0.917494 0.429526 0.837812
0.905318 0.479179 0.771695
0.893156 0.528832 0.705577
0.88098 0.578485 0.63946
0.868818 0.628138 0.573343
0.856641 0.677791 0.507225
0.84448 0.727443 0.441108
0.951003 0.42884 1
0.938842 0.478477 1
0.926665 0.52813 1
0.914504 0.577783 0.955581
0.902327 0.627436 0.889464
0.890166 0.677089 0.823346
0.877989 0.726741 0.757229
0.865827 0.776394 0.691112
0.853651 0.826047 0.624994
0.960189 0.527443 1
0.948013 0.577081 1
0.935851 0.626734 1
0.923674 0.676387 1
0.911513 0.72604 1
0.899336 0.775692 1
0.887175 0.825345 0.941115
0.874998 0.874998 0.874998
0.862821 0.924651 0.808881
0.96936 0.626047 1
0.957198 0.6757 1
0.945022 0.725338 1
0.93286 0.77499 1
0.920684 0.824643 1
0.908507 0.874296 1
0.896345 0.923949 1
0.884169 0.973602 1
0.872007 1 0.992767
1 0 0.057847
1 0 0
0.999603 0 0
0.987442 0 0
0.975265 0.0125429 0
0.963104 0.0621958 0
0.950927 0.111849 0
0.938766 0.161501 0
0.926589 0.211154 0
1 0 0.241718
1 0 0.175601
1 0.011841 0.109483
0.996612 0.0614939 0.0433661
0.984451 0.111147 0
0.972274 0.1608 0
0.960098 0.210452 0
0.947936 0.260105 0
0.93576 0.309758 0
1 0.0111543 0.425605
1 0.0607919 0.359503
1 0.110445 0.293385
1 0.160098 0.227268
0.993622 0.209751 0.161151
0.981445 0.259403 0.0950332
0.969284 0.309056 0.0289158
0.957107 0.358709 0
0.944945 0.408362 0
1 0.109758 0.609491
1 0.159396 0.543389
1 0.209049 0.477272
1 0.258701 0.411154
1 0.308354 0.345037
0.990631 0.358007 0.27892
0.978454 0.40766 0.212802
0.966293 0.457313 0.146685
0.954116 0.506966 0.0805676
1 0.208362 0.793378
1 0.258015 0.727275
1 0.307652 0.661158
1 0.357305 0.595041
1 0.406958 0.528923
0.999802 0.456611 0.462806
0.98764 0.506264 0.396689
0.975464 0.555917 0.330571
0.963287 0.60557 0.264454
1 0.306966 0.977264
1 0.356619 0.911162
1 0.406271 0.845045
1 0.455924 0.778927
1 0.505577 0.71281
1 0.55523 0.646693
0.996811 0.604868 0.580575
0.984634 0.654521 0.514458
0.972473 0.704173 0.448341
1 0.40557 1
1 0.455222 1
1 0.504875 1
1 0.554528 0.962814
1 0.604181 0.896696
1 0.653834 0.830579
1 0.703487 0.764462
0.99382 0.75314 0.698344
0.981643 0.802792 0.632227
1 0.504189 1
1 0.553826 1
1 0.603479 1
1 0.653132 1
1 0.702785 1
1 0.752438 1
1 0.80209 0.948348
1 0.851743 0.882231
0.990829 0.901396 0.816114
1 0.602792 1
1 0.65243 1
1 0.702083 1
1 0.751736 1
1 0.801389 1
1 0.851041 1
1 0.900694 1
1 0.950347 1
1 1 1
