public/LUTS/Color Shift/ColorShift_08.cube
TITLE "Generated by Resolve"
LUT_3D_SIZE 9
0 0 0
0 0.0580758 0
0 0.116152 0
0 0.174228 0
0 0.232319 0
0 0.290394 0
0 0.34847 0
0 0.406561 0
0 0.464637 0
0.0661173 0.0783398 0.20856
0.0130922 0.136416 0.172244
0 0.194491 0.135927
0 0.252567 0.0995956
0 0.310658 0.0632792
0 0.368734 0.0269474
0 0.42681 0
0 0.484886 0
0 0.542977 0
0.132235 0.15668 0.417151
0.0792096 0.214755 0.380835
0.0261845 0.272847 0.344503
0 0.330922 0.308186
0 0.388998 0.271855
0 0.447074 0.235538
0 0.505165 0.199207
0 0.563241 0.16289
0 0.621317 0.126558
0.198352 0.235035 0.625742
0.145327 0.293111 0.589426
0.0923018 0.351186 0.553094
0.0392615 0.409262 0.516777
0 0.467353 0.480446
0 0.525429 0.444129
0 0.583505 0.407797
0 0.641596 0.371481
0 0.699672 0.335149
0.264469 0.313375 0.834333
0.211444 0.37145 0.798016
0.158419 0.429541 0.761685
0.105394 0.487617 0.725368
0.0523537 0.545693 0.689036
0 0.603769 0.65272
0 0.66186 0.616388
0 0.719936 0.580072
0 0.778012 0.54374
0.330602 0.39173 1
0.277577 0.449805 1
0.224537 0.507881 0.970275
0.171511 0.565957 0.933944
0.118471 0.624048 0.897627
0.0654459 0.682124 0.861295
0.0124208 0.7402 0.824979
0 0.798291 0.788647
0 0.856367 0.752331
0.396719 0.470069 1
0.343694 0.528145 1
0.290654 0.586236 1
0.237629 0.644312 1
0.184604 0.702388 1
0.131563 0.760464 1
0.0785382 0.818555 1
0.0254978 0.876631 0.997238
0 0.934707 0.960922
0.462837 0.548424 1
0.409812 0.6065 1
0.356786 0.664576 1
0.303746 0.722652 1
0.250721 0.780743 1
0.197681 0.838819 1
0.144656 0.896895 1
0.0916304 0.954986 1
0.0385901 1 1
0.528954 0.62678 1
0.475929 0.68484 1
0.422904 0.742931 1
0.369863 0.801007 1
0.316838 0.859083 1
0.263813 0.917174 1
0.210773 0.97525 1
0.157748 1 1
0.104707 1 1
0.111894 0 0
0.0588693 0.0466468 0
0.00584421 0.104723 0
0 0.162814 0
0 0.22089 0
0 0.278965 0
0 0.337057 0
0 0.395132 0
0 0.453208 0
0.178012 0.0669108 0.161303
0.124987 0.124987 0.124987
0.0719615 0.183062 0.0886702
0.0189212 0.241154 0.0523384
0 0.299229 0.016022
0 0.357305 0
0 0.415381 0
0 0.473472 0
0 0.531548 0
0.244129 0.145266 0.369894
0.191104 0.203342 0.333577
0.138079 0.261418 0.297246
0.0850385 0.319493 0.260929
0.0320134 0.377569 0.224598
0 0.43566 0.188281
0 0.493736 0.151949
0 0.551812 0.115633
0 0.609903 0.0793011
0.310246 0.223606 0.578485
0.257221 0.281682 0.542168
0.204196 0.339757 0.505837
0.151171 0.397848 0.46952
0.0981308 0.455924 0.433188
0.0451057 0.514 0.396872
0 0.572076 0.36054
0 0.630167 0.324224
0 0.688243 0.287892
0.376379 0.301961 0.787076
0.323354 0.360037 0.750759
0.270314 0.418112 0.714427
0.217288 0.476188 0.678111
0.164248 0.534264 0.641779
0.111223 0.592355 0.605463
0.0581979 0.650431 0.569131
0.00515755 0.708507 0.532815
0 0.766598 0.496483
0.442496 0.380301 0.995666
0.389471 0.438376 0.959335
0.336431 0.496452 0.923018
0.283406 0.554543 0.886687
0.230381 0.612619 0.85037
0.17734 0.670695 0.814038
0.124315 0.728786 0.777722
0.0712749 0.786862 0.741405
0.0182498 0.844938 0.705074
0.508614 0.458656 1
0.455589 0.516732 1
0.402564 0.574807 1
0.349523 0.632883 1
0.296498 0.690959 1
0.243458 0.74905 1
0.190433 0.807126 0.986313
0.137407 0.865202 0.949981
0.0843671 0.923293 0.913664
0.574731 0.536995 1
0.521706 0.595071 1
0.468681 0.653147 1
0.415641 0.711238 1
0.362615 0.769314 1
0.30959 0.82739 1
0.25655 0.885481 1
0.203525 0.943557 1
0.150484 1 1
0.640864 0.615351 1
0.587839 0.673426 1
0.534798 0.731502 1
0.481773 0.789578 1
0.428733 0.847669 1
0.375708 0.905745 1
0.322667 0.963821 1
0.269642 1 1
0.216617 1 1
0.223804 0 0
0.170779 0.0352178 0
0.117754 0.0933089 0
0.0647288 0.151385 0
0.0116884 0.209461 0
0 0.267536 0
0 0.325628 0
0 0.383703 0
0 0.441779 0
0.289921 0.0554818 0.114046
0.236896 0.113558 0.0777295
0.183871 0.171633 0.0413977
0.130831 0.229725 0.00508125
0.0778058 0.2878 0
0.0247807 0.345876 0
0 0.403967 0
0 0.462043 0
0 0.520119 0
0.356039 0.133837 0.322637
0.303014 0.191913 0.286305
0.249989 0.249989 0.249989
0.196963 0.308064 0.213672
0.143923 0.366155 0.17734
0.090898 0.424231 0.141024
0.0378576 0.482307 0.104692
0 0.540383 0.0683757
0 0.598474 0.0320439
0.422171 0.212177 0.531228
0.369146 0.270253 0.494896
0.316106 0.328344 0.458579
0.263081 0.386419 0.422248
0.21004 0.444495 0.385931
0.157015 0.502571 0.349599
0.10399 0.560662 0.313283
0.0509499 0.618738 0.276951
0 0.676814 0.240635
0.488289 0.290532 0.739803
0.435264 0.348608 0.703487
0.382223 0.406683 0.66717
0.329198 0.464759 0.630838
0.276173 0.52285 0.594522
0.223133 0.580926 0.55819
0.170108 0.639002 0.521874
0.117067 0.697093 0.485542
0.0640421 0.755169 0.449226
0.554406 0.368872 0.948394
0.501381 0.426947 0.912077
0.448356 0.485039 0.875761
0.395315 0.543114 0.839429
0.34229 0.60119 0.803113
0.28925 0.659266 0.766781
0.236225 0.717357 0.730465
0.1832 0.775433 0.694133
0.130159 0.833509 0.657816
0.620523 0.447227 1
0.567498 0.505302 1
0.514473 0.563378 1
0.461433 0.621454 1
0.408408 0.679545 1
0.355383 0.737621 0.975372
0.302342 0.795697 0.93904
0.249317 0.853788 0.902724
0.196277 0.911864 0.866407
0.686641 0.525567 1
0.633616 0.583642 1
0.580591 0.641733 1
0.527565 0.699809 1
0.474525 0.757885 1
0.4215 0.815961 1
0.36846 0.874052 1
0.315435 0.932128 1
0.262409 0.990204 1
0.752773 0.603922 1
0.699748 0.661997 1
0.646708 0.720073 1
0.593683 0.778149 1
0.540658 0.83624 1
0.487617 0.894316 1
0.434592 0.952392 1
0.381552 1 1
0.328527 1 1
0.335729 0 0
0.282704 0.0237888 0
0.229664 0.0818799 0
0.176638 0.139956 0
0.123598 0.198032 0
0.070573 0.256123 0
0.0175479 0.314199 0
0 0.372274 0
0 0.430365 0
0.401831 0.0440681 0.0667735
0.348806 0.102129 0.030457
0.295781 0.16022 0
0.242756 0.218296 0
0.189715 0.276371 0
0.13669 0.334462 0
0.08365 0.392538 0
0.0306249 0.450614 0
0 0.50869 0
0.467964 0.122408 0.275364
0.414939 0.180484 0.239048
0.361898 0.23856 0.202731
0.308873 0.296635 0.1664
0.255833 0.354726 0.130083
0.202808 0.412802 0.0937514
0.149783 0.470878 0.057435
0.0967422 0.528969 0.0211032
0.0437171 0.587045 0
0.534081 0.200763 0.483955
0.481056 0.258824 0.447639
0.428016 0.316915 0.411307
0.37499 0.37499 0.37499
0.321965 0.433066 0.338674
0.268925 0.491157 0.302342
0.2159 0.549233 0.266026
0.16286 0.607309 0.229694
0.109834 0.665385 0.193378
0.600198 0.279103 0.692546
0.547173 0.337179 0.656229
0.494148 0.395254 0.619898
0.441108 0.453346 0.583581
0.388083 0.511421 0.54725
0.335042 0.569497 0.510933
0.282017 0.627573 0.474601
0.228992 0.685664 0.438285
0.175952 0.74374 0.401953
0.666316 0.357458 0.901137
0.613291 0.415518 0.86482
0.560265 0.47361 0.828489
0.507225 0.531685 0.792172
0.4542 0.589761 0.75584
0.401175 0.647852 0.719524
0.348135 0.705928 0.683192
0.295109 0.764004 0.646876
0.242069 0.82208 0.610544
0.732433 0.435798 1
0.679408 0.493874 1
0.626383 0.551949 1
0.573358 0.61004 1
0.520317 0.668116 0.964431
0.467292 0.726192 0.928115
0.414252 0.784268 0.891783
0.361227 0.842359 0.855467
0.308202 0.900435 0.819135
0.798566 0.514153 1
0.745541 0.572229 1
0.6925 0.630304 1
0.639475 0.68838 1
0.586435 0.746456 1
0.53341 0.804547 1
0.480385 0.862623 1
0.427344 0.920699 1
0.374319 0.97879 1
0.864683 0.592493 1
0.811658 0.650568 1
0.758618 0.708644 1
0.705592 0.766735 1
0.652567 0.824811 1
0.599527 0.882887 1
0.546502 0.940963 1
0.493462 0.999054 1
0.440436 1 1
0.447639 0 0
0.394614 0.0123751 0
0.341573 0.0704509 0
0.288548 0.128527 0
0.235523 0.186618 0
0.182483 0.244694 0
0.129458 0.30277 0
0.0764172 0.360845 0
0.0233921 0.418936 0
0.513756 0.032639 0.0195163
0.460731 0.0907149 0
0.407691 0.148791 0
0.354665 0.206867 0
0.301625 0.264942 0
0.2486 0.323033 0
0.195575 0.381109 0
0.142535 0.439185 0
0.0895094 0.497276 0
0.579873 0.110979 0.228107
0.526848 0.169055 0.191791
0.473808 0.227131 0.155459
0.420783 0.285222 0.119142
0.367758 0.343297 0.0828107
0.314717 0.401373 0.0464942
0.261692 0.459464 0.0101625
0.208652 0.51754 0
0.155627 0.575616 0
0.645991 0.189334 0.436698
0.592966 0.24741 0.400381
0.53994 0.305486 0.36405
0.4869 0.363561 0.327733
0.433875 0.421637 0.291402
0.380835 0.479728 0.255085
0.32781 0.537804 0.218753
0.274784 0.59588 0.182437
0.221744 0.653971 0.146105
0.712108 0.267674 0.645289
0.659083 0.32575 0.608957
0.606058 0.383825 0.572641
0.553017 0.441917 0.536309
0.499992 0.499992 0.499992
0.446967 0.558068 0.463676
0.393927 0.616159 0.427344
0.340902 0.674235 0.391028
0.287861 0.732311 0.354696
0.778225 0.346029 0.853864
0.7252 0.404105 0.817548
0.672175 0.462181 0.781231
0.61915 0.520256 0.7449
0.56611 0.578347 0.708583
0.513085 0.636423 0.672251
0.460044 0.694499 0.635935
0.407019 0.752575 0.599603
0.353994 0.810666 0.563287
0.844358 0.424369 1
0.791333 0.482444 1
0.738293 0.54052 0.989822
0.685267 0.598611 0.95349
0.632227 0.656687 0.917174
0.579202 0.714763 0.880842
0.526177 0.772854 0.844526
0.473136 0.83093 0.808194
0.420111 0.889006 0.771878
0.910475 0.502724 1
0.85745 0.5608 1
0.80441 0.618875 1
0.751385 0.676951 1
0.69836 0.735042 1
0.645319 0.793118 1
0.592294 0.851194 1
0.539254 0.90927 1
0.486229 0.967361 0.980468
0.976593 0.581064 1
0.923568 0.639139 1
0.870542 0.69723 1
0.817502 0.755306 1
0.764477 0.813382 1
0.711437 0.871458 1
0.658412 0.929549 1
0.605386 0.987625 1
0.552346 1 1
0.559548 0 0
0.506523 0.000946059 0
0.453498 0.0590219 0
0.400458 0.117098 0
0.347433 0.175189 0
0.294392 0.233265 0
0.241367 0.291341 0
0.188342 0.349432 0
0.135302 0.407507 0
0.625666 0.02121 0
0.572641 0.0792859 0
0.5196 0.137362 0
0.466575 0.195438 0
0.41355 0.253529 0
0.36051 0.311604 0
0.307485 0.36968 0
0.254444 0.427771 0
0.201419 0.485847 0
0.691783 0.0995499 0.18085
0.638758 0.157626 0.144518
0.585733 0.215717 0.108202
0.532692 0.273793 0.07187
0.479667 0.331868 0.0355535
0.426627 0.389944 0
0.373602 0.448035 0
0.320577 0.506111 0
0.267536 0.564187 0
0.7579 0.177905 0.389425
0.704875 0.235981 0.353109
0.65185 0.294057 0.316793
0.59881 0.352132 0.280461
0.545785 0.410224 0.244144
0.49276 0.468299 0.207813
0.439719 0.526375 0.171496
0.386694 0.584466 0.135164
0.333654 0.642542 0.0988479
0.824018 0.256245 0.598016
0.770993 0.314321 0.5617
0.717968 0.372412 0.525383
0.664942 0.430488 0.489052
0.611902 0.488563 0.452735
0.558877 0.546639 0.416403
0.505837 0.60473 0.380087
0.452811 0.662806 0.343755
0.399786 0.720882 0.307439
0.89015 0.3346 0.806607
0.837125 0.392676 0.770291
0.784085 0.450752 0.733959
0.73106 0.508827 0.697643
0.678019 0.566918 0.661311
0.624994 0.624994 0.624994
0.571969 0.68307 0.588678
0.518929 0.741161 0.552346
0.465904 0.799237 0.51603
0.956268 0.412955 1
0.903243 0.471015 0.978882
0.850202 0.529107 0.94255
0.797177 0.587182 0.906233
0.744152 0.645258 0.869902
0.691112 0.703349 0.833585
0.638086 0.761425 0.797253
0.585046 0.819501 0.760937
0.532021 0.877577 0.724605
1 0.491295 1
0.96936 0.549371 1
0.916335 0.607446 1
0.863294 0.665522 1
0.810269 0.723613 1
0.757229 0.781689 1
0.704204 0.839765 1
0.651179 0.897856 0.969528
0.598138 0.955932 0.933196
1 0.56965 1
1 0.62771 1
0.982452 0.685802 1
0.929412 0.743877 1
0.876387 0.801953 1
0.823362 0.860044 1
0.770321 0.91812 1
0.717296 0.976196 1
0.664256 1 1
0.671458 0 0
0.618433 0 0
0.565408 0.0475929 0
0.512367 0.105684 0
0.459342 0.16376 0
0.406317 0.221836 0
0.353277 0.279927 0
0.300252 0.338003 0
0.247211 0.396078 0
0.737575 0.00978103 0
0.68455 0.0678569 0
0.631525 0.125933 0
0.578485 0.184024 0
0.52546 0.2421 0
0.472419 0.300175 0
0.419394 0.358251 0
0.366369 0.416342 0
0.313329 0.474418 0
0.803693 0.0881361 0.133577
0.750668 0.146197 0.097261
0.697643 0.204288 0.0609445
0.644602 0.262364 0.0246128
0.591577 0.320439 0
0.538552 0.378531 0
0.485512 0.436606 0
0.432486 0.494682 0
0.379446 0.552773 0
0.86981 0.166476 0.342168
0.816785 0.224552 0.305852
0.76376 0.282628 0.26952
0.710735 0.340719 0.233204
0.657694 0.398795 0.196872
0.604669 0.45687 0.160555
0.551629 0.514946 0.124224
0.498604 0.573037 0.0879072
0.445579 0.631113 0.0515908
0.935943 0.244831 0.550759
0.882918 0.302907 0.514443
0.829877 0.360983 0.478111
0.776852 0.419059 0.441794
0.723812 0.477134 0.405463
0.670787 0.535225 0.369146
0.617761 0.593301 0.332815
0.564721 0.651377 0.296498
0.511696 0.709468 0.260166
1 0.323171 0.75935
0.949035 0.381247 0.723033
0.895994 0.439323 0.686702
0.842969 0.497414 0.650385
0.789944 0.555489 0.614054
0.736904 0.613565 0.577737
0.683879 0.671641 0.541405
0.630838 0.729732 0.505089
0.577813 0.787808 0.468757
1 0.401526 0.967941
1 0.459602 0.931609
0.962127 0.517678 0.895293
0.909087 0.575753 0.858961
0.856062 0.633829 0.822644
0.803021 0.69192 0.786313
0.749996 0.749996 0.749996
0.696971 0.808072 0.71368
0.643931 0.866163 0.677348
1 0.479866 1
1 0.537942 1
1 0.596017 1
0.975204 0.654108 1
0.922179 0.712184 1
0.869154 0.77026 0.994904
0.816114 0.828351 0.958587
0.763088 0.886427 0.922255
0.710048 0.944503 0.885939
1 0.558221 1
1 0.616297 1
1 0.674372 1
1 0.732448 1
0.988296 0.790524 1
0.935271 0.848615 1
0.882231 0.906691 1
0.829206 0.964767 1
0.776181 1 1
0.783368 0 0
0.730343 0 0
0.677317 0.0361791 0
0.624292 0.094255 0
0.571252 0.152331 0
0.518227 0.210407 0
0.465187 0.268498 0
0.412161 0.326574 0
0.359136 0.384649 0
0.849485 0 0
0.79646 0.0564279 0
0.743435 0.114504 0
0.690394 0.172595 0
0.637369 0.230671 0
0.584329 0.288746 0
0.531304 0.346838 0
0.478279 0.404913 0
0.425238 0.462989 0
0.915602 0.0767071 0.0863203
0.862577 0.134783 0.0500038
0.809552 0.192859 0.0136721
0.756527 0.250935 0
0.703487 0.309026 0
0.650462 0.367102 0
0.597421 0.425177 0
0.544396 0.483253 0
0.491356 0.541344 0
0.981735 0.155047 0.294911
0.92871 0.213123 0.258579
0.875669 0.271199 0.222263
0.822644 0.32929 0.185946
0.769604 0.387366 0.149615
0.716579 0.445441 0.113298
0.663554 0.503532 0.0769665
0.610513 0.561608 0.04065
0.557488 0.619684 0.0043183
1 0.233402 0.503502
0.994827 0.291478 0.46717
0.941787 0.349554 0.430854
0.888762 0.40763 0.394522
0.835737 0.465721 0.358206
0.782696 0.523796 0.321874
0.729671 0.581872 0.285557
0.676631 0.639948 0.249226
0.623606 0.698039 0.212909
1 0.311742 0.712077
1 0.369818 0.675761
1 0.427909 0.639445
0.954879 0.485985 0.603113
0.901854 0.54406 0.566796
0.848814 0.602136 0.530465
0.795789 0.660227 0.494148
0.742763 0.718303 0.457816
0.689723 0.776379 0.4215
1 0.390097 0.920668
1 0.448173 0.884352
1 0.506249 0.848035
1 0.564324 0.811704
0.967971 0.622415 0.775387
0.914946 0.680491 0.739055
0.861906 0.738567 0.702739
0.808881 0.796643 0.666407
0.75584 0.854734 0.630091
1 0.468437 1
1 0.526513 1
1 0.584604 1
1 0.64268 1
1 0.700755 0.983963
0.981064 0.758831 0.947646
0.928023 0.816922 0.911315
0.874998 0.874998 0.874998
0.821973 0.933074 0.838682
1 0.546792 1
1 0.604868 1
1 0.662943 1
1 0.721019 1
1 0.77911 1
1 0.837186 1
0.994156 0.895262 1
0.941115 0.953353 1
0.88809 1 1
0.895293 0 0
0.842268 0 0
0.789227 0.0247501 0
0.736202 0.082826 0
0.683162 0.140902 0
0.630137 0.198993 0
0.577111 0.257069 0
0.524071 0.315145 0
0.471046 0.37322 0
0.961395 0 0
0.90837 0.0449989 0
0.855344 0.10309 0
0.802304 0.161166 0
0.749279 0.219242 0
0.696254 0.277317 0
0.643214 0.335409 0
0.590188 0.393484 0
0.537148 0.45156 0
1 0.0652781 0.0390478
0.974502 0.123354 0.00273136
0.921462 0.18143 0
0.868437 0.239506 0
0.815396 0.297597 0
0.762371 0.355673 0
0.709331 0.413748 0
0.656306 0.471839 0
0.603281 0.529915 0
1 0.143633 0.247639
1 0.201694 0.211322
0.987579 0.259785 0.175006
0.934554 0.317861 0.138674
0.881529 0.375937 0.102358
0.828489 0.434028 0.0660258
0.775464 0.492103 0.0297093
0.722423 0.550179 0
0.669398 0.608255 0
1 0.221973 0.45623
1 0.280049 0.419913
1 0.338125 0.383581
1 0.396201 0.347265
0.947646 0.454292 0.310948
0.894606 0.512367 0.274617
0.841581 0.570443 0.2383
0.788556 0.628534 0.201968
0.735515 0.68661 0.165652
1 0.300328 0.66482
1 0.358389 0.628504
1 0.41648 0.592172
1 0.474556 0.555856
1 0.532631 0.519524
0.960739 0.590723 0.483207
0.907698 0.648798 0.446876
0.854673 0.706874 0.410559
0.801633 0.76495 0.374228
1 0.378668 0.873411
1 0.436744 0.837095
1 0.49482 0.800763
1 0.552911 0.764446
1 0.610986 0.728115
1 0.669062 0.691798
0.973816 0.727138 0.655467
0.92079 0.785229 0.61915
0.867765 0.843305 0.582818
1 0.457023 1
1 0.515084 1
1 0.573175 1
1 0.631251 0.973037
1 0.689326 0.936706
1 0.747417 0.900389
1 0.805493 0.864057
0.986908 0.863569 0.827741
0.933883 0.921645 0.791409
1 0.535363 1
1 0.593439 1
1 0.651514 1
1 0.709606 1
1 0.767681 1
1 0.825757 1
1 0.883833 1
1 0.941924 1
1 1 1
