public/LUTS/Color Shift/ColorShift_42.cube
TITLE "Generated by Resolve"
LUT_3D_SIZE 33
0 0 0
0 0.00735485 0.0286107
0 0.014725 0.0572366
0 0.0220798 0.0858625
0 0.0294347 0.114488
0 0.0368048 0.143114
0 0.0441596 0.17174
0 0.0515145 0.200366
0 0.0588846 0.228992
0 0.0662394 0.257618
0 0.0736095 0.286244
0 0.0809644 0.31487
0 0.0883192 0.343511
0 0.0956893 0.372137
0 0.103044 0.400763
0 0.110414 0.429389
0 0.117769 0.458015
0 0.125124 0.486641
0 0.132494 0.515267
0 0.139849 0.543893
0 0.147219 0.572519
0 0.154574 0.601144
0 0.161929 0.62977
0 0.169299 0.658396
0 0.176654 0.687022
0 0.184009 0.715648
0 0.191379 0.744274
0 0.198734 0.7729
0 0.206104 0.801526
0 0.213458 0.830152
0 0.220813 0.858778
0 0.228183 0.887404
0 0.235538 0.91603
0.0532235 0.0125429 0.021149
0.0476692 0.0198978 0.0497597
0.0421149 0.0272679 0.0783856
0.0365759 0.0346227 0.107012
0.0310216 0.0419928 0.135637
0.0254673 0.0493477 0.164263
0.019913 0.0567025 0.192889
0.0143587 0.0640726 0.221515
0.00880446 0.0714275 0.250141
0.00325017 0.0787976 0.278767
0 0.0861524 0.307393
0 0.0935073 0.336019
0 0.100877 0.36466
0 0.108232 0.393286
0 0.115602 0.421912
0 0.122957 0.450538
0 0.130312 0.479164
0 0.137682 0.50779
0 0.145037 0.536416
0 0.152392 0.565042
0 0.159762 0.593668
0 0.167117 0.622293
0 0.174487 0.650919
0 0.181842 0.679545
0 0.189197 0.708171
0 0.196567 0.736797
0 0.203922 0.765423
0 0.211292 0.794049
0 0.218647 0.822675
0 0.226001 0.851301
0 0.233371 0.879927
0 0.240726 0.908553
0 0.248096 0.937179
0.106477 0.0251011 0.0423133
0.100923 0.0324559 0.0709239
0.0953689 0.039826 0.0995499
0.0898146 0.0471809 0.128176
0.0842603 0.0545357 0.156802
0.078706 0.0619059 0.185428
0.073167 0.0692607 0.214054
0.0676127 0.0766308 0.242679
0.0620584 0.0839857 0.271305
0.0565042 0.0913405 0.299931
0.0509499 0.0987106 0.328557
0.0453956 0.106065 0.357183
0.0398413 0.113436 0.385809
0.034287 0.12079 0.414435
0.0287327 0.128145 0.443061
0.0231785 0.135515 0.471687
0.0176242 0.14287 0.500313
0.0120699 0.150225 0.528939
0.0065156 0.157595 0.557565
0.000961318 0.16495 0.586191
0 0.17232 0.614816
0 0.179675 0.643442
0 0.18703 0.672084
0 0.1944 0.70071
0 0.201755 0.729335
0 0.209125 0.757961
0 0.21648 0.786587
0 0.223835 0.815213
0 0.231205 0.843839
0 0.23856 0.872465
0 0.24593 0.901091
0 0.253285 0.929717
0 0.260639 0.958343
0.159731 0.0376593 0.0634623
0.154177 0.0450141 0.0920729
0.148623 0.052369 0.120714
0.143069 0.0597391 0.14934
0.137514 0.0670939 0.177966
0.13196 0.074464 0.206592
0.126406 0.0818189 0.235218
0.120851 0.0891737 0.263844
0.115312 0.0965438 0.29247
0.109758 0.103899 0.321096
0.104204 0.111254 0.349722
0.0986496 0.118624 0.378347
0.0930953 0.125978 0.406973
0.087541 0.133349 0.435599
0.0819867 0.140703 0.464225
0.0764324 0.148058 0.492851
0.0708782 0.155428 0.521477
0.0653239 0.162783 0.550103
0.0597696 0.170153 0.578729
0.0542153 0.177508 0.607355
0.048661 0.184863 0.635981
0.0431067 0.192233 0.664607
0.0375525 0.199588 0.693233
0.0319982 0.206958 0.721859
0.0264439 0.214313 0.750484
0.0208896 0.221668 0.77911
0.0153353 0.229038 0.807736
0.00979629 0.236393 0.836362
0.00424201 0.243748 0.864988
0 0.251118 0.893614
0 0.258473 0.92224
0 0.265843 0.950881
0 0.273198 0.979507
0.212985 0.0502174 0.0846265
0.207431 0.0575723 0.113237
0.201877 0.0649271 0.141863
0.196323 0.072282 0.170489
0.190768 0.0796521 0.199115
0.185214 0.0870069 0.227741
0.17966 0.094377 0.256367
0.174105 0.101732 0.284993
0.168551 0.109087 0.313619
0.162997 0.116457 0.342245
0.157443 0.123812 0.370871
0.151904 0.131182 0.399512
0.146349 0.138537 0.428138
0.140795 0.145892 0.456764
0.135241 0.153262 0.48539
0.129686 0.160616 0.514015
0.124132 0.167987 0.542641
0.118578 0.175341 0.571267
0.113024 0.182696 0.599893
0.107469 0.190066 0.628519
0.101915 0.197421 0.657145
0.0963607 0.204776 0.685771
0.0908064 0.212146 0.714397
0.0852522 0.219501 0.743023
0.0796979 0.226871 0.771649
0.0741436 0.234226 0.800275
0.0685893 0.241581 0.828901
0.063035 0.248951 0.857527
0.0574807 0.256306 0.886152
0.0519265 0.263676 0.914778
0.0463874 0.271031 0.943404
0.0408331 0.278386 0.97203
0.0352789 0.285756 1
0.266239 0.0627604 0.105791
0.260685 0.0701152 0.134401
0.255131 0.0774853 0.163027
0.249577 0.0848402 0.191653
0.244022 0.0922103 0.220279
0.238468 0.0995651 0.248905
0.232914 0.10692 0.277531
0.227359 0.11429 0.306157
0.221805 0.121645 0.334783
0.216251 0.129015 0.363409
0.210697 0.13637 0.392035
0.205142 0.143725 0.420661
0.199588 0.151095 0.449287
0.194049 0.15845 0.477913
0.188495 0.16582 0.506539
0.18294 0.173175 0.535164
0.177386 0.180529 0.56379
0.171832 0.1879 0.592416
0.166278 0.195254 0.621042
0.160723 0.202609 0.649668
0.155169 0.209979 0.678294
0.149615 0.217334 0.706935
0.14406 0.224704 0.735561
0.138506 0.232059 0.764187
0.132952 0.239414 0.792813
0.127398 0.246784 0.821439
0.121843 0.254139 0.850065
0.116289 0.261509 0.878691
0.110735 0.268864 0.907317
0.10518 0.276219 0.935943
0.0996262 0.283589 0.964569
0.0940719 0.290944 0.993194
0.0885328 0.298314 1
0.319493 0.0753185 0.12694
0.313939 0.0826734 0.155566
0.308385 0.0900435 0.184192
0.302831 0.0973983 0.212818
0.297276 0.104753 0.241443
0.291722 0.112123 0.270069
0.286168 0.119478 0.298695
0.280613 0.126848 0.327321
0.275059 0.134203 0.355947
0.269505 0.141558 0.384573
0.263951 0.148928 0.413199
0.258396 0.156283 0.441825
0.252842 0.163638 0.470451
0.247288 0.171008 0.499077
0.241733 0.178363 0.527703
0.236194 0.185733 0.556329
0.23064 0.193088 0.584955
0.225086 0.200443 0.613581
0.219532 0.207813 0.642206
0.213977 0.215167 0.670832
0.208423 0.222538 0.699458
0.202869 0.229892 0.728084
0.197314 0.237247 0.75671
0.19176 0.244617 0.785336
0.186206 0.251972 0.813962
0.180652 0.259342 0.842588
0.175097 0.266697 0.871214
0.169543 0.274052 0.89984
0.163989 0.281422 0.928466
0.158434 0.288777 0.957092
0.15288 0.296132 0.985733
0.147326 0.303502 1
0.141772 0.310857 1
0.372732 0.0878767 0.148104
0.367193 0.0952316 0.176715
0.361639 0.102586 0.205341
0.356085 0.109957 0.233967
0.35053 0.117311 0.262592
0.344976 0.124666 0.291218
0.339422 0.132036 0.319844
0.333867 0.139391 0.34847
0.328313 0.146761 0.377096
0.322759 0.154116 0.405722
0.317205 0.161471 0.434363
0.31165 0.168841 0.462989
0.306096 0.176196 0.491615
0.300542 0.183566 0.520241
0.294987 0.190921 0.548867
0.289433 0.198276 0.577493
0.283879 0.205646 0.606119
0.278325 0.213001 0.634745
0.272786 0.220371 0.663371
0.267231 0.227726 0.691997
0.261677 0.23508 0.720623
0.256123 0.242451 0.749249
0.250568 0.249805 0.777874
0.245014 0.257176 0.8065
0.23946 0.26453 0.835126
0.233906 0.271885 0.863752
0.228351 0.279255 0.892378
0.222797 0.28661 0.921004
0.217243 0.293965 0.94963
0.211688 0.301335 0.978256
0.206134 0.30869 1
0.20058 0.31606 1
0.195026 0.323415 1
0.425986 0.100435 0.169268
0.420447 0.10779 0.197879
0.414893 0.115145 0.226505
0.409339 0.122499 0.255131
0.403784 0.12987 0.283757
0.39823 0.137224 0.312383
0.392676 0.144594 0.341009
0.387121 0.151949 0.369635
0.381567 0.159304 0.39826
0.376013 0.166674 0.426886
0.370459 0.174029 0.455512
0.364904 0.181399 0.484138
0.35935 0.188754 0.512764
0.353796 0.196109 0.54139
0.348241 0.203479 0.570016
0.342687 0.210834 0.598642
0.337133 0.218204 0.627268
0.331579 0.225559 0.655894
0.326024 0.232914 0.68452
0.32047 0.240284 0.713146
0.314931 0.247639 0.741787
0.309377 0.254994 0.770413
0.303822 0.262364 0.799039
0.298268 0.269718 0.827665
0.292714 0.277089 0.856291
0.28716 0.284443 0.884916
0.281605 0.291798 0.913542
0.276051 0.299168 0.942168
0.270497 0.306523 0.970794
0.264942 0.313893 0.99942
0.259388 0.321248 1
0.253834 0.328603 1
0.24828 0.335973 1
0.47924 0.112978 0.190417
0.473686 0.120333 0.219043
0.468132 0.127703 0.247669
0.462593 0.135058 0.276295
0.457038 0.142428 0.304921
0.451484 0.149783 0.333547
0.44593 0.157137 0.362173
0.440375 0.164508 0.390799
0.434821 0.171862 0.419425
0.429267 0.179232 0.448051
0.423713 0.186587 0.476677
0.418158 0.193942 0.505302
0.412604 0.201312 0.533928
0.40705 0.208667 0.562554
0.401495 0.216022 0.59118
0.395941 0.223392 0.619806
0.390387 0.230747 0.648432
0.384833 0.238117 0.677058
0.379278 0.245472 0.705684
0.373724 0.252827 0.73431
0.36817 0.260197 0.762936
0.362615 0.267552 0.791562
0.357061 0.274922 0.820188
0.351522 0.282277 0.848814
0.345968 0.289631 0.87744
0.340414 0.297002 0.906065
0.334859 0.304356 0.934691
0.329305 0.311727 0.963317
0.323751 0.319081 0.991943
0.318196 0.326436 1
0.312642 0.333806 1
0.307088 0.341161 1
0.301534 0.348516 1
0.532494 0.125536 0.211582
0.52694 0.132891 0.240192
0.521385 0.140261 0.268818
0.515831 0.147616 0.297444
0.510277 0.154971 0.32607
0.504723 0.162341 0.354696
0.499184 0.169696 0.383322
0.493629 0.17705 0.411948
0.488075 0.184421 0.440574
0.482521 0.191775 0.4692
0.476967 0.199145 0.497841
0.471412 0.2065 0.526467
0.465858 0.213855 0.555093
0.460304 0.221225 0.583719
0.454749 0.22858 0.612345
0.449195 0.23595 0.64097
0.443641 0.243305 0.669596
0.438087 0.25066 0.698222
0.432532 0.25803 0.726848
0.426978 0.265385 0.755474
0.421424 0.272755 0.7841
0.415869 0.28011 0.812726
0.410315 0.287465 0.841352
0.404761 0.294835 0.869978
0.399207 0.30219 0.898604
0.393668 0.30956 0.92723
0.388113 0.316915 0.955856
0.382559 0.324269 0.984482
0.377005 0.33164 1
0.37145 0.338994 1
0.365896 0.346349 1
0.360342 0.353719 1
0.354788 0.361074 1
0.585748 0.138094 0.232746
0.580194 0.145449 0.261357
0.574639 0.152804 0.289982
0.569085 0.160174 0.318608
0.563531 0.167529 0.347234
0.557977 0.174884 0.37586
0.552422 0.182254 0.404486
0.546868 0.189609 0.433112
0.541329 0.196979 0.461738
0.535775 0.204334 0.490364
0.530221 0.211688 0.51899
0.524666 0.219059 0.547616
0.519112 0.226413 0.576242
0.513558 0.233783 0.604868
0.508003 0.241138 0.633494
0.502449 0.248493 0.66212
0.496895 0.255863 0.690745
0.491341 0.263218 0.719371
0.485786 0.270588 0.747997
0.480232 0.277943 0.776638
0.474678 0.285298 0.805264
0.469123 0.292668 0.83389
0.463569 0.300023 0.862516
0.458015 0.307378 0.891142
0.452461 0.314748 0.919768
0.446906 0.322103 0.948394
0.441352 0.329473 0.97702
0.435813 0.336828 1
0.430259 0.344182 1
0.424704 0.351553 1
0.41915 0.358907 1
0.413596 0.366278 1
0.408042 0.373632 1
0.639002 0.150637 0.253895
0.633448 0.158007 0.282521
0.627894 0.165362 0.311147
0.622339 0.172717 0.339773
0.616785 0.180087 0.368399
0.611231 0.187442 0.397024
0.605676 0.194812 0.42565
0.600122 0.202167 0.454276
0.594568 0.209522 0.482902
0.589014 0.216892 0.511528
0.583459 0.224247 0.540154
0.57792 0.231617 0.56878
0.572366 0.238972 0.597406
0.566812 0.246326 0.626032
0.561257 0.253697 0.654658
0.555703 0.261051 0.683284
0.550149 0.268406 0.71191
0.544594 0.275776 0.740536
0.53904 0.283131 0.769162
0.533486 0.290501 0.797787
0.527932 0.297856 0.826413
0.522377 0.305211 0.855039
0.516823 0.312581 0.883665
0.511269 0.319936 0.912291
0.505714 0.327306 0.940917
0.50016 0.334661 0.969543
0.494606 0.342016 0.998169
0.489052 0.349386 1
0.483497 0.356741 1
0.477943 0.364111 1
0.472404 0.371466 1
0.46685 0.37882 1
0.461295 0.386191 1
0.692256 0.163195 0.275059
0.686702 0.17055 0.30367
0.681147 0.17792 0.332296
0.675593 0.185275 0.360922
0.670039 0.192645 0.389548
0.664485 0.2 0.418173
0.65893 0.207355 0.446799
0.653376 0.214725 0.475425
0.647822 0.22208 0.504051
0.642267 0.22945 0.532692
0.636713 0.236805 0.561318
0.631159 0.24416 0.589944
0.625605 0.25153 0.61857
0.620066 0.258885 0.647196
0.614511 0.266239 0.675822
0.608957 0.27361 0.704448
0.603403 0.280964 0.733074
0.597848 0.288334 0.7617
0.592294 0.295689 0.790326
0.58674 0.303044 0.818952
0.581186 0.310414 0.847578
0.575631 0.317769 0.876204
0.570077 0.325139 0.90483
0.564523 0.332494 0.933455
0.558968 0.339849 0.962081
0.553414 0.347219 0.990707
0.54786 0.354574 1
0.542306 0.361944 1
0.536751 0.369299 1
0.531197 0.376654 1
0.525643 0.384024 1
0.520088 0.391379 1
0.514549 0.398733 1
0.74551 0.175753 0.296223
0.739956 0.183108 0.324834
0.734401 0.190478 0.35346
0.728847 0.197833 0.382086
0.723293 0.205188 0.410712
0.717739 0.212558 0.439338
0.712184 0.219913 0.467964
0.70663 0.227268 0.49659
0.701076 0.234638 0.525216
0.695521 0.241993 0.553841
0.689967 0.249363 0.582467
0.684413 0.256718 0.611093
0.678859 0.264073 0.639719
0.673304 0.271443 0.668345
0.66775 0.278798 0.696971
0.662211 0.286168 0.725597
0.656657 0.293523 0.754223
0.651102 0.300877 0.782849
0.645548 0.308248 0.81149
0.639994 0.315602 0.840116
0.63444 0.322972 0.868742
0.628885 0.330327 0.897368
0.623331 0.337682 0.925994
0.617777 0.345052 0.95462
0.612222 0.352407 0.983246
0.606668 0.359762 1
0.601114 0.367132 1
0.59556 0.374487 1
0.590005 0.381857 1
0.584451 0.389212 1
0.578897 0.396567 1
0.573343 0.403937 1
0.567788 0.411292 1
0.798749 0.188312 0.317372
0.79321 0.195666 0.345998
0.787655 0.203021 0.374624
0.782101 0.210391 0.40325
0.776547 0.217746 0.431876
0.770993 0.225101 0.460502
0.765438 0.232471 0.489128
0.759884 0.239826 0.517754
0.75433 0.247196 0.54638
0.748775 0.254551 0.575006
0.743221 0.261906 0.603632
0.737667 0.269276 0.632258
0.732113 0.276631 0.660883
0.726558 0.284001 0.689509
0.721004 0.291356 0.718135
0.71545 0.298711 0.746761
0.709895 0.306081 0.775387
0.704341 0.313436 0.804013
0.698802 0.32079 0.832639
0.693248 0.328161 0.861265
0.687694 0.335515 0.889891
0.682139 0.342885 0.918517
0.676585 0.35024 0.947143
0.671031 0.357595 0.975769
0.665476 0.364965 1
0.659922 0.37232 1
0.654368 0.37969 1
0.648814 0.387045 1
0.643259 0.3944 1
0.637705 0.40177 1
0.632151 0.409125 1
0.626596 0.416495 1
0.621042 0.42385 1
0.852003 0.200855 0.338537
0.846464 0.208225 0.367147
0.840909 0.215579 0.395773
0.835355 0.222934 0.424399
0.829801 0.230304 0.453025
0.824247 0.237659 0.481651
0.818692 0.245029 0.510277
0.813138 0.252384 0.538903
0.807584 0.259739 0.567544
0.802029 0.267109 0.59617
0.796475 0.274464 0.624796
0.790921 0.281834 0.653422
0.785367 0.289189 0.682048
0.779812 0.296544 0.710674
0.774258 0.303914 0.7393
0.768704 0.311269 0.767926
0.763149 0.318624 0.796551
0.757595 0.325994 0.825177
0.752041 0.333349 0.853803
0.746487 0.340719 0.882429
0.740948 0.348074 0.911055
0.735393 0.355428 0.939681
0.729839 0.362799 0.968307
0.724285 0.370153 0.996933
0.71873 0.377523 1
0.713176 0.384878 1
0.707622 0.392233 1
0.702068 0.399603 1
0.696513 0.406958 1
0.690959 0.414328 1
0.685405 0.421683 1
0.67985 0.429038 1
0.674296 0.436408 1
0.905257 0.213413 0.359701
0.899702 0.220768 0.388312
0.894148 0.228138 0.416938
0.888594 0.235492 0.445563
0.883055 0.242863 0.474189
0.877501 0.250217 0.502815
0.871946 0.257572 0.531441
0.866392 0.264942 0.560067
0.860838 0.272297 0.588693
0.855283 0.279652 0.617319
0.849729 0.287022 0.645945
0.844175 0.294377 0.674571
0.838621 0.301747 0.703197
0.833066 0.309102 0.731823
0.827512 0.316457 0.760449
0.821958 0.323827 0.789075
0.816403 0.331182 0.8177
0.810849 0.338552 0.846342
0.805295 0.345907 0.874968
0.799741 0.353262 0.903593
0.794186 0.360632 0.932219
0.788632 0.367987 0.960845
0.783078 0.375357 0.989471
0.777539 0.382712 1
0.771984 0.390066 1
0.76643 0.397436 1
0.760876 0.404791 1
0.755322 0.412146 1
0.749767 0.419516 1
0.744213 0.426871 1
0.738659 0.434241 1
0.733104 0.441596 1
0.72755 0.448951 1
0.958511 0.225971 0.380865
0.952956 0.233326 0.409476
0.947402 0.240681 0.438102
0.941848 0.248051 0.466728
0.936294 0.255406 0.495354
0.930739 0.262776 0.52398
0.9252 0.27013 0.552605
0.919646 0.277485 0.581231
0.914092 0.284855 0.609857
0.908537 0.29221 0.638483
0.902983 0.29958 0.667109
0.897429 0.306935 0.695735
0.891875 0.31429 0.724361
0.88632 0.32166 0.752987
0.880766 0.329015 0.781613
0.875212 0.336385 0.810239
0.869657 0.34374 0.838865
0.864103 0.351095 0.867491
0.858549 0.358465 0.896117
0.852995 0.36582 0.924743
0.84744 0.373175 0.953368
0.841886 0.380545 0.981994
0.836332 0.3879 1
0.830777 0.39527 1
0.825223 0.402625 1
0.819684 0.409979 1
0.81413 0.41735 1
0.808576 0.424704 1
0.803021 0.432074 1
0.797467 0.439429 1
0.791913 0.446784 1
0.786358 0.454154 1
0.780804 0.461509 1
1 0.238529 0.402014
1 0.245884 0.430625
1 0.253239 0.459251
0.995102 0.260609 0.487877
0.989548 0.267964 0.516503
0.983993 0.275319 0.545129
0.978439 0.282689 0.573754
0.972885 0.290044 0.602396
0.967346 0.297414 0.631022
0.961791 0.304768 0.659648
0.956237 0.312123 0.688273
0.950683 0.319493 0.716899
0.945129 0.326848 0.745525
0.939574 0.334218 0.774151
0.93402 0.341573 0.802777
0.928466 0.348928 0.831403
0.922911 0.356298 0.860029
0.917357 0.363653 0.888655
0.911803 0.371008 0.917281
0.906249 0.378378 0.945907
0.900694 0.385733 0.974533
0.89514 0.393103 1
0.889586 0.400458 1
0.884031 0.407813 1
0.878477 0.415183 1
0.872923 0.422538 1
0.867369 0.429908 1
0.86183 0.437263 1
0.856275 0.444617 1
0.850721 0.451987 1
0.845167 0.459342 1
0.839612 0.466712 1
0.834058 0.474067 1
1 0.251072 0.423178
1 0.258442 0.451789
1 0.265797 0.480415
1 0.273152 0.509041
1 0.280522 0.537667
1 0.287877 0.566293
1 0.295247 0.594919
1 0.302602 0.623545
1 0.309957 0.652171
1 0.317327 0.680797
1 0.324681 0.709422
1 0.332036 0.738048
0.998383 0.339406 0.766674
0.992828 0.346761 0.7953
0.987274 0.354131 0.823926
0.98172 0.361486 0.852552
0.976165 0.368841 0.881193
0.970611 0.376211 0.909819
0.965057 0.383566 0.938445
0.959503 0.390936 0.967071
0.953948 0.398291 0.995697
0.948394 0.405646 1
0.94284 0.413016 1
0.937285 0.420371 1
0.931731 0.427741 1
0.926177 0.435096 1
0.920623 0.442451 1
0.915068 0.449821 1
0.909514 0.457176 1
0.90396 0.46453 1
0.898421 0.471901 1
0.892866 0.479255 1
0.887312 0.486625 1
1 0.26363 0.444343
1 0.270985 0.472953
1 0.278355 0.501579
1 0.28571 0.530205
1 0.293065 0.558831
1 0.300435 0.587457
1 0.30779 0.616083
1 0.31516 0.644709
1 0.322515 0.673335
1 0.32987 0.701961
1 0.33724 0.730587
1 0.344594 0.759213
1 0.351965 0.787839
1 0.359319 0.816464
1 0.366674 0.84509
1 0.374044 0.873716
1 0.381399 0.902342
1 0.388769 0.930968
1 0.396124 0.959594
1 0.403479 0.98822
1 0.410849 1
1 0.418204 1
0.996094 0.425559 1
0.990539 0.432929 1
0.984985 0.440284 1
0.979431 0.447654 1
0.973877 0.455009 1
0.968322 0.462364 1
0.962768 0.469734 1
0.957214 0.477089 1
0.951659 0.484459 1
0.946105 0.491814 1
0.940566 0.499168 1
1 0.276188 0.465492
1 0.283543 0.494102
1 0.290898 0.522728
1 0.298268 0.551354
1 0.305623 0.57998
1 0.312993 0.608606
1 0.320348 0.637247
1 0.327703 0.665873
1 0.335073 0.694499
1 0.342428 0.723125
1 0.349798 0.751751
1 0.357153 0.780377
1 0.364508 0.809003
1 0.371878 0.837629
1 0.379232 0.866255
1 0.386603 0.894881
1 0.393957 0.923506
1 0.401312 0.952132
1 0.408682 0.980758
1 0.416037 1
1 0.423392 1
1 0.430762 1
1 0.438117 1
1 0.445487 1
1 0.452842 1
1 0.460197 1
1 0.467567 1
1 0.474922 1
1 0.482292 1
1 0.489647 1
1 0.497002 1
0.999359 0.504372 1
0.993805 0.511727 1
1 0.288746 0.486656
1 0.296101 0.515267
1 0.303456 0.543893
1 0.310826 0.572519
1 0.318181 0.601144
1 0.325536 0.62977
1 0.332906 0.658396
1 0.340261 0.687022
1 0.347631 0.715648
1 0.354986 0.744274
1 0.362341 0.7729
1 0.369711 0.801526
1 0.377066 0.830152
1 0.384421 0.858778
1 0.391791 0.887404
1 0.399145 0.916045
1 0.406516 0.944671
1 0.41387 0.973297
1 0.421225 1
1 0.428595 1
1 0.43595 1
1 0.44332 1
1 0.450675 1
1 0.45803 1
1 0.4654 1
1 0.472755 1
1 0.480125 1
1 0.48748 1
1 0.494835 1
1 0.502205 1
1 0.50956 1
1 0.516915 1
1 0.524285 1
1 0.301289 0.50782
1 0.308659 0.536431
1 0.316014 0.565057
1 0.323369 0.593683
1 0.330739 0.622309
1 0.338094 0.650935
1 0.345449 0.679561
1 0.352819 0.708186
1 0.360174 0.736812
1 0.367544 0.765438
1 0.374899 0.794064
1 0.382254 0.82269
1 0.389624 0.851316
1 0.396979 0.879942
1 0.404349 0.908568
1 0.411704 0.937194
1 0.419059 0.96582
1 0.426429 0.994446
1 0.433783 1
1 0.441154 1
1 0.448508 1
1 0.455863 1
1 0.463233 1
1 0.470588 1
1 0.477943 1
1 0.485313 1
1 0.492668 1
1 0.500038 1
1 0.507393 1
1 0.514748 1
1 0.522118 1
1 0.529473 1
1 0.536843 1
1 0.313848 0.528969
1 0.321202 0.55758
1 0.328573 0.586206
1 0.335927 0.614832
1 0.343282 0.643458
1 0.350652 0.672099
1 0.358007 0.700725
1 0.365377 0.729351
1 0.372732 0.757977
1 0.380087 0.786603
1 0.387457 0.815229
1 0.394812 0.843854
1 0.402182 0.87248
1 0.409537 0.901106
1 0.416892 0.929732
1 0.424262 0.958358
1 0.431617 0.986984
1 0.438987 1
1 0.446342 1
1 0.453696 1
1 0.461067 1
1 0.468421 1
1 0.475776 1
1 0.483146 1
1 0.490501 1
1 0.497871 1
1 0.505226 1
1 0.512581 1
1 0.519951 1
1 0.527306 1
1 0.534676 1
1 0.542031 1
1 0.549386 1
1 0.326406 0.550134
1 0.333761 0.578744
1 0.341115 0.60737
1 0.348486 0.635996
1 0.35584 0.664622
1 0.36321 0.693248
1 0.370565 0.721874
1 0.37792 0.7505
1 0.38529 0.779126
1 0.392645 0.807752
1 0.400015 0.836378
1 0.40737 0.865003
1 0.414725 0.893629
1 0.422095 0.922255
1 0.42945 0.950896
1 0.436805 0.979522
1 0.444175 1
1 0.45153 1
1 0.4589 1
1 0.466255 1
1 0.47361 1
1 0.48098 1
1 0.488334 1
1 0.495705 1
1 0.503059 1
1 0.510414 1
1 0.517784 1
1 0.525139 1
1 0.532509 1
1 0.539864 1
1 0.547219 1
1 0.554589 1
1 0.561944 1
1 0.338964 0.571298
1 0.346319 0.599908
1 0.353674 0.628534
1 0.361044 0.65716
1 0.368399 0.685786
1 0.375753 0.714412
1 0.383124 0.743038
1 0.390478 0.771664
1 0.397833 0.80029
