public/LUTS/Color Shift/ColorShift_69.cube
TITLE "Generated by Resolve"
LUT_3D_SIZE 33
0 0 0
0.035996 0.00175479 0
0.0720226 0.00352483 0
0.108049 0.00527962 0
0.14406 0.00703441 0
0.180087 0.0087892 0
0.216114 0.0105592 0
0.252125 0.012314 0
0.288151 0.0140688 0
0.324163 0.0158236 0
0.360189 0.0175937 0
0.396216 0.0193484 0
0.432227 0.0211032 0
0.468254 0.0228733 0
0.504265 0.0246281 0
0.540291 0.0263828 0
0.576318 0.0281376 0
0.612329 0.0299077 0
0.648356 0.0316625 0
0.684367 0.0334173 0
0.720394 0.0351873 0
0.75642 0.0369421 0
0.792432 0.0386969 0
0.828458 0.0404517 0
0.864485 0.0422217 0
0.900496 0.0439765 0
0.936522 0.0457313 0
0.972534 0.0475013 0
1 0.0492561 0
1 0.0510109 0
1 0.0527657 0
1 0.0545357 0
1 0.0562905 0
0 0.038941 0.010071
0.0059968 0.0406958 0
0.0420233 0.0424659 0
0.0780346 0.0442206 0
0.114061 0.0459754 0
0.150088 0.0477302 0
0.186099 0.0495003 0
0.222126 0.0512551 0
0.258137 0.0530098 0
0.294163 0.0547646 0
0.33019 0.0565347 0
0.366201 0.0582895 0
0.402228 0.0600443 0
0.438239 0.0618143 0
0.474266 0.0635691 0
0.510292 0.0653239 0
0.546304 0.0670787 0
0.58233 0.0688487 0
0.618357 0.0706035 0
0.654368 0.0723583 0
0.690394 0.0741283 0
0.726406 0.0758831 0
0.762432 0.0776379 0
0.798459 0.0793927 0
0.83447 0.0811627 0
0.870497 0.0829175 0
0.906508 0.0846723 0
0.942535 0.0864424 0
0.978561 0.0881971 0
1 0.0899519 0
1 0.0917067 0
1 0.0934768 0
1 0.0952316 0
0 0.0778973 0.0201572
0 0.0796521 0
0.0119936 0.0814221 0
0.0480201 0.0831769 0
0.0840467 0.0849317 0
0.120058 0.0867018 0
0.156085 0.0884565 0
0.192096 0.0902113 0
0.228122 0.0919661 0
0.264149 0.0937362 0
0.30016 0.095491 0
0.336187 0.0972457 0
0.372213 0.0990158 0
0.408225 0.100771 0
0.444251 0.102525 0
0.480262 0.10428 0
0.516289 0.10605 0
0.552316 0.107805 0
0.588327 0.10956 0
0.624353 0.11133 0
0.660365 0.113085 0
0.696391 0.114839 0
0.732418 0.116594 0
0.768429 0.118364 0
0.804456 0.120119 0
0.840467 0.121874 0
0.876493 0.123644 0
0.91252 0.125399 0
0.948531 0.127153 0
0.984558 0.128908 0
1 0.130678 0
1 0.132433 0
1 0.134188 0
0 0.116854 0.0302434
0 0.118624 0.00544747
0 0.120378 0
0.0180056 0.122133 0
0.0540169 0.123903 0
0.0900435 0.125658 0
0.12607 0.127413 0
0.162081 0.129168 0
0.198108 0.130938 0
0.234119 0.132692 0
0.270146 0.134447 0
0.306172 0.136217 0
0.342184 0.137972 0
0.37821 0.139727 0
0.414221 0.141482 0
0.450248 0.143252 0
0.486275 0.145006 0
0.522286 0.146761 0
0.558312 0.148516 0
0.594324 0.150286 0
0.63035 0.152041 0
0.666377 0.153796 0
0.702388 0.155566 0
0.738415 0.157321 0
0.774441 0.159075 0
0.810452 0.16083 0
0.846479 0.1626 0
0.88249 0.164355 0
0.918517 0.16611 0
0.954543 0.16788 0
0.990555 0.169635 0
1 0.171389 0
1 0.173144 0
0 0.155825 0.0403296
0 0.15758 0.0155184
0 0.159335 0
0 0.161105 0
0.0240024 0.16286 0
0.060029 0.164614 0
0.0960403 0.166369 0
0.132067 0.168139 0
0.168078 0.169894 0
0.204105 0.171649 0
0.240131 0.173404 0
0.276143 0.175174 0
0.312169 0.176928 0
0.348196 0.178683 0
0.384207 0.180453 0
0.420233 0.182208 0
0.456245 0.183963 0
0.492271 0.185718 0
0.528298 0.187488 0
0.564309 0.189242 0
0.600336 0.190997 0
0.636347 0.192767 0
0.672374 0.194522 0
0.7084 0.196277 0
0.744411 0.198032 0
0.780438 0.199802 0
0.816449 0.201556 0
0.852476 0.203311 0
0.888502 0.205081 0
0.924514 0.206836 0
0.96054 0.208591 0
0.996567 0.210346 0
1 0.212116 0
0 0.194781 0.0504158
0 0.196536 0.0256046
0 0.198291 0.000793469
0 0.200061 0
0 0.201816 0
0.0299992 0.203571 0
0.0660258 0.205341 0
0.102052 0.207095 0
0.138064 0.20885 0
0.17409 0.210605 0
0.210101 0.212375 0
0.246128 0.21413 0
0.282155 0.215885 0
0.318166 0.217655 0
0.354192 0.219409 0
0.390204 0.221164 0
0.42623 0.222919 0
0.462257 0.224689 0
0.498268 0.226444 0
0.534295 0.228199 0
0.570306 0.229969 0
0.606332 0.231724 0
0.642359 0.233478 0
0.67837 0.235233 0
0.714397 0.237003 0
0.750423 0.238758 0
0.786435 0.240513 0
0.822461 0.242283 0
0.858473 0.244038 0
0.894499 0.245792 0
0.930526 0.247547 0
0.966537 0.249317 0
1 0.251072 0
0 0.233738 0.0604868
0 0.235492 0.0356909
0 0.237263 0.0108797
0 0.239017 0
0 0.240772 0
0 0.242542 0
0.0360113 0.244297 0
0.0720226 0.246052 0
0.108049 0.247807 0
0.14406 0.249577 0
0.180087 0.251331 0
0.216114 0.253086 0
0.252125 0.254856 0
0.288151 0.256611 0
0.324163 0.258366 0
0.360189 0.260121 0
0.396216 0.261891 0
0.432227 0.263645 0
0.468254 0.2654 0
0.50428 0.26717 0
0.540291 0.268925 0
0.576318 0.27068 0
0.612329 0.272435 0
0.648356 0.274205 0
0.684382 0.275959 0
0.720394 0.277714 0
0.75642 0.279469 0
0.792432 0.281239 0
0.828458 0.282994 0
0.864485 0.284749 0
0.900496 0.286519 0
0.936522 0.288273 0
0.972534 0.290028 0
0 0.272694 0.070573
0 0.274464 0.0457771
0 0.276219 0.0209659
0 0.277974 0
0 0.279744 0
0 0.281498 0
0.00598154 0.283253 0
0.0420081 0.285008 0
0.0780346 0.286778 0
0.114046 0.288533 0
0.150072 0.290288 0
0.186084 0.292058 0
0.22211 0.293812 0
0.258137 0.295567 0
0.294148 0.297322 0
0.330175 0.299092 0
0.366186 0.300847 0
0.402213 0.302602 0
0.438239 0.304356 0
0.47425 0.306127 0
0.510277 0.307881 0
0.546288 0.309636 0
0.582315 0.311406 0
0.618341 0.313161 0
0.654353 0.314916 0
0.690379 0.31667 0
0.726406 0.318441 0
0.762417 0.320195 0
0.798444 0.32195 0
0.834455 0.32372 0
0.870481 0.325475 0
0.906508 0.32723 0
0.942519 0.328984 0
0 0.311666 0.0806592
0 0.31342 0.0558633
0 0.315175 0.0310369
0 0.316945 0.00622568
0 0.3187 0
0 0.320455 0
0 0.32221 0
0.0119936 0.32398 0
0.0480049 0.325734 0
0.0840314 0.327489 0
0.120043 0.329244 0
0.156069 0.331014 0
0.192096 0.332769 0
0.228107 0.334524 0
0.264134 0.336294 0
0.300145 0.338048 0
0.336172 0.339803 0
0.372198 0.341558 0
0.408209 0.343328 0
0.444236 0.345083 0
0.480262 0.346838 0
0.516274 0.348608 0
0.5523 0.350362 0
0.588312 0.352117 0
0.624338 0.353872 0
0.660365 0.355642 0
0.696376 0.357397 0
0.732403 0.359152 0
0.768414 0.360922 0
0.80444 0.362676 0
0.840467 0.364431 0
0.876478 0.366186 0
0.912505 0.367956 0
0 0.350622 0.0907454
0 0.352377 0.0659342
0 0.354131 0.0411231
0 0.355901 0.0163119
0 0.357656 0
0 0.359411 0
0 0.361181 0
0 0.362936 0
0.0179904 0.364691 0
0.0540017 0.366445 0
0.0900282 0.368215 0
0.126055 0.36997 0
0.162066 0.371725 0
0.198093 0.373495 0
0.234119 0.37525 0
0.27013 0.377005 0
0.306157 0.378759 0
0.342168 0.380529 0
0.378195 0.382284 0
0.414221 0.384039 0
0.450233 0.385809 0
0.486259 0.387564 0
0.522271 0.389319 0
0.558297 0.391073 0
0.594324 0.392844 0
0.630335 0.394598 0
0.666362 0.396353 0
0.702373 0.398123 0
0.738399 0.399878 0
0.774426 0.401633 0
0.810437 0.403388 0
0.846464 0.405158 0
0.88249 0.406912 0
0 0.389578 0.100832
0 0.391333 0.0760204
0 0.393103 0.0512093
0 0.394858 0.0263981
0 0.396612 0.00158694
0 0.398383 0
0 0.400137 0
0 0.401892 0
0 0.403647 0
0.0239872 0.405417 0
0.0600137 0.407172 0
0.096025 0.408927 0
0.132052 0.410697 0
0.168078 0.412451 0
0.204089 0.414206 0
0.240116 0.415961 0
0.276127 0.417731 0
0.312154 0.419486 0
0.34818 0.421241 0
0.384192 0.423011 0
0.420218 0.424765 0
0.456245 0.42652 0
0.492256 0.428275 0
0.528283 0.430045 0
0.564294 0.4318 0
0.60032 0.433555 0
0.636347 0.435309 0
0.672358 0.437079 0
0.708385 0.438834 0
0.744396 0.440589 0
0.780423 0.442359 0
0.816449 0.444114 0
0.852461 0.445869 0
0 0.428534 0.110903
0 0.430304 0.0861067
0 0.432059 0.0612955
0 0.433814 0.0364843
0 0.435584 0.0116732
0 0.437339 0
0 0.439094 0
0 0.440848 0
0 0.442618 0
0 0.444373 0
0.029984 0.446128 0
0.0660105 0.447883 0
0.102037 0.449653 0
0.138048 0.451408 0
0.174075 0.453162 0
0.210101 0.454932 0
0.246113 0.456687 0
0.282139 0.458442 0
0.318151 0.460197 0
0.354177 0.461967 0
0.390204 0.463722 0
0.426215 0.465476 0
0.462242 0.467247 0
0.498253 0.469001 0
0.534279 0.470756 0
0.570306 0.472511 0
0.606317 0.474281 0
0.642344 0.476036 0
0.678355 0.477791 0
0.714382 0.479561 0
0.750408 0.481315 0
0.786419 0.48307 0
0.822446 0.484825 0
0 0.467506 0.120989
0 0.469261 0.0961929
0 0.471015 0.0713817
0 0.47277 0.0465705
0 0.47454 0.0217441
0 0.476295 0
0 0.47805 0
0 0.47982 0
0 0.481575 0
0 0.48333 0
0 0.485084 0
0.035996 0.486854 0
0.0720073 0.488609 0
0.108034 0.490364 0
0.14406 0.492134 0
0.180072 0.493889 0
0.216098 0.495644 0
0.25211 0.497398 0
0.288136 0.499168 0
0.324163 0.500923 0
0.360174 0.502678 0
0.396201 0.504448 0
0.432212 0.506203 0
0.468238 0.507958 0
0.504265 0.509712 0
0.540276 0.511482 0
0.576303 0.513237 0
0.612329 0.514992 0
0.648341 0.516762 0
0.684367 0.518517 0
0.720378 0.520272 0
0.756405 0.522026 0
0.792432 0.523796 0
0 0.506462 0.131075
0 0.508217 0.106279
0 0.509972 0.0814527
0 0.511742 0.0566415
0 0.513497 0.0318303
0 0.515251 0.00701915
0 0.517021 0
0 0.518776 0
0 0.520531 0
0 0.522286 0
0 0.524056 0
0.00596628 0.525811 0
0.0419928 0.527565 0
0.0780194 0.529335 0
0.114031 0.53109 0
0.150057 0.532845 0
0.186084 0.5346 0
0.222095 0.53637 0
0.258122 0.538125 0
0.294133 0.539879 0
0.330159 0.54165 0
0.366186 0.543404 0
0.402197 0.545159 0
0.438224 0.546914 0
0.474235 0.548684 0
0.510262 0.550439 0
0.546288 0.552193 0
0.5823 0.553948 0
0.618326 0.555718 0
0.654337 0.557473 0
0.690364 0.559228 0
0.72639 0.560998 0
0.762402 0.562753 0
0 0.545419 0.141161
0 0.547173 0.11635
0 0.548943 0.0915389
0 0.550698 0.0667277
0 0.552453 0.0419165
0 0.554223 0.0171054
0 0.555978 0
0 0.557733 0
0 0.559487 0
0 0.561257 0
0 0.563012 0
0 0.564767 0
0.0119783 0.566537 0
0.0479896 0.568292 0
0.0840162 0.570047 0
0.120043 0.571801 0
0.156054 0.573571 0
0.192081 0.575326 0
0.228092 0.577081 0
0.264118 0.578836 0
0.300145 0.580606 0
0.336156 0.582361 0
0.372183 0.584115 0
0.408194 0.585885 0
0.444221 0.58764 0
0.480247 0.589395 0
0.516258 0.59115 0
0.552285 0.59292 0
0.588312 0.594675 0
0.624323 0.596429 0
0.660349 0.598199 0
0.696361 0.599954 0
0.732387 0.601709 0
0 0.584375 0.151247
0 0.586145 0.126436
0 0.5879 0.101625
0 0.589654 0.0768139
0 0.591424 0.0520027
0 0.593179 0.0271916
0 0.594934 0.00236515
0 0.596689 0
0 0.598459 0
0 0.600214 0
0 0.601968 0
0 0.603723 0
0 0.605493 0
0.0179751 0.607248 0
0.0540017 0.609003 0
0.090013 0.610773 0
0.12604 0.612528 0
0.162051 0.614282 0
0.198077 0.616037 0
0.234104 0.617807 0
0.270115 0.619562 0
0.306142 0.621317 0
0.342168 0.623087 0
0.37818 0.624842 0
0.414206 0.626596 0
0.450217 0.628351 0
0.486244 0.630121 0
0.522271 0.631876 0
0.558282 0.633631 0
0.594308 0.635401 0
0.63032 0.637156 0
0.666346 0.638911 0
0.702373 0.640665 0
0 0.623346 0.161318
0 0.625101 0.136522
0 0.626856 0.111711
0 0.628611 0.0869001
0 0.630381 0.062089
0 0.632136 0.0372625
0 0.63389 0.0124514
0 0.63566 0
0 0.637415 0
0 0.63917 0
0 0.640925 0
0 0.642695 0
0 0.64445 0
0 0.646204 0
0.0239719 0.647974 0
0.0599985 0.649729 0
0.096025 0.651484 0
0.132036 0.653239 0
0.168063 0.655009 0
0.204074 0.656764 0
0.240101 0.658518 0
0.276127 0.660288 0
0.312139 0.662043 0
0.348165 0.663798 0
0.384176 0.665553 0
0.420203 0.667323 0
0.45623 0.669078 0
0.492241 0.670832 0
0.528267 0.672602 0
0.564294 0.674357 0
0.600305 0.676112 0
0.636332 0.677867 0
0.672343 0.679637 0
0 0.662303 0.171405
0 0.664057 0.146609
0 0.665812 0.121798
0 0.667582 0.0969863
0 0.669337 0.0721599
0 0.671092 0.0473487
0 0.672862 0.0225376
0 0.674617 0
0 0.676371 0
0 0.678126 0
0 0.679896 0
0 0.681651 0
0 0.683406 0
0 0.685176 0
0 0.686931 0
0.029984 0.688685 0
0.0659953 0.69044 0
0.102022 0.69221 0
0.138033 0.693965 0
0.17406 0.69572 0
0.210086 0.69749 0
0.246098 0.699245 0
0.282124 0.700999 0
0.318151 0.702754 0
0.354162 0.704524 0
0.390188 0.706279 0
0.4262 0.708034 0
0.462226 0.709789 0
0.498253 0.711559 0
0.534264 0.713314 0
0.570291 0.715068 0
0.606302 0.716838 0
0.642329 0.718593 0
0 0.701259 0.181491
0 0.703014 0.156695
0 0.704784 0.131868
0 0.706538 0.107057
0 0.708293 0.0822461
0 0.710063 0.057435
0 0.711818 0.0326238
0 0.713573 0.00781262
0 0.715328 0
0 0.717098 0
0 0.718853 0
0 0.720607 0
0 0.722362 0
0 0.724132 0
0 0.725887 0
0 0.727642 0
0.0359808 0.729412 0
0.0720073 0.731167 0
0.108019 0.732921 0
0.144045 0.734676 0
0.180056 0.736446 0
0.216083 0.738201 0
0.25211 0.739956 0
0.288121 0.741726 0
0.324147 0.743481 0
0.360159 0.745235 0
0.396185 0.74699 0
0.432212 0.74876 0
0.468223 0.750515 0
0.50425 0.75227 0
0.540276 0.75404 0
0.576288 0.755795 0
0.612314 0.757549 0
0 0.740215 0.191577
0 0.741985 0.166766
0 0.74374 0.141955
0 0.745495 0.117144
0 0.74725 0.0923323
0 0.74902 0.0675212
0 0.750774 0.04271
0 0.752529 0.0178836
0 0.754299 0
0 0.756054 0
0 0.757809 0
0 0.759564 0
0 0.761334 0
0 0.763088 0
0 0.764843 0
0 0.766613 0
0.00596628 0.768368 0
0.0419776 0.770123 0
0.0780041 0.771878 0
0.114015 0.773648 0
0.150042 0.775402 0
0.186069 0.777157 0
0.22208 0.778927 0
0.258106 0.780682 0
0.294133 0.782437 0
0.330144 0.784192 0
0.366171 0.785962 0
0.402182 0.787717 0
0.438209 0.789471 0
0.474235 0.791241 0
0.510246 0.792996 0
0.546273 0.794751 0
0.582284 0.796506 0
0 0.779187 0.201663
0 0.780941 0.176852
0 0.782696 0.152041
0 0.784451 0.12723
0 0.786221 0.102419
0 0.787976 0.0776074
0 0.789731 0.052781
0 0.791501 0.0279698
0 0.793256 0.00315862
0 0.79501 0
0 0.796765 0
0 0.798535 0
0 0.80029 0
0 0.802045 0
0 0.803815 0
0 0.80557 0
0 0.807324 0
0.0119631 0.809079 0
0.0479896 0.810849 0
0.0840009 0.812604 0
0.120027 0.814359 0
0.156039 0.816129 0
0.192065 0.817884 0
0.228092 0.819638 0
0.264103 0.821393 0
0.30013 0.823163 0
0.336141 0.824918 0
0.372168 0.826673 0
0.408194 0.828428 0
0.444205 0.830198 0
0.480232 0.831952 0
0.516243 0.833707 0
0.55227 0.835477 0
0 0.818143 0.211734
0 0.819898 0.186938
0 0.821653 0.162127
0 0.823423 0.137316
0 0.825177 0.112505
0 0.826932 0.0876783
0 0.828702 0.0628672
0 0.830457 0.038056
0 0.832212 0.0132448
0 0.833967 0
0 0.835737 0
0 0.837491 0
0 0.839246 0
0 0.841016 0
0 0.842771 0
0 0.844526 0
0 0.846281 0
0 0.848051 0
0.0179599 0.849805 0
0.0539864 0.85156 0
0.0899977 0.853315 0
0.126024 0.855085 0
0.162051 0.85684 0
0.198062 0.858595 0
0.234089 0.860365 0
0.270115 0.862119 0
0.306127 0.863874 0
0.342153 0.865629 0
0.378164 0.867399 0
0.414191 0.869154 0
0.450217 0.870909 0
0.486229 0.872679 0
0.522255 0.874434 0
0 0.857099 0.22182
0 0.858854 0.197024
0 0.860624 0.172213
0 0.862379 0.147402
0 0.864134 0.122576
0 0.865904 0.0977646
0 0.867658 0.0729534
0 0.869413 0.0481422
0 0.871168 0.023331
0 0.872938 0
0 0.874693 0
0 0.876448 0
0 0.878202 0
0 0.879973 0
0 0.881727 0
0 0.883482 0
0 0.885252 0
0 0.887007 0
0 0.888762 0
0.0239719 0.890517 0
0.0599832 0.892287 0
0.0960098 0.894041 0
0.132021 0.895796 0
0.168048 0.897566 0
0.204074 0.899321 0
0.240085 0.901076 0
0.276112 0.902831 0
0.312123 0.904601 0
0.34815 0.906355 0
0.384176 0.90811 0
0.420188 0.90988 0
0.456214 0.911635 0
0.492226 0.91339 0
0 0.896056 0.231907
0 0.897826 0.207111
0 0.89958 0.182284
0 0.901335 0.157473
0 0.90309 0.132662
0 0.90486 0.107851
0 0.906615 0.0830396
0 0.90837 0.0582284
0 0.91014 0.033402
0 0.911894 0.00859083
0 0.913649 0
0 0.915404 0
0 0.917174 0
0 0.918929 0
0 0.920684 0
0 0.922454 0
0 0.924208 0
0 0.925963 0
0 0.927718 0
0 0.929488 0
0.0299687 0.931243 0
0.06598 0.932998 0
0.102007 0.934768 0
0.138033 0.936522 0
0.174044 0.938277 0
0.210071 0.940032 0
0.246082 0.941802 0
0.282109 0.943557 0
0.318135 0.945312 0
0.354147 0.947082 0
0.390173 0.948837 0
0.4262 0.950591 0
0.462211 0.952346 0
0 0.935027 0.241993
0 0.936782 0.217182
0 0.938537 0.19237
0 0.940291 0.167559
0 0.942061 0.142748
0 0.943816 0.117937
0 0.945571 0.0931258
0 0.947341 0.0682994
0 0.949096 0.0434882
0 0.950851 0.018677
0 0.952605 0
0 0.954376 0
0 0.95613 0
0 0.957885 0
0 0.959655 0
0 0.96141 0
0 0.963165 0
0 0.96492 0
0 0.96669 0
0 0.968444 0
0 0.970199 0
0.0359655 0.971969 0
0.0719921 0.973724 0
0.108003 0.975479 0
0.14403 0.977234 0
0.180056 0.979004 0
0.216068 0.980758 0
0.252094 0.982513 0
0.288106 0.984268 0
0.324132 0.986038 0
0.360159 0.987793 0
0.39617 0.989548 0
0.432197 0.991318 0
0 0.973983 0.252079
0 0.975738 0.227268
0 0.977493 0.202457
0 0.979263 0.177646
0 0.981018 0.152834
0 0.982773 0.128023
0 0.984543 0.103197
0 0.986297 0.0783856
0 0.988052 0.0535744
0 0.989807 0.0287633
0 0.991577 0.00395209
0 0.993332 0
0 0.995087 0
0 0.996857 0
0 0.998611 0
0 1 0
0 1 0
0 1 0
0 1 0
0 1 0
0 1 0
0.00595102 1 0
0.0419623 1 0
0.0779889 1 0
0.114015 1 0
0.150027 1 0
0.186053 1 0
0.222065 1 0
0.258091 1 0
0.294118 1 0
0.330129 1 0
0.366155 1 0
0.402182 1 0
0 1 0.26215
0 1 0.237354
0 1 0.212543
0 1 0.187732
0 1 0.162921
0 1 0.138094
0 1 0.113283
0 1 0.0884718
0 1 0.0636606
0 1 0.0388495
0 1 0.014023
0 1 0
0 1 0
0 1 0
0 1 0
0 1 0
0 1 0
0 1 0
0 1 0
0 1 0
0 1 0
0 1 0
0.0119478 1 0
0.0479744 1 0
0.0839857 1 0
0.120012 1 0
0.156039 1 0
0.19205 1 0
0.228077 1 0
0.264088 1 0
0.300114 1 0
0.336141 1 0
0.372152 1 0
0 1 0.272236
0 1 0.24744
0 1 0.222629
0 1 0.197803
0 1 0.172992
0 1 0.14818
0 1 0.123369
0 1 0.098558
0 1 0.0737469
