public/LUTS/Color Shift/ColorShift_87.cube
TITLE "Generated by Resolve"
LUT_3D_SIZE 9
0 0 0
0.049485 0 0.19443
0.0989548 0 0.388907
0.14844 0 0.583368
0.197925 0 0.777829
0.24741 0 0.97229
0.296895 0 1
0.34638 0 1
0.395865 0 1
0.257908 0.0526284 0
0.307393 0.0502937 0.155367
0.356878 0.0479438 0.349844
0.406348 0.045594 0.544305
0.455833 0.0432441 0.738766
0.505318 0.0409094 0.933227
0.554803 0.0385595 1
0.604288 0.0362097 1
0.653773 0.0338598 1
0.515846 0.105272 0
0.565332 0.102937 0.116304
0.614816 0.100587 0.310765
0.664302 0.0982376 0.505226
0.713771 0.0958877 0.699687
0.763256 0.0935531 0.894148
0.812741 0.0912032 1
0.862226 0.0888533 1
0.911711 0.0865034 1
0.773785 0.157916 0
0.82327 0.155566 0.0772412
0.872755 0.153231 0.271702
0.92224 0.150881 0.466163
0.971725 0.148531 0.660624
1 0.146181 0.855085
1 0.143847 1
1 0.141497 1
1 0.139147 1
1 0.210559 0
1 0.208209 0.0381781
1 0.205875 0.232639
1 0.203525 0.4271
1 0.201175 0.621561
1 0.198825 0.816022
1 0.196475 1
1 0.194141 1
1 0.191791 1
1 0.263203 0
1 0.260853 0
1 0.258503 0.193561
1 0.256168 0.388022
1 0.253819 0.582483
1 0.251469 0.776944
1 0.249119 0.971405
1 0.246784 1
1 0.244434 1
1 0.315847 0
1 0.313497 0
1 0.311147 0.154498
1 0.308797 0.348959
1 0.306462 0.54342
1 0.304112 0.737881
1 0.301762 0.932342
1 0.299413 1
1 0.297078 1
1 0.36849 0
1 0.36614 0
1 0.36379 0.115434
1 0.36144 0.309895
1 0.359106 0.504356
1 0.356756 0.698817
1 0.354406 0.893278
1 0.352056 1
1 0.349722 1
1 0.421118 0
1 0.418784 0
1 0.416434 0.0763561
1 0.414084 0.270817
1 0.411734 0.465278
1 0.4094 0.659739
1 0.40705 0.854215
1 0.4047 1
1 0.40235 1
0 0.0746929 0
0 0.0723583 0.16405
0 0.0700084 0.358511
0 0.0676585 0.552972
0.0155337 0.0653086 0.747433
0.0650187 0.062974 0.941894
0.114488 0.0606241 1
0.163973 0.0582742 1
0.213458 0.0559243 1
0.0755016 0.127337 0
0.124987 0.124987 0.124987
0.174472 0.122637 0.319448
0.223957 0.120287 0.513909
0.273442 0.117952 0.70837
0.322927 0.115602 0.902831
0.372412 0.113252 1
0.421881 0.110903 1
0.471366 0.108568 1
0.333455 0.17998 0
0.382925 0.17763 0.0859236
0.43241 0.17528 0.280385
0.481895 0.17293 0.474845
0.53138 0.170596 0.669306
0.580865 0.168246 0.863767
0.63035 0.165896 1
0.679835 0.163546 1
0.729305 0.161212 1
0.591394 0.232609 0
0.640864 0.230274 0.0468452
0.690349 0.227924 0.241306
0.739834 0.225574 0.435767
0.789319 0.223224 0.630243
0.838804 0.22089 0.824704
0.888289 0.21854 1
0.937774 0.21619 1
0.987259 0.21384 1
0.849332 0.285252 0
0.898802 0.282918 0.0077821
0.948287 0.280568 0.202243
0.997772 0.278218 0.396704
1 0.275868 0.591165
1 0.273533 0.785626
1 0.271183 0.980087
1 0.268833 1
1 0.266484 1
1 0.337896 0
1 0.335546 0
1 0.333211 0.16318
1 0.330861 0.357641
1 0.328511 0.552102
1 0.326162 0.746563
1 0.323827 0.941024
1 0.321477 1
1 0.319127 1
1 0.390539 0
1 0.38819 0
1 0.385855 0.124102
1 0.383505 0.318578
1 0.381155 0.513039
1 0.378805 0.7075
1 0.376471 0.901961
1 0.374121 1
1 0.371771 1
1 0.443183 0
1 0.440833 0
1 0.438483 0.0850385
1 0.436149 0.2795
1 0.433799 0.47396
1 0.431449 0.668421
1 0.429099 0.862882
1 0.426764 1
1 0.424414 1
1 0.495827 0
1 0.493477 0
1 0.491127 0.0459754
1 0.488777 0.240436
1 0.486442 0.434897
1 0.484092 0.629358
1 0.481743 0.823819
1 0.479393 1
1 0.477058 1
0 0.149401 0
0 0.147051 0.133654
0 0.144717 0.328115
0 0.142367 0.522576
0 0.140017 0.717037
0 0.137667 0.911498
0 0.135332 1
0 0.132982 1
0.0310369 0.130632 1
0 0.202045 0
0 0.199695 0.0945907
0 0.197345 0.289052
0.0415351 0.194995 0.483513
0.0910201 0.19266 0.677974
0.140505 0.190311 0.872435
0.189975 0.187961 1
0.23946 0.185611 1
0.288945 0.183276 1
0.151034 0.254673 0
0.200504 0.252338 0.0555276
0.249989 0.249989 0.249989
0.299474 0.247639 0.44445
0.348959 0.245289 0.638911
0.398444 0.242954 0.833371
0.447929 0.240604 1
0.497414 0.238254 1
0.546883 0.235904 1
0.408972 0.307317 0
0.458442 0.304982 0.0164645
0.507927 0.302632 0.210925
0.557412 0.300282 0.405386
0.606897 0.297932 0.599847
0.656382 0.295598 0.794308
0.705867 0.293248 0.988769
0.755352 0.290898 1
0.804837 0.288548 1
0.666911 0.35996 0
0.716381 0.35761 0
0.765866 0.355276 0.171847
0.815351 0.352926 0.366308
0.864836 0.350576 0.560769
0.914321 0.348226 0.755245
0.963806 0.345892 0.949706
1 0.343542 1
1 0.341192 1
0.924849 0.412604 0
0.974334 0.410254 0
1 0.407919 0.132784
1 0.40557 0.327245
1 0.40322 0.521706
1 0.40087 0.716167
1 0.398535 0.910628
1 0.396185 1
1 0.393835 1
1 0.465248 0
1 0.462898 0
1 0.460548 0.0937209
1 0.458213 0.288182
1 0.455863 0.482643
1 0.453513 0.677104
1 0.451164 0.871565
1 0.448829 1
1 0.446479 1
1 0.517891 0
1 0.515541 0
1 0.513191 0.0546426
1 0.510857 0.249104
1 0.508507 0.44358
1 0.506157 0.638041
1 0.503807 0.832502
1 0.501472 1
1 0.499123 1
1 0.570535 0
1 0.568185 0
1 0.565835 0.0155795
1 0.563485 0.21004
1 0.561151 0.404501
1 0.558801 0.598962
1 0.556451 0.793423
1 0.554101 0.987884
1 0.551766 1
0 0.224109 0
0 0.221759 0.103273
0 0.219425 0.297734
0 0.217075 0.492195
0 0.214725 0.686656
0 0.212375 0.881117
0 0.21004 1
0 0.207691 1
0 0.205341 1
0 0.276753 0
0 0.274403 0.06421
0 0.272053 0.258671
0 0.269703 0.453132
0 0.267369 0.647593
0 0.265019 0.842054
0.00755322 0.262669 1
0.0570382 0.260319 1
0.106523 0.257984 1
0 0.329381 0
0.0180819 0.327047 0.0251316
0.0675669 0.324697 0.219593
0.117052 0.322347 0.414054
0.166537 0.319997 0.608515
0.216022 0.317662 0.802976
0.265507 0.315312 0.997436
0.314977 0.312963 1
0.364462 0.310613 1
0.226551 0.382025 0
0.27602 0.37969 0
0.325505 0.37734 0.180529
0.37499 0.37499 0.37499
0.424475 0.372641 0.569451
0.47396 0.370291 0.763912
0.523445 0.367956 0.958373
0.572931 0.365606 1
0.622415 0.363256 1
0.484489 0.434669 0
0.533959 0.432319 0
0.583444 0.429984 0.141466
0.632929 0.427634 0.335927
0.682414 0.425284 0.530388
0.731899 0.422934 0.724849
0.781384 0.4206 0.91931
0.830869 0.41825 1
0.880354 0.4159 1
0.742428 0.487312 0
0.791897 0.484962 0
0.841382 0.482612 0.102388
0.890867 0.480278 0.296849
0.940352 0.477928 0.49131
0.989837 0.475578 0.685771
1 0.473228 0.880247
1 0.470893 1
1 0.468544 1
1 0.539956 0
1 0.537606 0
1 0.535256 0.0633249
1 0.532921 0.257786
1 0.530571 0.452247
1 0.528222 0.646708
1 0.525872 0.841169
1 0.523537 1
1 0.521187 1
1 0.592599 0
1 0.590249 0
1 0.5879 0.0242618
1 0.58555 0.218723
1 0.583215 0.413184
1 0.580865 0.607645
1 0.578515 0.802106
1 0.576165 0.996567
1 0.573831 1
1 0.645243 0
1 0.642893 0
1 0.640543 0
1 0.638193 0.179644
1 0.635859 0.374105
1 0.633509 0.568582
1 0.631159 0.763043
1 0.628809 0.957504
1 0.626474 1
0 0.298817 0
0 0.296468 0.0728771
0 0.294133 0.267338
0 0.291783 0.461799
0 0.289433 0.65626
0 0.287083 0.850721
0 0.284733 1
0 0.282399 1
0 0.280049 1
0 0.351446 0
0 0.349111 0.033814
0 0.346761 0.228275
0 0.344411 0.422736
0 0.342061 0.617197
0 0.339727 0.811658
0 0.337377 1
0 0.335027 1
0 0.332677 1
0 0.404089 0
0 0.401755 0
0 0.399405 0.189212
0 0.397055 0.383673
0 0.394705 0.578134
0.0336004 0.39237 0.772595
0.0830854 0.390021 0.967056
0.132555 0.387671 1
0.18204 0.385321 1
0.0441291 0.456733 0
0.0935988 0.454383 0
0.143084 0.452049 0.150134
0.192569 0.449699 0.344594
0.242054 0.447349 0.539055
0.291539 0.444999 0.733516
0.341024 0.442664 0.927977
0.390509 0.440314 1
0.439979 0.437964 1
0.302068 0.509377 0
0.351537 0.507027 0
0.401022 0.504692 0.11107
0.450507 0.502342 0.305531
0.499992 0.499992 0.499992
0.549477 0.497642 0.694453
0.598962 0.495293 0.888914
0.648447 0.492958 1
0.697932 0.490608 1
0.560006 0.56202 0
0.609476 0.55967 0
0.658961 0.557321 0.0720073
0.708446 0.554986 0.266468
0.757931 0.552636 0.460929
0.807416 0.550286 0.65539
0.856901 0.547936 0.849851
0.906386 0.545602 1
0.955871 0.543252 1
0.817945 0.614664 0
0.86743 0.612314 0
0.916899 0.609964 0.032929
0.966384 0.607614 0.22739
1 0.60528 0.421851
1 0.60293 0.616312
1 0.60058 0.810773
1 0.59823 1
1 0.595895 1
1 0.667308 0
1 0.664958 0
1 0.662608 0
1 0.660258 0.188327
1 0.657923 0.382788
1 0.655573 0.577249
1 0.653223 0.77171
1 0.650874 0.966171
1 0.648539 1
1 0.719936 0
1 0.717601 0
1 0.715251 0
1 0.712902 0.149264
1 0.710552 0.343725
1 0.708217 0.538186
1 0.705867 0.732647
1 0.703517 0.927108
1 0.701167 1
0 0.373526 0
0 0.371176 0.0424811
0 0.368826 0.236942
0 0.366491 0.431403
0 0.364141 0.625864
0 0.361791 0.820325
0 0.359442 1
0 0.357107 1
0 0.354757 1
0 0.426154 0
0 0.423819 0.00341802
0 0.421469 0.197879
0 0.41912 0.39234
0 0.41677 0.586801
0 0.414435 0.781262
0 0.412085 0.975723
0 0.409735 1
0 0.407385 1
0 0.478798 0
0 0.476448 0
0 0.474113 0.158816
0 0.471763 0.353277
0 0.469413 0.547738
0 0.467063 0.742199
0 0.464729 0.93666
0 0.462379 1
0 0.460029 1
0 0.531441 0
0 0.529091 0
0 0.526757 0.119738
0.0101472 0.524407 0.314214
0.0596323 0.522057 0.508675
0.109117 0.519707 0.703136
0.158602 0.517372 0.897597
0.208087 0.515023 1
0.257557 0.512673 1
0.119646 0.584085 0
0.169116 0.581735 0
0.218601 0.579385 0.0806744
0.268086 0.57705 0.275135
0.317571 0.574701 0.469596
0.367056 0.572351 0.664057
0.416541 0.570001 0.858518
0.466026 0.567666 1
0.515511 0.565316 1
0.377584 0.636728 0
0.427054 0.634379 0
0.476539 0.632029 0.0416114
0.526024 0.629694 0.236072
0.575509 0.627344 0.430533
0.624994 0.624994 0.624994
0.674479 0.622644 0.819455
0.723964 0.620295 1
0.773449 0.61796 1
0.635523 0.689372 0
0.685008 0.687022 0
0.734478 0.684672 0.00254826
0.783963 0.682322 0.197009
0.833448 0.679988 0.39147
0.882933 0.677638 0.585931
0.932418 0.675288 0.780392
0.981903 0.672938 0.974853
1 0.670604 1
0.893462 0.742 0
0.942946 0.739666 0
0.992432 0.737316 0
1 0.734966 0.157931
1 0.732616 0.352392
1 0.730282 0.546853
1 0.727932 0.741314
1 0.725582 0.935775
1 0.723232 1
1 0.794644 0
1 0.792309 0
1 0.78996 0
1 0.78761 0.118868
1 0.78526 0.313329
1 0.782925 0.50779
1 0.780575 0.702251
1 0.778225 0.896712
1 0.775876 1
0 0.448234 0
0 0.445884 0.0120851
0 0.443534 0.206546
0 0.441199 0.401007
0 0.438849 0.595468
0 0.4365 0.789944
0 0.43415 0.984405
0 0.431815 1
0 0.429465 1
0 0.500862 0
0 0.498512 0
0 0.496178 0.167483
0 0.493828 0.361944
0 0.491478 0.556405
0 0.489128 0.750881
0 0.486793 0.945342
0 0.484443 1
0 0.482094 1
0 0.553506 0
0 0.551156 0
0 0.548821 0.12842
0 0.546471 0.322881
0 0.544121 0.517342
0 0.541772 0.711803
0 0.539437 0.906264
0 0.537087 1
0 0.534737 1
0 0.606149 0
0 0.6038 0
0 0.60145 0.0893568
0 0.599115 0.283818
0 0.596765 0.478279
0 0.594415 0.67274
0 0.592065 0.867201
0.0256504 0.589731 1
0.0751354 0.587381 1
0 0.658793 0
0 0.656443 0
0.0361791 0.654093 0.0502785
0.0856641 0.651759 0.244739
0.135149 0.649409 0.439216
0.184634 0.647059 0.633677
0.234119 0.644709 0.828138
0.283604 0.642374 1
0.333074 0.640024 1
0.195163 0.711437 0
0.244633 0.709087 0
0.294118 0.706737 0.0112154
0.343603 0.704387 0.205676
0.393088 0.702052 0.400137
0.442573 0.699702 0.594598
0.492058 0.697353 0.789059
0.541543 0.695003 0.98352
0.591028 0.692668 1
0.453101 0.76408 0
0.502571 0.76173 0
0.552056 0.75938 0
0.601541 0.757031 0.166613
0.651026 0.754696 0.361074
0.700511 0.752346 0.555535
0.749996 0.749996 0.749996
0.799481 0.747646 0.944457
0.848966 0.745296 1
0.71104 0.816709 0
0.760525 0.814374 0
0.81001 0.812024 0
0.85948 0.809674 0.12755
0.908965 0.807324 0.322011
0.95845 0.80499 0.516472
1 0.80264 0.710933
1 0.80029 0.905394
1 0.79794 1
0.968978 0.869352 0
1 0.867002 0
1 0.864668 0
1 0.862318 0.0884718
1 0.859968 0.282933
1 0.857618 0.477394
1 0.855283 0.671855
1 0.852934 0.866316
1 0.850584 1
0 0.522942 0
0 0.520592 0
0 0.518242 0.176165
0 0.515892 0.370626
0 0.513558 0.565087
0 0.511208 0.759548
0 0.508858 0.954009
0 0.506508 1
0 0.504173 1
0 0.57557 0
0 0.57322 0
0 0.570886 0.137102
0 0.568536 0.331563
0 0.566186 0.526024
0 0.563836 0.720485
0 0.561502 0.914946
0 0.559152 1
0 0.556802 1
0 0.628214 0
0 0.625864 0
0 0.623514 0.098024
0 0.62118 0.292485
0 0.61883 0.486946
0 0.61648 0.681407
0 0.61413 0.875883
0 0.611795 1
0 0.609445 1
0 0.680858 0
0 0.678508 0
0 0.676158 0.0589609
0 0.673823 0.253422
0 0.671473 0.447883
0 0.669123 0.642344
0 0.666773 0.836805
0 0.664439 1
0 0.662089 1
0 0.733501 0
0 0.731151 0
0 0.728801 0.0198978
0 0.726452 0.214359
0 0.724117 0.40882
0.00221256 0.721767 0.603281
0.0516976 0.719417 0.797742
0.101183 0.717067 0.992203
0.150652 0.714733 1
0.0127413 0.786145 0
0.062211 0.783795 0
0.111696 0.781445 0
0.161181 0.779095 0.17528
0.210666 0.776761 0.369741
0.260151 0.774411 0.564218
0.309636 0.772061 0.758679
0.359121 0.769711 0.95314
0.408606 0.767376 1
0.27068 0.838773 0
0.32015 0.836439 0
0.369635 0.834089 0
0.41912 0.831739 0.136217
0.468605 0.829389 0.330678
0.51809 0.827054 0.525139
0.567575 0.824704 0.7196
0.61706 0.822354 0.914061
0.666545 0.820005 1
0.528618 0.891417 0
0.578103 0.889082 0
0.627573 0.886732 0
0.677058 0.884382 0.0971542
0.726543 0.882033 0.291615
0.776028 0.879698 0.486076
0.825513 0.877348 0.680537
0.874998 0.874998 0.874998
0.924483 0.872648 1
0.786557 0.94406 0
0.836042 0.941711 0
0.885527 0.939376 0
0.935012 0.937026 0.0580758
0.984482 0.934676 0.252552
1 0.932326 0.447013
1 0.929992 0.641474
1 0.927642 0.835935
1 0.925292 1
0 0.59765 0
0 0.5953 0
0 0.59295 0.145769
0 0.5906 0.34023
0 0.588266 0.534691
0 0.585916 0.729152
0 0.583566 0.923613
0 0.581216 1
0 0.578882 1
0 0.650278 0
0 0.647929 0
0 0.645594 0.106706
0 0.643244 0.301167
0 0.640894 0.495628
0 0.638544 0.690089
0 0.63621 0.88455
0 0.63386 1
0 0.63151 1
0 0.702922 0
0 0.700572 0
0 0.698222 0.0676432
0 0.695888 0.262104
0 0.693538 0.456565
0 0.691188 0.651026
0 0.688838 0.845487
0 0.686503 1
0 0.684153 1
0 0.755566 0
0 0.753216 0
0 0.750866 0.0285649
0 0.748516 0.223026
0 0.746181 0.417487
0 0.743832 0.611948
0 0.741482 0.806409
0 0.739132 1
0 0.736797 1
0 0.808209 0
0 0.805859 0
0 0.80351 0
0 0.80116 0.183963
0 0.798825 0.378424
0 0.796475 0.572885
0 0.794125 0.767346
0 0.791775 0.961807
0 0.789441 1
0 0.860838 0
0 0.858503 0
0 0.856153 0
0 0.853803 0.1449
0.0282444 0.851453 0.339361
0.0777295 0.849119 0.533822
0.127214 0.846769 0.728283
0.176699 0.844419 0.922744
0.226184 0.842069 1
0.0882582 0.913481 0
0.137728 0.911147 0
0.187213 0.908797 0
0.236698 0.906447 0.105821
0.286183 0.904097 0.300282
0.335668 0.901762 0.494743
0.385153 0.899413 0.689219
0.434638 0.897063 0.88368
0.484123 0.894713 1
0.346197 0.966125 0
0.395682 0.963775 0
0.445151 0.96144 0
0.494636 0.959091 0.0667582
0.544121 0.956741 0.261219
0.593606 0.954391 0.45568
0.643091 0.952056 0.650141
0.692576 0.949706 0.844602
0.742061 0.947356 1
0.604135 1 0
0.65362 1 0
0.703105 1 0
0.752575 1 0.0276951
0.80206 1 0.222156
0.851545 1 0.416617
0.90103 1 0.611078
0.950515 1 0.805539
1 1 1
