public/LUTS/Color Shift/ColorShift_39.cube
TITLE "Generated by Resolve"
LUT_3D_SIZE 5
0 0 0
0.0286107 0.0341344 0.251102
0.0572213 0.0682689 0.502235
0.085832 0.102388 0.753353
0.114427 0.136522 1
0.40676 0.117754 0.0793164
0.43537 0.151888 0.330419
0.463981 0.186023 0.581552
0.492592 0.220157 0.83267
0.521202 0.254292 1
0.81355 0.235523 0.158633
0.842161 0.269657 0.409751
0.870771 0.303792 0.660868
0.899382 0.337926 0.911986
0.927993 0.372061 1
1 0.353292 0.237964
1 0.387427 0.489067
1 0.421561 0.740185
1 0.455695 0.991318
1 0.48983 1
1 0.471061 0.317281
1 0.505196 0.568383
1 0.53933 0.819516
1 0.573465 1
1 0.607584 1
0 0.0981003 0
0 0.132235 0.170672
0 0.166354 0.42179
0 0.200488 0.672923
0 0.234623 0.924041
0.221378 0.215854 0
0.249989 0.249989 0.249989
0.278599 0.284123 0.501106
0.30721 0.318257 0.752239
0.335821 0.352392 1
0.628168 0.333623 0.0782025
0.656779 0.367758 0.329305
0.685389 0.401892 0.580438
0.714 0.436027 0.831556
0.742611 0.470146 1
1 0.451392 0.157519
1 0.485527 0.408637
1 0.519661 0.659754
1 0.553796 0.910872
1 0.587915 1
1 0.569162 0.236851
1 0.603296 0.487953
1 0.63743 0.739071
1 0.67155 0.990204
1 0.705684 1
0 0.196201 0
0 0.230335 0.0902266
0 0.264469 0.34136
0 0.298604 0.592477
0 0.332723 0.843595
0.0359808 0.31397 0
0.0645914 0.348089 0.169543
0.0932021 0.382223 0.420676
0.121813 0.416358 0.671794
0.150423 0.450492 0.922911
0.442771 0.431724 0
0.471382 0.465858 0.248875
0.499992 0.499992 0.499992
0.528603 0.534127 0.75111
0.557214 0.568261 1
0.849561 0.549493 0.0770886
0.878172 0.583627 0.328191
0.906783 0.617761 0.579309
0.935393 0.651896 0.830442
0.964004 0.68603 1
1 0.667262 0.156405
1 0.701396 0.407507
1 0.735531 0.65864
1 0.769665 0.909758
1 0.8038 1
0 0.294301 0
0 0.328435 0.00979629
0 0.36257 0.260914
0 0.396704 0.512032
0 0.430838 0.763165
0 0.41207 0
0 0.446189 0.0891127
0 0.480323 0.34023
0 0.514458 0.591348
0 0.548592 0.842481
0.257389 0.529839 0
0.285985 0.563958 0.168429
0.314595 0.598093 0.419547
0.343206 0.632227 0.67068
0.371817 0.666362 0.921798
0.664164 0.647608 0
0.692775 0.681727 0.247745
0.721386 0.715862 0.498878
0.749996 0.749996 0.749996
0.778607 0.784131 1
1 0.765362 0.0759594
1 0.799496 0.327077
1 0.833631 0.578195
1 0.867765 0.829313
1 0.9019 1
0 0.392416 0
0 0.426535 0
0 0.46067 0.180468
0 0.494804 0.431601
0 0.528939 0.682719
0 0.51017 0
0 0.544305 0.00866712
0 0.578439 0.259785
0 0.612558 0.510918
0 0.646693 0.762036
0.0719921 0.627939 0
0.100603 0.662074 0.0879835
0.129213 0.696193 0.339117
0.157809 0.730327 0.590234
0.186419 0.764462 0.841352
0.478782 0.745708 0
0.507378 0.779843 0.167315
0.535988 0.813962 0.418433
0.564599 0.848096 0.669551
0.59321 0.882231 0.920684
0.885573 0.863478 0
0.914168 0.897597 0.246632
0.942779 0.931731 0.497749
0.971389 0.965866 0.748882
1 1 1
