public/LUTS/Color Shift/ColorShift_36.cube
TITLE "Generated by Resolve"
LUT_3D_SIZE 9
0 0 0
0.052491 0.00598154 0.122652
0.104997 0.0119631 0.245319
0.157504 0.0179294 0.367987
0.209995 0.0239109 0.490654
0.262501 0.0298924 0.613321
0.314992 0.035874 0.735988
0.367498 0.0418555 0.858671
0.420005 0.047837 0.981338
0.177478 0.0715648 0.00140383
0.229969 0.0775464 0.124056
0.282475 0.0835126 0.246723
0.334981 0.0894942 0.36939
0.387472 0.0954757 0.492058
0.439979 0.101457 0.614725
0.492485 0.107439 0.737392
0.544976 0.11342 0.860059
0.597482 0.119387 0.982742
0.354986 0.14313 0.00280766
0.407477 0.149111 0.12546
0.459983 0.155093 0.248127
0.512474 0.161074 0.370794
0.564981 0.167041 0.493462
0.617487 0.173022 0.616129
0.669978 0.179004 0.738796
0.722484 0.184985 0.861463
0.77499 0.190967 0.984146
0.532494 0.214694 0.00421149
0.584985 0.220676 0.126864
0.637476 0.226658 0.249531
0.689982 0.232639 0.372198
0.742489 0.238621 0.494865
0.79498 0.244602 0.617533
0.847486 0.250568 0.7402
0.899992 0.25655 0.862867
0.952483 0.262531 0.985534
0.709987 0.286275 0.00561532
0.762478 0.292256 0.128267
0.814984 0.298222 0.250935
0.867491 0.304204 0.373602
0.919982 0.310185 0.496269
0.972488 0.316167 0.618936
1 0.322148 0.741604
1 0.32813 0.864271
1 0.334096 0.986938
0.887495 0.357839 0.00701915
0.939986 0.363821 0.129671
0.992493 0.369802 0.252338
1 0.375784 0.375006
1 0.38175 0.497673
1 0.387732 0.62034
1 0.393713 0.743008
1 0.399695 0.865675
1 0.405676 0.988342
1 0.429404 0.00842298
1 0.435386 0.131075
1 0.441367 0.253742
1 0.447349 0.37641
1 0.45333 0.499077
1 0.459312 0.621744
1 0.465278 0.744411
1 0.47126 0.867079
1 0.477241 0.989746
1 0.500984 0.00982681
1 0.506966 0.132479
1 0.512932 0.255146
1 0.518914 0.377813
1 0.524895 0.500481
1 0.530877 0.623148
1 0.536858 0.745815
1 0.54284 0.868482
1 0.548806 0.99115
1 0.572549 0.0112306
1 0.578531 0.133883
1 0.584512 0.25655
1 0.590494 0.379217
1 0.59646 0.501884
1 0.602441 0.624552
1 0.608423 0.747219
1 0.614404 0.869886
1 0.620386 0.992554
0 0.0474403 0.0009308
0 0.0534218 0.123583
0 0.0594034 0.24625
0.0525063 0.0653849 0.368917
0.105013 0.0713664 0.491585
0.157504 0.077348 0.614252
0.21001 0.0833143 0.736919
0.262516 0.0892958 0.859602
0.315007 0.0952773 0.982269
0.0724956 0.119005 0.00233463
0.124987 0.124987 0.124987
0.177493 0.130968 0.247654
0.229984 0.13695 0.370321
0.28249 0.142916 0.492988
0.334997 0.148898 0.615656
0.387488 0.154879 0.738323
0.439994 0.160861 0.86099
0.492485 0.166842 0.983673
0.249989 0.190585 0.00373846
0.302495 0.196551 0.12639
0.354986 0.202533 0.249058
0.407492 0.208515 0.371725
0.459998 0.214496 0.494392
0.512489 0.220478 0.61706
0.564996 0.226444 0.739727
0.617487 0.232425 0.862394
0.669993 0.238407 0.985061
0.427497 0.26215 0.00514229
0.479988 0.268132 0.127794
0.532494 0.274113 0.250462
0.585 0.280079 0.373129
0.637491 0.286061 0.495796
0.689998 0.292042 0.618463
0.742489 0.298024 0.741131
0.794995 0.304006 0.863798
0.847501 0.309972 0.986465
0.605005 0.333715 0.00654612
0.657496 0.339696 0.129198
0.710002 0.345678 0.251865
0.762493 0.351659 0.374533
0.815 0.357641 0.4972
0.867491 0.363607 0.619867
0.919997 0.369589 0.742535
0.972503 0.37557 0.865202
1 0.381552 0.987869
0.782498 0.405295 0.00794995
0.835004 0.411261 0.130602
0.887495 0.417243 0.253269
0.940002 0.423224 0.375937
0.992493 0.429206 0.498604
1 0.435187 0.621271
1 0.441154 0.743938
1 0.447135 0.866606
1 0.453117 0.989273
0.960006 0.47686 0.00935378
1 0.482841 0.132006
1 0.488823 0.254673
1 0.494789 0.37734
1 0.500771 0.500008
1 0.506752 0.622675
1 0.512734 0.745342
1 0.518715 0.868009
1 0.524681 0.990677
1 0.548424 0.0107576
1 0.554406 0.13341
1 0.560388 0.256077
1 0.566369 0.378744
1 0.572351 0.501411
1 0.578317 0.624079
1 0.584298 0.746746
1 0.59028 0.869413
1 0.596262 0.992081
1 0.620005 0.0121614
1 0.625971 0.134813
1 0.631952 0.257481
1 0.637934 0.380148
1 0.643915 0.502815
1 0.649897 0.625483
1 0.655879 0.74815
1 0.661845 0.870817
1 0.667826 0.993484
0 0.0948959 0.0018616
0 0.100877 0.124514
0 0.106859 0.247181
0 0.11284 0.369848
0 0.118822 0.492515
0.0525063 0.124788 0.615183
0.105013 0.13077 0.73785
0.157504 0.136751 0.860517
0.21001 0.142733 0.9832
0 0.166461 0.00326543
0.0199893 0.172442 0.125917
0.0724804 0.178424 0.248585
0.124987 0.18439 0.371252
0.177493 0.190372 0.493919
0.229984 0.196353 0.616587
0.28249 0.202335 0.739254
0.334997 0.208316 0.861921
0.387488 0.214298 0.984604
0.144991 0.238025 0.00466926
0.197482 0.244007 0.127321
0.249989 0.249989 0.249989
0.302495 0.25597 0.372656
0.354986 0.261952 0.495323
0.407492 0.267918 0.61799
0.459998 0.273899 0.740658
0.512489 0.279881 0.863325
0.564996 0.285863 0.985992
0.322499 0.309606 0.00607309
0.37499 0.315587 0.128725
0.427497 0.321553 0.251392
0.479988 0.327535 0.37406
0.532494 0.333516 0.496727
0.585 0.339498 0.619394
0.637491 0.34548 0.742061
0.689998 0.351446 0.864729
0.742489 0.357427 0.987396
0.499992 0.38117 0.00747692
0.552499 0.387152 0.130129
0.60499 0.393133 0.252796
0.657496 0.399115 0.375463
0.710002 0.405081 0.498131
0.762493 0.411063 0.620798
0.815 0.417044 0.743465
0.867491 0.423026 0.866133
0.919997 0.429007 0.9888
0.677501 0.452735 0.00888075
0.729992 0.458717 0.131533
0.782498 0.464698 0.2542
0.835004 0.47068 0.376867
0.887495 0.476661 0.499535
0.940002 0.482643 0.622202
0.992493 0.488609 0.744869
1 0.494591 0.867536
1 0.500572 0.990204
0.855009 0.524315 0.0102846
0.9075 0.530297 0.132937
0.960006 0.536263 0.255604
1 0.542245 0.378271
1 0.548226 0.500938
1 0.554208 0.623606
1 0.560189 0.746273
1 0.566171 0.86894
1 0.572137 0.991608
1 0.59588 0.0116884
1 0.601862 0.13434
1 0.607843 0.257008
1 0.613825 0.379675
1 0.619791 0.502342
1 0.625772 0.62501
1 0.631754 0.747677
1 0.637736 0.870344
1 0.643717 0.993011
1 0.667445 0.0130922
1 0.673426 0.135744
1 0.679408 0.258412
1 0.685389 0.381079
1 0.691371 0.503746
1 0.697353 0.626413
1 0.703319 0.749081
1 0.7093 0.871748
1 0.715282 0.994415
0 0.142351 0.0027924
0 0.148333 0.125444
0 0.154314 0.248112
0 0.160296 0.370779
0 0.166262 0.493446
0 0.172244 0.616114
0 0.178225 0.738781
0.0525063 0.184207 0.861448
0.105013 0.190188 0.984131
0 0.213916 0.00419623
0 0.219898 0.126848
0 0.225864 0.249516
0.0199893 0.231846 0.372183
0.0724804 0.237827 0.49485
0.124987 0.243809 0.617517
0.177493 0.24979 0.740185
0.229984 0.255772 0.862852
0.28249 0.261738 0.985519
0.0399939 0.285481 0.00560006
0.0924849 0.291463 0.128252
0.144991 0.297444 0.250919
0.197482 0.303426 0.373587
0.249989 0.309392 0.496254
0.302495 0.315373 0.618921
0.354986 0.321355 0.741588
0.407492 0.327337 0.864256
0.459998 0.333318 0.986923
0.217502 0.357061 0.00700389
0.269993 0.363027 0.129656
0.322484 0.369009 0.252323
0.37499 0.37499 0.37499
0.427497 0.380972 0.497658
0.479988 0.386954 0.620325
0.532494 0.39292 0.742992
0.585 0.398901 0.86566
0.637491 0.404883 0.988327
0.394995 0.428626 0.00840772
0.447486 0.434607 0.13106
0.499992 0.440589 0.253727
0.552499 0.446555 0.376394
0.60499 0.452537 0.499062
0.657496 0.458518 0.621729
0.710002 0.4645 0.744396
0.762493 0.470481 0.867063
0.815 0.476448 0.989731
0.572503 0.500191 0.00981155
0.624994 0.506172 0.132464
0.677501 0.512154 0.255131
0.729992 0.518135 0.377798
0.782498 0.524117 0.500465
0.835004 0.530083 0.623133
0.887495 0.536065 0.7458
0.940002 0.542046 0.868467
0.992493 0.548028 0.991135
0.749996 0.571771 0.0112154
0.802502 0.577737 0.133867
0.854994 0.583719 0.256535
0.9075 0.5897 0.379202
0.960006 0.595682 0.501869
1 0.601663 0.624537
1 0.607645 0.747204
1 0.613611 0.869871
1 0.619593 0.992538
0.927504 0.643336 0.0126192
0.979995 0.649317 0.135271
1 0.655299 0.257939
1 0.661265 0.380606
1 0.667247 0.503273
1 0.673228 0.62594
1 0.67921 0.748608
1 0.685191 0.871275
1 0.691173 0.993942
1 0.7149 0.014023
1 0.720882 0.136675
1 0.726864 0.259342
1 0.732845 0.38201
1 0.738827 0.504677
1 0.744793 0.627344
1 0.750774 0.750011
1 0.756756 0.872679
1 0.762737 0.995346
0 0.189807 0.0037232
0 0.195789 0.126375
0 0.20177 0.249042
0 0.207736 0.37171
0 0.213718 0.494377
0 0.219699 0.617044
0 0.225681 0.739712
0 0.231662 0.862379
0 0.237644 0.985061
0 0.261372 0.00512703
0 0.267338 0.127779
0 0.27332 0.250446
0 0.279301 0.373114
0 0.285283 0.495781
0.0199893 0.291264 0.618448
0.0724804 0.297246 0.741115
0.124987 0.303212 0.863783
0.177493 0.309194 0.98645
0 0.332937 0.00653086
0 0.338918 0.129183
0.0399786 0.3449 0.25185
0.0924849 0.350866 0.374517
0.144991 0.356847 0.497185
0.197482 0.362829 0.619852
0.249989 0.368811 0.742519
0.302495 0.374792 0.865187
0.354986 0.380774 0.987854
0.11249 0.404501 0.00793469
0.164981 0.410483 0.130587
0.217487 0.416464 0.253254
0.269993 0.422446 0.375921
0.322484 0.428428 0.498589
0.37499 0.434394 0.621256
0.427497 0.440375 0.743923
0.479988 0.446357 0.86659
0.532494 0.452338 0.989258
0.289998 0.476081 0.00933852
0.342489 0.482063 0.131991
0.394995 0.488029 0.254658
0.447486 0.494011 0.377325
0.499992 0.499992 0.499992
0.552499 0.505974 0.62266
0.60499 0.511955 0.745327
0.657496 0.517922 0.867994
0.710002 0.523903 0.990662
0.467506 0.547646 0.0107424
0.519997 0.553628 0.133394
0.572488 0.559609 0.256062
0.624994 0.565591 0.378729
0.677501 0.571557 0.501396
0.729992 0.577539 0.624063
0.782498 0.58352 0.746731
0.835004 0.589502 0.869398
0.887495 0.595483 0.992065
0.644999 0.619211 0.0121462
0.69749 0.625193 0.134798
0.749996 0.631174 0.257465
0.802502 0.637156 0.380133
0.854994 0.643137 0.5028
0.9075 0.649119 0.625467
0.960006 0.655085 0.748135
1 0.661067 0.870802
1 0.667048 0.993469
0.822507 0.690791 0.01355
0.874998 0.696773 0.136202
0.927504 0.702739 0.258869
0.979995 0.708721 0.381537
1 0.714702 0.504204
1 0.720684 0.626871
1 0.726665 0.749538
1 0.732647 0.872206
1 0.738613 0.994873
1 0.762356 0.0149386
1 0.768338 0.137606
1 0.774319 0.260273
1 0.780301 0.38294
1 0.786267 0.505608
1 0.792248 0.628275
1 0.79823 0.750942
1 0.804211 0.87361
1 0.810193 0.996277
0 0.237263 0.004654
0 0.243244 0.127306
0 0.24921 0.249973
0 0.255192 0.372641
0 0.261173 0.495308
0 0.267155 0.617975
0 0.273136 0.740642
0 0.279118 0.86331
0 0.285084 0.985977
0 0.308827 0.00605783
0 0.314794 0.12871
0 0.320775 0.251377
0 0.326757 0.374044
0 0.332738 0.496712
0 0.33872 0.619379
0 0.344686 0.742046
0.0199893 0.350668 0.864713
0.0724804 0.356649 0.987381
0 0.380392 0.00746166
0 0.386374 0.130114
0 0.39234 0.252781
0 0.398322 0.375448
0.0399786 0.404303 0.498116
0.0924849 0.410285 0.620783
0.144991 0.416266 0.74345
0.197482 0.422248 0.866117
0.249989 0.428214 0.988785
0.00749218 0.451957 0.00886549
0.0599832 0.457938 0.131518
0.11249 0.46392 0.254185
0.164981 0.469902 0.376852
0.217487 0.475868 0.499519
0.269993 0.481849 0.622187
0.322484 0.487831 0.744854
0.37499 0.493812 0.867521
0.427497 0.499794 0.990188
0.185 0.523537 0.0102693
0.237491 0.529503 0.132921
0.289982 0.535485 0.255589
0.342489 0.541466 0.378256
0.394995 0.547448 0.500923
0.447486 0.553429 0.62359
0.499992 0.559396 0.746258
0.552499 0.565377 0.868925
0.60499 0.571359 0.991592
0.362493 0.595102 0.0116732
0.414984 0.601083 0.134325
0.467491 0.607065 0.256992
0.519997 0.613031 0.37966
0.572488 0.619013 0.502327
0.624994 0.624994 0.624994
0.677501 0.630976 0.747662
0.729992 0.636957 0.870329
0.782498 0.642924 0.992996
0.540002 0.666667 0.013077
0.592493 0.672648 0.135729
0.644999 0.67863 0.258396
0.69749 0.684611 0.381064
0.749996 0.690593 0.503731
0.802502 0.696559 0.626398
0.854994 0.702541 0.749065
0.9075 0.708522 0.871733
0.960006 0.714504 0.9944
0.71751 0.738247 0.0144808
0.770001 0.744213 0.137133
0.822492 0.750195 0.2598
0.874998 0.756176 0.382467
0.927504 0.762158 0.505135
0.979995 0.768139 0.627802
1 0.774121 0.750469
1 0.780087 0.873137
1 0.786068 0.995804
0.895003 0.809812 0.0158694
0.947494 0.815793 0.138537
1 0.821775 0.261204
1 0.827741 0.383871
1 0.833722 0.506539
1 0.839704 0.629206
1 0.845685 0.751873
1 0.851667 0.87454
1 0.857649 0.997208
0 0.284718 0.0055848
0 0.290684 0.128237
0 0.296666 0.250904
0 0.302647 0.373571
0 0.308629 0.496239
0 0.314611 0.618906
0 0.320592 0.741573
0 0.326558 0.86424
0 0.33254 0.986908
0 0.356268 0.00698863
0 0.362249 0.129641
0 0.368231 0.252308
0 0.374212 0.374975
0 0.380194 0.497642
0 0.38616 0.62031
0 0.392142 0.742977
0 0.398123 0.865644
0 0.404105 0.988312
0 0.427848 0.00839246
0 0.433829 0.131044
0 0.439796 0.253712
0 0.445777 0.376379
0 0.451759 0.499046
0 0.45774 0.621714
0.0399786 0.463722 0.744381
0.0924849 0.469688 0.867048
0.144991 0.47567 0.989715
0 0.499413 0.00979629
0 0.505394 0.132448
0.00749218 0.511376 0.255116
0.0599832 0.517357 0.377783
0.11249 0.523323 0.50045
0.164981 0.529305 0.623117
0.217487 0.535286 0.745785
0.269993 0.541268 0.868452
0.322484 0.54725 0.991119
0.0799878 0.570977 0.0112001
0.132494 0.576959 0.133852
0.184985 0.58294 0.256519
0.237491 0.588922 0.379187
0.289982 0.594903 0.501854
0.342489 0.60087 0.624521
0.394995 0.606851 0.747189
0.447486 0.612833 0.869856
0.499992 0.618814 0.992523
0.257496 0.642557 0.012604
0.309987 0.648539 0.135256
0.362493 0.654505 0.257923
0.414984 0.660487 0.380591
0.467491 0.666468 0.503258
0.519997 0.67245 0.625925
0.572488 0.678431 0.748592
0.624994 0.684398 0.87126
0.677501 0.690379 0.993927
0.435004 0.714122 0.0140078
0.487495 0.720104 0.13666
0.539986 0.726085 0.259327
0.592493 0.732067 0.381994
0.644999 0.738033 0.504662
0.69749 0.744015 0.627329
0.749996 0.749996 0.749996
0.802502 0.755978 0.872663
0.854994 0.761959 0.995331
0.612497 0.785687 0.0153964
0.664988 0.791669 0.138064
0.717494 0.79765 0.260731
0.770001 0.803632 0.383398
0.822492 0.809613 0.506065
0.874998 0.815595 0.628733
0.927504 0.821561 0.7514
0.979995 0.827543 0.874067
1 0.833524 0.996735
0.790005 0.857267 0.0168002
0.842496 0.863249 0.139467
0.895003 0.869215 0.262135
0.947494 0.875196 0.384802
1 0.881178 0.507469
1 0.88716 0.630137
1 0.893141 0.752804
1 0.899123 0.875471
1 0.905089 0.998138
0 0.332158 0.0065156
0 0.33814 0.129168
0 0.344121 0.251835
0 0.350103 0.374502
0 0.356085 0.497169
0 0.362066 0.619837
0 0.368032 0.742504
0 0.374014 0.865171
0 0.379995 0.987839
0 0.403723 0.00791943
0 0.409705 0.130571
0 0.415686 0.253239
0 0.421668 0.375906
0 0.427634 0.498573
0 0.433616 0.621241
0 0.439597 0.743908
0 0.445579 0.866575
0 0.45156 0.989242
0 0.475303 0.00932326
0 0.48127 0.131975
0 0.487251 0.254643
0 0.493233 0.37731
0 0.499214 0.499977
0 0.505196 0.622644
0 0.511162 0.745312
0 0.517143 0.867979
0.0399786 0.523125 0.990646
0 0.546868 0.0107271
0 0.55285 0.133379
0 0.558816 0.256046
0 0.564797 0.378714
0.00749218 0.570779 0.501381
0.0599832 0.576761 0.624048
0.11249 0.582742 0.746715
0.164981 0.588724 0.869383
0.217487 0.59469 0.99205
0 0.618433 0.0121309
0.0274815 0.624414 0.134783
0.0799878 0.630396 0.25745
0.132494 0.636378 0.380118
0.184985 0.642359 0.502785
0.237491 0.648325 0.625452
0.289982 0.654307 0.748119
0.342489 0.660288 0.870787
0.394995 0.66627 0.993454
0.152499 0.690013 0.0135348
0.20499 0.695979 0.136187
0.257496 0.701961 0.258854
0.309987 0.707942 0.381521
0.362493 0.713924 0.504189
0.414984 0.719905 0.626856
0.467491 0.725872 0.749523
0.519997 0.731853 0.87219
0.572488 0.737835 0.994858
0.329992 0.761578 0.0149233
0.382498 0.767559 0.137591
0.434989 0.773541 0.260258
0.487495 0.779507 0.382925
0.539986 0.785489 0.505592
0.592493 0.79147 0.62826
0.644999 0.797452 0.750927
0.69749 0.803433 0.873594
0.749996 0.8094 0.996262
0.5075 0.833143 0.0163272
0.559991 0.839124 0.138994
0.612497 0.845106 0.261662
0.664988 0.851087 0.384329
0.717494 0.857069 0.506996
0.770001 0.863035 0.629664
0.822492 0.869017 0.752331
0.874998 0.874998 0.874998
0.927504 0.88098 0.997665
0.685008 0.904723 0.017731
0.737499 0.910689 0.140383
0.78999 0.916671 0.263066
0.842496 0.922652 0.385733
0.895003 0.928634 0.5084
0.947494 0.934615 0.631067
1 0.940597 0.753735
1 0.946563 0.876402
1 0.952544 0.999069
0 0.379614 0.0074464
0 0.385595 0.130098
0 0.391577 0.252766
0 0.397559 0.375433
0 0.40354 0.4981
0 0.409506 0.620768
0 0.415488 0.743435
0 0.421469 0.866102
0 0.427451 0.988769
0 0.451179 0.00885023
0 0.45716 0.131502
0 0.463142 0.25417
0 0.469108 0.376837
0 0.47509 0.499504
0 0.481071 0.622171
0 0.487053 0.744839
0 0.493034 0.867506
0 0.499016 0.990173
0 0.522744 0.0102541
0 0.528725 0.132906
0 0.534707 0.255573
0 0.540688 0.378241
0 0.54667 0.500908
0 0.552636 0.623575
0 0.558618 0.746242
0 0.564599 0.86891
0 0.570581 0.991577
0 0.594324 0.0116579
0 0.600305 0.13431
0 0.606271 0.256977
0 0.612253 0.379644
0 0.618235 0.502312
0 0.624216 0.624979
0.00749218 0.630198 0.747646
0.0599832 0.636164 0.870314
0.11249 0.642145 0.992981
0 0.665888 0.0130617
0 0.67187 0.135714
0 0.677852 0.258381
0.0274815 0.683833 0.381048
0.0799878 0.689799 0.503716
0.132494 0.695781 0.626383
0.184985 0.701762 0.74905
0.237491 0.707744 0.871717
0.289982 0.713726 0.994385
0.0474861 0.737453 0.0144656
0.0999924 0.743435 0.137118
0.152483 0.749416 0.259785
0.20499 0.755398 0.382452
0.257496 0.761379 0.505119
0.309987 0.767361 0.627787
0.362493 0.773327 0.750454
0.414984 0.779309 0.873121
0.467491 0.78529 0.995789
0.224994 0.809033 0.0158541
0.277485 0.815015 0.138521
0.329992 0.820981 0.261189
0.382498 0.826963 0.383856
0.434989 0.832944 0.506523
0.487495 0.838926 0.629191
0.539986 0.844907 0.751858
0.592493 0.850874 0.874525
0.644999 0.856855 0.997192
0.402502 0.880598 0.017258
0.454994 0.88658 0.139925
0.5075 0.892561 0.262592
0.559991 0.898543 0.38526
0.612497 0.904509 0.507927
0.664988 0.910491 0.630594
0.717494 0.916472 0.753262
0.770001 0.922454 0.875929
0.822492 0.928435 0.998596
0.579995 0.952163 0.0186618
0.632502 0.958144 0.141314
0.684993 0.964126 0.263996
0.737499 0.970108 0.386664
0.78999 0.976089 0.509331
0.842496 0.982071 0.631998
0.895003 0.988037 0.754665
0.947494 0.994018 0.877333
1 1 1
