public/LUTS/Color Shift/ColorShift_99.cube
TITLE "Generated by Resolve"
LUT_3D_SIZE 9
0 0 0
0 0.0734875 0.0734875
0 0.14699 0.14699
0 0.220493 0.220493
0 0.293996 0.293996
0 0.367498 0.367498
0 0.441001 0.441001
0 0.514504 0.514504
0 0.588006 0.588006
0.244968 0.0200046 0.244968
0.093492 0.093492 0.318471
0 0.166995 0.391974
0 0.240497 0.465476
0 0.314 0.538964
0 0.387503 0.612467
0 0.461006 0.685969
0 0.534508 0.759472
0 0.608011 0.832975
0.489982 0.0399939 0.489982
0.338491 0.113497 0.56347
0.186984 0.186999 0.636973
0.0354925 0.260502 0.710475
0 0.334005 0.783978
0 0.407492 0.857481
0 0.480995 0.930983
0 0.554498 1
0 0.628 1
0.734981 0.0599985 0.734981
0.583505 0.133486 0.808469
0.431998 0.206989 0.881971
0.280491 0.280491 0.955474
0.128985 0.353994 1
0 0.427497 1
0 0.500999 1
0 0.574502 1
0 0.648005 1
0.97998 0.0800031 0.97998
0.828504 0.15349 1
0.676997 0.226993 1
0.52549 0.300496 1
0.373999 0.373999 1
0.222492 0.447501 1
0.070985 0.521004 1
0 0.594507 1
0 0.668009 1
1 0.0999924 1
1 0.173495 1
0.921996 0.246998 1
0.770504 0.3205 1
0.618997 0.394003 1
0.467491 0.467506 1
0.315999 0.541009 1
0.164492 0.614511 1
0.0129854 0.687999 1
1 0.119997 1
1 0.193484 1
1 0.266987 1
1 0.34049 1
0.863996 0.413993 1
0.712505 0.487495 1
0.560998 0.560998 1
0.409491 0.634501 1
0.258 0.708003 1
1 0.140002 1
1 0.213489 1
1 0.286992 1
1 0.360494 1
1 0.433997 1
0.957504 0.5075 1
0.805997 0.581003 1
0.654505 0.654505 1
0.502998 0.728008 1
1 0.160006 1
1 0.233494 1
1 0.306996 1
1 0.380499 1
1 0.454002 1
1 0.527504 1
1 0.601007 1
0.899504 0.67451 1
0.747997 0.748012 1
0.0314946 0.0314946 0
0 0.104982 0
0 0.178485 0
0 0.251987 0.0270085
0 0.32549 0.100511
0 0.398993 0.174014
0 0.472496 0.247517
0 0.545998 0.321019
0 0.619501 0.394522
0.276463 0.0514992 0.0514992
0.124987 0.124987 0.124987
0 0.198489 0.198489
0 0.271992 0.271992
0 0.345495 0.345495
0 0.418997 0.418997
0 0.4925 0.4925
0 0.566003 0.565988
0 0.639506 0.63949
0.521477 0.0714885 0.296498
0.369985 0.144991 0.369985
0.218494 0.218494 0.443488
0.0669871 0.291997 0.516991
0 0.365499 0.590494
0 0.439002 0.663996
0 0.512505 0.737499
0 0.585992 0.811002
0 0.659495 0.884504
0.766476 0.0914931 0.541497
0.615 0.164981 0.615
0.463493 0.238483 0.688502
0.311986 0.311986 0.762005
0.160494 0.385489 0.835492
0.00898756 0.458991 0.908995
0 0.532494 0.982498
0 0.605997 1
0 0.6795 1
1 0.111498 0.786511
0.859998 0.184985 0.859998
0.708492 0.258488 0.933501
0.557 0.331991 1
0.405493 0.405493 1
0.253986 0.478996 1
0.10248 0.552499 1
0 0.626001 1
0 0.699504 1
1 0.131487 1
1 0.20499 1
0.953506 0.278492 1
0.801999 0.351995 1
0.650492 0.425498 1
0.498985 0.499001 1
0.347494 0.572503 1
0.195987 0.646006 1
0.04448 0.719509 1
1 0.151492 1
1 0.224994 1
1 0.298497 1
1 0.371984 1
0.895491 0.445487 1
0.743999 0.51899 1
0.592493 0.592493 1
0.440986 0.665995 1
0.289494 0.739498 1
1 0.171496 1
1 0.244984 1
1 0.318486 1
1 0.391989 1
1 0.465492 1
0.988998 0.538994 1
0.837491 0.612497 1
0.686 0.686 1
0.534493 0.759503 1
1 0.191501 1
1 0.264988 1
1 0.338491 1
1 0.411994 1
1 0.485496 1
1 0.558999 1
1 0.632502 1
0.930999 0.706004 1
0.779492 0.779507 1
0.0630045 0.0629892 0
0 0.136492 0
0 0.209995 0
0 0.283497 0
0 0.357 0
0 0.430503 0
0 0.504005 0.0540169
0 0.577508 0.12752
0 0.650996 0.201022
0.307973 0.0829938 0
0.156481 0.156481 0
0.0049897 0.229984 0.0049897
0 0.303487 0.0784924
0 0.376989 0.15198
0 0.450492 0.225483
0 0.523995 0.298985
0 0.597498 0.372488
0 0.671 0.445991
0.552972 0.102998 0.102998
0.401495 0.176486 0.176486
0.249989 0.249989 0.249989
0.0984817 0.323491 0.323491
0 0.396994 0.396994
0 0.470497 0.470497
0 0.543999 0.543999
0 0.617502 0.617502
0 0.691005 0.69099
0.797986 0.122988 0.347997
0.646494 0.19649 0.421485
0.494987 0.269993 0.494987
0.343496 0.343496 0.56849
0.191989 0.416999 0.641993
0.0404822 0.490501 0.715496
0 0.564004 0.788998
0 0.637507 0.862501
0 0.710994 0.936004
1 0.142992 0.592996
0.891493 0.21648 0.666499
0.740001 0.289982 0.740001
0.588495 0.363485 0.813504
0.436988 0.436988 0.887007
0.285496 0.510491 0.960494
0.133989 0.583993 1
0 0.657496 1
0 0.730999 1
1 0.162997 0.83801
1 0.236484 0.911498
0.985 0.309987 0.985
0.833494 0.38349 1
0.682002 0.456992 1
0.530495 0.530495 1
0.378988 0.603998 1
0.227481 0.677501 1
0.0759899 0.751003 1
1 0.183001 1
1 0.256489 1
1 0.329992 1
1 0.403494 1
0.927001 0.476997 1
0.775494 0.5505 1
0.623987 0.624002 1
0.472496 0.697505 1
0.320989 0.771008 1
1 0.202991 1
1 0.276493 1
1 0.349996 1
1 0.423499 1
1 0.496986 1
1 0.570489 1
0.869001 0.643992 1
0.717494 0.717494 1
0.565988 0.790997 1
1 0.222995 1
1 0.296483 1
1 0.369985 1
1 0.443488 1
1 0.516991 1
1 0.590494 1
1 0.663996 1
0.962493 0.737499 1
0.811002 0.811002 1
0.0944991 0.0944991 0
0 0.167987 0
0 0.241489 0
0 0.314992 0
0 0.388495 0
0 0.461997 0
0 0.5355 0
0 0.609003 0
0 0.682506 0.00750744
0.339467 0.114488 0
0.187991 0.187991 0
0.0364843 0.261494 0
0 0.334997 0
0 0.408499 0
0 0.481987 0.0319829
0 0.555489 0.105486
0 0.628992 0.178988
0 0.702495 0.252491
0.584482 0.134493 0
0.43299 0.20798 0
0.281483 0.281483 0.0564889
0.129992 0.354986 0.129992
0 0.428489 0.203494
0 0.501991 0.276982
0 0.575494 0.350484
0 0.648997 0.423987
0 0.722499 0.49749
0.82948 0.154498 0.154498
0.677989 0.227985 0.227985
0.526497 0.301488 0.301488
0.37499 0.37499 0.37499
0.223484 0.448493 0.448493
0.0719921 0.521996 0.521996
0 0.595499 0.595499
0 0.669001 0.669001
0 0.742504 0.742504
1 0.174487 0.399496
0.923003 0.24799 0.472999
0.771496 0.321492 0.546487
0.619989 0.394995 0.619989
0.468498 0.468498 0.693492
0.316991 0.542 0.766995
0.165484 0.615503 0.840497
0.0139773 0.689006 0.914
0 0.762509 0.987503
1 0.194491 0.644511
1 0.267994 0.717998
1 0.341482 0.791501
0.865003 0.414984 0.865003
0.713497 0.488487 0.938506
0.56199 0.56199 1
0.410498 0.635493 1
0.258991 0.708995 1
0.107485 0.782498 1
1 0.214496 0.889509
1 0.287984 0.962997
1 0.361486 1
1 0.434989 1
0.958495 0.508492 1
0.807004 0.581994 1
0.655497 0.655497 1
0.50399 0.729 1
0.352483 0.802502 1
1 0.234501 1
1 0.307988 1
1 0.381491 1
1 0.454994 1
1 0.528496 1
1 0.601999 1
0.900496 0.675502 1
0.748989 0.749004 1
0.597498 0.822507 1
1 0.25449 1
1 0.327993 1
1 0.401495 1
1 0.474998 1
1 0.548501 1
1 0.621988 1
1 0.695491 1
0.994003 0.768994 1
0.842496 0.842496 1
0.125994 0.125994 0
0 0.199481 0
0 0.272984 0
0 0.346487 0
0 0.419989 0
0 0.493492 0
0 0.566995 0
0 0.640497 0
0 0.714 0
0.370977 0.145998 0
0.219486 0.219486 0
0.0679789 0.292988 0
0 0.366491 0
0 0.439994 0
0 0.513497 0
0 0.586999 0
0 0.660502 0
0 0.734005 0.0589914
0.615976 0.165988 0
0.464485 0.23949 0
0.312993 0.312993 0
0.161486 0.386496 0
0.0099794 0.459998 0.0099794
0 0.533501 0.0834821
0 0.606989 0.156985
0 0.680491 0.230488
0 0.753994 0.30399
0.860975 0.185992 0
0.709499 0.25948 0.0344854
0.557992 0.332982 0.107988
0.406485 0.406485 0.181491
0.254994 0.479988 0.254994
0.103487 0.553491 0.328496
0 0.626993 0.401984
0 0.700496 0.475486
0 0.773999 0.548989
1 0.205997 0.205997
0.954498 0.279484 0.279484
0.802991 0.352987 0.352987
0.651499 0.42649 0.42649
0.499992 0.499992 0.499992
0.348486 0.573495 0.573495
0.196994 0.646998 0.646998
0.0454871 0.7205 0.7205
0 0.794003 0.794003
1 0.225986 0.450996
1 0.299489 0.524498
1 0.372992 0.598001
0.896498 0.446494 0.671489
0.744991 0.519997 0.744991
0.5935 0.5935 0.818494
0.441993 0.667002 0.891997
0.290486 0.740505 0.965499
0.138979 0.814008 1
1 0.245991 0.69601
1 0.319493 0.769497
1 0.392996 0.843
1 0.466484 0.916503
0.990005 0.539986 0.990005
0.838499 0.613489 1
0.686992 0.686992 1
0.5355 0.760494 1
0.383993 0.833997 1
1 0.265995 0.941009
1 0.339483 1
1 0.412985 1
1 0.486488 1
1 0.559991 1
1 0.633494 1
0.932006 0.706996 1
0.780499 0.780499 1
0.628992 0.854002 1
1 0.286 1
1 0.359487 1
1 0.43299 1
1 0.506493 1
1 0.579995 1
1 0.653498 1
1 0.727001 1
1 0.800504 1
0.873991 0.874006 1
0.157504 0.157488 0
0.00601205 0.230991 0
0 0.304494 0
0 0.377997 0
0 0.451499 0
0 0.525002 0
0 0.598505 0
0 0.672007 0
0 0.745495 0
0.402472 0.177493 0
0.250996 0.25098 0
0.0994888 0.324483 0
0 0.397986 0
0 0.471489 0
0 0.544991 0
0 0.618494 0
0 0.691997 0
0 0.765499 0
0.647471 0.197498 0
0.495995 0.270985 0
0.344488 0.344488 0
0.192981 0.41799 0
0.0414893 0.491493 0
0 0.564996 0
0 0.638498 0
0 0.712001 0.0369879
0 0.785504 0.110491
0.892485 0.217487 0
0.740993 0.29099 0
0.589487 0.364492 0
0.437995 0.437995 0
0.286488 0.511498 0.0614786
0.134981 0.585 0.134981
0 0.658503 0.208484
0 0.731991 0.281987
0 0.805493 0.355489
1 0.237491 0.0124971
0.985992 0.310979 0.0859846
0.834501 0.384482 0.159487
0.682994 0.457984 0.23299
0.531487 0.531487 0.306493
0.379995 0.60499 0.379995
0.228489 0.678492 0.453498
0.0769818 0.751995 0.526986
0 0.825498 0.600488
1 0.257496 0.257496
1 0.330983 0.330983
1 0.404486 0.404486
0.927993 0.477989 0.477989
0.776501 0.551492 0.551492
0.624994 0.624994 0.624994
0.473487 0.698497 0.698497
0.321996 0.772 0.772
0.170489 0.845502 0.845502
1 0.277501 0.502495
1 0.350988 0.575998
1 0.424491 0.6495
1 0.497993 0.723003
1 0.571496 0.79649
0.869993 0.644999 0.869993
0.718502 0.718502 0.943496
0.566995 0.792004 1
0.415488 0.865507 1
1 0.29749 0.747509
1 0.370993 0.820996
1 0.444495 0.894499
1 0.517998 0.968002
1 0.591485 1
1 0.664988 1
0.9635 0.738491 1
0.811994 0.811994 1
0.660502 0.885496 1
1 0.317494 0.992508
1 0.390982 1
1 0.464485 1
1 0.537987 1
1 0.61149 1
1 0.684993 1
1 0.758495 1
1 0.831998 1
0.905501 0.905501 1
0.188998 0.188998 0
0.0375219 0.262486 0
0 0.335988 0
0 0.409491 0
0 0.482994 0
0 0.556497 0
0 0.629999 0
0 0.703502 0
0 0.777005 0
0.433967 0.208988 0
0.28249 0.28249 0
0.130983 0.355993 0
0 0.429496 0
0 0.502998 0
0 0.576486 0
0 0.649989 0
0 0.723491 0
0 0.796994 0
0.678981 0.228992 0
0.527489 0.30248 0
0.375998 0.375982 0
0.224491 0.449485 0
0.0729839 0.522988 0
0 0.59649 0
0 0.669993 0
0 0.743496 0
0 0.816999 0
0.92398 0.248997 0
0.772503 0.322484 0
0.620996 0.395987 0
0.46949 0.46949 0
0.317983 0.542992 0
0.166491 0.616495 0
0.0149844 0.689998 0.0149844
0 0.7635 0.0884871
0 0.837003 0.16199
1 0.268986 0
1 0.342489 0
0.865995 0.415991 0
0.714488 0.489494 0.0394903
0.562997 0.562997 0.112978
0.41149 0.6365 0.186481
0.259983 0.710002 0.259983
0.108492 0.783505 0.333486
0 0.856992 0.406989
1 0.288991 0.0639963
1 0.362493 0.137484
1 0.435981 0.210986
0.959503 0.509483 0.284489
0.807996 0.582986 0.357992
0.656489 0.656489 0.431495
0.504997 0.729992 0.504997
0.353491 0.803494 0.5785
0.201984 0.876997 0.651987
1 0.308995 0.308995
1 0.382483 0.382483
1 0.455985 0.455985
1 0.529488 0.529488
1 0.602991 0.602991
0.901503 0.676493 0.676493
0.749996 0.749996 0.749996
0.598489 0.823499 0.823499
0.446998 0.897002 0.897002
1 0.329 0.553994
1 0.402487 0.627497
1 0.47599 0.700999
1 0.549493 0.774502
1 0.622995 0.848005
1 0.696498 0.921492
0.994995 0.770001 0.994995
0.843503 0.843503 1
0.691997 0.917006 1
1 0.348989 0.799008
1 0.422492 0.872496
1 0.495995 0.945998
1 0.569497 1
1 0.643 1
1 0.716487 1
1 0.78999 1
1 0.863493 1
0.936996 0.936996 1
0.220493 0.220493 0
0.0690166 0.29398 0
0 0.367483 0
0 0.440986 0
0 0.514488 0
0 0.587991 0
0 0.661494 0
0 0.734997 0
0 0.808499 0
0.465476 0.240497 0
0.313985 0.313985 0
0.162493 0.387488 0
0.0109865 0.46099 0
0 0.534493 0
0 0.607996 0
0 0.681498 0
0 0.755001 0
0 0.828504 0
0.710475 0.260487 0
0.558999 0.333989 0
0.407492 0.407492 0
0.255985 0.480995 0
0.104494 0.554498 0
0 0.628 0
0 0.701488 0
0 0.77499 0
0 0.848493 0
0.955474 0.280491 0
0.803998 0.353979 0
0.652491 0.427482 0
0.500999 0.500984 0
0.349493 0.574487 0
0.197986 0.64799 0
0.046479 0.721492 0
0 0.794995 0
0 0.868498 0
1 0.300496 0
1 0.373983 0
0.897505 0.447486 0
0.745998 0.520989 0
0.594491 0.594491 0
0.442985 0.667994 0
0.291493 0.741497 0.0664836
0.139986 0.815 0.139986
0 0.888502 0.213489
1 0.320485 0
1 0.393988 0
1 0.467491 0.0174868
0.990997 0.540993 0.0909895
0.83949 0.614496 0.164492
0.687999 0.687999 0.23798
0.536492 0.761501 0.311482
0.384985 0.835004 0.384985
0.233494 0.908507 0.458488
1 0.34049 0.115496
1 0.413993 0.188983
1 0.48748 0.262486
1 0.560983 0.335988
1 0.634485 0.409491
0.932998 0.707988 0.482994
0.781491 0.781491 0.556497
0.629999 0.854994 0.629999
0.478492 0.928496 0.703502
1 0.360494 0.360494
1 0.433982 0.433997
1 0.507485 0.507485
1 0.580987 0.580987
1 0.65449 0.65449
1 0.727993 0.727993
1 0.801495 0.801495
0.874998 0.874998 0.874998
0.723491 0.948501 0.948501
1 0.380499 0.605509
1 0.453986 0.678996
1 0.527489 0.752499
1 0.600992 0.826001
1 0.674495 0.899504
1 0.747997 0.973007
1 0.8215 1
1 0.895003 1
0.968505 0.968505 1
0.252003 0.251987 0
0.100511 0.32549 0
0 0.398993 0
0 0.472496 0
0 0.545998 0
0 0.619501 0
0 0.693004 0
0 0.766506 0
0 0.839994 0
0.496971 0.271992 0
0.345495 0.34548 0
0.193988 0.418982 0
0.0424811 0.492485 0
0 0.565988 0
0 0.63949 0
0 0.712993 0
0 0.786496 0
0 0.859998 0
0.741985 0.291997 0
0.590494 0.365484 0
0.438987 0.438987 0
0.287495 0.512489 0
0.135988 0.585992 0
0 0.659495 0
0 0.732998 0
0 0.8065 0
0 0.880003 0
0.986984 0.311986 0
0.835492 0.385489 0
0.684001 0.458991 0
0.532494 0.532494 0
0.380987 0.605997 0
0.229496 0.6795 0
0.0779889 0.753002 0
0 0.82649 0
0 0.899992 0
1 0.331991 0
1 0.405478 0
0.929 0.478981 0
0.777493 0.552483 0
0.626001 0.625986 0
0.474495 0.699489 0
0.322988 0.772992 0
0.171481 0.846494 0
0.0199893 0.919997 0.0199893
1 0.351995 0
1 0.425483 0
1 0.498985 0
1 0.572488 0
0.871 0.645991 0
0.719493 0.719493 0.04448
0.567987 0.792996 0.117983
0.416495 0.866499 0.191485
0.264988 0.940002 0.264988
1 0.371984 0
1 0.445487 0
1 0.51899 0.068986
1 0.592493 0.142489
1 0.665995 0.215991
0.964492 0.739498 0.289494
0.813001 0.813001 0.362982
0.661494 0.886503 0.436484
0.509987 0.960006 0.509987
1 0.391989 0.166995
1 0.465492 0.240482
1 0.538994 0.313985
1 0.612482 0.387488
1 0.685985 0.46099
1 0.759487 0.534493
1 0.83299 0.607996
0.906493 0.906493 0.681498
0.755001 0.979995 0.755001
1 0.411994 0.411994
1 0.485481 0.485496
1 0.558984 0.558999
1 0.632486 0.632486
1 0.705989 0.705989
1 0.779492 0.779492
1 0.852995 0.852995
1 0.926497 0.926497
1 1 1
