public/LUTS/Color Shift/ColorShift_44.cube
TITLE "Generated by Resolve"
LUT_3D_SIZE 9
0 0 0
0 0.0375525 0.100069
0 0.0751049 0.200137
0 0.112657 0.300221
0 0.15021 0.400305
0 0.187762 0.500374
0 0.225315 0.600458
0 0.262867 0.700526
0 0.30042 0.80061
0.209583 0.047303 0.115236
0.166522 0.0848402 0.215305
0.123461 0.122393 0.315373
0.0803998 0.159945 0.415457
0.0373388 0.197498 0.515526
0 0.23505 0.61561
0 0.272602 0.715694
0 0.310155 0.815763
0 0.347707 0.915846
0.419181 0.0946059 0.230488
0.376135 0.132143 0.330541
0.333074 0.169696 0.430625
0.289998 0.207248 0.530709
0.246937 0.2448 0.630777
0.203876 0.282353 0.730861
0.160815 0.319905 0.83093
0.117754 0.357458 0.931014
0.0746929 0.39501 1
0.628794 0.141894 0.345724
0.585733 0.179446 0.445792
0.542672 0.216999 0.545876
0.499611 0.254551 0.645945
0.45655 0.292103 0.746029
0.413489 0.329656 0.846113
0.370428 0.367208 0.946181
0.327367 0.404761 1
0.284291 0.442313 1
0.838407 0.189197 0.460975
0.795346 0.226749 0.561044
0.752285 0.264302 0.661112
0.709224 0.301854 0.761196
0.666148 0.339406 0.86128
0.623087 0.376959 0.961349
0.580026 0.414511 1
0.536965 0.452064 1
0.493904 0.489616 1
1 0.2365 0.576226
1 0.274052 0.676295
0.961883 0.311604 0.776364
0.918822 0.349157 0.876448
0.875761 0.386709 0.976516
0.8327 0.424262 1
0.789639 0.461814 1
0.746578 0.499367 1
0.703517 0.536919 1
1 0.283803 0.691478
1 0.321355 0.791531
1 0.358907 0.891615
1 0.39646 0.991699
1 0.434012 1
1 0.471565 1
0.999237 0.509117 1
0.956176 0.54667 1
0.913115 0.584222 1
1 0.331106 0.806714
1 0.368658 0.906783
1 0.40621 1
1 0.443763 1
1 0.481315 1
1 0.518868 1
1 0.55642 1
1 0.593973 1
1 0.631525 1
1 0.378408 0.921965
1 0.415961 1
1 0.453513 1
1 0.491066 1
1 0.528618 1
1 0.566171 1
1 0.603723 1
1 0.641276 1
1 0.678828 1
0 0.0401465 0
0 0.0776837 0.00975052
0 0.115236 0.109834
0 0.152789 0.209903
0 0.190356 0.309987
0 0.227909 0.410071
0 0.265461 0.51014
0 0.303014 0.610224
0 0.340566 0.710292
0.168048 0.0874342 0.024918
0.124987 0.124987 0.124987
0.0819257 0.162539 0.225071
0.0388647 0.200092 0.325139
0 0.237644 0.425223
0 0.275196 0.525292
0 0.312749 0.625376
0 0.350301 0.72546
0 0.387854 0.825528
0.377646 0.134737 0.140169
0.3346 0.17229 0.240238
0.291524 0.209842 0.340307
0.248463 0.247395 0.440391
0.205402 0.284947 0.540475
0.162341 0.322499 0.640543
0.11928 0.360052 0.740627
0.0762188 0.397604 0.840696
0.0331579 0.435157 0.94078
0.587259 0.18204 0.255421
0.544198 0.219593 0.355489
0.501137 0.257145 0.455558
0.458076 0.294697 0.555642
0.415015 0.33225 0.655711
0.371954 0.369802 0.755795
0.328893 0.407355 0.855879
0.285817 0.444907 0.955947
0.242756 0.48246 1
0.796857 0.229343 0.370657
0.753811 0.266896 0.470726
0.71075 0.304448 0.570809
0.667674 0.342 0.670878
0.624613 0.379553 0.770962
0.581552 0.417105 0.871046
0.538491 0.454658 0.971115
0.49543 0.49221 1
0.452369 0.529763 1
1 0.276646 0.485908
0.963409 0.314199 0.585977
0.920348 0.351751 0.686061
0.877287 0.389303 0.78613
0.834226 0.426856 0.886213
0.791165 0.464408 0.986282
0.748104 0.501961 1
0.705043 0.539513 1
0.661967 0.577066 1
1 0.323949 0.60116
1 0.361501 0.701228
1 0.399054 0.801297
1 0.436606 0.901381
1 0.474159 1
1 0.511711 1
0.957702 0.549264 1
0.914641 0.586816 1
0.87158 0.624369 1
1 0.371252 0.716411
1 0.408804 0.81648
1 0.446357 0.916548
1 0.483909 1
1 0.521462 1
1 0.559014 1
1 0.596567 1
1 0.634119 1
1 0.671672 1
1 0.418555 0.831647
1 0.456107 0.931716
1 0.49366 1
1 0.531212 1
1 0.568765 1
1 0.606317 1
1 0.64387 1
1 0.681422 1
1 0.718975 1
0 0.080293 0
0 0.11783 0
0 0.155398 0.019501
0 0.19295 0.119585
0 0.230503 0.219669
0 0.268055 0.319738
0 0.305608 0.419821
0 0.34316 0.51989
0 0.380713 0.619974
0.126497 0.127581 0
0.0834516 0.165133 0.0346685
0.0403754 0.202686 0.134737
0 0.240238 0.234821
0 0.27779 0.33489
0 0.315343 0.434974
0 0.352895 0.535058
0 0.390448 0.635126
0 0.428 0.73521
0.33611 0.174884 0.0498512
0.29305 0.212436 0.149905
0.249989 0.249989 0.249989
0.206928 0.287541 0.350072
0.163867 0.325093 0.450141
0.120806 0.362646 0.550225
0.0777447 0.400198 0.650294
0.0346685 0.437751 0.750378
0 0.475303 0.850462
0.545708 0.222187 0.165087
0.502663 0.259739 0.265156
0.459602 0.297292 0.36524
0.416526 0.334844 0.465309
0.373465 0.372396 0.565393
0.330404 0.409949 0.665476
0.287343 0.447501 0.765545
0.244282 0.485054 0.865629
0.201221 0.522606 0.965698
0.755322 0.26949 0.280339
0.712261 0.307042 0.380407
0.6692 0.344594 0.480491
0.626139 0.382147 0.58056
0.583078 0.419699 0.680644
0.540017 0.457252 0.780713
0.496956 0.494804 0.880796
0.453895 0.532357 0.98088
0.410819 0.569909 1
0.964935 0.316793 0.39559
0.921874 0.354345 0.495659
0.878813 0.391897 0.595728
0.835752 0.42945 0.695811
0.792676 0.467002 0.79588
0.749615 0.504555 0.895964
0.706554 0.542107 0.996048
0.663493 0.57966 1
0.620432 0.617212 1
1 0.364096 0.510842
1 0.401648 0.610895
1 0.4392 0.710979
1 0.476753 0.811063
1 0.514305 0.911131
0.959228 0.551858 1
0.916167 0.58941 1
0.873106 0.626963 1
0.830045 0.664515 1
1 0.411399 0.626078
1 0.448951 0.726146
1 0.486503 0.82623
1 0.524056 0.926299
1 0.561608 1
1 0.599161 1
1 0.636713 1
1 0.674266 1
1 0.711818 1
1 0.458701 0.741329
1 0.496254 0.841398
1 0.533806 0.941482
1 0.571359 1
1 0.608911 1
1 0.646464 1
1 0.684016 1
1 0.721569 1
1 0.759121 1
0 0.120439 0
0 0.157992 0
0 0.195544 0
0 0.233097 0.0292668
0 0.270649 0.129335
0 0.308202 0.229419
0 0.345754 0.329488
0 0.383307 0.429572
0 0.420859 0.529656
0.0849622 0.167727 0
0.0419013 0.20528 0
0 0.242832 0.044419
0 0.280385 0.144488
0 0.317937 0.244572
0 0.355489 0.344656
0 0.393042 0.444724
0 0.430594 0.544808
0 0.468147 0.644877
0.29456 0.21503 0
0.251514 0.252583 0.0595865
0.208453 0.290135 0.15967
0.165377 0.327688 0.259739
0.122316 0.36524 0.359823
0.0792554 0.402792 0.459892
0.0361944 0.440345 0.559976
0 0.477897 0.66006
0 0.51545 0.760128
0.504173 0.262333 0.0747692
0.461112 0.299886 0.174838
0.418051 0.337438 0.274907
0.37499 0.37499 0.37499
0.33193 0.412543 0.475074
0.288869 0.450095 0.575143
0.245808 0.487648 0.675227
0.202747 0.5252 0.775296
0.15967 0.562753 0.87538
0.713787 0.309636 0.190021
0.670726 0.347189 0.290089
0.627665 0.384741 0.390158
0.584604 0.422293 0.490242
0.541527 0.459846 0.590311
0.498466 0.497398 0.690394
0.455406 0.534951 0.790478
0.412345 0.572503 0.890547
0.369284 0.610056 0.990631
0.923384 0.356939 0.305272
0.880323 0.394491 0.405325
0.837263 0.432044 0.505409
0.794202 0.469596 0.605493
0.751141 0.507149 0.705562
0.70808 0.544701 0.805646
0.665019 0.582254 0.905715
0.621958 0.619806 1
0.578897 0.657359 1
1 0.404242 0.420508
1 0.441794 0.520577
1 0.479347 0.620661
1 0.516899 0.720729
0.960754 0.554452 0.820813
0.917678 0.592004 0.920882
0.874617 0.629557 1
0.831556 0.667109 1
0.788495 0.704662 1
1 0.451545 0.53576
1 0.489097 0.635828
1 0.52665 0.735897
1 0.564202 0.835981
1 0.601755 0.936065
1 0.639307 1
1 0.67686 1
1 0.714412 1
0.998108 0.751965 1
1 0.498848 0.651011
1 0.5364 0.75108
1 0.573953 0.851148
1 0.611505 0.951232
1 0.649058 1
1 0.68661 1
1 0.724163 1
1 0.761715 1
1 0.799268 1
0 0.160586 0
0 0.198138 0
0 0.235691 0
0 0.273243 0
0 0.310796 0.0390173
0 0.348348 0.139101
0 0.385901 0.23917
0 0.423453 0.339254
0 0.461006 0.439323
0.0434119 0.207874 0
0.000366217 0.245426 0
0 0.282979 0
0 0.320531 0.0541695
0 0.358083 0.154253
0 0.395636 0.254322
0 0.433188 0.354406
0 0.470741 0.45449
0 0.508293 0.554559
0.253025 0.255177 0
0.209964 0.292729 0
0.166903 0.330282 0.069337
0.123842 0.367834 0.169421
0.0807813 0.405386 0.26949
0.0377203 0.442939 0.369574
0 0.480491 0.469657
0 0.518044 0.569726
0 0.555596 0.66981
0.462638 0.30248 0
0.419577 0.340032 0.0845045
0.376516 0.377584 0.184588
0.333455 0.415137 0.284672
0.290379 0.452689 0.384741
0.247318 0.490242 0.484825
0.204257 0.527794 0.584894
0.161196 0.565347 0.684977
0.118135 0.602899 0.785061
0.672236 0.349783 0.0996872
0.629175 0.387335 0.199756
0.586114 0.424887 0.29984
0.543053 0.46244 0.399908
0.499992 0.499992 0.499992
0.456931 0.537545 0.600076
0.41387 0.575097 0.700145
0.370809 0.61265 0.800229
0.327749 0.650202 0.900298
0.881849 0.397086 0.214939
0.838788 0.434638 0.315007
0.795727 0.47219 0.415091
0.752667 0.509743 0.51516
0.709606 0.547295 0.615244
0.666529 0.584848 0.715312
0.623468 0.6224 0.815396
0.580407 0.659953 0.91548
0.537346 0.697505 1
1 0.444389 0.33019
1 0.481941 0.430259
1 0.519493 0.530327
0.962264 0.557046 0.630411
0.919203 0.594598 0.730495
0.876143 0.632151 0.830564
0.833082 0.669703 0.930648
0.790021 0.707256 1
0.74696 0.744808 1
1 0.491691 0.445441
1 0.529244 0.545495
1 0.566796 0.645579
1 0.604349 0.745663
1 0.641901 0.845731
1 0.679454 0.945815
1 0.717006 1
0.999619 0.754559 1
0.956558 0.792111 1
1 0.538994 0.560678
1 0.576547 0.660746
1 0.614099 0.76083
1 0.651652 0.860899
1 0.689204 0.960983
1 0.726757 1
1 0.764309 1
1 0.801862 1
1 0.839414 1
0 0.200732 0
0 0.238285 0
0 0.275837 0
0 0.31339 0
0 0.350942 0
0 0.388495 0.0487678
0 0.426047 0.148852
0 0.4636 0.24892
0 0.501152 0.349004
0.00187686 0.24802 0
0 0.285573 0
0 0.323125 0
0 0.360678 0
0 0.39823 0.06392
0 0.435782 0.164004
0 0.473335 0.264088
0 0.510887 0.364157
0 0.54844 0.46424
0.21149 0.295323 0
0.168429 0.332876 0
0.125368 0.370428 0
0.0823072 0.40798 0.0791028
0.0392309 0.445533 0.179171
0 0.483085 0.279255
0 0.520638 0.379324
0 0.55819 0.479408
0 0.595743 0.579492
0.421088 0.342626 0
0.378027 0.380179 0
0.334966 0.417731 0.0942702
0.291905 0.455283 0.194339
0.248844 0.492836 0.294423
0.205783 0.530388 0.394491
0.162722 0.567941 0.494575
0.119661 0.605493 0.594659
0.0766003 0.643046 0.694728
0.630701 0.389929 0.00936904
0.58764 0.427482 0.109438
0.544579 0.465034 0.209506
0.501518 0.502586 0.30959
0.458457 0.540139 0.409674
0.415381 0.577691 0.509743
0.37232 0.615244 0.609827
0.329259 0.652796 0.709895
0.286198 0.690349 0.809979
0.840299 0.437232 0.12462
0.797238 0.474784 0.224689
0.754177 0.512337 0.324758
0.711116 0.549889 0.424842
0.668055 0.587442 0.52491
0.624994 0.624994 0.624994
0.581933 0.662547 0.725078
0.538872 0.700099 0.825147
0.495811 0.737652 0.925231
1 0.484535 0.239872
1 0.522087 0.339925
0.96379 0.55964 0.440009
0.920729 0.597192 0.540093
0.877668 0.634745 0.640162
0.834607 0.672297 0.740246
0.791531 0.70985 0.840314
0.74847 0.747402 0.940398
0.705409 0.784955 1
1 0.531838 0.355108
1 0.56939 0.455177
1 0.606943 0.555261
1 0.644495 0.655329
1 0.682048 0.755413
1 0.7196 0.855497
1 0.757153 0.955566
0.958083 0.794705 1
0.915022 0.832258 1
1 0.579141 0.470359
1 0.616693 0.570428
1 0.654246 0.670497
1 0.691798 0.770581
1 0.729351 0.870665
1 0.766903 0.970733
1 0.804456 1
1 0.842008 1
1 0.879561 1
0 0.240879 0
0 0.278431 0
0 0.315984 0
0 0.353536 0
0 0.391089 0
0 0.428641 0
0 0.466194 0.0585184
0 0.503746 0.158602
0 0.541299 0.258686
0 0.288167 0
0 0.325719 0
0 0.363272 0
0 0.400824 0
0 0.438376 0
0 0.475929 0.0736858
0 0.513481 0.173754
0 0.551034 0.273838
0 0.588586 0.373907
0.16994 0.33547 0
0.126879 0.373022 0
0.0838178 0.410574 0
0.0407568 0.448127 0
0 0.485679 0.0888533
0 0.523232 0.188922
0 0.560784 0.289006
0 0.598337 0.38909
0 0.635889 0.489158
0.379553 0.382773 0
0.336492 0.420325 0
0.293431 0.457877 0.00393683
0.25037 0.49543 0.104021
0.207309 0.532982 0.204105
0.164233 0.570535 0.304173
0.121172 0.608087 0.404257
0.0781109 0.64564 0.504326
0.03505 0.683192 0.60441
0.589151 0.430076 0
0.54609 0.467628 0.0191043
0.503029 0.50518 0.119188
0.459968 0.542733 0.219272
0.416907 0.580285 0.319341
0.373846 0.617838 0.419425
0.330785 0.65539 0.519493
0.287724 0.692943 0.619577
0.244663 0.730495 0.719661
0.798764 0.477378 0.034287
0.755703 0.514931 0.134356
0.712642 0.552483 0.23444
0.669581 0.590036 0.334508
0.62652 0.627588 0.434592
0.583459 0.665141 0.534676
0.540383 0.702693 0.634745
0.497322 0.740246 0.734829
0.454261 0.777798 0.834897
1 0.524681 0.149538
0.965316 0.562234 0.249607
0.92224 0.599786 0.349691
0.879179 0.637339 0.44976
0.836118 0.674891 0.549844
0.793057 0.712444 0.649912
0.749996 0.749996 0.749996
0.706935 0.787549 0.85008
0.663874 0.825101 0.950149
1 0.571984 0.26479
1 0.609537 0.364858
1 0.647089 0.464927
1 0.684642 0.565011
1 0.722194 0.665095
1 0.759747 0.765164
0.959609 0.797299 0.865248
0.916533 0.834852 0.965316
0.873472 0.872404 1
1 0.619287 0.380041
1 0.65684 0.48011
1 0.694392 0.580179
1 0.731945 0.680262
1 0.769497 0.780331
1 0.80705 0.880415
1 0.844602 0.980499
1 0.882155 1
1 0.919707 1
0 0.281025 0
0 0.318578 0
0 0.35613 0
0 0.393683 0
0 0.431235 0
0 0.468788 0
0 0.50634 0
0 0.543893 0.0682841
0 0.581445 0.168353
0 0.328328 0
0 0.365866 0
0 0.403418 0
0 0.44097 0
0 0.478523 0
0 0.516075 0
0 0.553628 0.0834363
0 0.59118 0.183505
0 0.628733 0.283589
0.128405 0.375616 0
0.0853437 0.413169 0
0.0422827 0.450721 0
0 0.488273 0
0 0.525826 0
0 0.563378 0.0986038
0 0.600931 0.198688
0 0.638483 0.298756
0 0.676036 0.39884
0.338003 0.422919 0
0.294942 0.460472 0
0.251881 0.498024 0
0.20882 0.535576 0.0137026
0.165759 0.573129 0.113771
0.122698 0.610681 0.213855
0.0796368 0.648234 0.313924
0.0365759 0.685786 0.414008
0 0.723339 0.514092
0.547616 0.470222 0
0.504555 0.507774 0
0.461494 0.545327 0.0288701
0.418433 0.582879 0.128939
0.375372 0.620432 0.229023
0.332311 0.657984 0.329107
0.289235 0.695537 0.429175
0.246174 0.733089 0.529259
0.203113 0.770642 0.629328
0.757214 0.517525 0
0.714168 0.555077 0.0440375
0.671092 0.59263 0.144121
0.628031 0.630182 0.24419
0.58497 0.667735 0.344274
0.541909 0.705287 0.444343
0.498848 0.74284 0.544427
0.455787 0.780392 0.644495
0.412726 0.817945 0.744579
0.966827 0.564828 0.0592203
0.923766 0.60238 0.159289
0.880705 0.639933 0.259358
0.837644 0.677485 0.359442
0.794583 0.715038 0.45951
0.751522 0.75259 0.559594
0.708461 0.790143 0.659678
0.665385 0.827695 0.759747
0.622324 0.865248 0.859831
1 0.612131 0.174472
1 0.649683 0.274525
1 0.687236 0.374609
1 0.724788 0.474693
1 0.762341 0.574762
0.96112 0.799893 0.674846
0.918059 0.837446 0.774914
0.874998 0.874998 0.874998
0.831937 0.912551 0.975082
1 0.659434 0.289708
1 0.696986 0.389776
1 0.734539 0.48986
1 0.772091 0.589929
1 0.809644 0.690013
1 0.847196 0.790097
1 0.884749 0.890166
1 0.922301 0.99025
1 0.959854 1
0 0.321172 0
0 0.358724 0
0 0.396277 0
0 0.433829 0
0 0.471382 0
0 0.508934 0
0 0.546487 0
0 0.584039 0
0 0.621592 0.0780346
0 0.368475 0
0 0.406012 0
0 0.443565 0
0 0.481117 0
0 0.518669 0
0 0.556222 0
0 0.593774 0
0 0.631327 0.0931868
0 0.668879 0.193271
0.0868544 0.415763 0
0.0437934 0.453315 0
0.000732433 0.490867 0
0 0.52842 0
0 0.565972 0
0 0.603525 0.00828565
0 0.641077 0.108354
0 0.67863 0.208438
0 0.716182 0.308507
0.296468 0.463066 0
0.253407 0.500618 0
0.210346 0.53817 0
0.167285 0.575723 0
0.124224 0.613275 0.0234531
0.0811627 0.650828 0.123522
0.0380865 0.68838 0.223606
0 0.725933 0.32369
0 0.763485 0.423758
0.506065 0.510369 0
0.46302 0.547921 0
0.419944 0.585473 0
0.376883 0.623026 0.0386206
0.333822 0.660578 0.138705
0.290761 0.698131 0.238773
0.2477 0.735683 0.338857
0.204639 0.773236 0.438926
0.161578 0.810788 0.53901
0.715679 0.557671 0
0.672618 0.595224 0
0.629557 0.632776 0.0537881
0.586496 0.670329 0.153872
0.543435 0.707881 0.253941
0.500374 0.745434 0.354025
0.457313 0.782986 0.454109
0.414237 0.820539 0.554177
0.371176 0.858091 0.654261
0.925277 0.604974 0
0.882231 0.642527 0.0689555
0.83917 0.680079 0.169039
0.796094 0.717632 0.269108
0.753033 0.755184 0.369192
0.709972 0.792737 0.469276
0.666911 0.830289 0.569345
0.62385 0.867842 0.669429
0.580789 0.905394 0.769497
1 0.652277 0.0841382
1 0.68983 0.184207
1 0.727382 0.284291
1 0.764935 0.38436
0.962646 0.802487 0.484443
0.919585 0.84004 0.584512
0.876524 0.877592 0.684596
0.833463 0.915145 0.78468
0.790387 0.952697 0.884749
1 0.69958 0.19939
1 0.737133 0.299458
1 0.774685 0.399527
1 0.812238 0.499611
1 0.84979 0.599695
1 0.887343 0.699763
1 0.924895 0.799847
1 0.962448 0.899916
1 1 1
