public/LUTS/Color Shift/ColorShift_75.cube
TITLE "Generated by Resolve"
LUT_3D_SIZE 5
0 0 0
0.399008 0 0.0262608
0.798047 0 0.0525063
1 0 0.0787671
1 0 0.105028
0 0.290074 0
0.339117 0.241993 0
0.738155 0.193912 0
1 0.14583 0
1 0.097734 0
0 0.580179 0
0.279225 0.532097 0
0.678264 0.484001 0
1 0.43592 0
1 0.387839 0
0 0.870268 0
0.219333 0.822187 0
0.618372 0.774105 0
1 0.726009 0
1 0.677928 0
0 1 0
0.159442 1 0
0.55848 1 0
0.957504 1 0
1 0.968032 0
0 0.00799573 0.395804
0.30988 0 0.422065
0.708904 0 0.448325
1 0 0.474586
1 0 0.500832
0 0.29807 0.223728
0.249989 0.249989 0.249989
0.649027 0.201907 0.276249
1 0.153811 0.30251
1 0.10573 0.328756
0 0.588174 0.0516518
0.190097 0.540078 0.0778973
0.589136 0.491997 0.104158
0.988159 0.443915 0.130419
1 0.395819 0.15668
0 0.878264 0
0.130205 0.830182 0
0.529229 0.782101 0
0.928267 0.734005 0
1 0.685924 0
0 1 0
0.0703136 1 0
0.469337 1 0
0.868376 1 0
1 0.976013 0
0 0.0159915 0.791638
0.220737 0 0.817899
0.619776 0 0.84416
1 0 0.870405
1 0 0.896666
0 0.306065 0.619562
0.160845 0.257984 0.645823
0.559884 0.209903 0.672084
0.958923 0.161807 0.698329
1 0.113725 0.72459
0 0.596155 0.447486
0.100954 0.548074 0.473732
0.499992 0.499992 0.499992
0.899031 0.451911 0.526253
1 0.403815 0.552514
0 0.886259 0.275395
0.041062 0.838178 0.301656
0.440101 0.790082 0.327901
0.839139 0.742 0.354162
1 0.693919 0.380423
0 1 0.103304
0 1 0.129564
0.380209 1 0.155825
0.779232 1 0.182071
1 0.984009 0.208331
0 0.0239872 1
0.131609 0 1
0.530632 0 1
0.929671 0 1
1 0 1
0 0.314061 1
0.0717174 0.26598 1
0.470756 0.217884 1
0.86978 0.169802 1
1 0.121721 1
0 0.60415 0.843305
0.0118257 0.556069 0.869566
0.410849 0.507988 0.895827
0.809888 0.459907 0.922087
1 0.41181 0.948333
0 0.894255 0.671229
0 0.846174 0.697475
0.350958 0.798077 0.723735
0.749996 0.749996 0.749996
1 0.701915 0.776257
0 1 0.499138
0 1 0.525399
0.291066 1 0.551659
0.690105 1 0.577905
1 0.992004 0.604166
0 0.0319677 1
0.0424659 0 1
0.441505 0 1
0.840528 0 1
1 0 1
0 0.322057 1
0 0.273976 1
0.381613 0.225879 1
0.780652 0.177798 1
1 0.129717 1
0 0.612146 1
0 0.564065 1
0.321721 0.515984 1
0.72076 0.467887 1
1 0.419806 1
0 0.902251 1
0 0.85417 1
0.26183 0.806073 1
0.660853 0.757992 1
1 0.709911 1
0 1 0.894972
0 1 0.921233
0.201938 1 0.947478
0.600961 1 0.973739
1 1 1
