public/LUTS/Color Shift/ColorShift_30.cube
TITLE "Generated by Resolve"
LUT_3D_SIZE 33
0 0 0
0.0282292 0 0.0196384
0.0564736 0 0.0392767
0.0847334 0 0.0589151
0.112978 0 0.0785534
0.141222 0 0.0981918
0.169467 0 0.117845
0.197711 0 0.137484
0.225956 0 0.157122
0.2542 0 0.176761
0.282445 0 0.196414
0.310704 0 0.216052
0.338949 0 0.235691
0.367193 0 0.255329
0.395438 0 0.274968
0.423682 0 0.294621
0.451926 0 0.31426
0.480171 0 0.333898
0.508431 0 0.353536
0.536675 0 0.373175
0.56492 0 0.392828
0.593164 0 0.412467
0.621408 0 0.432105
0.649653 0 0.451743
0.677897 0 0.471382
0.706157 0 0.491035
0.734401 0 0.510674
0.762646 0 0.530312
0.79089 0 0.54995
0.819135 0 0.569604
0.847379 0 0.589242
0.875624 0 0.608881
0.903868 0 0.628519
0.0232853 0.0253758 0
0.0515297 0.0237583 0.0108492
0.0797742 0.0221256 0.0304875
0.108019 0.0205081 0.0501259
0.136263 0.0188754 0.0697642
0.164508 0.017258 0.0894179
0.192752 0.0156252 0.109056
0.220996 0.0140078 0.128695
0.249256 0.0123903 0.148333
0.277501 0.0107576 0.167987
0.305745 0.00914015 0.187625
0.333989 0.00750744 0.207263
0.362234 0.00588998 0.226902
0.390478 0.00425727 0.24654
0.418723 0.00263981 0.266194
0.446983 0.00102235 0.285832
0.475227 0 0.30547
0.503471 0 0.325109
0.531716 0 0.344747
0.55996 0 0.364401
0.588205 0 0.384039
0.616449 0 0.403677
0.644709 0 0.423316
0.672953 0 0.442954
0.701198 0 0.462608
0.729442 0 0.482246
0.757687 0 0.501884
0.785931 0 0.521523
0.814176 0 0.541176
0.84242 0 0.560815
0.87068 0 0.580453
0.898924 0 0.600092
0.927169 0 0.61973
0.0466011 0.0507668 0
0.0748302 0.0491493 0.00205997
0.103075 0.0475166 0.0216983
0.131319 0.0458991 0.0413367
0.159564 0.0442664 0.0609751
0.187808 0.042649 0.0806287
0.216052 0.0410163 0.100267
0.244312 0.0393988 0.119905
0.272557 0.0377813 0.139544
0.300801 0.0361486 0.159182
0.329046 0.0345312 0.178836
0.35729 0.0328985 0.198474
0.385534 0.031281 0.218112
0.413779 0.0296483 0.237751
0.442039 0.0280308 0.257404
0.470283 0.0263981 0.277043
0.498527 0.0247807 0.296681
0.526772 0.0231632 0.31632
0.555016 0.0215305 0.335958
0.583261 0.019913 0.355612
0.611505 0.0182803 0.37525
0.639765 0.0166629 0.394888
0.668009 0.0150301 0.414527
0.696254 0.0134127 0.434165
0.724498 0.01178 0.453819
0.752743 0.0101625 0.473457
0.780987 0.00854505 0.493095
0.809232 0.00691234 0.512734
0.837476 0.00529488 0.532372
0.865736 0.00366217 0.552026
0.89398 0.00204471 0.571664
0.922225 0.000411994 0.591302
0.950469 0 0.610941
0.0699016 0.0761578 0
0.0981308 0.0745403 0
0.126375 0.0729076 0.0129091
0.15462 0.0712902 0.0325475
0.182864 0.0696574 0.0521859
0.211109 0.06804 0.0718395
0.239368 0.0664073 0.0914778
0.267613 0.0647898 0.111116
0.295857 0.0631571 0.130755
0.324102 0.0615396 0.150393
0.352346 0.0599222 0.170047
0.380591 0.0582895 0.189685
0.408835 0.056672 0.209323
0.437095 0.0550393 0.228962
0.465339 0.0534218 0.2486
0.493584 0.0517891 0.268254
0.521828 0.0501717 0.287892
0.550072 0.0485389 0.30753
0.578317 0.0469215 0.327169
0.606561 0.045304 0.346822
0.634821 0.0436713 0.366461
0.663066 0.0420539 0.386099
0.69131 0.0404212 0.405737
0.719554 0.0388037 0.425376
0.747799 0.037171 0.445029
0.776043 0.0355535 0.464668
0.804288 0.0339208 0.484306
0.832532 0.0323033 0.503944
0.860792 0.0306859 0.523583
0.889036 0.0290532 0.543236
0.917281 0.0274357 0.562875
0.945525 0.025803 0.582513
0.97377 0.0241855 0.602152
0.0932021 0.101549 0
0.121431 0.0999161 0
0.149676 0.0982986 0.00411994
0.17792 0.0966812 0.0237583
0.206165 0.0950484 0.0433967
0.234424 0.093431 0.063035
0.262669 0.0917983 0.0826886
0.290913 0.0901808 0.102327
0.319158 0.0885481 0.121965
0.347402 0.0869306 0.141604
0.375647 0.0852979 0.161257
0.403891 0.0836805 0.180896
0.432151 0.082063 0.200534
0.460395 0.0804303 0.220172
0.48864 0.0788128 0.239811
0.516884 0.0771801 0.259464
0.545129 0.0755627 0.279103
0.573373 0.07393 0.298741
0.601617 0.0723125 0.318379
0.629877 0.0706798 0.338018
0.658122 0.0690623 0.357671
0.686366 0.0674449 0.37731
0.714611 0.0658122 0.396948
0.742855 0.0641947 0.416587
0.771099 0.062562 0.43624
0.799344 0.0609445 0.455879
0.827588 0.0593118 0.475517
0.855848 0.0576944 0.495155
0.884092 0.0560616 0.514794
0.912337 0.0544442 0.534447
0.940581 0.0528267 0.554086
0.968826 0.051194 0.573724
0.99707 0.0495766 0.593362
0.116503 0.12694 0
0.144732 0.125307 0
0.172976 0.12369 0
0.201221 0.122057 0.0149691
0.22948 0.120439 0.0346075
0.257725 0.118822 0.0542458
0.285969 0.117189 0.0738994
0.314214 0.115572 0.0935378
0.342458 0.113939 0.113176
0.370703 0.112322 0.132815
0.398947 0.110689 0.152453
0.427207 0.109071 0.172107
0.455451 0.107439 0.191745
0.483696 0.105821 0.211383
0.51194 0.104204 0.231022
0.540185 0.102571 0.250675
0.568429 0.100954 0.270314
0.596674 0.099321 0.289952
0.624933 0.0977035 0.30959
0.653178 0.0960708 0.329229
0.681422 0.0944533 0.348882
0.709667 0.0928359 0.368521
0.737911 0.0912032 0.388159
0.766155 0.0895857 0.407797
0.7944 0.087953 0.427436
0.822644 0.0863355 0.447089
0.850904 0.0847028 0.466728
0.879149 0.0830854 0.486366
0.907393 0.0814527 0.506004
0.935637 0.0798352 0.525658
0.963882 0.0782177 0.545296
0.992126 0.076585 0.564935
1 0.0749676 0.584573
0.139803 0.152331 0
0.168032 0.150698 0
0.196277 0.149081 0
0.224537 0.147448 0.0061799
0.252781 0.14583 0.0258183
0.281025 0.144213 0.0454566
0.30927 0.14258 0.0651102
0.337514 0.140963 0.0847486
0.365759 0.13933 0.104387
0.394003 0.137713 0.124025
0.422263 0.13608 0.143664
0.450507 0.134463 0.163317
0.478752 0.13283 0.182956
0.506996 0.131212 0.202594
0.535241 0.129595 0.222232
0.563485 0.127962 0.241871
0.59173 0.126345 0.261524
0.619989 0.124712 0.281163
0.648234 0.123095 0.300801
0.676478 0.121462 0.320439
0.704723 0.119844 0.340093
0.732967 0.118212 0.359731
0.761212 0.116594 0.37937
0.789456 0.114977 0.399008
0.8177 0.113344 0.418647
0.84596 0.111727 0.4383
0.874205 0.110094 0.457938
0.902449 0.108476 0.477577
0.930694 0.106844 0.497215
0.958938 0.105226 0.516854
0.987182 0.103593 0.536507
1 0.101976 0.556146
1 0.100359 0.575784
0.163104 0.177722 0
0.191333 0.176089 0
0.219593 0.174472 0
0.247837 0.172839 0
0.276081 0.171221 0.0170291
0.304326 0.169589 0.0366674
0.33257 0.167971 0.0563058
0.360815 0.166354 0.0759594
0.389059 0.164721 0.0955978
0.417319 0.163104 0.115236
0.445563 0.161471 0.134874
0.473808 0.159854 0.154528
0.502052 0.158221 0.174166
0.530297 0.156603 0.193805
0.558541 0.154971 0.213443
0.586786 0.153353 0.233082
0.615045 0.151736 0.252735
0.64329 0.150103 0.272374
0.671534 0.148486 0.292012
0.699779 0.146853 0.31165
0.728023 0.145235 0.331289
0.756268 0.143603 0.350942
0.784512 0.141985 0.370581
0.812772 0.140352 0.390219
0.841016 0.138735 0.409857
0.869261 0.137118 0.429511
0.897505 0.135485 0.449149
0.92575 0.133867 0.468788
0.953994 0.132235 0.488426
0.982238 0.130617 0.508064
1 0.128985 0.527718
1 0.127367 0.547356
1 0.125734 0.566995
0.186404 0.203113 0
0.214649 0.20148 0
0.242893 0.199863 0
0.271138 0.19823 0
0.299382 0.196612 0.00823987
0.327626 0.19498 0.0278782
0.355871 0.193362 0.0475166
0.384115 0.19173 0.0671702
0.412375 0.190112 0.0868086
0.44062 0.188495 0.106447
0.468864 0.186862 0.126085
0.497108 0.185245 0.145724
0.525353 0.183612 0.165377
0.553597 0.181994 0.185016
0.581842 0.180362 0.204654
0.610101 0.178744 0.224292
0.638346 0.177111 0.243946
0.66659 0.175494 0.263584
0.694835 0.173877 0.283223
0.723079 0.172244 0.302861
0.751324 0.170626 0.322499
0.779568 0.168994 0.342153
0.807813 0.167376 0.361791
0.836072 0.165743 0.38143
0.864317 0.164126 0.401068
0.892561 0.162493 0.420706
0.920806 0.160876 0.44036
0.94905 0.159258 0.459998
0.977295 0.157626 0.479637
1 0.156008 0.499275
1 0.154376 0.518929
1 0.152758 0.538567
1 0.151125 0.558206
0.20972 0.228489 0
0.237949 0.226871 0
0.266194 0.225254 0
0.294438 0.223621 0
0.322683 0.222004 0
0.350927 0.220371 0.019089
0.379171 0.218753 0.0387274
0.407431 0.217121 0.058381
0.435676 0.215503 0.0780194
0.46392 0.21387 0.0976577
0.492164 0.212253 0.117296
0.520409 0.210636 0.136934
0.548653 0.209003 0.156588
0.576898 0.207385 0.176226
0.605158 0.205753 0.195865
0.633402 0.204135 0.215503
0.661646 0.202502 0.235142
0.689891 0.200885 0.254795
0.718135 0.199268 0.274434
0.74638 0.197635 0.294072
0.774624 0.196017 0.31371
0.802884 0.194385 0.333364
0.831128 0.192767 0.353002
0.859373 0.191135 0.372641
0.887617 0.189517 0.392279
0.915862 0.187884 0.411917
0.944106 0.186267 0.431571
0.972351 0.184649 0.451209
1 0.183017 0.470848
1 0.181399 0.490486
1 0.179767 0.510124
1 0.178149 0.529778
1 0.176516 0.549416
0.233021 0.25388 0
0.26125 0.252262 0
0.289494 0.250629 0
0.317739 0.249012 0
0.345983 0.247395 0
0.374228 0.245762 0.0102998
0.402487 0.244144 0.0299382
0.430732 0.242512 0.0495918
0.458976 0.240894 0.0692302
0.487221 0.239261 0.0888685
0.515465 0.237644 0.108507
0.543709 0.236027 0.128145
0.571954 0.234394 0.147799
0.600214 0.232776 0.167437
0.628458 0.231144 0.187076
0.656703 0.229526 0.206714
0.684947 0.227893 0.226352
0.713191 0.226276 0.246006
0.741436 0.224643 0.265644
0.76968 0.223026 0.285283
0.79794 0.221408 0.304921
0.826185 0.219776 0.324559
0.854429 0.218158 0.344213
0.882673 0.216526 0.363851
0.910918 0.214908 0.38349
0.939162 0.213275 0.403128
0.967407 0.211658 0.422782
0.995651 0.210025 0.44242
1 0.208408 0.462058
1 0.20679 0.481697
1 0.205158 0.501335
1 0.20354 0.520989
1 0.201907 0.540627
0.256321 0.279271 0
0.28455 0.277653 0
0.312795 0.27602 0
0.341039 0.274403 0
0.369284 0.272786 0
0.397543 0.271153 0.00151064
0.425788 0.269535 0.021149
0.454032 0.267903 0.0407874
0.482277 0.266285 0.060441
0.510521 0.264652 0.0800793
0.538766 0.263035 0.0997177
0.56701 0.261402 0.119356
0.59527 0.259785 0.13901
0.623514 0.258167 0.158648
0.651759 0.256535 0.178286
0.680003 0.254917 0.197925
0.708247 0.253285 0.217563
0.736492 0.251667 0.237217
0.764736 0.250034 0.256855
0.792996 0.248417 0.276493
0.821241 0.246784 0.296132
0.849485 0.245167 0.31577
0.877729 0.243549 0.335424
0.905974 0.241917 0.355062
0.934218 0.240299 0.374701
0.962463 0.238666 0.394339
0.990707 0.237049 0.413977
1 0.235416 0.433631
1 0.233799 0.453269
1 0.232166 0.472908
1 0.230549 0.492546
1 0.228931 0.5122
1 0.227298 0.531838
0.279622 0.304662 0
0.307851 0.303044 0
0.336095 0.301411 0
0.36434 0.299794 0
0.392599 0.298161 0
0.420844 0.296544 0
0.449088 0.294926 0.0123598
0.477333 0.293294 0.0319982
0.505577 0.291676 0.0516518
0.533822 0.290044 0.0712902
0.562066 0.288426 0.0909285
0.590326 0.286793 0.110567
0.61857 0.285176 0.130205
0.646815 0.283543 0.149859
0.675059 0.281926 0.169497
0.703304 0.280308 0.189136
0.731548 0.278676 0.208774
0.759793 0.277058 0.228428
0.788052 0.275425 0.248066
0.816297 0.273808 0.267704
0.844541 0.272175 0.287343
0.872786 0.270558 0.306981
0.90103 0.268925 0.326635
0.929274 0.267308 0.346273
0.957519 0.26569 0.365911
0.985763 0.264057 0.38555
1 0.26244 0.405188
1 0.260807 0.424842
1 0.25919 0.44448
1 0.257557 0.464118
1 0.25594 0.483757
1 0.254307 0.503395
1 0.252689 0.523049
0.302922 0.330053 0
0.331151 0.328435 0
0.359396 0.326802 0
0.387655 0.325185 0
0.4159 0.323552 0
0.444144 0.321935 0
0.472389 0.320302 0.00357061
0.500633 0.318685 0.023209
0.528878 0.317067 0.0428626
0.557122 0.315435 0.062501
0.585382 0.313817 0.0821393
0.613626 0.312184 0.101778
0.641871 0.310567 0.121416
0.670115 0.308934 0.14107
0.69836 0.307317 0.160708
0.726604 0.305684 0.180346
0.754849 0.304067 0.199985
0.783108 0.302449 0.219623
0.811353 0.300816 0.239277
0.839597 0.299199 0.258915
0.867842 0.297566 0.278553
0.896086 0.295949 0.298192
0.924331 0.294316 0.317845
0.952575 0.292699 0.337484
0.980819 0.291066 0.357122
1 0.289448 0.376761
1 0.287831 0.396399
1 0.286198 0.416052
1 0.284581 0.435691
1 0.282948 0.455329
1 0.281331 0.474968
1 0.279698 0.494606
1 0.27808 0.51426
0.326223 0.355444 0
0.354452 0.353826 0
0.382712 0.352193 0
0.410956 0.350576 0
0.4392 0.348943 0
0.467445 0.347326 0
0.495689 0.345693 0
0.523934 0.344076 0.0144198
0.552178 0.342458 0.0340581
0.580438 0.340826 0.0537118
0.608682 0.339208 0.0733501
0.636927 0.337575 0.0929885
0.665171 0.335958 0.112627
0.693416 0.334325 0.13228
0.72166 0.332708 0.151919
0.749905 0.331075 0.171557
0.778164 0.329458 0.191196
0.806409 0.32784 0.210834
0.834653 0.326207 0.230488
0.862898 0.32459 0.250126
0.891142 0.322957 0.269764
0.919387 0.32134 0.289403
0.947631 0.319707 0.309041
0.975875 0.31809 0.328695
1 0.316457 0.348333
1 0.314839 0.367971
1 0.313222 0.38761
1 0.311589 0.407263
1 0.309972 0.426902
1 0.308339 0.44654
1 0.306722 0.466178
1 0.305089 0.485817
1 0.303471 0.50547
0.349523 0.380835 0
0.377768 0.379217 0
0.406012 0.377584 0
0.434256 0.375967 0
0.462501 0.374334 0
0.490745 0.372717 0
0.51899 0.371084 0
0.547234 0.369467 0.00563058
0.575494 0.367834 0.0252689
0.603738 0.366217 0.0449226
0.631983 0.364599 0.0645609
0.660227 0.362966 0.0841993
0.688472 0.361349 0.103838
0.716716 0.359716 0.123476
0.744961 0.358099 0.14313
0.77322 0.356466 0.162768
0.801465 0.354849 0.182406
0.829709 0.353216 0.202045
0.857954 0.351598 0.221698
0.886198 0.349981 0.241337
0.914443 0.348348 0.260975
0.942687 0.346731 0.280613
0.970932 0.345098 0.300252
0.999191 0.343481 0.319905
1 0.341848 0.339544
1 0.34023 0.359182
1 0.338598 0.37882
1 0.33698 0.398459
1 0.335363 0.418112
1 0.33373 0.437751
1 0.332113 0.457389
1 0.33048 0.477028
1 0.328862 0.496681
0.372839 0.406226 0
0.401068 0.404593 0
0.429313 0.402975 0
0.457557 0.401358 0
0.485801 0.399725 0
0.514046 0.398108 0
0.54229 0.396475 0
0.57055 0.394858 0
0.598795 0.393225 0.0164797
0.627039 0.391608 0.0361334
0.655283 0.389975 0.0557717
0.683528 0.388357 0.0754101
0.711772 0.38674 0.0950484
0.740017 0.385107 0.114687
0.768277 0.38349 0.13434
0.796521 0.381857 0.153979
0.824765 0.38024 0.173617
0.85301 0.378607 0.193256
0.881254 0.376989 0.212894
0.909499 0.375357 0.232547
0.937743 0.373739 0.252186
0.965988 0.372122 0.271824
0.994247 0.370489 0.291463
1 0.368872 0.311116
1 0.367239 0.330755
1 0.365621 0.350393
1 0.363989 0.370031
1 0.362371 0.38967
1 0.360739 0.409323
1 0.359121 0.428962
1 0.357504 0.4486
1 0.355871 0.468238
1 0.354253 0.487877
0.396139 0.431617 0
0.424369 0.429984 0
0.452613 0.428367 0
0.480858 0.426734 0
0.509102 0.425116 0
0.537346 0.423499 0
0.565606 0.421866 0
0.593851 0.420249 0
0.622095 0.418616 0.00769055
0.650339 0.416999 0.0273442
0.678584 0.415366 0.0469825
0.706828 0.413748 0.0666209
0.735073 0.412116 0.0862593
0.763333 0.410498 0.105898
0.791577 0.408881 0.125551
0.819821 0.407248 0.14519
0.848066 0.405631 0.164828
0.87631 0.403998 0.184466
0.904555 0.40238 0.204105
0.932799 0.400748 0.223758
0.961044 0.39913 0.243397
0.989303 0.397498 0.263035
1 0.39588 0.282673
1 0.394263 0.302312
1 0.39263 0.321965
1 0.391012 0.341604
1 0.38938 0.361242
1 0.387762 0.38088
1 0.38613 0.400534
1 0.384512 0.420172
1 0.382895 0.439811
1 0.381262 0.459449
1 0.379644 0.479088
0.41944 0.457008 0
0.447669 0.455375 0
0.475914 0.453758 0
0.504158 0.452125 0
0.532403 0.450507 0
0.560662 0.448875 0
0.588907 0.447257 0
0.617151 0.44564 0
0.645396 0.444007 0
0.67364 0.44239 0.0185397
0.701885 0.440757 0.0381933
0.730129 0.439139 0.0578317
0.758389 0.437507 0.0774701
0.786633 0.435889 0.0971084
0.814878 0.434272 0.116762
0.843122 0.432639 0.1364
0.871366 0.431022 0.156039
0.899611 0.429389 0.175677
0.927855 0.427771 0.195315
0.956115 0.426139 0.214969
0.98436 0.424521 0.234607
1 0.422889 0.254246
1 0.421271 0.273884
1 0.419654 0.293523
1 0.418021 0.313176
1 0.416403 0.332815
1 0.414771 0.352453
1 0.413153 0.372091
1 0.411521 0.39173
1 0.409903 0.411383
1 0.40827 0.431022
1 0.406653 0.45066
1 0.405035 0.470298
0.442741 0.482399 0
0.47097 0.480766 0
0.499214 0.479149 0
0.527459 0.477516 0
0.555718 0.475898 0
0.583963 0.474266 0
0.612207 0.472648 0
0.640452 0.471031 0
0.668696 0.469398 0
0.696941 0.467781 0.00975052
0.725185 0.466148 0.0294041
0.753445 0.46453 0.0490425
0.781689 0.462898 0.0686809
0.809934 0.46128 0.0883192
0.838178 0.459648 0.107958
0.866423 0.45803 0.127611
0.894667 0.456413 0.14725
0.922911 0.45478 0.166888
0.951171 0.453162 0.186526
0.979416 0.45153 0.20618
1 0.449912 0.225818
1 0.44828 0.245457
1 0.446662 0.265095
1 0.445029 0.284733
1 0.443412 0.304387
1 0.441794 0.324025
1 0.440162 0.343664
1 0.438544 0.363302
1 0.436912 0.38294
1 0.435294 0.402594
1 0.433661 0.422232
1 0.432044 0.441871
1 0.430411 0.461509
0.466041 0.507774 0
0.49427 0.506157 0
0.522515 0.50454 0
0.550774 0.502907 0
0.579019 0.501289 0
0.607263 0.499657 0
0.635508 0.498039 0
0.663752 0.496406 0
0.691997 0.494789 0
0.720241 0.493172 0.000961318
0.748501 0.491539 0.0206149
0.776745 0.489921 0.0402533
0.80499 0.488289 0.0598917
0.833234 0.486671 0.07953
0.861479 0.485039 0.0991684
0.889723 0.483421 0.118822
0.917967 0.481788 0.13846
0.946227 0.480171 0.158099
0.974472 0.478553 0.177737
1 0.476921 0.197375
1 0.475303 0.217029
1 0.473671 0.236667
1 0.472053 0.256306
1 0.47042 0.275944
1 0.468803 0.295598
1 0.46717 0.315236
1 0.465553 0.334874
1 0.463935 0.354513
1 0.462303 0.374151
1 0.460685 0.393805
1 0.459052 0.413443
1 0.457435 0.433082
1 0.455802 0.45272
0.489342 0.533165 0
0.517571 0.531548 0
0.54583 0.529931 0
0.574075 0.528298 0
0.602319 0.52668 0
0.630564 0.525048 0
0.658808 0.52343 0
0.687053 0.521798 0
0.715297 0.52018 0
0.743557 0.518547 0
0.771801 0.51693 0.0118105
0.800046 0.515312 0.0314641
0.82829 0.51368 0.0511025
0.856535 0.512062 0.0707408
0.884779 0.51043 0.0903792
0.913024 0.508812 0.110033
0.941283 0.507179 0.129671
0.969528 0.505562 0.14931
0.997772 0.503929 0.168948
1 0.502312 0.188586
1 0.500694 0.20824
1 0.499062 0.227878
1 0.497444 0.247517
1 0.495811 0.267155
1 0.494194 0.286793
1 0.492561 0.306447
1 0.490944 0.326085
1 0.489311 0.345724
1 0.487694 0.365362
1 0.486076 0.385016
1 0.484443 0.404654
1 0.482826 0.424292
1 0.481193 0.443931
0.512642 0.558556 0
0.540887 0.556939 0
0.569131 0.555306 0
0.597375 0.553689 0
0.62562 0.552071 0
0.653864 0.550439 0
0.682109 0.548821 0
0.710353 0.547189 0
0.738613 0.545571 0
0.766857 0.543938 0
0.795102 0.542321 0.00302129
0.823346 0.540688 0.0226749
0.851591 0.539071 0.0423133
0.879835 0.537453 0.0619516
0.90808 0.535821 0.08159
0.936339 0.534203 0.101228
0.964584 0.53257 0.120882
0.992828 0.530953 0.14052
1 0.52932 0.160159
1 0.527703 0.179797
1 0.52607 0.199451
1 0.524453 0.219089
1 0.522835 0.238727
1 0.521202 0.258366
1 0.519585 0.278004
1 0.517952 0.297658
1 0.516335 0.317296
1 0.514702 0.336934
1 0.513085 0.356573
1 0.511467 0.376211
1 0.509834 0.395865
1 0.508217 0.415503
1 0.506584 0.435142
0.535958 0.583947 0
0.564187 0.58233 0
0.592432 0.580697 0
0.620676 0.57908 0
0.64892 0.577462 0
0.677165 0.57583 0
0.705409 0.574212 0
0.733669 0.57258 0
0.761913 0.570962 0
0.790158 0.569329 0
0.818402 0.567712 0
0.846647 0.566079 0.0138857
0.874891 0.564462 0.0335241
0.903136 0.562844 0.0531624
0.931395 0.561212 0.0728008
0.95964 0.559594 0.0924392
0.987884 0.557961 0.112093
1 0.556344 0.131731
1 0.554711 0.151369
1 0.553094 0.171008
1 0.551461 0.190646
1 0.549844 0.2103
1 0.548226 0.229938
1 0.546593 0.249577
1 0.544976 0.269215
1 0.543343 0.288869
1 0.541726 0.308507
1 0.540093 0.328145
1 0.538476 0.347784
1 0.536843 0.367422
1 0.535225 0.387076
1 0.533608 0.406714
1 0.531975 0.426352
0.559258 0.609339 0
0.587488 0.607721 0
0.615732 0.606088 0
0.643977 0.604471 0
0.672221 0.602838 0
0.700465 0.601221 0
0.728725 0.599603 0
0.75697 0.597971 0
0.785214 0.596353 0
0.813458 0.59472 0
0.841703 0.593103 0
0.869947 0.59147 0.00508125
0.898192 0.589853 0.0247349
0.926452 0.58822 0.0443732
0.954696 0.586603 0.0640116
0.98294 0.584985 0.08365
1 0.583352 0.103304
1 0.581735 0.122942
1 0.580102 0.14258
1 0.578485 0.162219
1 0.576852 0.181857
1 0.575235 0.201511
1 0.573602 0.221149
1 0.571984 0.240787
1 0.570367 0.260426
1 0.568734 0.280064
1 0.567117 0.299718
1 0.565484 0.319356
1 0.563867 0.338994
1 0.562234 0.358633
1 0.560616 0.378286
1 0.558984 0.397925
1 0.557366 0.417563
0.582559 0.63473 0
0.610788 0.633112 0
0.639033 0.631479 0
0.667277 0.629862 0
0.695521 0.628229 0
0.723781 0.626612 0
0.752026 0.624979 0
0.78027 0.623362 0
0.808515 0.621744 0
0.836759 0.620111 0
0.865003 0.618494 0
0.893248 0.616861 0
0.921508 0.615244 0.0159457
0.949752 0.613611 0.035584
0.977996 0.611994 0.0552224
1 0.610361 0.0748608
1 0.608743 0.0944991
1 0.607126 0.114153
1 0.605493 0.133791
1 0.603876 0.153429
1 0.602243 0.173068
1 0.600626 0.192721
1 0.598993 0.21236
1 0.597375 0.231998
1 0.595743 0.251637
1 0.594125 0.271275
1 0.592508 0.290929
1 0.590875 0.310567
1 0.589258 0.330205
1 0.587625 0.349844
1 0.586007 0.369482
1 0.584375 0.389136
1 0.582757 0.408774
0.605859 0.660121 0
0.634089 0.658503 0
0.662333 0.65687 0
0.690578 0.655253 0
0.718837 0.65362 0
0.747082 0.652003 0
0.775326 0.65037 0
0.803571 0.648753 0
0.831815 0.64712 0
0.860059 0.645502 0
0.888304 0.643885 0
0.916564 0.642252 0
0.944808 0.640635 0.00715648
0.973053 0.639002 0.0267948
1 0.637385 0.0464332
1 0.635752 0.0660716
1 0.634134 0.0857099
1 0.632502 0.105364
1 0.630884 0.125002
1 0.629267 0.14464
1 0.627634 0.164279
1 0.626017 0.183917
1 0.624384 0.203571
1 0.622766 0.223209
1 0.621134 0.242847
1 0.619516 0.262486
1 0.617899 0.282139
1 0.616266 0.301778
1 0.614649 0.321416
1 0.613016 0.341054
1 0.611399 0.360693
1 0.609766 0.380346
1 0.608148 0.399985
0.62916 0.685512 0
0.657389 0.683879 0
0.685634 0.682261 0
0.713893 0.680644 0
0.742138 0.679011 0
0.770382 0.677394 0
0.798627 0.675761 0
0.826871 0.674144 0
0.855116 0.672511 0
