public/LUTS/Color Shift/ColorShift_38.cube
TITLE "Generated by Resolve"
LUT_3D_SIZE 33
0 0 0
0.00677501 0.00328069 0.0315251
0.01355 0.00657664 0.0630655
0.0203403 0.00985733 0.0946059
0.0271153 0.013138 0.126146
0.0338903 0.016434 0.157687
0.0406806 0.0197147 0.189242
0.0474556 0.0229953 0.220783
0.0542306 0.0262913 0.252323
0.0610056 0.029572 0.283864
0.0677958 0.0328527 0.315404
0.0745708 0.0361486 0.346944
0.0813458 0.0394293 0.378485
0.0881361 0.04271 0.410025
0.0949111 0.0460059 0.441566
0.101686 0.0492866 0.473106
0.108461 0.0525826 0.504662
0.115251 0.0558633 0.536202
0.122026 0.059144 0.567742
0.128801 0.0624399 0.599283
0.135592 0.0657206 0.630823
0.142367 0.0690013 0.662364
0.149142 0.0722972 0.693904
0.155917 0.0755779 0.725444
0.162707 0.0788586 0.756985
0.169482 0.0821546 0.788525
0.176257 0.0854353 0.820081
0.183047 0.088716 0.851621
0.189822 0.0920119 0.883162
0.196597 0.0952926 0.914702
0.203372 0.0985733 0.946242
0.210163 0.101869 0.977783
0.216938 0.10515 1
0.0490883 0.015671 0.00646983
0.0558633 0.018967 0.037995
0.0626383 0.0222477 0.0695354
0.0694133 0.0255283 0.101076
0.0762036 0.0288243 0.132616
0.0829786 0.032105 0.164157
0.0897536 0.0353857 0.195697
0.0965438 0.0386816 0.227237
0.103319 0.0419623 0.258778
0.110094 0.0452583 0.290318
0.116869 0.0485389 0.321874
0.123659 0.0518196 0.353414
0.130434 0.0551156 0.384955
0.137209 0.0583963 0.416495
0.143999 0.061677 0.448035
0.150774 0.0649729 0.479576
0.157549 0.0682536 0.511116
0.164324 0.0715343 0.542657
0.171115 0.0748302 0.574197
0.17789 0.0781109 0.605737
0.184665 0.0813916 0.637293
0.191455 0.0846876 0.668833
0.19823 0.0879683 0.700374
0.205005 0.091249 0.731914
0.21178 0.0945449 0.763455
0.21857 0.0978256 0.794995
0.225345 0.101106 0.826535
0.23212 0.104402 0.858076
0.238911 0.107683 0.889616
0.245686 0.110979 0.921157
0.252461 0.11426 0.952712
0.259236 0.11754 0.984253
0.266026 0.120836 1
0.0981918 0.0313573 0.0129244
0.104967 0.0346532 0.0444648
0.111742 0.0379339 0.0760052
0.118532 0.0412146 0.107546
0.125307 0.0445106 0.139086
0.132082 0.0477913 0.170626
0.138872 0.0510719 0.202167
0.145647 0.0543679 0.233707
0.152422 0.0576486 0.265248
0.159213 0.0609445 0.296788
0.165988 0.0642252 0.328328
0.172763 0.0675059 0.359884
0.179538 0.0708019 0.391424
0.186328 0.0740826 0.422965
0.193103 0.0773632 0.454505
0.199878 0.0806592 0.486046
0.206668 0.0839399 0.517586
0.213443 0.0872206 0.549126
0.220218 0.0905165 0.580667
0.226993 0.0937972 0.612207
0.233783 0.0970779 0.643748
0.240558 0.100374 0.675288
0.247333 0.103655 0.706844
0.254124 0.106935 0.738384
0.260899 0.110231 0.769924
0.267674 0.113512 0.801465
0.274449 0.116793 0.833005
0.281239 0.120089 0.864546
0.288014 0.123369 0.896086
0.294789 0.126665 0.927626
0.301579 0.129946 0.959167
0.308354 0.133227 0.990707
0.315129 0.136522 1
0.147295 0.0470436 0.0193942
0.154086 0.0503395 0.0509194
0.160861 0.0536202 0.0824598
0.167636 0.0569009 0.114015
0.174411 0.0601968 0.145556
0.181201 0.0634775 0.177096
0.187976 0.0667582 0.208637
0.194751 0.0700542 0.240177
0.201541 0.0733349 0.271717
0.208316 0.0766308 0.303258
0.215091 0.0799115 0.334798
0.221866 0.0831922 0.366339
0.228656 0.0864881 0.397879
0.235431 0.0897688 0.429435
0.242206 0.0930495 0.460975
0.248997 0.0963455 0.492515
0.255772 0.0996262 0.524056
0.262547 0.102907 0.555596
0.269322 0.106203 0.587137
0.276112 0.109483 0.618677
0.282887 0.112764 0.650217
0.289662 0.11606 0.681758
0.296452 0.119341 0.713298
0.303227 0.122621 0.744854
0.310002 0.125917 0.776394
0.316777 0.129198 0.807935
0.323568 0.132479 0.839475
0.330343 0.135775 0.871015
0.337118 0.139055 0.902556
0.343908 0.142351 0.934096
0.350683 0.145632 0.965637
0.357458 0.148913 0.997177
0.364233 0.152209 1
0.196414 0.0627298 0.025864
0.203189 0.0660258 0.0573892
0.209964 0.0693065 0.0889296
0.216739 0.0725872 0.12047
0.223529 0.0758831 0.15201
0.230304 0.0791638 0.183566
0.237079 0.0824445 0.215106
0.24387 0.0857404 0.246647
0.250645 0.0890211 0.278187
0.25742 0.0923171 0.309728
0.26421 0.0955978 0.341268
0.270985 0.0988785 0.372808
0.27776 0.102174 0.404349
0.284535 0.105455 0.435889
0.291325 0.108736 0.46743
0.2981 0.112032 0.498985
0.304875 0.115312 0.530526
0.311666 0.118593 0.562066
0.318441 0.121889 0.593606
0.325216 0.12517 0.625147
0.331991 0.12845 0.656687
0.338781 0.131746 0.688228
0.345556 0.135027 0.719768
0.352331 0.138308 0.751308
0.359121 0.141604 0.782849
0.365896 0.144884 0.814404
0.372671 0.148165 0.845945
0.379446 0.151461 0.877485
0.386236 0.154742 0.909026
0.393011 0.158038 0.940566
0.399786 0.161318 0.972107
0.406577 0.164599 1
0.413352 0.167895 1
0.245518 0.0784161 0.0323339
0.252293 0.0817121 0.063859
0.259083 0.0849928 0.0953994
0.265858 0.0882734 0.12694
0.272633 0.0915694 0.15848
0.279408 0.0948501 0.190021
0.286198 0.0981308 0.221576
0.292973 0.101427 0.253117
0.299748 0.104707 0.284657
0.306538 0.107988 0.316197
0.313313 0.111284 0.347738
0.320089 0.114565 0.379278
0.326863 0.117861 0.410819
0.333654 0.121141 0.442359
0.340429 0.124422 0.473899
0.347204 0.127718 0.50544
0.353994 0.130999 0.53698
0.360769 0.134279 0.568536
0.367544 0.137575 0.600076
0.374319 0.140856 0.631617
0.381109 0.144137 0.663157
0.387884 0.147433 0.694697
0.394659 0.150713 0.726238
0.40145 0.153994 0.757778
0.408225 0.15729 0.789319
0.415 0.160571 0.820859
0.421775 0.163851 0.852399
0.428565 0.167147 0.883955
0.43534 0.170428 0.915496
0.442115 0.173724 0.947036
0.448905 0.177005 0.978576
0.45568 0.180285 1
0.462455 0.183581 1
0.294636 0.0941024 0.0388037
0.301411 0.0973983 0.0703288
0.308186 0.100679 0.101869
0.314961 0.10396 0.13341
0.321752 0.107256 0.16495
0.328527 0.110536 0.19649
0.335302 0.113817 0.228031
0.342077 0.117113 0.259571
0.348867 0.120394 0.291127
0.355642 0.123674 0.322667
0.362417 0.12697 0.354208
0.369207 0.130251 0.385748
0.375982 0.133547 0.417288
0.382757 0.136828 0.448829
0.389532 0.140108 0.480369
0.396323 0.143404 0.51191
0.403098 0.146685 0.54345
0.409873 0.149966 0.57499
0.416663 0.153262 0.606531
0.423438 0.156542 0.638086
0.430213 0.159823 0.669627
0.436988 0.163119 0.701167
0.443778 0.1664 0.732708
0.450553 0.16968 0.764248
0.457328 0.172976 0.795789
0.464118 0.176257 0.827329
0.470893 0.179538 0.858869
0.477668 0.182834 0.89041
0.484443 0.186114 0.92195
0.491234 0.189395 0.953506
0.498009 0.192691 0.985046
0.504784 0.195972 1
0.511574 0.199268 1
0.34374 0.109789 0.0452735
0.350515 0.113085 0.0767987
0.35729 0.116365 0.108339
0.36408 0.119646 0.139879
0.370855 0.122942 0.17142
0.37763 0.126223 0.20296
0.384405 0.129503 0.234501
0.391196 0.132799 0.266041
0.397971 0.13608 0.297581
0.404746 0.139361 0.329122
0.411536 0.142657 0.360678
0.418311 0.145937 0.392218
0.425086 0.149233 0.423758
0.431861 0.152514 0.455299
0.438651 0.155795 0.486839
0.445426 0.159091 0.51838
0.452201 0.162371 0.54992
0.458991 0.165652 0.58146
0.465766 0.168948 0.613001
0.472541 0.172229 0.644541
0.479316 0.175509 0.676097
0.486107 0.178805 0.707637
0.492882 0.182086 0.739178
0.499657 0.185367 0.770718
0.506447 0.188663 0.802258
0.513222 0.191943 0.833799
0.519997 0.195224 0.865339
0.526772 0.19852 0.89688
0.533562 0.201801 0.92842
0.540337 0.205081 0.95996
0.547112 0.208377 0.991501
0.553903 0.211658 1
0.560678 0.214954 1
0.392844 0.125475 0.0517281
0.399619 0.128771 0.0832532
0.406409 0.132052 0.114809
0.413184 0.135332 0.146349
0.419959 0.138628 0.17789
0.426749 0.141909 0.20943
0.433524 0.14519 0.24097
0.440299 0.148486 0.272511
0.447074 0.151766 0.304051
0.453864 0.155047 0.335592
0.460639 0.158343 0.367132
0.467414 0.161624 0.398672
0.474205 0.16492 0.430228
0.48098 0.1682 0.461769
0.487755 0.171481 0.493309
0.49453 0.174777 0.524849
0.50132 0.178058 0.55639
0.508095 0.181338 0.58793
0.51487 0.184634 0.619471
0.52166 0.187915 0.651011
0.528435 0.191196 0.682551
0.53521 0.194491 0.714092
0.541985 0.197772 0.745647
0.548775 0.201053 0.777188
0.55555 0.204349 0.808728
0.562325 0.20763 0.840269
0.569116 0.21091 0.871809
0.575891 0.214206 0.903349
0.582666 0.217487 0.93489
0.589441 0.220768 0.96643
0.596231 0.224063 0.997971
0.603006 0.227344 1
0.609781 0.23064 1
0.441962 0.141161 0.0581979
0.448737 0.144457 0.0897231
0.455512 0.147738 0.121263
0.462287 0.151019 0.152819
0.469078 0.154314 0.18436
0.475853 0.157595 0.2159
0.482628 0.160876 0.24744
0.489403 0.164172 0.278981
0.496193 0.167452 0.310521
0.502968 0.170733 0.342061
0.509743 0.174029 0.373602
0.516533 0.17731 0.405142
0.523308 0.180606 0.436683
0.530083 0.183886 0.468223
0.536858 0.187167 0.499779
0.543648 0.190463 0.531319
0.550423 0.193744 0.56286
0.557198 0.197024 0.5944
0.563989 0.20032 0.62594
0.570764 0.203601 0.657481
0.577539 0.206882 0.689021
0.584314 0.210178 0.720562
0.591104 0.213458 0.752102
0.597879 0.216739 0.783642
0.604654 0.220035 0.815198
0.611444 0.223316 0.846738
0.618219 0.226596 0.878279
0.624994 0.229892 0.909819
0.631769 0.233173 0.94136
0.63856 0.236454 0.9729
0.645335 0.23975 1
0.65211 0.24303 1
0.6589 0.246326 1
0.491066 0.156847 0.0646677
0.497841 0.160143 0.0961929
0.504616 0.163424 0.127733
0.511406 0.166705 0.159274
0.518181 0.170001 0.190814
0.524956 0.173281 0.22237
0.531746 0.176562 0.25391
0.538521 0.179858 0.285451
0.545296 0.183139 0.316991
0.552071 0.186419 0.348531
0.558862 0.189715 0.380072
0.565637 0.192996 0.411612
0.572412 0.196277 0.443153
0.579202 0.199573 0.474693
0.585977 0.202853 0.506233
0.592752 0.206149 0.537789
0.599527 0.20943 0.569329
0.606317 0.212711 0.60087
0.613092 0.216007 0.63241
0.619867 0.219287 0.663951
0.626657 0.222568 0.695491
0.633433 0.225864 0.727031
0.640208 0.229145 0.758572
0.646983 0.232425 0.790112
0.653773 0.235721 0.821653
0.660548 0.239002 0.853193
0.667323 0.242283 0.884749
0.674113 0.245579 0.916289
0.680888 0.248859 0.947829
0.687663 0.25214 0.97937
0.694438 0.255436 1
0.701228 0.258717 1
0.708003 0.262013 1
0.540169 0.172534 0.0711376
0.546944 0.17583 0.102663
0.553735 0.17911 0.134203
0.56051 0.182391 0.165743
0.567285 0.185687 0.197284
0.574075 0.188968 0.228824
0.58085 0.192248 0.260365
0.587625 0.195544 0.29192
0.5944 0.198825 0.323461
0.60119 0.202106 0.355001
0.607965 0.205402 0.386542
0.61474 0.208682 0.418082
0.62153 0.211963 0.449622
0.628305 0.215259 0.481163
0.635081 0.21854 0.512703
0.641855 0.221836 0.544244
0.648646 0.225116 0.575784
0.655421 0.228397 0.60734
0.662196 0.231693 0.63888
0.668986 0.234974 0.67042
0.675761 0.238254 0.701961
0.682536 0.24155 0.733501
0.689311 0.244831 0.765042
0.696101 0.248112 0.796582
0.702876 0.251408 0.828122
0.709651 0.254688 0.859663
0.716442 0.257969 0.891203
0.723217 0.261265 0.922759
0.729992 0.264546 0.954299
0.736767 0.267826 0.98584
0.743557 0.271122 1
0.750332 0.274403 1
0.757107 0.277684 1
0.589288 0.18822 0.0776074
0.596063 0.191516 0.109133
0.602838 0.194797 0.140673
0.609613 0.198077 0.172213
0.616403 0.201373 0.203754
0.623178 0.204654 0.235294
0.629953 0.207935 0.266835
0.636744 0.211231 0.298375
0.643519 0.214511 0.329915
0.650294 0.217792 0.361471
0.657069 0.221088 0.393011
0.663859 0.224369 0.424552
0.670634 0.227649 0.456092
0.677409 0.230945 0.487633
0.684199 0.234226 0.519173
0.690974 0.237522 0.550713
0.697749 0.240803 0.582254
0.704524 0.244083 0.613794
0.711315 0.247379 0.645335
0.71809 0.25066 0.67689
0.724865 0.253941 0.708431
0.731655 0.257237 0.739971
0.73843 0.260517 0.771511
0.745205 0.263798 0.803052
0.75198 0.267094 0.834592
0.75877 0.270375 0.866133
0.765545 0.273655 0.897673
0.77232 0.276951 0.929213
0.77911 0.280232 0.960754
0.785885 0.283513 0.992309
0.79266 0.286809 1
0.799435 0.290089 1
0.806226 0.29337 1
0.638392 0.203906 0.0840772
0.645167 0.207202 0.115602
0.651942 0.210483 0.147143
0.658732 0.213764 0.178683
0.665507 0.21706 0.210224
0.672282 0.22034 0.241764
0.679072 0.223621 0.273304
0.685847 0.226917 0.304845
0.692622 0.230198 0.336385
0.699397 0.233478 0.367926
0.706188 0.236774 0.399481
0.712963 0.240055 0.431022
0.719738 0.243336 0.462562
0.726528 0.246632 0.494102
0.733303 0.249912 0.525643
0.740078 0.253208 0.557183
0.746853 0.256489 0.588724
0.753643 0.25977 0.620264
0.760418 0.263066 0.651804
0.767193 0.266346 0.683345
0.773983 0.269627 0.714885
0.780758 0.272923 0.746441
0.787533 0.276204 0.777981
0.794308 0.279484 0.809522
0.801099 0.28278 0.841062
0.807874 0.286061 0.872602
0.814649 0.289342 0.904143
0.821439 0.292638 0.935683
0.828214 0.295918 0.967224
0.834989 0.299199 0.998764
0.841764 0.302495 1
0.848554 0.305776 1
0.855329 0.309056 1
0.687495 0.219593 0.0905318
0.69427 0.222889 0.122057
0.70106 0.226169 0.153613
0.707835 0.22945 0.185153
0.714611 0.232746 0.216693
0.721401 0.236027 0.248234
0.728176 0.239307 0.279774
0.734951 0.242603 0.311315
0.741726 0.245884 0.342855
0.748516 0.249165 0.374395
0.755291 0.252461 0.405936
0.762066 0.255741 0.437476
0.768856 0.259022 0.469032
0.775631 0.262318 0.500572
0.782406 0.265599 0.532113
0.789197 0.268894 0.563653
0.795972 0.272175 0.595193
0.802747 0.275456 0.626734
0.809522 0.278752 0.658274
0.816312 0.282032 0.689815
0.823087 0.285313 0.721355
0.829862 0.288609 0.752895
0.836652 0.29189 0.784451
0.843427 0.295171 0.815991
0.850202 0.298466 0.847532
0.856977 0.301747 0.879072
0.863767 0.305028 0.910613
0.870542 0.308324 0.942153
0.877317 0.311604 0.973693
0.884108 0.314885 1
0.890883 0.318181 1
0.897658 0.321462 1
0.904433 0.324742 1
0.736614 0.235279 0.0970016
0.743389 0.238575 0.128527
0.750164 0.241856 0.160067
0.756939 0.245136 0.191608
0.763729 0.248432 0.223163
0.770504 0.251713 0.254704
0.777279 0.254994 0.286244
0.78407 0.258289 0.317784
0.790845 0.26157 0.349325
0.79762 0.264851 0.380865
0.804395 0.268147 0.412406
0.811185 0.271427 0.443946
0.81796 0.274708 0.475486
0.824735 0.278004 0.507027
0.831525 0.281285 0.538582
0.8383 0.284566 0.570123
0.845075 0.287861 0.601663
0.85185 0.291142 0.633204
0.85864 0.294438 0.664744
0.865415 0.297719 0.696284
0.87219 0.300999 0.727825
0.878981 0.304295 0.759365
0.885756 0.307576 0.790906
0.892531 0.310857 0.822446
0.899306 0.314153 0.854002
0.906096 0.317433 0.885542
0.912871 0.320714 0.917082
0.919646 0.32401 0.948623
0.926436 0.327291 0.980163
0.933211 0.330571 1
0.939986 0.333867 1
0.946761 0.337148 1
0.953552 0.340429 1
0.785718 0.250965 0.103471
0.792493 0.254261 0.134997
0.799268 0.257542 0.166537
0.806058 0.260822 0.198077
0.812833 0.264118 0.229618
0.819608 0.267399 0.261173
0.826398 0.27068 0.292714
0.833173 0.273976 0.324254
0.839948 0.277256 0.355795
0.846723 0.280537 0.387335
0.853513 0.283833 0.418875
0.860288 0.287114 0.450416
0.867063 0.290394 0.481956
0.873854 0.29369 0.513497
0.880629 0.296971 0.545037
0.887404 0.300252 0.576577
0.894194 0.303548 0.608133
0.900969 0.306828 0.639673
0.907744 0.310124 0.671214
0.914519 0.313405 0.702754
0.921309 0.316686 0.734295
0.928084 0.319982 0.765835
0.934859 0.323262 0.797375
0.941649 0.326543 0.828916
0.948425 0.329839 0.860456
0.9552 0.33312 0.891997
0.961975 0.3364 0.923552
0.968765 0.339696 0.955093
0.97554 0.342977 0.986633
0.982315 0.346258 1
0.989105 0.349554 1
0.99588 0.352834 1
1 0.356115 1
0.834821 0.266651 0.109941
0.841611 0.269947 0.141466
0.848386 0.273228 0.173007
0.855161 0.276509 0.204547
0.861936 0.279805 0.236088
0.868727 0.283085 0.267628
0.875502 0.286366 0.299168
0.882277 0.289662 0.330724
0.889067 0.292943 0.362264
0.895842 0.296223 0.393805
0.902617 0.299519 0.425345
0.909392 0.3028 0.456886
0.916182 0.306081 0.488426
0.922957 0.309377 0.519966
0.929732 0.312657 0.551507
0.936522 0.315938 0.583047
0.943297 0.319234 0.614588
0.950072 0.322515 0.646143
0.956847 0.325811 0.677684
0.963638 0.329091 0.709224
0.970413 0.332372 0.740764
0.977188 0.335668 0.772305
0.983978 0.338949 0.803845
0.990753 0.342229 0.835386
0.997528 0.345525 0.866926
1 0.348806 0.898466
1 0.352087 0.930007
1 0.355383 0.961547
1 0.358663 0.993103
1 0.361944 1
1 0.36524 1
1 0.368521 1
1 0.371801 1
0.88394 0.282338 0.116411
0.890715 0.285634 0.147936
0.89749 0.288914 0.179477
0.904265 0.292195 0.211017
0.911055 0.295491 0.242557
0.91783 0.298772 0.274098
0.924605 0.302052 0.305638
0.931395 0.305348 0.337179
0.93817 0.308629 0.368719
0.944945 0.31191 0.400275
0.95172 0.315206 0.431815
0.958511 0.318486 0.463355
0.965286 0.321767 0.494896
0.972061 0.325063 0.526436
0.978851 0.328344 0.557977
0.985626 0.331624 0.589517
0.992401 0.33492 0.621057
0.999191 0.338201 0.652598
1 0.341497 0.684138
1 0.344778 0.715694
1 0.348058 0.747234
1 0.351354 0.778775
1 0.354635 0.810315
1 0.357916 0.841856
1 0.361212 0.873396
1 0.364492 0.904936
1 0.367773 0.936477
1 0.371069 0.968017
1 0.37435 0.999557
1 0.37763 1
1 0.380926 1
1 0.384207 1
1 0.387488 1
0.933043 0.298024 0.122881
0.939818 0.30132 0.154406
0.946609 0.304601 0.185946
0.953384 0.307881 0.217487
0.960159 0.311177 0.249027
0.966934 0.314458 0.280568
0.973724 0.317739 0.312108
0.980499 0.321035 0.343648
0.987274 0.324315 0.375189
0.994064 0.327596 0.406729
1 0.330892 0.43827
1 0.334173 0.469825
1 0.337453 0.501366
1 0.340749 0.532906
1 0.34403 0.564446
1 0.347311 0.595987
1 0.350607 0.627527
1 0.353887 0.659068
1 0.357183 0.690608
1 0.360464 0.722148
1 0.363745 0.753689
1 0.367041 0.785245
1 0.370321 0.816785
1 0.373602 0.848325
1 0.376898 0.879866
1 0.380179 0.911406
1 0.383459 0.942946
1 0.386755 0.974487
1 0.390036 1
1 0.393317 1
1 0.396612 1
1 0.399893 1
1 0.403174 1
0.982162 0.31371 0.129335
0.988937 0.317006 0.160861
0.995712 0.320287 0.192416
1 0.323568 0.223957
1 0.326863 0.255497
1 0.330144 0.287037
1 0.333425 0.318578
1 0.336721 0.350118
1 0.340002 0.381659
1 0.343282 0.413199
1 0.346578 0.444739
1 0.349859 0.47628
1 0.35314 0.50782
1 0.356435 0.539376
1 0.359716 0.570916
1 0.362997 0.602457
1 0.366293 0.633997
1 0.369574 0.665537
1 0.372854 0.697078
1 0.37615 0.728618
1 0.379431 0.760159
1 0.382727 0.791699
1 0.386007 0.82324
1 0.389288 0.854795
1 0.392584 0.886336
1 0.395865 0.917876
1 0.399145 0.949416
1 0.402441 0.980957
1 0.405722 1
1 0.409003 1
1 0.412299 1
1 0.415579 1
1 0.41886 1
1 0.329397 0.135805
1 0.332692 0.16733
1 0.335973 0.198871
1 0.339254 0.230411
1 0.34255 0.261967
1 0.34583 0.293507
1 0.349111 0.325048
1 0.352407 0.356588
1 0.355688 0.388128
1 0.358968 0.419669
1 0.362264 0.451209
1 0.365545 0.48275
1 0.368826 0.51429
1 0.372122 0.54583
1 0.375402 0.577386
1 0.378683 0.608927
1 0.381979 0.640467
1 0.38526 0.672007
1 0.38854 0.703548
1 0.391836 0.735088
1 0.395117 0.766629
1 0.398413 0.798169
1 0.401694 0.829709
1 0.404974 0.86125
1 0.40827 0.89279
1 0.411551 0.924346
1 0.414832 0.955886
1 0.418128 0.987427
1 0.421408 1
1 0.424689 1
1 0.427985 1
1 0.431266 1
1 0.434546 1
1 0.345083 0.142275
1 0.348379 0.1738
1 0.351659 0.205341
1 0.35494 0.236881
1 0.358236 0.268421
1 0.361517 0.299962
1 0.364797 0.331518
1 0.368093 0.363058
1 0.371374 0.394598
1 0.374655 0.426139
1 0.377951 0.457679
1 0.381231 0.489219
1 0.384512 0.52076
1 0.387808 0.5523
1 0.391089 0.583841
1 0.394369 0.615381
1 0.397665 0.646937
1 0.400946 0.678477
1 0.404227 0.710018
1 0.407523 0.741558
1 0.410803 0.773098
1 0.414099 0.804639
1 0.41738 0.836179
1 0.420661 0.86772
1 0.423957 0.89926
1 0.427237 0.9308
1 0.430518 0.962356
1 0.433814 0.993896
1 0.437095 1
1 0.440375 1
1 0.443671 1
1 0.446952 1
1 0.450233 1
1 0.360769 0.148745
1 0.364065 0.18027
1 0.367346 0.21181
1 0.370626 0.243351
1 0.373922 0.274891
1 0.377203 0.306432
1 0.380484 0.337972
1 0.38378 0.369512
1 0.38706 0.401068
1 0.390341 0.432609
1 0.393637 0.464149
1 0.396918 0.495689
1 0.400198 0.52723
1 0.403494 0.55877
1 0.406775 0.590311
1 0.410056 0.621851
1 0.413352 0.653391
1 0.416632 0.684932
1 0.419913 0.716487
1 0.423209 0.748028
1 0.42649 0.779568
1 0.429786 0.811109
1 0.433066 0.842649
1 0.436347 0.874189
1 0.439643 0.90573
1 0.442924 0.93727
1 0.446204 0.968811
1 0.4495 1
1 0.452781 1
1 0.456062 1
1 0.459358 1
1 0.462638 1
1 0.465919 1
1 0.376455 0.155215
1 0.379736 0.18674
1 0.383032 0.21828
1 0.386313 0.249821
1 0.389609 0.281361
1 0.392889 0.312901
1 0.39617 0.344442
1 0.399466 0.375982
1 0.402747 0.407523
1 0.406027 0.439078
1 0.409323 0.470619
1 0.412604 0.502159
1 0.415885 0.5337
1 0.419181 0.56524
1 0.422461 0.59678
1 0.425742 0.628321
1 0.429038 0.659861
1 0.432319 0.691402
1 0.435599 0.722942
1 0.438895 0.754482
1 0.442176 0.786038
1 0.445457 0.817578
1 0.448753 0.849119
1 0.452033 0.880659
1 0.455329 0.9122
1 0.45861 0.94374
1 0.461891 0.97528
1 0.465187 1
1 0.468467 1
1 0.471748 1
1 0.475044 1
1 0.478325 1
1 0.481605 1
1 0.392142 0.161669
1 0.395422 0.19321
1 0.398718 0.22475
1 0.401999 0.256291
1 0.405295 0.287831
1 0.408576 0.319371
1 0.411856 0.350912
1 0.415152 0.382452
1 0.418433 0.413993
1 0.421714 0.445533
1 0.42501 0.477073
1 0.42829 0.508629
1 0.431571 0.540169
1 0.434867 0.57171
1 0.438148 0.60325
1 0.441428 0.634791
1 0.444724 0.666331
1 0.448005 0.697871
1 0.451286 0.729412
1 0.454582 0.760952
1 0.457862 0.792493
1 0.461143 0.824048
1 0.464439 0.855589
1 0.46772 0.887129
1 0.471015 0.918669
1 0.474296 0.95021
1 0.477577 0.98175
1 0.480873 1
1 0.484154 1
1 0.487434 1
1 0.49073 1
1 0.494011 1
1 0.497292 1
1 0.407828 0.168139
1 0.411109 0.199664
1 0.414405 0.231205
1 0.417685 0.26276
1 0.420981 0.294301
1 0.424262 0.325841
1 0.427543 0.357382
1 0.430838 0.388922
1 0.434119 0.420462
1 0.4374 0.452003
1 0.440696 0.483543
1 0.443976 0.515084
1 0.447257 0.546624
1 0.450553 0.57818
1 0.453834 0.60972
1 0.457115 0.64126
1 0.46041 0.672801
1 0.463691 0.704341
1 0.466972 0.735882
1 0.470268 0.767422
1 0.473548 0.798962
1 0.476829 0.830503
1 0.480125 0.862043
1 0.483406 0.893599
1 0.486702 0.925139
1 0.489982 0.95668
1 0.493263 0.98822
1 0.496559 1
1 0.49984 1
1 0.50312 1
1 0.506416 1
1 0.509697 1
1 0.512978 1
1 0.423514 0.174609
1 0.426795 0.206134
1 0.430091 0.237675
1 0.433371 0.269215
1 0.436667 0.300771
1 0.439948 0.332311
1 0.443229 0.363851
1 0.446525 0.395392
1 0.449805 0.426932
