public/LUTS/Color Shift/ColorShift_60.cube
TITLE "Generated by Resolve"
LUT_3D_SIZE 9
0 0 0
0 0.0660258 0
0 0.132052 0
0 0.198093 0
0 0.264118 0
0 0.330159 0
0 0.396185 0
0 0.462226 0
0 0.528252 0
0 0.106371 0.251331
0 0.172396 0.120562
0 0.238422 0
0 0.304463 0
0 0.370489 0
0 0.43653 0
0 0.502556 0
0 0.568597 0
0 0.634623 0
0 0.212757 0.502678
0 0.278767 0.371923
0 0.344808 0.241154
0 0.410834 0.110384
0 0.476875 0
0 0.542901 0
0 0.608942 0
0 0.674968 0
0 0.741009 0
0 0.319127 0.75404
0 0.385153 0.623285
0 0.451194 0.492515
0 0.51722 0.36173
0 0.583261 0.230961
0 0.649287 0.100191
0 0.715328 0
0 0.781353 0
0 0.847395 0
0 0.425513 1
0 0.491539 0.874647
0 0.557565 0.743862
0 0.623606 0.613092
0 0.689632 0.482322
0 0.755673 0.351537
0 0.821698 0.220768
0 0.887739 0.0899977
0 0.953765 0
0 0.531899 1
0 0.59791 1
0 0.663951 0.995224
0 0.729976 0.864454
0 0.796017 0.733669
0 0.862043 0.602899
0 0.928084 0.472129
0 0.99411 0.34136
0 1 0.210575
0 0.63827 1
0 0.704295 1
0 0.770336 1
0 0.836362 1
0 0.902403 0.985031
0 0.968429 0.854261
0 1 0.723491
0 1 0.592706
0 1 0.461936
0 0.744656 1
0 0.810681 1
0 0.876707 1
0 0.942748 1
0 1 1
0 1 1
0 1 0.974838
0 1 0.844068
0 1 0.713298
0 0.851041 1
0 0.917067 1
0 0.983093 1
0 1 1
0 1 1
0 1 1
0 1 1
0 1 1
0 1 0.964645
0.209689 0 0.00442512
0.170626 0.018616 0
0.131563 0.0846571 0
0.0925002 0.150683 0
0.0534371 0.216724 0
0.014374 0.28275 0
0 0.348791 0
0 0.414816 0
0 0.480858 0
0.16405 0.0589609 0.255741
0.124987 0.124987 0.124987
0.0859236 0.191012 0
0.0468605 0.257053 0
0.00779736 0.323079 0
0 0.38912 0
0 0.455146 0
0 0.521187 0
0 0.587213 0
0.118395 0.165347 0.507103
0.0793317 0.231373 0.376349
0.0402686 0.297398 0.245563
0.00120546 0.363439 0.114794
0 0.429465 0
0 0.495506 0
0 0.561532 0
0 0.627573 0
0 0.693599 0
0.0727398 0.271717 0.758465
0.0336919 0.337743 0.627695
0 0.403784 0.496925
0 0.46981 0.366155
0 0.535851 0.235386
0 0.601877 0.104601
0 0.667918 0
0 0.733944 0
0 0.799985 0
0.0271 0.378103 1
0 0.444129 0.879057
0 0.51017 0.748287
0 0.576196 0.617517
0 0.642237 0.486732
0 0.708263 0.355962
0 0.774304 0.225193
0 0.84033 0.0944076
0 0.906355 0
0 0.484489 1
0 0.550515 1
0 0.616541 0.999649
0 0.682582 0.868864
0 0.748608 0.738094
0 0.814649 0.607324
0 0.880674 0.476539
0 0.946715 0.345769
0 1 0.215
0 0.59086 1
0 0.656886 1
0 0.722927 1
0 0.788952 1
0 0.854994 0.989456
0 0.921019 0.858671
0 0.98706 0.727901
0 1 0.597131
0 1 0.466346
0 0.697246 1
0 0.763272 1
0 0.829313 1
0 0.895338 1
0 0.961379 1
0 1 1
0 1 0.979263
0 1 0.848493
0 1 0.717708
0 0.803632 1
0 0.869657 1
0 0.935683 1
0 1 1
0 1 1
0 1 1
0 1 1
0 1 1
0 1 0.96907
0.419409 0 0.00883497
0.380346 0 0
0.341283 0.037232 0
0.30222 0.103273 0
0.263157 0.169299 0
0.224094 0.23534 0
0.185031 0.301366 0
0.145968 0.367407 0
0.106905 0.433433 0
0.37377 0.0115511 0.260166
0.334707 0.0775769 0.129412
0.295644 0.143603 0
0.25658 0.209644 0
0.217517 0.275669 0
0.178454 0.341711 0
0.139376 0.407736 0
0.100313 0.473777 0
0.0612497 0.539803 0
0.328115 0.117937 0.511528
0.289052 0.183963 0.380758
0.249989 0.249989 0.249989
0.210925 0.316014 0.119219
0.171862 0.382055 0
0.132799 0.448081 0
0.0937362 0.514122 0
0.0546731 0.580148 0
0.01561 0.646189 0
0.28246 0.224308 0.762875
0.243397 0.290333 0.63212
0.204334 0.356374 0.50135
0.16527 0.4224 0.370565
0.126207 0.488441 0.239796
0.0871443 0.554467 0.109026
0.0480812 0.620508 0
0.00901808 0.686534 0
0 0.752575 0
0.236805 0.330694 1
0.197757 0.396719 0.883482
0.158694 0.462745 0.752697
0.119615 0.528786 0.621927
0.0805524 0.594812 0.491157
0.0414893 0.660853 0.360388
0.00242618 0.726879 0.229603
0 0.79292 0.0988327
0 0.858946 0
0.191165 0.437079 1
0.152102 0.503105 1
0.113039 0.569131 1
0.0739757 0.635172 0.873289
0.0349126 0.701198 0.742519
0 0.767239 0.611734
0 0.833265 0.480964
0 0.899306 0.350195
0 0.965331 0.219409
0.14551 0.54345 1
0.106447 0.609476 1
0.0673838 0.675517 1
0.0283207 0.741543 1
0 0.807584 0.993866
0 0.87361 0.863096
0 0.939651 0.732326
0 1 0.601541
0 1 0.470771
0.099855 0.649836 1
0.0607919 0.715862 1
0.0217288 0.781888 1
0 0.847929 1
0 0.913954 1
0 0.979995 1
0 1 0.983673
0 1 0.852903
0 1 0.722133
0.0542 0.756222 1
0.0151522 0.822248 1
0 0.888273 1
0 0.954314 1
0 1 1
0 1 1
0 1 1
0 1 1
0 1 0.973495
0.629129 0 0.0132601
0.590066 0 0
0.551003 0 0
0.51194 0.0558633 0
0.472877 0.121889 0
0.433814 0.18793 0
0.394751 0.253956 0
0.355688 0.319997 0
0.316625 0.386023 0
0.583474 0 0.264576
0.544427 0.0301671 0.133822
0.505364 0.0961929 0.0030518
0.466285 0.162234 0
0.427222 0.22826 0
0.388159 0.294301 0
0.349096 0.360327 0
0.310033 0.426368 0
0.27097 0.492393 0
0.537835 0.0705119 0.515938
0.498772 0.136538 0.385183
0.459709 0.202579 0.254414
0.420645 0.268605 0.123629
0.381582 0.334646 0
0.342519 0.400671 0
0.303456 0.466712 0
0.264378 0.532738 0
0.225315 0.598779 0
0.49218 0.176898 0.7673
0.453117 0.242924 0.636545
0.414054 0.308965 0.50576
0.37499 0.37499 0.37499
0.335927 0.441016 0.244221
0.296864 0.507057 0.113436
0.257801 0.573083 0
0.218738 0.639124 0
0.179675 0.70515 0
0.446525 0.283284 1
0.407462 0.34931 0.887892
0.368399 0.415335 0.757122
0.329335 0.481376 0.626352
0.290272 0.547402 0.495567
0.251209 0.613443 0.364797
0.212146 0.679469 0.234028
0.173083 0.74551 0.103243
0.13402 0.811536 0
0.40087 0.389654 1
0.361822 0.45568 1
0.322759 0.521721 1
0.283696 0.587747 0.877699
0.244617 0.653788 0.746929
0.205554 0.719814 0.616159
0.166491 0.785855 0.48539
0.127428 0.851881 0.354604
0.088365 0.917922 0.223835
0.35523 0.49604 1
0.316167 0.562066 1
0.277104 0.628107 1
0.238041 0.694133 1
0.198978 0.760174 0.998291
0.159915 0.8262 0.867521
0.120851 0.892241 0.736736
0.0817884 0.958267 0.605966
0.04271 1 0.475196
0.309575 0.602426 1
0.270512 0.668452 1
0.231449 0.734478 1
0.192386 0.800519 1
0.153323 0.866545 1
0.11426 0.932586 1
0.0751965 0.998611 0.988098
0.0361334 1 0.857328
0 1 0.726543
0.26392 0.708797 1
0.224857 0.774823 1
0.185794 0.840864 1
0.146731 0.906889 1
0.107668 0.97293 1
0.0686046 1 1
0.0295415 1 1
0 1 1
0 1 0.977905
0.838849 0 0.0176699
0.799786 0 0
0.760723 0 0
0.72166 0.0084535 0
0.682597 0.0744793 0
0.643534 0.14052 0
0.604456 0.206546 0
0.565393 0.272587 0
0.526329 0.338613 0
0.793194 0 0.269001
0.754131 0 0.138247
0.715068 0.0487831 0.00746166
0.676005 0.114809 0
0.636942 0.18085 0
0.597879 0.246876 0
0.558816 0.312917 0
0.519753 0.378943 0
0.48069 0.444984 0
0.747539 0.0231022 0.520363
0.708492 0.089128 0.389593
0.669429 0.155169 0.258824
0.630365 0.221195 0.128054
0.591287 0.287236 0
0.552224 0.353262 0
0.513161 0.419303 0
0.474098 0.485328 0
0.435035 0.551369 0
0.7019 0.129488 0.77171
0.662837 0.195514 0.640955
0.623774 0.26154 0.510185
0.58471 0.327581 0.379416
0.545647 0.393606 0.248631
0.506584 0.459648 0.117861
0.467521 0.525673 0
0.428458 0.591714 0
0.38938 0.65774 0
0.656245 0.235874 1
0.617182 0.3019 0.892317
0.578119 0.367926 0.761547
0.539055 0.433967 0.630762
0.499992 0.499992 0.499992
0.460929 0.566018 0.369223
0.421866 0.632059 0.238437
0.382803 0.698085 0.107668
0.34374 0.764126 0
0.61059 0.342245 1
0.571527 0.40827 1
0.532464 0.474311 1
0.4934 0.540337 0.882124
0.454337 0.606378 0.751354
0.415274 0.672404 0.620569
0.376211 0.738445 0.489799
0.337148 0.804471 0.35903
0.298085 0.870512 0.228244
0.564935 0.448631 1
0.525887 0.514656 1
0.486824 0.580682 1
0.447761 0.646723 1
0.408698 0.712749 1
0.369619 0.77879 0.871931
0.330556 0.844816 0.741161
0.291493 0.910857 0.610391
0.25243 0.976883 0.479606
0.519295 0.555016 1
0.480232 0.621042 1
0.441169 0.687068 1
0.402106 0.753109 1
0.363043 0.819135 1
0.32398 0.885176 1
0.284916 0.951202 0.992523
0.245853 1 0.861738
0.20679 1 0.730968
0.47364 0.661387 1
0.434577 0.727413 1
0.395514 0.793454 1
0.356451 0.85948 1
0.317388 0.925521 1
0.278325 0.991547 1
0.239261 1 1
0.200198 1 1
0.161135 1 0.98233
1 0 0.0220951
1 0 0
0.970428 0 0
0.931365 0 0
0.892302 0.0270695 0
0.853239 0.0930953 0
0.814176 0.159136 0
0.775113 0.225162 0
0.736049 0.291203 0
1 0 0.273426
0.963851 0 0.142657
0.924788 0.00137331 0.0118868
0.885725 0.0673991 0
0.846662 0.13344 0
0.807599 0.199466 0
0.768536 0.265507 0
0.729473 0.331533 0
0.69041 0.397574 0
0.957259 0 0.524773
0.918196 0.0417182 0.394018
0.879133 0.107744 0.263249
0.84007 0.173785 0.132464
0.801007 0.239811 0.00169375
0.761944 0.305852 0
0.722881 0.371878 0
0.683818 0.437919 0
0.644755 0.503944 0
0.911604 0.0820783 0.776135
0.872557 0.148104 0.64538
0.833494 0.21413 0.514595
0.79443 0.280171 0.383825
0.755367 0.346197 0.253056
0.716289 0.412238 0.122286
0.677226 0.478264 0
0.638163 0.544305 0
0.5991 0.61033 0
0.865965 0.188449 1
0.826902 0.254475 0.896742
0.787839 0.320516 0.765957
0.748775 0.386542 0.635187
0.709712 0.452583 0.504417
0.670649 0.518608 0.373632
0.631586 0.584649 0.242863
0.592523 0.650675 0.112093
0.55346 0.716716 0
0.82031 0.294835 1
0.781247 0.360861 1
0.742184 0.426902 1
0.70312 0.492927 0.886549
0.664057 0.558968 0.755764
0.624994 0.624994 0.624994
0.585931 0.69102 0.494224
0.546868 0.757061 0.363439
0.507805 0.823087 0.23267
0.774655 0.401221 1
0.735607 0.467247 1
0.696529 0.533272 1
0.657465 0.599313 1
0.618402 0.665339 1
0.579339 0.73138 0.876356
0.540276 0.797406 0.745571
0.501213 0.863447 0.614801
0.46215 0.929473 0.484031
0.729015 0.507591 1
0.689952 0.573617 1
0.650889 0.639658 1
0.611826 0.705684 1
0.572763 0.771725 1
0.5337 0.837751 1
0.494621 0.903792 0.996933
0.455558 0.969818 0.866163
0.416495 1 0.735393
0.68336 0.613977 1
0.644297 0.680003 1
0.605234 0.746044 1
0.566171 0.81207 1
0.527108 0.878111 1
0.488045 0.944137 1
0.448981 1 1
0.409918 1 1
0.370855 1 0.98674
1 0 0.0265049
1 0 0
1 0 0
1 0 0
1 0 0
1 0.0456855 0
1 0.111727 0
0.984833 0.177752 0
0.945769 0.243793 0
1 0 0.277836
1 0 0.147082
1 0 0.0163119
1 0.0199893 0
1 0.0860304 0
1 0.152056 0
0.978256 0.218097 0
0.939193 0.284123 0
0.90013 0.350164 0
1 0 0.529198
1 0 0.398444
1 0.0603342 0.267659
1 0.126375 0.136889
1 0.192401 0.00611887
0.971664 0.258442 0
0.932601 0.324468 0
0.893538 0.390509 0
0.854475 0.456535 0
1 0.0346685 0.78056
1 0.100679 0.64979
1 0.16672 0.51902
1 0.232746 0.388251
0.965072 0.298787 0.257465
0.926009 0.364813 0.126696
0.886946 0.430854 0
0.847883 0.49688 0
0.80882 0.562921 0
1 0.141039 1
1 0.207065 0.901152
0.997559 0.273106 0.770382
0.958495 0.339132 0.639597
0.919432 0.405173 0.508827
0.880369 0.471199 0.378058
0.841291 0.53724 0.247288
0.802228 0.603265 0.116503
0.763165 0.669306 0
1 0.247425 1
0.990967 0.313451 1
0.951904 0.379477 1
0.91284 0.445518 0.890959
0.873777 0.511543 0.760189
0.834714 0.577585 0.629419
0.795651 0.64361 0.498634
0.756588 0.709651 0.367864
0.717525 0.775677 0.237095
0.984375 0.353811 1
0.945312 0.419837 1
0.906249 0.485863 1
0.867185 0.551904 1
0.828122 0.617929 1
0.789059 0.68397 0.880766
0.749996 0.749996 0.749996
0.710933 0.816037 0.619226
0.67187 0.882063 0.488441
0.93872 0.460182 1
0.899672 0.526207 1
0.860609 0.592248 1
0.82153 0.658274 1
0.782467 0.724315 1
0.743404 0.790341 1
0.704341 0.856382 1
0.665278 0.922408 0.870573
0.626215 0.988449 0.739803
0.89308 0.566567 1
0.854017 0.632593 1
0.814954 0.698619 1
0.775891 0.76466 1
0.736828 0.830686 1
0.697765 0.896727 1
0.658701 0.962753 1
0.619623 1 1
0.58056 1 0.991165
1 0 0.03093
1 0 0
1 0 0
1 0 0
1 0 0
1 0 0
1 0.0643168 0
1 0.130343 0
1 0.196384 0
1 0 0.282261
1 0 0.151492
1 0 0.0207218
1 0 0
1 0.0386053 0
1 0.104646 0
1 0.170672 0
1 0.236713 0
1 0.302739 0
1 0 0.533608
1 0 0.402853
1 0.0129244 0.272084
1 0.0789654 0.141314
1 0.144991 0.0105287
1 0.211032 0
1 0.277058 0
1 0.343099 0
1 0.409125 0
1 0 0.78497
1 0.0532692 0.654215
1 0.11931 0.523445
1 0.185336 0.39266
1 0.251377 0.261891
1 0.317403 0.131121
1 0.383444 0.000335698
1 0.44947 0
1 0.515511 0
1 0.0936294 1
1 0.159655 0.905577
1 0.225681 0.774792
1 0.291722 0.644022
1 0.357748 0.513252
1 0.423789 0.382467
1 0.489815 0.251698
1 0.555856 0.120928
0.972885 0.621881 0
1 0.200015 1
1 0.266041 1
1 0.332067 1
1 0.398108 0.895384
1 0.464134 0.764599
1 0.530175 0.633829
1 0.596201 0.503059
0.966293 0.662242 0.37229
0.92723 0.728267 0.241505
1 0.306386 1
1 0.372412 1
1 0.438453 1
1 0.504479 1
1 0.57052 1
0.998779 0.636545 0.885191
0.959716 0.702586 0.754421
0.920653 0.768612 0.623636
0.88159 0.834653 0.492866
1 0.412772 1
1 0.478798 1
1 0.544839 1
1 0.610864 1
0.992187 0.676905 1
0.953124 0.742931 1
0.914061 0.808972 1
0.874998 0.874998 0.874998
0.835935 0.941039 0.744228
1 0.519158 1
1 0.585184 1
1 0.651209 1
0.985611 0.71725 1
0.946532 0.783276 1
0.907469 0.849317 1
0.868406 0.915343 1
0.829343 0.981384 1
0.79028 1 0.995575
1 0 0.0353552
1 0 0
1 0 0
1 0 0
1 0 0
1 0 0
1 0.0168917 0
1 0.0829328 0
1 0.148959 0
1 0 0.286671
1 0 0.155917
1 0 0.0251469
1 0 0
1 0 0
1 0.0572366 0
1 0.123262 0
1 0.189303 0
1 0.255329 0
1 0 0.538033
1 0 0.407279
1 0 0.276493
1 0.0315404 0.145724
1 0.0975814 0.0149538
1 0.163607 0
1 0.229648 0
1 0.295674 0
1 0.361715 0
1 0 0.789395
1 0.00585946 0.65864
1 0.0719005 0.527855
1 0.137926 0.397086
1 0.203967 0.266316
1 0.269993 0.135531
1 0.336034 0.00476081
1 0.40206 0
1 0.468101 0
1 0.0462196 1
1 0.112245 0.909987
1 0.178271 0.779217
1 0.244312 0.648447
1 0.310338 0.517662
1 0.376379 0.386892
1 0.442405 0.256123
1 0.508446 0.125338
1 0.574472 0
1 0.152605 1
1 0.218631 1
1 0.284657 1
1 0.350683 0.899794
1 0.416724 0.769024
1 0.48275 0.638254
1 0.548791 0.507469
1 0.614816 0.376699
1 0.680858 0.24593
1 0.258976 1
1 0.325002 1
1 0.391043 1
1 0.457069 1
1 0.52311 1
1 0.589136 0.889601
1 0.655177 0.758831
1 0.721202 0.628061
1 0.787243 0.497292
1 0.365362 1
1 0.431388 1
1 0.497414 1
1 0.563455 1
1 0.62948 1
1 0.695521 1
1 0.761547 1
1 0.827588 0.879423
1 0.893614 0.748638
1 0.471748 1
1 0.537774 1
1 0.6038 1
1 0.669841 1
1 0.735866 1
1 0.801907 1
1 0.867933 1
1 0.933974 1
1 1 1
