public/LUTS/Color Shift/ColorShift_42.cube
TITLE "Generated by Resolve"
LUT_3D_SIZE 9
0 0 0
0 0.0294347 0.114488
0 0.0588846 0.228992
0 0.0883192 0.343511
0 0.117769 0.458015
0 0.147219 0.572519
0 0.176654 0.687022
0 0.206104 0.801526
0 0.235538 0.91603
0.212985 0.0502174 0.0846265
0.190768 0.0796521 0.199115
0.168551 0.109087 0.313619
0.146349 0.138537 0.428138
0.124132 0.167987 0.542641
0.101915 0.197421 0.657145
0.0796979 0.226871 0.771649
0.0574807 0.256306 0.886152
0.0352789 0.285756 1
0.425986 0.100435 0.169268
0.403784 0.12987 0.283757
0.381567 0.159304 0.39826
0.35935 0.188754 0.512764
0.337133 0.218204 0.627268
0.314931 0.247639 0.741787
0.292714 0.277089 0.856291
0.270497 0.306523 0.970794
0.24828 0.335973 1
0.639002 0.150637 0.253895
0.616785 0.180087 0.368399
0.594568 0.209522 0.482902
0.572366 0.238972 0.597406
0.550149 0.268406 0.71191
0.527932 0.297856 0.826413
0.505714 0.327306 0.940917
0.483497 0.356741 1
0.461295 0.386191 1
0.852003 0.200855 0.338537
0.829801 0.230304 0.453025
0.807584 0.259739 0.567544
0.785367 0.289189 0.682048
0.763149 0.318624 0.796551
0.740948 0.348074 0.911055
0.71873 0.377523 1
0.696513 0.406958 1
0.674296 0.436408 1
1 0.251072 0.423178
1 0.280522 0.537667
1 0.309957 0.652171
0.998383 0.339406 0.766674
0.976165 0.368841 0.881193
0.953948 0.398291 0.995697
0.931731 0.427741 1
0.909514 0.457176 1
0.887312 0.486625 1
1 0.301289 0.50782
1 0.330739 0.622309
1 0.360174 0.736812
1 0.389624 0.851316
1 0.419059 0.96582
1 0.448508 1
1 0.477943 1
1 0.507393 1
1 0.536843 1
1 0.351507 0.592447
1 0.380957 0.70695
1 0.410391 0.821454
1 0.439841 0.935958
1 0.469276 1
1 0.498726 1
1 0.528161 1
1 0.55761 1
1 0.58706 1
1 0.401724 0.677089
1 0.431174 0.791577
1 0.460609 0.906081
1 0.490059 1
1 0.519493 1
1 0.548943 1
1 0.578378 1
1 0.607828 1
1 0.637278 1
0 0.0453346 0
0 0.0747692 0.0403601
0 0.104219 0.154864
0 0.133669 0.269368
0 0.163104 0.383871
0 0.192554 0.49839
0 0.221988 0.612894
0 0.251438 0.727398
0 0.280873 0.841901
0.147204 0.095552 0.0104982
0.124987 0.124987 0.124987
0.10277 0.154437 0.23949
0.0805524 0.183871 0.353994
0.0583505 0.213321 0.468498
0.0361334 0.242756 0.583017
0.0139162 0.272206 0.69752
0 0.30164 0.812024
0 0.33109 0.926528
0.360204 0.145769 0.0951247
0.338003 0.175204 0.209628
0.315785 0.204654 0.324132
0.293568 0.234089 0.438636
0.271351 0.263539 0.55314
0.249134 0.292973 0.667643
0.226932 0.322423 0.782147
0.204715 0.351858 0.896666
0.182498 0.381308 1
0.57322 0.195987 0.179767
0.551003 0.225422 0.294255
0.528786 0.254856 0.408774
0.506569 0.284306 0.523278
0.484367 0.313756 0.637781
0.46215 0.343191 0.752285
0.439933 0.372641 0.866789
0.417716 0.402075 0.981292
0.395499 0.431525 1
0.786221 0.246204 0.264408
0.764004 0.275639 0.378897
0.741802 0.305074 0.4934
0.719585 0.334524 0.607904
0.697368 0.363973 0.722423
0.675151 0.393408 0.836927
0.652949 0.422858 0.951431
0.630732 0.452293 1
0.608515 0.481743 1
0.999237 0.296422 0.34905
0.97702 0.325856 0.463539
0.954803 0.355291 0.578042
0.932586 0.384741 0.692546
0.910384 0.414191 0.80705
0.888167 0.443626 0.921553
0.86595 0.473075 1
0.843732 0.50251 1
0.821515 0.53196 1
1 0.346639 0.433677
1 0.376074 0.54818
1 0.405509 0.662684
1 0.434958 0.777188
1 0.464393 0.891691
1 0.493843 1
1 0.523293 1
1 0.552728 1
1 0.582177 1
1 0.396841 0.518318
1 0.426291 0.632807
1 0.455726 0.747311
1 0.485176 0.86183
1 0.514611 0.976333
1 0.54406 1
1 0.57351 1
1 0.602945 1
1 0.632395 1
1 0.447059 0.60296
1 0.476509 0.717449
1 0.505943 0.831952
1 0.535393 0.946456
1 0.564828 1
1 0.594278 1
1 0.623728 1
1 0.653162 1
1 0.682612 1
0 0.0906844 0
0 0.120119 0
0 0.149554 0.0807202
0 0.179004 0.195224
0 0.208453 0.309743
0 0.237888 0.424247
0 0.267338 0.53875
0 0.296773 0.653254
0 0.326223 0.767758
0.0814069 0.140887 0
0.0591897 0.170321 0.0508431
0.0369726 0.199771 0.165347
0.0147707 0.229221 0.27985
0 0.258656 0.394369
0 0.288106 0.508873
0 0.31754 0.623377
0 0.34699 0.737881
0 0.376425 0.852384
0.294408 0.191104 0.0209964
0.272206 0.220539 0.135485
0.249989 0.249989 0.249989
0.227771 0.279438 0.364492
0.205554 0.308873 0.478996
0.183352 0.338323 0.5935
0.161135 0.367758 0.708019
0.138918 0.397208 0.822522
0.116701 0.426642 0.937026
0.507424 0.241321 0.105623
0.485206 0.270756 0.220127
0.462989 0.300206 0.33463
0.440787 0.329656 0.449134
0.41857 0.359091 0.563638
0.396353 0.38854 0.678141
0.374136 0.417975 0.792645
0.351934 0.447425 0.907149
0.329717 0.47686 1
0.720424 0.291539 0.190265
0.698222 0.320974 0.304753
0.676005 0.350423 0.419257
0.653788 0.379858 0.533776
0.631571 0.409308 0.64828
0.609369 0.438758 0.762783
0.587152 0.468193 0.877287
0.564935 0.497642 0.991791
0.542718 0.527077 1
0.93344 0.341756 0.274907
0.911223 0.371191 0.389395
0.889006 0.400641 0.503899
0.866804 0.430076 0.618402
0.844587 0.459525 0.732906
0.82237 0.488975 0.847425
0.800153 0.51841 0.961929
0.777951 0.54786 1
0.755734 0.577295 1
1 0.391974 0.359533
1 0.421408 0.474037
1 0.450858 0.58854
1 0.480293 0.703044
1 0.509743 0.817548
1 0.539193 0.932052
1 0.568627 1
0.990951 0.598077 1
0.968734 0.627512 1
1 0.442191 0.444175
1 0.471626 0.558663
1 0.501076 0.673182
1 0.53051 0.787686
1 0.55996 0.90219
1 0.589395 1
1 0.618845 1
1 0.648295 1
1 0.677729 1
1 0.492409 0.528817
1 0.521843 0.643305
1 0.551293 0.757809
1 0.580728 0.872312
1 0.610178 0.986831
1 0.639612 1
1 0.669062 1
1 0.698512 1
1 0.727947 1
0 0.136019 0
0 0.165454 0
0 0.194903 0.00657664
0 0.224353 0.121096
0 0.253788 0.235599
0 0.283238 0.350103
0 0.312673 0.464607
0 0.342123 0.57911
0 0.371557 0.693614
0.01561 0.186236 0
0 0.215671 0
0 0.245121 0.0912032
0 0.274556 0.205722
0 0.304006 0.320226
0 0.33344 0.43473
0 0.36289 0.549233
0 0.392325 0.663737
0 0.421775 0.778241
0.228626 0.236454 0
0.206409 0.265888 0.0613413
0.184192 0.295323 0.175845
0.16199 0.324773 0.290349
0.139773 0.354223 0.404852
0.117556 0.383658 0.519371
0.0953384 0.413108 0.633875
0.0731212 0.442542 0.748379
0.0509194 0.471992 0.862882
0.441627 0.286671 0.0314794
0.419425 0.316106 0.145983
0.397208 0.345541 0.260487
0.37499 0.37499 0.37499
0.352773 0.40444 0.489494
0.330556 0.433875 0.603998
0.308354 0.463325 0.718502
0.286137 0.49276 0.833021
0.26392 0.52221 0.947524
0.654643 0.336889 0.116121
0.632425 0.366323 0.23061
0.610208 0.395758 0.345129
0.587991 0.425208 0.459632
0.565789 0.454658 0.574136
0.543572 0.484092 0.68864
0.521355 0.513542 0.803143
0.499138 0.542977 0.917647
0.476936 0.572427 1
0.867643 0.387091 0.200763
0.845441 0.416541 0.315251
0.823224 0.445975 0.429755
0.801007 0.475425 0.544259
0.77879 0.50486 0.658778
0.756573 0.53431 0.773281
0.734371 0.56376 0.887785
0.712154 0.593194 1
0.689937 0.622644 1
1 0.437308 0.285405
1 0.466758 0.399893
1 0.496193 0.514397
1 0.525643 0.628901
0.991806 0.555077 0.743404
0.969589 0.584527 0.857908
0.947372 0.613977 0.972427
0.925155 0.643412 1
0.902953 0.672862 1
1 0.487526 0.370031
1 0.516976 0.484535
1 0.54641 0.599039
1 0.57586 0.713542
1 0.605295 0.828046
1 0.634745 0.94255
1 0.664195 1
1 0.693629 1
1 0.723079 1
1 0.537743 0.454673
1 0.567193 0.569162
1 0.596628 0.683665
1 0.626078 0.798184
1 0.655512 0.912688
1 0.684962 1
1 0.714397 1
1 0.743847 1
1 0.773297 1
0 0.181369 0
0 0.210803 0
0 0.240238 0
0 0.269688 0.046952
0 0.299138 0.161456
0 0.328573 0.275959
0 0.358022 0.390463
0 0.387457 0.504967
0 0.416907 0.619471
0 0.231571 0
0 0.261006 0
0 0.290455 0.0170748
0 0.319905 0.131579
0 0.34934 0.246082
0 0.37879 0.360586
0 0.408225 0.47509
0 0.437675 0.589593
0 0.467109 0.704097
0.162829 0.281788 0
0.140612 0.311223 0
0.11841 0.340673 0.101701
0.0961929 0.370123 0.216205
0.0739757 0.399558 0.330724
0.0517586 0.429007 0.445228
0.0295415 0.458442 0.559731
0.00733959 0.487892 0.674235
0 0.517327 0.788739
0.37583 0.332006 0
0.353628 0.36144 0.0718395
0.331411 0.39089 0.186343
0.309194 0.420325 0.300847
0.286992 0.449775 0.415351
0.264775 0.479225 0.529854
0.242557 0.508659 0.644373
0.22034 0.538109 0.758877
0.198123 0.567544 0.873381
0.588846 0.382223 0.0419776
0.566629 0.411658 0.156481
0.544427 0.441108 0.270985
0.52221 0.470542 0.385489
0.499992 0.499992 0.499992
0.477775 0.529442 0.614496
0.455558 0.558877 0.729
0.433356 0.588327 0.843503
0.411139 0.617761 0.958022
0.801846 0.432441 0.126619
0.779644 0.461875 0.241108
0.757427 0.491325 0.355612
0.73521 0.52076 0.47013
0.712993 0.55021 0.584634
0.690791 0.57966 0.699138
0.668574 0.609094 0.813642
0.646357 0.638544 0.928145
0.62414 0.667979 1
1 0.482658 0.211261
0.992645 0.512093 0.32575
0.970443 0.541543 0.440253
0.948226 0.570977 0.554757
0.926009 0.600427 0.669261
0.903792 0.629862 0.78378
0.881575 0.659312 0.898283
0.859373 0.688762 1
0.837156 0.718196 1
1 0.532876 0.295903
1 0.56231 0.410391
1 0.59176 0.524895
1 0.621195 0.639399
1 0.650645 0.753902
1 0.680079 0.868406
1 0.709529 0.98291
1 0.738979 1
1 0.768414 1
1 0.583093 0.380529
1 0.612528 0.495018
1 0.641978 0.609537
1 0.671412 0.724041
1 0.700862 0.838544
1 0.730297 0.953048
1 0.759747 1
1 0.789197 1
1 0.818631 1
0 0.226703 0
0 0.256138 0
0 0.285588 0
0 0.315022 0
0 0.344472 0.0873121
0 0.373922 0.201816
0 0.403357 0.31632
0 0.432807 0.430823
0 0.462242 0.545342
0 0.276921 0
0 0.306355 0
0 0.33579 0
0 0.36524 0.057435
0 0.39469 0.171939
0 0.424125 0.286442
0 0.453574 0.400946
0 0.483009 0.51545
0 0.512459 0.629969
0.0970321 0.327138 0
0.0748302 0.356573 0
0.0526131 0.386007 0.0275578
0.030396 0.415457 0.142077
0.00817884 0.444907 0.25658
0 0.474342 0.371084
0 0.503792 0.485588
0 0.533227 0.600092
0 0.562676 0.714595
0.310048 0.377356 0
0.287831 0.40679 0
0.265614 0.436225 0.1122
0.243412 0.465675 0.226703
0.221195 0.495125 0.341207
0.198978 0.524559 0.455726
0.176761 0.554009 0.57023
0.154543 0.583444 0.684733
0.132342 0.612894 0.799237
0.523049 0.427558 0
0.500847 0.457008 0.0823377
0.47863 0.486442 0.196841
0.456413 0.515892 0.311345
0.434195 0.545327 0.425849
0.411994 0.574777 0.540352
0.389776 0.604227 0.654856
0.367559 0.633661 0.769375
0.345342 0.663111 0.883879
0.736065 0.477775 0.0524758
0.713848 0.507225 0.166964
0.69163 0.53666 0.281483
0.669429 0.56611 0.395987
0.647211 0.595544 0.510491
0.624994 0.624994 0.624994
0.602777 0.654444 0.739498
0.58056 0.683879 0.854002
0.558358 0.713329 0.968505
0.949065 0.527993 0.137118
0.926863 0.557443 0.251606
0.904646 0.586877 0.36611
0.882429 0.616327 0.480613
0.860212 0.645762 0.595132
0.837995 0.675212 0.709636
0.815793 0.704662 0.82414
0.793576 0.734096 0.938643
0.771359 0.763546 1
1 0.57821 0.221759
1 0.60766 0.336248
1 0.637095 0.450752
1 0.666545 0.565255
1 0.695979 0.679759
1 0.725429 0.794263
1 0.754864 0.908782
1 0.784314 1
0.984375 0.813764 1
1 0.628428 0.306386
1 0.657877 0.42089
1 0.687312 0.535393
1 0.716762 0.649897
1 0.746197 0.764401
1 0.775647 0.878904
1 0.805081 0.993408
1 0.834531 1
1 0.863981 1
0 0.272053 0
0 0.301488 0
0 0.330922 0
0 0.360372 0
0 0.389822 0.0131685
0 0.419257 0.127672
0 0.448707 0.242176
0 0.478141 0.356695
0 0.507591 0.471199
0 0.322255 0
0 0.35169 0
0 0.38114 0
0 0.41059 0
0 0.440024 0.0977951
0 0.469474 0.212299
0 0.498909 0.326802
0 0.528359 0.441321
0 0.557794 0.555825
0.0312505 0.372473 0
0.00903334 0.401907 0
0 0.431357 0
0 0.460792 0.0679332
0 0.490242 0.182437
0 0.519692 0.296941
0 0.549126 0.411444
0 0.578576 0.525948
0 0.608011 0.640452
0.244251 0.42269 0
0.222034 0.452125 0
0.199832 0.481575 0.038056
0.177615 0.511009 0.15256
0.155398 0.540459 0.267079
0.133181 0.569909 0.381582
0.110979 0.599344 0.496086
0.0887617 0.628794 0.61059
0.0665446 0.658228 0.725093
0.457267 0.472908 0
0.43505 0.502342 0.00819409
0.412833 0.531792 0.122698
0.390616 0.561227 0.237201
0.368414 0.590677 0.351705
0.346197 0.620127 0.466209
0.32398 0.649561 0.580728
0.301762 0.679011 0.695232
0.279545 0.708446 0.809735
0.670268 0.523125 0
0.648051 0.55256 0.0928359
0.625849 0.58201 0.20734
0.603632 0.611444 0.321843
0.581415 0.640894 0.436347
0.559197 0.670329 0.550851
0.536995 0.699779 0.665354
0.514778 0.729229 0.779858
0.492561 0.758663 0.894377
0.883284 0.573343 0.062974
0.861067 0.602777 0.177462
0.838849 0.632227 0.291966
0.816632 0.661662 0.406485
0.79443 0.691112 0.520989
0.772213 0.720546 0.635493
0.749996 0.749996 0.749996
0.727779 0.779446 0.8645
0.705562 0.808881 0.979004
1 0.62356 0.147616
1 0.652995 0.262104
1 0.682445 0.376608
1 0.711879 0.491112
1 0.741329 0.605615
0.985214 0.770764 0.720134
0.962997 0.800214 0.834638
0.940795 0.829664 0.949142
0.918578 0.859098 1
1 0.673777 0.232258
1 0.703212 0.346746
1 0.732662 0.46125
1 0.762097 0.575753
1 0.791547 0.690257
1 0.820981 0.804761
1 0.850431 0.919264
1 0.879866 1
1 0.909316 1
0 0.317388 0
0 0.346822 0
0 0.376272 0
0 0.405707 0
0 0.435157 0
0 0.464607 0.0535286
0 0.494041 0.168048
0 0.523491 0.282551
0 0.552926 0.397055
0 0.367605 0
0 0.39704 0
0 0.426474 0
0 0.455924 0
0 0.485374 0.0236515
0 0.514809 0.138155
0 0.544259 0.252674
0 0.573693 0.367178
0 0.603143 0.481682
0 0.417823 0
0 0.447257 0
0 0.476692 0
0 0.506142 0
0 0.535592 0.108293
0 0.565026 0.222797
0 0.594476 0.337301
0 0.623911 0.451804
0 0.653361 0.566323
0.178454 0.468025 0
0.156252 0.497475 0
0.134035 0.526909 0
0.111818 0.556359 0.0784314
0.089601 0.585794 0.192935
0.0673991 0.615244 0.307439
0.045182 0.644694 0.421942
0.0229648 0.674128 0.536446
0.000747692 0.703578 0.65095
0.39147 0.518242 0
0.369253 0.547692 0
0.347036 0.577127 0.0485542
0.324834 0.606577 0.163058
0.302617 0.636011 0.277562
0.2804 0.665461 0.392081
0.258183 0.694911 0.506584
0.235981 0.724346 0.621088
0.213764 0.753796 0.735592
0.604471 0.56846 0
0.582269 0.59791 0.0186923
0.560052 0.627344 0.133196
0.537835 0.656794 0.2477
0.515618 0.686229 0.362203
0.493416 0.715679 0.476707
0.471199 0.745129 0.591211
0.448981 0.774563 0.70573
0.426764 0.804013 0.820233
0.817487 0.618677 0
0.79527 0.648127 0.103319
0.773053 0.677562 0.217838
0.750851 0.707012 0.332341
0.728634 0.736446 0.446845
0.706416 0.765896 0.561349
0.684199 0.795331 0.675853
0.661997 0.824781 0.790356
0.63978 0.854231 0.90486
1 0.668894 0.0734722
1 0.698344 0.187961
0.986068 0.727779 0.302464
0.963851 0.757229 0.416968
0.941634 0.786664 0.531487
0.919432 0.816114 0.645991
0.897215 0.845548 0.760494
0.874998 0.874998 0.874998
0.852781 0.904448 0.989502
1 0.719112 0.158114
1 0.748562 0.272602
1 0.777996 0.387106
1 0.807446 0.50161
1 0.836881 0.616114
1 0.866331 0.730617
1 0.895766 0.845136
1 0.925216 0.95964
1 0.954665 1
0 0.362722 0
0 0.392172 0
0 0.421607 0
0 0.451057 0
0 0.480491 0
0 0.509941 0
0 0.539391 0.093904
0 0.568826 0.208408
0 0.598276 0.322911
0 0.41294 0
0 0.442374 0
0 0.471824 0
0 0.501259 0
0 0.530709 0
0 0.560159 0.0640269
0 0.589593 0.178531
0 0.619043 0.293034
0 0.648478 0.407538
0 0.463157 0
0 0.492592 0
0 0.522042 0
0 0.551476 0
0 0.580926 0.0341497
0 0.610376 0.148653
0 0.639811 0.263157
0 0.669261 0.377676
0 0.698695 0.49218
0.112673 0.513375 0
0.0904555 0.542809 0
0.0682383 0.572259 0
0.0460212 0.601694 0.00428779
0.0238193 0.631144 0.118791
0.0016022 0.660594 0.233295
0 0.690028 0.347799
0 0.719478 0.462303
0 0.748913 0.576806
0.325673 0.563592 0
0.303471 0.593027 0
0.281254 0.622477 0
0.259037 0.651911 0.0889143
0.23682 0.681361 0.203433
0.214603 0.710796 0.317937
0.192401 0.740246 0.432441
0.170184 0.769696 0.546944
0.147967 0.79913 0.661448
0.538689 0.613809 0
0.516472 0.643244 0
0.494255 0.672694 0.0590524
0.472038 0.702129 0.173556
0.449836 0.731579 0.28806
0.427619 0.761013 0.402564
0.405402 0.790463 0.517082
0.383185 0.819913 0.631586
0.360967 0.849348 0.74609
0.75169 0.664027 0
0.729488 0.693462 0.0291905
0.707271 0.722911 0.143694
0.685054 0.752346 0.258198
0.662837 0.781796 0.372702
0.64062 0.811231 0.487205
0.618418 0.840681 0.601709
0.596201 0.87013 0.716213
0.573983 0.899565 0.830732
0.964706 0.714244 0
0.942489 0.743679 0.113817
0.920272 0.773129 0.228321
0.898054 0.802563 0.34284
0.875853 0.832013 0.457343
0.853635 0.861448 0.571847
0.831418 0.890898 0.686351
0.809201 0.920333 0.800855
0.786999 0.949783 0.915358
1 0.764462 0.0839704
1 0.793896 0.198459
1 0.823346 0.312963
1 0.852781 0.427466
1 0.882231 0.54197
1 0.911665 0.656489
1 0.941115 0.770993
1 0.97055 0.885496
1 1 1
