public/LUTS/Color Shift/ColorShift_54.cube
TITLE "Generated by Resolve"
LUT_3D_SIZE 9
0 0 0
0 0.0825971 0
0 0.165194 0
0 0.247791 0
0 0.330404 0
0 0.413001 0
0 0.495598 0
0 0.57821 0
0 0.660807 0
0.10457 0.0556344 0.295384
0 0.138231 0.251545
0 0.220829 0.207691
0 0.303441 0.163851
0 0.386038 0.119997
0 0.468635 0.0761578
0 0.551247 0.0323186
0 0.633844 0
0 0.716442 0
0.209171 0.111284 0.590799
0.0776379 0.193866 0.54696
0 0.276478 0.503105
0 0.359075 0.459266
0 0.441688 0.415412
0 0.524285 0.371572
0 0.606882 0.327733
0 0.689494 0.283879
0 0.772091 0.24004
0.313756 0.166918 0.886213
0.182223 0.249516 0.842374
0.0506752 0.332113 0.79852
0 0.414725 0.754681
0 0.497322 0.710826
0 0.579919 0.666987
0 0.662531 0.623148
0 0.745129 0.579293
0 0.827741 0.535454
0.418341 0.222568 1
0.286809 0.305165 1
0.155261 0.387762 1
0.0237278 0.470359 1
0 0.552972 1
0 0.635569 0.962402
0 0.718166 0.918563
0 0.800778 0.874708
0 0.883375 0.830869
0.522942 0.278218 1
0.391409 0.3608 1
0.259861 0.443412 1
0.128313 0.526009 1
0 0.608606 1
0 0.691218 1
0 0.773816 1
0 0.856413 1
0 0.939025 1
0.627527 0.333852 1
0.495995 0.416449 1
0.364446 0.499046 1
0.232898 0.581659 1
0.10135 0.664256 1
0 0.746853 1
0 0.829465 1
0 0.912062 1
0 0.994659 1
0.732113 0.389502 1
0.60058 0.472099 1
0.469032 0.554696 1
0.337484 0.637293 1
0.205936 0.719905 1
0.0743877 0.802502 1
0 0.8851 1
0 0.967712 1
0 1 1
0.836698 0.445151 1
0.705165 0.527733 1
0.573632 0.610346 1
0.442084 0.692943 1
0.310536 0.77554 1
0.178988 0.858152 1
0.0474403 0.940749 1
0 1 1
0 1 1
0.151934 0 0
0.0204166 0.0693523 0
0 0.151949 0
0 0.234562 0
0 0.317159 0
0 0.399756 0
0 0.482368 0
0 0.564965 0
0 0.647562 0
0.256519 0.0423896 0.168826
0.124987 0.124987 0.124987
0 0.207584 0.0811475
0 0.290196 0.0372931
0 0.372793 0
0 0.45539 0
0 0.538003 0
0 0.6206 0
0 0.703197 0
0.361105 0.0980392 0.46424
0.229572 0.180636 0.420401
0.098024 0.263233 0.376562
0 0.34583 0.332708
0 0.428443 0.288869
0 0.51104 0.245014
0 0.593637 0.201175
0 0.676249 0.157336
0 0.758846 0.113481
0.46569 0.153689 0.759655
0.334173 0.236271 0.715816
0.202625 0.318883 0.671977
0.0710765 0.40148 0.628122
0 0.484077 0.584283
0 0.56669 0.540429
0 0.649287 0.49659
0 0.731884 0.45275
0 0.814496 0.408896
0.570291 0.209323 1
0.438758 0.29192 1
0.30721 0.374517 0.967391
0.175662 0.45713 0.923537
0.0441138 0.539727 0.879698
0 0.622324 0.835843
0 0.704936 0.792004
0 0.787533 0.748165
0 0.87013 0.704311
0.674876 0.264973 1
0.543343 0.347555 1
0.411795 0.430167 1
0.280247 0.512764 1
0.148699 0.595376 1
0.0171511 0.677974 1
0 0.760571 1
0 0.843183 1
0 0.92578 0.999725
0.779461 0.320607 1
0.647929 0.403204 1
0.516381 0.485801 1
0.384848 0.568414 1
0.2533 0.651011 1
0.121752 0.733608 1
0 0.81622 1
0 0.898817 1
0 0.98143 1
0.884062 0.376257 1
0.752529 0.458854 1
0.620981 0.541451 1
0.489433 0.624048 1
0.357885 0.706661 1
0.226337 0.789258 1
0.094789 0.871855 1
0 0.954467 1
0 1 1
0.988647 0.431907 1
0.857114 0.514488 1
0.725567 0.597101 1
0.594018 0.679698 1
0.46247 0.762295 1
0.330922 0.844907 1
0.199374 0.927504 1
0.0678264 1 1
0 1 1
0.303899 0 0
0.172366 0.0561074 0
0.0408179 0.138705 0
0 0.221317 0
0 0.303914 0
0 0.386511 0
0 0.469123 0
0 0.55172 0
0 0.634318 0
0.408484 0.0291447 0.0422522
0.276951 0.111742 0
0.145403 0.194339 0
0.0138552 0.276951 0
0 0.359548 0
0 0.442145 0
0 0.524758 0
0 0.607355 0
0 0.689952 0
0.513069 0.0847944 0.337667
0.381537 0.167391 0.293828
0.249989 0.249989 0.249989
0.118441 0.332586 0.206149
0 0.415198 0.162295
0 0.497795 0.118456
0 0.580392 0.0746014
0 0.663005 0.0307622
0 0.745602 0
0.617655 0.140444 0.633097
0.486122 0.223026 0.589242
0.354574 0.305638 0.545403
0.223026 0.388235 0.501564
0.0914778 0.470832 0.45771
0 0.553445 0.41387
0 0.636042 0.370016
0 0.718639 0.326177
0 0.801251 0.282338
0.72224 0.196078 0.928512
0.590707 0.278676 0.884657
0.459174 0.361273 0.840818
0.327626 0.443885 0.796979
0.196078 0.526482 0.753124
0.0645304 0.609079 0.709285
0 0.691691 0.665431
0 0.774289 0.621592
0 0.856886 0.577752
0.826841 0.251728 1
0.695308 0.334325 1
0.56376 0.416922 1
0.432212 0.499519 1
0.300664 0.582132 1
0.169116 0.664729 1
0.0375677 0.747326 0.960845
0 0.829938 0.917006
0 0.912535 0.873167
0.931426 0.307362 1
0.799893 0.38996 1
0.668345 0.472557 1
0.536797 0.555169 1
0.405249 0.637766 1
0.273701 0.720378 1
0.142153 0.802976 1
0.010605 0.885573 1
0 0.968185 1
1 0.363012 1
0.904479 0.445609 1
0.772931 0.528206 1
0.641382 0.610803 1
0.50985 0.693416 1
0.378302 0.776013 1
0.246754 0.85861 1
0.115206 0.941222 1
0 1 1
1 0.418662 1
1 0.501244 1
0.877531 0.583856 1
0.745983 0.666453 1
0.614435 0.74905 1
0.482887 0.831662 1
0.351339 0.91426 1
0.219791 0.996857 1
0.0882429 1 1
0.455863 0 0
0.324331 0.0428626 0
0.192782 0.12546 0
0.0612345 0.208072 0
0 0.290669 0
0 0.373266 0
0 0.455879 0
0 0.538476 0
0 0.621073 0
0.560433 0.0158999 0
0.428901 0.098497 0
0.297353 0.181094 0
0.165805 0.263706 0
0.0342718 0.346303 0
0 0.428901 0
0 0.511513 0
0 0.59411 0
0 0.676707 0
0.665019 0.0715496 0.211109
0.533501 0.154147 0.167269
0.401953 0.236744 0.123415
0.270405 0.319341 0.0795758
0.138857 0.401953 0.0357366
0.00730907 0.48455 0
0 0.567147 0
0 0.64976 0
0 0.732357 0
0.769619 0.127199 0.506523
0.638086 0.209781 0.462684
0.506539 0.292393 0.41883
0.37499 0.37499 0.37499
0.243442 0.457588 0.331151
0.111894 0.5402 0.287297
0 0.622797 0.243458
0 0.705394 0.199603
0 0.788006 0.155764
0.874205 0.182834 0.801938
0.742672 0.265431 0.758099
0.611124 0.348028 0.714244
0.479576 0.43064 0.670405
0.348028 0.513237 0.626566
0.21648 0.595834 0.582712
0.0849317 0.678447 0.538872
0 0.761044 0.495018
0 0.843641 0.451179
0.97879 0.238483 1
0.847257 0.32108 1
0.715709 0.403677 1
0.584176 0.486275 0.96582
0.452628 0.568887 0.921981
0.32108 0.651484 0.878126
0.189532 0.734081 0.834287
0.0579843 0.816693 0.790433
0 0.89929 0.746593
1 0.294118 1
0.951858 0.376715 1
0.82031 0.459327 1
0.688762 0.541924 1
0.557214 0.624521 1
0.425666 0.707134 1
0.294118 0.789731 1
0.16257 0.872328 1
0.0310216 0.95494 1
1 0.349767 1
1 0.432364 1
0.924895 0.514961 1
0.793347 0.597559 1
0.661799 0.680171 1
0.530251 0.762768 1
0.398703 0.84538 1
0.267155 0.927977 1
0.135607 1 1
1 0.405417 1
1 0.487999 1
1 0.570611 1
0.897932 0.653208 1
0.766384 0.735805 1
0.634852 0.818418 1
0.503304 0.901015 1
0.371756 0.983612 1
0.240208 1 1
0.607813 0 0
0.476295 0.0296178 0
0.344747 0.112215 0
0.213199 0.194827 0
0.081651 0.277424 0
0 0.360021 0
0 0.442634 0
0 0.525231 0
0 0.607828 0
0.712398 0.00265507 0
0.580865 0.0852522 0
0.449317 0.167849 0
0.317769 0.250462 0
0.186221 0.333059 0
0.0546731 0.415656 0
0 0.498268 0
0 0.580865 0
0 0.663478 0
0.816983 0.0583047 0.084535
0.68545 0.140902 0.0406958
0.553903 0.223499 0
0.422354 0.306096 0
0.290806 0.388708 0
0.159274 0.471305 0
0.0277256 0.553903 0
0 0.636515 0
0 0.719112 0
0.921569 0.113954 0.37995
0.790051 0.196536 0.33611
0.658503 0.279149 0.292271
0.526955 0.361746 0.248417
0.395407 0.444343 0.204578
0.263859 0.526955 0.160739
0.132311 0.609552 0.116884
0.000762951 0.692149 0.0730449
0 0.774762 0.0291905
1 0.169589 0.675364
0.894636 0.252186 0.631525
0.763088 0.334783 0.587686
0.63154 0.417395 0.543832
0.499992 0.499992 0.499992
0.368444 0.582589 0.456153
0.236896 0.665202 0.412299
0.105348 0.747799 0.36846
0 0.830396 0.324605
1 0.225238 0.970779
0.999222 0.307836 0.92694
0.867674 0.390433 0.883101
0.736126 0.47303 0.839246
0.604578 0.555642 0.795407
0.47303 0.638239 0.751568
0.341482 0.720836 0.707713
0.209934 0.803449 0.663874
0.0784009 0.886046 0.62002
1 0.280888 1
1 0.36347 1
0.972259 0.446082 1
0.840711 0.528679 1
0.709178 0.611276 1
0.57763 0.693889 1
0.446082 0.776486 1
0.314534 0.859083 0.959289
0.182986 0.941695 0.915434
1 0.336522 1
1 0.41912 1
1 0.501717 1
0.945312 0.584329 1
0.813764 0.666926 1
0.682216 0.749523 1
0.550668 0.832135 1
0.41912 0.914733 1
0.287572 0.99733 1
1 0.392172 1
1 0.474754 1
1 0.557366 1
1 0.639963 1
0.918349 0.72256 1
0.786801 0.805173 1
0.655253 0.88777 1
0.523705 0.970382 1
0.392157 1 1
0.759777 0 0
0.628244 0.0163729 0
0.496696 0.09897 0
0.365148 0.181582 0
0.2336 0.264179 0
0.102052 0.346777 0
0 0.429389 0
0 0.511986 0
0 0.594583 0
0.864363 0 0
0.73283 0.0720073 0
0.601282 0.154604 0
0.469734 0.237217 0
0.338186 0.319814 0
0.206638 0.402426 0
0.0750896 0.485023 0
0 0.56762 0
0 0.650233 0
0.968948 0.0450599 0
0.837415 0.127657 0
0.705867 0.210254 0
0.574319 0.292851 0
0.442771 0.375463 0
0.311223 0.458061 0
0.179675 0.540658 0
0.048127 0.62327 0
0 0.705867 0
1 0.10071 0.253391
0.942 0.183291 0.209552
0.810452 0.265904 0.165698
0.678904 0.348501 0.121859
0.547356 0.431098 0.0780041
0.415808 0.51371 0.034165
0.284276 0.596307 0
0.152728 0.678904 0
0.0211795 0.761517 0
1 0.156344 0.548806
1 0.238941 0.504967
0.915053 0.321538 0.461112
0.783505 0.40415 0.417273
0.651957 0.486748 0.373419
0.520409 0.569345 0.32958
0.388861 0.651957 0.28574
0.257313 0.734554 0.241886
0.125765 0.817151 0.198047
1 0.211994 0.844221
1 0.294591 0.800381
1 0.377188 0.756527
0.88809 0.459785 0.712688
0.756542 0.542397 0.668833
0.624994 0.624994 0.624994
0.493446 0.707591 0.581155
0.361898 0.790204 0.537301
0.23035 0.872801 0.493462
1 0.267643 1
1 0.350225 1
1 0.432837 1
0.992676 0.515435 1
0.861128 0.598032 0.964248
0.72958 0.680644 0.920409
0.598032 0.763241 0.87657
0.466484 0.845838 0.832715
0.334936 0.92845 0.788876
1 0.323278 1
1 0.405875 1
1 0.488472 1
1 0.571084 1
0.965713 0.653681 1
0.83418 0.736278 1
0.702632 0.818891 1
0.571084 0.901488 1
0.439536 0.984085 1
1 0.378927 1
1 0.461509 1
1 0.544121 1
1 0.626719 1
1 0.709331 1
0.938766 0.791928 1
0.807218 0.874525 1
0.675669 0.957137 1
0.544121 1 1
0.911742 0 0
0.780209 0.0031281 0
0.648661 0.0857252 0
0.517113 0.168338 0
0.385565 0.250935 0
0.254017 0.333532 0
0.122469 0.416144 0
0 0.498741 0
0 0.581338 0
1 0 0
0.884779 0.0587625 0
0.753231 0.141375 0
0.621683 0.223972 0
0.490135 0.306569 0
0.358602 0.389181 0
0.227054 0.471778 0
0.0955062 0.554376 0
0 0.636988 0
1 0.0318151 0
0.98938 0.114412 0
0.857832 0.197009 0
0.726284 0.279606 0
0.594736 0.362219 0
0.463188 0.444816 0
0.33164 0.527428 0
0.200092 0.610025 0
0.0685435 0.692622 0
1 0.0874647 0.126818
1 0.170047 0.0829786
0.962417 0.252659 0.0391394
0.830869 0.335256 0
0.699321 0.417853 0
0.567773 0.500465 0
0.436225 0.583062 0
0.304677 0.66566 0
0.173129 0.748272 0
1 0.143099 0.422232
1 0.225696 0.378393
1 0.308293 0.334554
0.935454 0.390906 0.2907
0.803906 0.473503 0.24686
0.672358 0.5561 0.203006
0.54081 0.638712 0.159167
0.409277 0.721309 0.115328
0.277729 0.803906 0.0714733
1 0.198749 0.717647
1 0.281346 0.673808
1 0.363943 0.629969
1 0.44654 0.586114
0.908507 0.529152 0.542275
0.776959 0.611749 0.498421
0.645411 0.694347 0.454582
0.513863 0.776959 0.410742
0.382315 0.859556 0.366888
1 0.254398 1
1 0.33698 0.969223
1 0.419593 0.925383
1 0.50219 0.881529
1 0.584787 0.83769
0.881544 0.667399 0.793835
0.749996 0.749996 0.749996
0.618448 0.832593 0.706157
0.4869 0.915206 0.662303
1 0.310033 1
1 0.39263 1
1 0.475227 1
1 0.557839 1
1 0.640436 1
0.98613 0.723033 1
0.854582 0.805646 1
0.723033 0.888243 1
0.591485 0.97084 0.957717
1 0.365682 1
1 0.44828 1
1 0.530877 1
1 0.613474 1
1 0.696086 1
1 0.778683 1
0.959182 0.86128 1
0.827634 0.943893 1
0.696086 1 1
1 0 0
0.932158 0 0
0.800626 0.0724804 0
0.669078 0.155093 0
0.53753 0.23769 0
0.405982 0.320287 0
0.274434 0.402899 0
0.142885 0.485496 0
0.0113375 0.568093 0
1 0 0
1 0.0455177 0
0.905196 0.12813 0
0.773648 0.210727 0
0.6421 0.293324 0
0.510552 0.375937 0
0.379004 0.458534 0
0.247456 0.541131 0
0.115908 0.623743 0
1 0.0185702 0
1 0.101167 0
1 0.183764 0
0.878233 0.266377 0
0.746685 0.348974 0
0.615137 0.431571 0
0.483604 0.514183 0
0.352056 0.59678 0
0.220508 0.679377 0
1 0.0742199 0.000244144
1 0.156802 0
1 0.239414 0
0.982834 0.322011 0
0.851286 0.404608 0
0.719738 0.487221 0
0.58819 0.569818 0
0.456641 0.65243 0
0.325093 0.735027 0
1 0.129854 0.295659
1 0.212451 0.25182
1 0.295048 0.20798
1 0.377661 0.164141
0.955871 0.460258 0.120287
0.824323 0.542855 0.0764477
0.692775 0.625467 0.0325933
0.561227 0.708064 0
0.429679 0.790661 0
1 0.185504 0.591073
1 0.268101 0.547234
1 0.350698 0.503395
1 0.433295 0.459556
1 0.515908 0.415702
0.928908 0.598505 0.371862
0.79736 0.681102 0.328008
0.665812 0.763714 0.284169
0.534279 0.846311 0.24033
1 0.241154 0.886488
1 0.323735 0.842649
1 0.406348 0.79881
1 0.488945 0.754971
1 0.571542 0.711116
1 0.654154 0.667277
0.901961 0.736751 0.623423
0.770413 0.819348 0.579583
0.638865 0.901961 0.535744
1 0.296788 1
1 0.379385 1
1 0.461982 1
1 0.544594 1
1 0.627192 1
1 0.709789 0.962692
1 0.792401 0.918837
0.874998 0.874998 0.874998
0.74345 0.957595 0.831159
1 0.352438 1
1 0.435035 1
1 0.517632 1
1 0.600229 1
1 0.682841 1
1 0.765438 1
1 0.848035 1
0.979583 0.930648 1
0.848035 1 1
1 0 0
1 0 0
0.952575 0.0592355 0
0.821027 0.141848 0
0.689479 0.224445 0
0.557931 0.307042 0
0.426398 0.389654 0
0.29485 0.472251 0
0.163302 0.554849 0
1 0 0
1 0.0322728 0
1 0.114885 0
0.925612 0.197482 0
0.794064 0.280079 0
0.662516 0.362692 0
0.530968 0.445289 0
0.39942 0.527886 0
0.267872 0.610498 0
1 0.0053254 0
1 0.0879225 0
1 0.17052 0
1 0.253132 0
0.89865 0.335729 0
0.767102 0.418326 0
0.635554 0.500938 0
0.504005 0.583535 0
0.372457 0.666133 0
1 0.0609751 0
1 0.143557 0
1 0.226169 0
1 0.308766 0
1 0.391379 0
0.871687 0.473976 0
0.740139 0.556573 0
0.608606 0.639185 0
0.477058 0.721782 0
1 0.116609 0.1691
1 0.199207 0.125261
1 0.281804 0.0814069
1 0.364416 0.0375677
1 0.447013 0
0.976287 0.52961 0
0.844739 0.612222 0
0.713191 0.69482 0
0.581643 0.777432 0
1 0.172259 0.464515
1 0.254856 0.420676
1 0.337453 0.376822
1 0.42005 0.332982
1 0.502663 0.289143
1 0.58526 0.245289
0.949325 0.667857 0.20145
0.817777 0.750469 0.157595
0.686229 0.833066 0.113756
1 0.227909 0.75993
1 0.310491 0.716091
1 0.393103 0.672236
1 0.4757 0.628397
1 0.558297 0.584558
1 0.640909 0.540703
1 0.723507 0.496864
0.922362 0.806104 0.45301
0.790814 0.888716 0.409171
1 0.283543 1
1 0.36614 1
1 0.448737 0.967651
1 0.53135 0.923812
1 0.613947 0.879973
1 0.696544 0.836118
1 0.779156 0.792279
1 0.861753 0.748425
0.895415 0.94435 0.704585
1 0.339193 1
1 0.42179 1
1 0.504387 1
1 0.586984 1
1 0.669596 1
1 0.752194 1
1 0.834791 1
1 0.917403 1
1 1 1
