public/LUTS/Color Shift/ColorShift_45.cube
TITLE "Generated by Resolve"
LUT_3D_SIZE 5
0 0 0
0 0.0827344 0.182101
0 0.165484 0.364218
0 0.248219 0.546319
0 0.330968 0.728435
0.409964 0.0935683 0.260014
0.306127 0.176303 0.442115
0.202274 0.259052 0.624231
0.0984207 0.341787 0.806332
0 0.424536 0.988449
0.819959 0.187137 0.520043
0.716106 0.269886 0.702144
0.612268 0.352621 0.88426
0.508415 0.43537 1
0.404562 0.518105 1
1 0.28072 0.780087
1 0.363455 0.962188
1 0.446189 1
0.918395 0.528939 1
0.814542 0.611688 1
1 0.374289 1
1 0.457023 1
1 0.539773 1
1 0.622507 1
1 0.705257 1
0 0.0736858 0
0 0.15642 0
0 0.23917 0.172076
0 0.321904 0.354192
0 0.404654 0.536309
0.353826 0.167254 0.0678874
0.249989 0.249989 0.249989
0.146136 0.332738 0.432105
0.0422827 0.415473 0.614206
0 0.498222 0.796323
0.763821 0.260822 0.327916
0.659983 0.343557 0.510018
0.55613 0.426307 0.692134
0.452277 0.509056 0.874235
0.348424 0.591791 1
1 0.354391 0.587961
1 0.43714 0.770047
0.966125 0.519875 0.952163
0.862272 0.602625 1
0.758419 0.685359 1
1 0.447974 0.84799
1 0.530709 1
1 0.613458 1
1 0.696193 1
1 0.778943 1
0 0.147372 0
0 0.230106 0
0 0.312856 0
0 0.39559 0.162051
0 0.47834 0.344167
0.297704 0.24094 0
0.193851 0.323674 0.057847
0.0899977 0.406424 0.239963
0 0.489158 0.422065
0 0.571908 0.604181
0.707683 0.334508 0.135775
0.603845 0.417243 0.317876
0.499992 0.499992 0.499992
0.396139 0.582742 0.682109
0.292287 0.665476 0.86421
1 0.428077 0.395819
1 0.510826 0.57792
0.909987 0.593561 0.760021
0.806134 0.67631 0.942138
0.702281 0.75906 1
1 0.52166 0.655848
1 0.604395 0.837949
1 0.687144 1
1 0.769879 1
1 0.852628 1
0 0.221057 0
0 0.303792 0
0 0.386542 0
0 0.469276 0
0 0.552026 0.152026
0.241566 0.314626 0
0.137713 0.39736 0
0.0338598 0.48011 0.0478218
0 0.562844 0.229938
0 0.645594 0.412039
0.65156 0.408194 0
0.547707 0.490929 0.12575
0.443854 0.573678 0.307851
0.340002 0.656428 0.489967
0.236149 0.739162 0.672068
1 0.501778 0.203677
0.957702 0.584512 0.385779
0.853849 0.667247 0.56788
0.749996 0.749996 0.749996
0.646143 0.832746 0.932113
1 0.595346 0.463706
1 0.67808 0.645808
1 0.76083 0.827924
1 0.843565 1
1 0.926314 1
0 0.294743 0
0 0.377478 0
0 0.460227 0
0 0.542977 0
0 0.625711 0
0.185428 0.388312 0
0.0815747 0.471046 0
0 0.553796 0
0 0.63653 0.0377966
0 0.71928 0.219898
0.595422 0.48188 0
0.491569 0.56463 0
0.387717 0.647364 0.115709
0.283864 0.730114 0.297826
0.180011 0.812848 0.479942
1 0.575463 0.0115358
0.901564 0.658198 0.193637
0.797711 0.740932 0.375753
0.693858 0.823682 0.557855
0.590005 0.906432 0.739971
1 0.669032 0.271565
1 0.751766 0.453666
1 0.834516 0.635782
1 0.91725 0.817884
1 1 1
