public/LUTS/Color Shift/ColorShift_09.cube
TITLE "Generated by Resolve"
LUT_3D_SIZE 33
0 0 0
0 0.0141604 0
0 0.0283207 0
0 0.0424964 0
0 0.0566567 0
0 0.0708171 0
0 0.0849775 0
0 0.0991531 0
0 0.113313 0
0 0.127474 0
0 0.141649 0
0 0.15581 0
0 0.16997 0
0 0.184146 0
0 0.198306 0
0 0.212467 0
0 0.226642 0
0 0.240803 0
0 0.254963 0
0 0.269139 0
0 0.283299 0
0 0.297459 0
0 0.311635 0
0 0.325795 0
0 0.339956 0
0 0.354116 0
0 0.368292 0
0 0.382452 0
0 0.396612 0
0 0.410788 0
0 0.424949 0
0 0.439109 0
0 0.453285 0
0.0126955 0.0208438 0.0512551
0.00161746 0.0350042 0.0398566
0 0.0491646 0.0284581
0 0.0633249 0.0170596
0 0.0774853 0.0056611
0 0.0916609 0
0 0.105821 0
0 0.119982 0
0 0.134157 0
0 0.148318 0
0 0.162478 0
0 0.176654 0
0 0.190814 0
0 0.204974 0
0 0.21915 0
0 0.23331 0
0 0.247471 0
0 0.261646 0
0 0.275807 0
0 0.289967 0
0 0.304143 0
0 0.318303 0
0 0.332464 0
0 0.346639 0
0 0.3608 0
0 0.37496 0
0 0.38912 0
0 0.403296 0
0 0.417456 0
0 0.431617 0
0 0.445792 0
0 0.459953 0
0 0.474113 0
0.025391 0.0416876 0.102525
0.014313 0.055848 0.0911269
0.00323491 0.0700084 0.0797284
0 0.084184 0.0683299
0 0.0983444 0.0569314
0 0.112505 0.0455329
0 0.126665 0.0341344
0 0.140841 0.0227359
0 0.155001 0.0113375
0 0.169162 0
0 0.183337 0
0 0.197498 0
0 0.211658 0
0 0.225834 0
0 0.239994 0
0 0.254154 0
0 0.26833 0
0 0.28249 0
0 0.296651 0
0 0.310826 0
0 0.324987 0
0 0.339147 0
0 0.353323 0
0 0.367483 0
0 0.381643 0
0 0.395819 0
0 0.409979 0
0 0.42414 0
0 0.4383 0
0 0.452476 0
0 0.466636 0
0 0.480797 0
0 0.494972 0
0.0380865 0.0625315 0.153796
0.0270085 0.0766918 0.142412
0.0159304 0.0908675 0.131014
0.00483711 0.105028 0.119615
0 0.119188 0.108217
0 0.133349 0.0968185
0 0.147524 0.08542
0 0.161685 0.0740215
0 0.175845 0.062623
0 0.190021 0.0512245
0 0.204181 0.039826
0 0.218341 0.0284276
0 0.232517 0.0170291
0 0.246677 0.00563058
0 0.260838 0
0 0.275013 0
0 0.289174 0
0 0.303334 0
0 0.31751 0
0 0.33167 0
0 0.34583 0
0 0.360006 0
0 0.374166 0
0 0.388327 0
0 0.402502 0
0 0.416663 0
0 0.430823 0
0 0.444984 0
0 0.459159 0
0 0.47332 0
0 0.48748 0
0 0.501656 0
0 0.515816 0
0.050782 0.0833906 0.205081
0.039704 0.0975509 0.193683
0.0286259 0.111711 0.182284
0.0175479 0.125872 0.170886
0.00645457 0.140047 0.159487
0 0.154208 0.148089
0 0.168368 0.13669
0 0.182528 0.125292
0 0.196704 0.113893
0 0.210864 0.102495
0 0.225025 0.0910964
0 0.2392 0.0796979
0 0.253361 0.0682994
0 0.267521 0.0569009
0 0.281697 0.0455024
0 0.295857 0.0341039
0 0.310018 0.0227054
0 0.324193 0.0113069
0 0.338354 0
0 0.352514 0
0 0.36669 0
0 0.38085 0
0 0.39501 0
0 0.409186 0
0 0.423346 0
0 0.437507 0
0 0.451682 0
0 0.465843 0
0 0.480003 0
0 0.494163 0
0 0.508339 0
0 0.522499 0
0 0.53666 0
0.0634775 0.104234 0.256352
0.0523995 0.118395 0.244968
0.0413214 0.132555 0.23357
0.0302434 0.146731 0.222171
0.0191501 0.160891 0.210773
0.00807202 0.175051 0.199374
0 0.189212 0.187961
0 0.203387 0.176562
0 0.217548 0.165164
0 0.231708 0.153765
0 0.245884 0.142367
0 0.260044 0.130968
0 0.274205 0.11957
0 0.28838 0.108171
0 0.302541 0.0967727
0 0.316701 0.0853742
0 0.330877 0.0739757
0 0.345037 0.0625772
0 0.359197 0.0511788
0 0.373373 0.0397803
0 0.387533 0.0283818
0 0.401694 0.0169833
0 0.415869 0.0055848
0 0.43003 0
0 0.44419 0
0 0.458366 0
0 0.472526 0
0 0.486686 0
0 0.500847 0
0 0.515023 0
0 0.529183 0
0 0.543343 0
0 0.557519 0
0.076173 0.125078 0.307637
0.065095 0.139239 0.296239
0.0540169 0.153414 0.28484
0.0429389 0.167575 0.273442
0.0318456 0.181735 0.262043
0.0207675 0.195911 0.250645
0.00968948 0.210071 0.239246
0 0.224231 0.227848
0 0.238392 0.216449
0 0.252567 0.205051
0 0.266728 0.193652
0 0.280888 0.182254
0 0.295064 0.170855
0 0.309224 0.159457
0 0.323384 0.148058
0 0.33756 0.13666
0 0.35172 0.125261
0 0.365881 0.113863
0 0.380056 0.102464
0 0.394217 0.0910658
0 0.408377 0.0796674
0 0.422553 0.0682689
0 0.436713 0.0568704
0 0.450874 0.0454719
0 0.465049 0.0340734
0 0.47921 0.0226749
0 0.49337 0.0112612
0 0.507546 0
0 0.521706 0
0 0.535866 0
0 0.550027 0
0 0.564202 0
0 0.578363 0
0.0888685 0.145937 0.358907
0.0777905 0.160098 0.347509
0.0667124 0.174258 0.33611
0.0556344 0.188418 0.324712
0.0445563 0.202594 0.313313
0.033463 0.216754 0.301915
0.022385 0.230915 0.290517
0.0113069 0.245075 0.279118
0.000228885 0.259251 0.26772
0 0.273411 0.256321
0 0.287572 0.244923
0 0.301747 0.233524
0 0.315908 0.222126
0 0.330068 0.210727
0 0.344244 0.199329
0 0.358404 0.18793
0 0.372564 0.176532
0 0.38674 0.165133
0 0.4009 0.153735
0 0.415061 0.142336
0 0.429236 0.130938
0 0.443397 0.119539
0 0.457557 0.108141
0 0.471733 0.0967422
0 0.485893 0.0853437
0 0.500053 0.0739452
0 0.514229 0.0625467
0 0.528389 0.0511482
0 0.54255 0.0397498
0 0.55671 0.0283513
0 0.570886 0.0169528
0 0.585046 0.00555428
0 0.599207 0
0.101564 0.166781 0.410178
0.090486 0.180941 0.398795
0.079408 0.195102 0.387396
0.0683299 0.209277 0.375998
0.0572519 0.223438 0.364599
0.0461585 0.237598 0.353201
0.0350805 0.251774 0.341802
0.0240024 0.265934 0.330404
0.0129244 0.280095 0.319005
0.00183108 0.294255 0.307607
0 0.308431 0.296208
0 0.322591 0.28481
0 0.336751 0.273396
0 0.350927 0.261997
0 0.365087 0.250599
0 0.379248 0.2392
0 0.393423 0.227802
0 0.407584 0.216403
0 0.421744 0.205005
0 0.43592 0.193606
0 0.45008 0.182208
0 0.46424 0.170809
0 0.478416 0.159411
0 0.492576 0.148013
0 0.506737 0.136614
0 0.520912 0.125216
0 0.535073 0.113817
0 0.549233 0.102419
0 0.563409 0.0910201
0 0.577569 0.0796216
0 0.59173 0.0682231
0 0.60589 0.0568246
0 0.620066 0.0454261
0.11426 0.187625 0.461463
0.103182 0.201785 0.450065
0.0921035 0.215961 0.438666
0.0810254 0.230121 0.427268
0.0699474 0.244282 0.415869
0.058854 0.258457 0.404471
0.047776 0.272618 0.393072
0.0366979 0.286778 0.381674
0.0256199 0.300938 0.370275
0.0145266 0.315114 0.358877
0.00344854 0.329274 0.347478
0 0.343435 0.33608
0 0.35761 0.324681
0 0.371771 0.313283
0 0.385931 0.301885
0 0.400107 0.290486
0 0.414267 0.279088
0 0.428428 0.267689
0 0.442603 0.256291
0 0.456764 0.244892
0 0.470924 0.233494
0 0.4851 0.222095
0 0.49926 0.210697
0 0.51342 0.199298
0 0.527596 0.1879
0 0.541756 0.176501
0 0.555917 0.165103
0 0.570092 0.153704
0 0.584253 0.142306
0 0.598413 0.130907
0 0.612573 0.119509
0 0.626749 0.10811
0 0.640909 0.0966964
0.126955 0.208484 0.512734
0.115877 0.222644 0.501335
0.104799 0.236805 0.489937
0.0937209 0.250965 0.478538
0.0826429 0.265141 0.46714
0.0715496 0.279301 0.455741
0.0604715 0.293462 0.444343
0.0493935 0.307637 0.432944
0.0383154 0.321798 0.421546
0.0272374 0.335958 0.410147
0.016144 0.350118 0.398749
0.005066 0.364294 0.38735
0 0.378454 0.375952
0 0.392615 0.364553
0 0.40679 0.353155
0 0.420951 0.341756
0 0.435111 0.330358
0 0.449287 0.318959
0 0.463447 0.307561
0 0.477607 0.296162
0 0.491783 0.284764
0 0.505943 0.273365
0 0.520104 0.261967
0 0.534279 0.250568
0 0.54844 0.23917
0 0.5626 0.227771
0 0.576776 0.216373
0 0.590936 0.204974
0 0.605097 0.193576
0 0.619257 0.182177
0 0.633433 0.170779
0 0.647593 0.15938
0 0.661753 0.147982
0.139651 0.229328 0.564004
0.128588 0.243488 0.552621
0.117494 0.257649 0.541222
0.106416 0.271824 0.529824
0.0953384 0.285985 0.518425
0.0842603 0.300145 0.507027
0.073167 0.314321 0.495628
0.062089 0.328481 0.48423
0.0510109 0.342641 0.472831
0.0399329 0.356802 0.461433
0.0288396 0.370977 0.450034
0.0177615 0.385138 0.438636
0.00668345 0.399298 0.427237
0 0.413474 0.415839
0 0.427634 0.40444
0 0.441794 0.393042
0 0.45597 0.381643
0 0.47013 0.370245
0 0.484291 0.358831
0 0.498466 0.347433
0 0.512627 0.336034
0 0.526787 0.324636
0 0.540963 0.313237
0 0.555123 0.301839
0 0.569284 0.29044
0 0.583459 0.279042
0 0.59762 0.267643
0 0.61178 0.256245
0 0.625956 0.244846
0 0.640116 0.233448
0 0.654276 0.222049
0 0.668437 0.210651
0 0.682612 0.199252
0.152361 0.250172 0.61529
0.141283 0.264332 0.603891
0.13019 0.278508 0.592493
0.119112 0.292668 0.581094
0.108034 0.306828 0.569696
0.0969558 0.321004 0.558297
0.0858625 0.335164 0.546899
0.0747845 0.349325 0.5355
0.0637064 0.363485 0.524102
0.0526284 0.377661 0.512703
0.0415351 0.391821 0.501305
0.030457 0.405982 0.489906
0.019379 0.420157 0.478508
0.00830091 0.434318 0.467109
0 0.448478 0.455711
0 0.462654 0.444312
0 0.476814 0.432914
0 0.490974 0.421515
0 0.50515 0.410117
0 0.51931 0.398718
0 0.533471 0.38732
0 0.547646 0.375921
0 0.561807 0.364523
0 0.575967 0.353124
0 0.590143 0.341726
0 0.604303 0.330327
0 0.618463 0.318929
0 0.632639 0.30753
0 0.646799 0.296132
0 0.66096 0.284733
0 0.67512 0.273335
0 0.689296 0.261936
0 0.703456 0.250538
0.165057 0.271031 0.66656
0.153979 0.285191 0.655177
0.142885 0.299351 0.643778
0.131807 0.313512 0.63238
0.120729 0.327688 0.620981
0.109651 0.341848 0.609567
0.098558 0.356008 0.598169
0.08748 0.370184 0.58677
0.0764019 0.384344 0.575372
0.0653239 0.398505 0.563973
0.0542458 0.412665 0.552575
0.0431525 0.426841 0.541176
0.0320745 0.441001 0.529778
0.0209964 0.455161 0.51838
0.00991836 0.469337 0.506981
0 0.483497 0.495583
0 0.497658 0.484184
0 0.511833 0.472786
0 0.525994 0.461387
0 0.540154 0.449989
0 0.55433 0.43859
0 0.56849 0.427192
0 0.58265 0.415793
0 0.596826 0.404395
0 0.610986 0.392996
0 0.625147 0.381598
0 0.639323 0.370199
0 0.653483 0.358801
0 0.667643 0.347402
0 0.681819 0.336004
0 0.695979 0.324605
0 0.71014 0.313207
0 0.7243 0.301808
0.177752 0.291875 0.717845
0.166674 0.306035 0.706447
0.155596 0.320195 0.695048
0.144503 0.334371 0.68365
0.133425 0.348531 0.672251
0.122347 0.362692 0.660853
0.111269 0.376867 0.649454
0.100175 0.391028 0.638056
0.0890974 0.405188 0.626657
0.0780194 0.419348 0.615259
0.0669413 0.433524 0.603861
0.055848 0.447684 0.592462
0.04477 0.461845 0.581064
0.0336919 0.47602 0.569665
0.0226139 0.490181 0.558267
0.0115206 0.504341 0.546868
0.000442512 0.518517 0.53547
0 0.532677 0.524071
0 0.546838 0.512673
0 0.561013 0.501274
0 0.575174 0.489876
0 0.589334 0.478477
0 0.60351 0.467079
0 0.61767 0.45568
0 0.63183 0.444282
0 0.646006 0.432868
0 0.660166 0.421469
0 0.674327 0.410071
0 0.688502 0.398672
0 0.702663 0.387274
0 0.716823 0.375875
0 0.730983 0.364477
0 0.745159 0.353079
0.190448 0.312718 0.769116
0.17937 0.326879 0.757717
0.168292 0.341054 0.746319
0.157198 0.355215 0.73492
0.14612 0.369375 0.723522
0.135042 0.383551 0.712123
0.123964 0.397711 0.700725
0.112871 0.411872 0.689326
0.101793 0.426047 0.677928
0.0907149 0.440208 0.666529
0.0796368 0.454368 0.655131
0.0685435 0.468528 0.643732
0.0574655 0.482704 0.632334
0.0463874 0.496864 0.620935
0.0353094 0.511025 0.609537
0.0242161 0.5252 0.598138
0.013138 0.539361 0.58674
0.00205997 0.553521 0.575341
0 0.567697 0.563943
0 0.581857 0.552544
0 0.596017 0.541146
0 0.610193 0.529747
0 0.624353 0.518349
0 0.638514 0.50695
0 0.652689 0.495552
0 0.66685 0.484154
0 0.68101 0.472755
0 0.695186 0.461357
0 0.709346 0.449958
0 0.723507 0.43856
0 0.737682 0.427161
0 0.751842 0.415763
0 0.766003 0.404364
0.203143 0.333577 0.820386
0.192065 0.347738 0.809003
0.180987 0.361898 0.797604
0.169894 0.376059 0.786206
0.158816 0.390234 0.774807
0.147738 0.404395 0.763409
0.13666 0.418555 0.75201
0.125566 0.432731 0.740612
0.114488 0.446891 0.729213
0.10341 0.461051 0.717815
0.0923323 0.475212 0.706416
0.0812543 0.489387 0.695018
0.070161 0.503548 0.683604
0.0590829 0.517708 0.672206
0.0480049 0.531884 0.660807
0.0369268 0.546044 0.649409
0.0258335 0.560204 0.63801
0.0147555 0.57438 0.626612
0.00367742 0.58854 0.615213
0 0.602701 0.603815
0 0.616876 0.592416
0 0.631037 0.581018
0 0.645197 0.569619
0 0.659373 0.558221
0 0.673533 0.546822
0 0.687694 0.535424
0 0.701869 0.524025
0 0.71603 0.512627
0 0.73019 0.501228
0 0.744366 0.48983
0 0.758526 0.478431
0 0.772686 0.467033
0 0.786847 0.455634
0.215839 0.354421 0.871672
0.204761 0.368582 0.860273
0.193683 0.382742 0.848875
0.182605 0.396918 0.837476
0.171511 0.411078 0.826078
0.160433 0.425238 0.814679
0.149355 0.439414 0.803281
0.138277 0.453574 0.791882
0.127184 0.467735 0.780484
0.116106 0.48191 0.769085
0.105028 0.496071 0.757687
0.0939498 0.510231 0.746288
0.0828565 0.524392 0.73489
0.0717784 0.538567 0.723491
0.0607004 0.552728 0.712093
0.0496223 0.566888 0.700694
0.038529 0.581064 0.689296
0.027451 0.595224 0.677897
0.0163729 0.609384 0.666499
0.00529488 0.62356 0.6551
0 0.63772 0.643702
0 0.651881 0.632303
0 0.666056 0.620905
0 0.680217 0.609506
0 0.694377 0.598108
0 0.708553 0.586709
0 0.722713 0.575311
0 0.736873 0.563912
0 0.751049 0.552514
0 0.765209 0.541115
0 0.77937 0.529717
0 0.793545 0.518318
0 0.807706 0.506905
0.228534 0.375265 0.922942
0.217456 0.389425 0.911543
0.206378 0.403601 0.900145
0.1953 0.417762 0.888747
0.184207 0.431922 0.877348
0.173129 0.446097 0.86595
0.162051 0.460258 0.854551
0.150973 0.474418 0.843153
0.139879 0.488594 0.831754
0.128801 0.502754 0.820356
0.117723 0.516915 0.808957
0.106645 0.531075 0.797559
0.095552 0.545251 0.78616
0.0844739 0.559411 0.774762
0.0733959 0.573571 0.763363
0.0623178 0.587747 0.751965
0.0512245 0.601907 0.740566
0.0401465 0.616068 0.729168
0.0290684 0.630243 0.717769
0.0179904 0.644404 0.706371
0.00689708 0.658564 0.694972
0 0.67274 0.683574
0 0.6869 0.672175
0 0.70106 0.660777
0 0.715236 0.649378
0 0.729397 0.63798
0 0.743557 0.626581
0 0.757733 0.615183
0 0.771893 0.603784
0 0.786053 0.592386
0 0.800229 0.580987
0 0.814389 0.569589
0 0.82855 0.55819
0.24123 0.396124 0.974212
0.230152 0.410285 0.962829
0.219074 0.424445 0.951431
0.207996 0.438605 0.940032
0.196902 0.452781 0.928634
0.185824 0.466941 0.917235
0.174746 0.481102 0.905837
0.163668 0.495277 0.894438
0.152575 0.509438 0.88304
0.141497 0.523598 0.871641
0.130419 0.537774 0.860243
0.119341 0.551934 0.848844
0.108248 0.566094 0.837446
0.0971695 0.580255 0.826047
0.0860914 0.59443 0.814649
0.0750134 0.608591 0.80325
0.0639353 0.622751 0.791852
0.052842 0.636927 0.780453
0.0417639 0.651087 0.769039
0.0306859 0.665248 0.757641
0.0196078 0.679423 0.746242
0.00851453 0.693584 0.734844
0 0.707744 0.723445
0 0.72192 0.712047
0 0.73608 0.700648
0 0.75024 0.68925
0 0.764416 0.677852
0 0.778576 0.666453
0 0.792737 0.655055
0 0.806912 0.643656
0 0.821073 0.632258
0 0.835233 0.620859
0 0.849409 0.609461
0.253925 0.416968 1
0.242847 0.431128 1
0.231769 0.445289 1
0.220691 0.459464 0.991302
0.209598 0.473625 0.979904
0.19852 0.487785 0.968505
0.187442 0.501961 0.957107
0.176364 0.516121 0.945708
0.165286 0.530282 0.93431
0.154192 0.544457 0.922911
0.143114 0.558618 0.911513
0.132036 0.572778 0.900114
0.120958 0.586938 0.888716
0.109865 0.601114 0.877317
0.0987869 0.615274 0.865919
0.0877089 0.629435 0.85452
0.0766308 0.64361 0.843122
0.0655375 0.657771 0.831724
0.0544594 0.671931 0.820325
0.0433814 0.686107 0.808927
0.0323033 0.700267 0.797528
0.02121 0.714427 0.78613
0.010132 0.728603 0.774731
0 0.742763 0.763333
0 0.756924 0.751934
0 0.771099 0.740536
0 0.78526 0.729137
0 0.79942 0.717739
0 0.813596 0.70634
0 0.827756 0.694942
0 0.841917 0.683543
0 0.856092 0.672145
0 0.870253 0.660746
0.266621 0.437812 1
0.255543 0.451972 1
0.244465 0.466148 1
0.233387 0.480308 1
0.222309 0.494469 1
0.211215 0.508644 1
0.200137 0.522805 1
0.189059 0.536965 0.996979
0.177981 0.551141 0.98558
0.166888 0.565301 0.974182
0.15581 0.579461 0.962783
0.144732 0.593637 0.951385
0.133654 0.607797 0.939986
0.12256 0.621958 0.928588
0.111482 0.636118 0.917189
0.100404 0.650294 0.905791
0.0893263 0.664454 0.894392
0.078233 0.678614 0.882994
0.067155 0.69279 0.871595
0.0560769 0.70695 0.860197
0.0449989 0.721111 0.848798
0.0339055 0.735286 0.8374
0.0228275 0.749447 0.826001
0.0117494 0.763607 0.814603
0.000671397 0.777783 0.803204
0 0.791943 0.791806
0 0.806104 0.780407
0 0.820279 0.769009
0 0.83444 0.75761
0 0.8486 0.746212
0 0.862776 0.734813
0 0.876936 0.723415
0 0.891096 0.712016
0.279316 0.458671 1
0.268238 0.472831 1
0.25716 0.486992 1
0.246082 0.501152 1
0.235004 0.515328 1
0.223911 0.529488 1
0.212833 0.543648 1
0.201755 0.557824 1
0.190677 0.571984 1
0.179583 0.586145 1
0.168505 0.60032 1
0.157427 0.614481 1
0.146349 0.628641 0.991272
0.135256 0.642802 0.979873
0.124178 0.656977 0.968475
0.1131 0.671138 0.957076
0.102022 0.685298 0.945678
0.0909438 0.699474 0.934279
0.0798505 0.713634 0.922881
0.0687724 0.727794 0.911482
0.0576944 0.74197 0.900084
0.0466163 0.75613 0.888685
0.035523 0.770291 0.877287
0.024445 0.784466 0.865888
0.0133669 0.798627 0.854475
0.00228885 0.812787 0.843076
0 0.826963 0.831678
0 0.841123 0.820279
0 0.855283 0.808881
0 0.869459 0.797482
0 0.883619 0.786084
0 0.89778 0.774685
0 0.911955 0.763287
0.292012 0.479515 1
0.280934 0.493675 1
0.269856 0.507836 1
0.258778 0.522011 1
0.2477 0.536171 1
0.236606 0.550332 1
0.225528 0.564508 1
0.21445 0.578668 1
0.203372 0.592828 1
0.192294 0.607004 1
0.181201 0.621164 1
0.170123 0.635325 1
0.159045 0.6495 1
0.147967 0.663661 1
0.136873 0.677821 1
0.125795 0.691981 1
0.114717 0.706157 0.996948
0.103639 0.720317 0.98555
0.092546 0.734478 0.974151
0.0814679 0.748653 0.962753
0.0703899 0.762814 0.951354
0.0593118 0.776974 0.939956
0.0482185 0.79115 0.928557
0.0371405 0.80531 0.917159
0.0260624 0.819471 0.90576
0.0149844 0.833646 0.894362
0.00389105 0.847807 0.882963
0 0.861967 0.871565
0 0.876143 0.860166
0 0.890303 0.848768
0 0.904463 0.837369
0 0.918639 0.825971
0 0.932799 0.814572
0.304707 0.500359 1
0.293645 0.514519 1
0.282551 0.528695 1
0.271473 0.542855 1
0.260395 0.557015 1
0.249317 0.571191 1
0.238224 0.585351 1
0.227146 0.599512 1
0.216068 0.613687 1
0.20499 0.627848 1
0.193896 0.642008 1
0.182818 0.656184 1
0.17174 0.670344 1
0.160662 0.684504 1
0.149569 0.698665 1
0.138491 0.71284 1
0.127413 0.727001 1
0.116335 0.741161 1
0.105241 0.755337 1
0.0941634 0.769497 1
0.0830854 0.783658 1
0.0720073 0.797833 0.991226
0.060914 0.811994 0.979828
0.049836 0.826154 0.968429
0.0387579 0.84033 0.957031
0.0276799 0.85449 0.945632
0.0165866 0.86865 0.934234
0.00550851 0.882826 0.922835
0 0.896986 0.911437
0 0.911147 0.900038
0 0.925322 0.88864
0 0.939483 0.877241
0 0.953643 0.865843
0.317403 0.521218 1
0.30634 0.535378 1
0.295247 0.549538 1
0.284169 0.563699 1
0.273091 0.577874 1
0.262013 0.592035 1
0.250919 0.606195 1
0.239841 0.620371 1
0.228763 0.634531 1
0.217685 0.648692 1
0.206592 0.662867 1
0.195514 0.677028 1
0.184436 0.691188 1
0.173358 0.705364 1
0.162264 0.719524 1
0.151186 0.733684 1
0.140108 0.747845 1
0.12903 0.76202 1
0.117937 0.776181 1
0.106859 0.790341 1
0.0957809 0.804517 1
0.0847028 0.818677 1
0.0736248 0.832837 1
0.0625315 0.847013 1
0.0514534 0.861173 1
0.0403754 0.875334 0.996918
0.0292973 0.889509 0.985519
0.018204 0.90367 0.974121
0.00712596 0.91783 0.962722
0 0.932006 0.951324
0 0.946166 0.939925
0 0.960327 0.928512
0 0.974502 0.917113
0.330114 0.542062 1
0.319036 0.556222 1
0.307942 0.570382 1
0.296864 0.584558 1
0.285786 0.598718 1
0.274708 0.612879 1
0.263615 0.627054 1
0.252537 0.641215 1
0.241459 0.655375 1
0.230381 0.669551 1
0.219287 0.683711 1
0.208209 0.697871 1
0.197131 0.712047 1
0.186053 0.726207 1
0.174975 0.740368 1
0.163882 0.754528 1
0.152804 0.768704 1
0.141726 0.782864 1
0.130648 0.797024 1
0.119554 0.8112 1
0.108476 0.82536 1
0.0973983 0.839521 1
0.0863203 0.853697 1
0.075227 0.867857 1
0.0641489 0.882017 1
0.0530709 0.896193 1
0.0419928 0.910353 1
0.0308995 0.924514 1
0.0198215 0.938689 1
0.00874342 0.95285 1
0 0.96701 0.991196
0 0.981186 0.979797
0 0.995346 0.968399
0.342809 0.562921 1
0.331731 0.577066 1
0.320653 0.591241 1
0.30956 0.605402 1
0.298482 0.619562 1
0.287404 0.633738 1
0.276326 0.647898 1
0.265232 0.662058 1
0.254154 0.676234 1
