public/LUTS/Color Shift/ColorShift_32.cube
TITLE "Generated by Resolve"
LUT_3D_SIZE 5
0 0 0
0.193637 0 0.196185
0.387304 0 0.39237
0.580957 0 0.588571
0.774609 0 0.784756
0.248417 0.1832 0
0.442054 0.174884 0.135973
0.635721 0.166567 0.332174
0.829374 0.158236 0.528359
1 0.14992 0.724559
0.496849 0.366415 0
0.690486 0.358099 0.0757763
0.884153 0.349783 0.271977
1 0.341451 0.468162
1 0.333135 0.664347
0.745281 0.54963 0
0.938918 0.541314 0.0155795
1 0.532982 0.211765
1 0.524666 0.407965
1 0.51635 0.60415
0.993713 0.732845 0
1 0.724529 0
1 0.716197 0.151568
1 0.707881 0.347753
1 0.699565 0.543954
0 0.0751049 0.114015
0.00157168 0.0667887 0.310185
0.195224 0.0584726 0.506386
0.388876 0.0501411 0.702571
0.582544 0.041825 0.898756
0.0563516 0.258305 0.0538033
0.249989 0.249989 0.249989
0.443641 0.241672 0.446174
0.637293 0.233341 0.642374
0.830961 0.225025 0.83856
0.304784 0.44152 0
0.498421 0.433204 0.189792
0.692073 0.424887 0.385977
0.885725 0.416556 0.582162
1 0.40824 0.778363
0.553216 0.624735 0
0.746853 0.616419 0.12958
0.940505 0.608103 0.32578
1 0.599771 0.521965
1 0.591455 0.718166
0.801648 0.80795 0
0.995285 0.799634 0.0693828
1 0.791302 0.265568
1 0.782986 0.461769
1 0.77467 0.657954
0 0.15021 0.228016
0 0.141894 0.424201
0.00314336 0.133577 0.620401
0.196796 0.125261 0.816587
0.390448 0.11693 1
0 0.333425 0.167819
0.057908 0.325093 0.364004
0.25156 0.316777 0.560189
0.445212 0.308461 0.75639
0.638865 0.300145 0.952575
0.112688 0.516625 0.107622
0.30634 0.508309 0.303807
0.499992 0.499992 0.499992
0.693645 0.491676 0.696178
0.887297 0.483345 0.892378
0.36112 0.69984 0.047425
0.554772 0.691524 0.243595
0.748425 0.683207 0.439796
0.942077 0.674891 0.635981
1 0.66656 0.832166
0.609552 0.883055 0
0.803204 0.874739 0.183398
0.996857 0.866423 0.379583
1 0.858106 0.575784
1 0.849775 0.771969
0 0.22533 0.342031
0 0.217014 0.538216
0 0.208682 0.734417
0.00471504 0.200366 0.930602
0.198367 0.19205 1
0 0.40853 0.281834
0 0.400214 0.478019
0.0594797 0.391897 0.674205
0.253132 0.383566 0.870405
0.446784 0.37525 1
0 0.591745 0.221637
0.11426 0.583429 0.417823
0.307912 0.575097 0.614008
0.501564 0.566781 0.810193
0.695216 0.558465 1
0.169039 0.77496 0.161425
0.362692 0.766644 0.35761
0.556344 0.758312 0.553811
0.749996 0.749996 0.749996
0.943648 0.74168 0.946181
0.417472 0.958175 0.101228
0.611124 0.949844 0.297414
0.804776 0.941527 0.493599
0.998428 0.933211 0.689799
1 0.924895 0.885985
0 0.300435 0.456046
0 0.292119 0.652232
0 0.283803 0.848417
0 0.275471 1
0.00628672 0.267155 1
0 0.483635 0.39585
0 0.475319 0.592035
0 0.467002 0.78822
0.0610513 0.458686 0.984421
0.254704 0.450355 1
0 0.66685 0.335653
0 0.658534 0.531823
0.115831 0.650217 0.728023
0.309483 0.641886 0.924208
0.503136 0.63357 1
0 0.850065 0.275441
0.170596 0.841749 0.471626
0.364263 0.833432 0.667826
0.557916 0.825101 0.864012
0.751568 0.816785 1
0.225391 1 0.215244
0.419028 1 0.411429
0.612696 1 0.607614
0.806348 1 0.803815
1 1 1
