public/LUTS/Color Shift/ColorShift_07.cube
TITLE "Generated by Resolve"
LUT_3D_SIZE 5
0 0 0
0 0.117983 0
0 0.235981 0
0 0.353979 0
0 0.471977 0
0.163577 0.146883 0.420294
0.0426032 0.264866 0.36817
0 0.382864 0.316045
0 0.500862 0.263905
0 0.61886 0.21178
0.327153 0.293767 0.840635
0.206195 0.411749 0.788495
0.0852216 0.529747 0.73637
0 0.647745 0.68423
0 0.765743 0.632105
0.490745 0.44065 1
0.369772 0.558648 1
0.248814 0.676631 1
0.12784 0.794629 1
0.00686656 0.912627 1
0.654322 0.587549 1
0.533364 0.705531 1
0.41239 0.823529 1
0.291417 0.941527 1
0.170443 1 1
0.207385 0 0
0.0864118 0.103105 0
0 0.221103 0
0 0.339101 0
0 0.457099 0
0.370947 0.132006 0.302113
0.249989 0.249989 0.249989
0.129015 0.367987 0.197864
0.0080415 0.485985 0.145724
0 0.603967 0.0935988
0.534539 0.278889 0.722438
0.413565 0.396872 0.670314
0.292607 0.51487 0.618189
0.171633 0.632868 0.566049
0.05066 0.750866 0.513924
0.698116 0.425772 1
0.577157 0.54377 1
0.456184 0.661753 1
0.33521 0.779751 0.986374
0.214237 0.897749 0.934249
0.861708 0.572671 1
0.740734 0.690654 1
0.619776 0.808652 1
0.498802 0.92665 1
0.377829 1 1
0.414771 0 0
0.293812 0.0882277 0
0.172839 0.206226 0
0.0518654 0.324224 0
0 0.442222 0
0.578347 0.117128 0.183932
0.457374 0.235111 0.131792
0.336416 0.353109 0.0796674
0.215442 0.471107 0.0275273
0.0944686 0.58909 0
0.741924 0.264012 0.604257
0.620966 0.381994 0.552117
0.499992 0.499992 0.499992
0.379019 0.61799 0.447868
0.258045 0.735988 0.395727
0.905516 0.410895 1
0.784543 0.528878 0.972457
0.663569 0.646876 0.920317
0.542611 0.764874 0.868193
0.421637 0.882872 0.816052
1 0.557778 1
0.948135 0.675776 1
0.827161 0.793774 1
0.706188 0.911757 1
0.585214 1 1
0.622156 0 0
0.501198 0.0733501 0
0.380224 0.191348 0
0.259251 0.309346 0
0.138277 0.427344 0
0.785733 0.102235 0.0657359
0.664775 0.220233 0.013611
0.543801 0.338231 0
0.422827 0.456214 0
0.301854 0.574212 0
0.949325 0.249134 0.486061
0.828351 0.367117 0.433936
0.707378 0.485115 0.381796
0.586419 0.603113 0.329671
0.465446 0.721111 0.277531
1 0.396017 0.906386
0.991943 0.514 0.854261
0.87097 0.631998 0.802121
0.749996 0.749996 0.749996
0.629023 0.867994 0.697871
1 0.542901 1
1 0.660899 1
1 0.778881 1
0.913573 0.89688 1
0.792615 1 1
0.829557 0 0
0.708583 0.0584726 0
0.58761 0.176471 0
0.466651 0.294469 0
0.345678 0.412451 0
0.993118 0.0873579 0
0.87216 0.205356 0
0.751186 0.323354 0
0.630213 0.441337 0
0.509255 0.559335 0
1 0.234257 0.367864
1 0.352239 0.31574
0.914778 0.470237 0.263615
0.793805 0.588235 0.211475
0.672831 0.706218 0.15935
1 0.38114 0.78819
1 0.499123 0.736065
1 0.617121 0.68394
0.957382 0.735119 0.6318
0.836423 0.853117 0.579675
1 0.528023 1
1 0.646021 1
1 0.764004 1
1 0.882002 1
1 1 1
