public/LUTS/Color Shift/ColorShift_19.cube
TITLE "Generated by Resolve"
LUT_3D_SIZE 5
0 0 0
0.149416 0.0461128 0
0.298848 0.0922255 0
0.44828 0.138338 0
0.597711 0.184451 0
0 0.249561 0.180713
0.0734112 0.295674 0.0567178
0.222843 0.341787 0
0.372274 0.3879 0
0.521706 0.434012 0
0 0.499123 0.361456
0 0.545235 0.237446
0.146838 0.591348 0.113436
0.296254 0.637476 0
0.445686 0.683589 0
0 0.748699 0.542184
0 0.794812 0.418173
0.0708171 0.840925 0.294163
0.220249 0.887037 0.170153
0.36968 0.93315 0.0461433
0 0.998276 0.722911
0 1 0.598901
0 1 0.474891
0.144244 1 0.350881
0.293675 1 0.226871
0.176577 0 0.193271
0.325994 0.000427253 0.069276
0.475425 0.04654 0
0.624857 0.092668 0
0.774289 0.138781 0
0.100572 0.203876 0.373999
0.249989 0.249989 0.249989
0.39942 0.296101 0.125978
0.548852 0.342214 0.00196841
0.698283 0.388342 0
0.0245518 0.453452 0.554726
0.173983 0.499565 0.430716
0.3234 0.545678 0.306706
0.472831 0.591791 0.182696
0.622263 0.637903 0.0586862
0 0.703014 0.735454
0.0979629 0.749126 0.611444
0.247395 0.795254 0.487434
0.396826 0.841367 0.363424
0.546258 0.88748 0.239414
0 0.95259 0.916182
0.0219577 0.998703 0.792187
0.171389 1 0.668177
0.320821 1 0.544167
0.470237 1 0.420157
0.353155 0 0.386557
0.502586 0 0.262547
0.652003 0.000869764 0.138537
0.801434 0.0469825 0.0145266
0.950866 0.0930953 0
0.27715 0.15819 0.567269
0.426581 0.204303 0.443275
0.575998 0.250416 0.319265
0.725429 0.296529 0.195254
0.874861 0.342657 0.0712444
0.201144 0.407767 0.748012
0.350561 0.45388 0.624002
0.499992 0.499992 0.499992
0.649424 0.546105 0.375982
0.798856 0.592218 0.251972
0.125124 0.657343 0.92874
0.274556 0.703456 0.80473
0.423987 0.749569 0.68072
0.573404 0.795682 0.55671
0.722835 0.841794 0.4327
0.0491188 0.906905 1
0.198535 0.953017 0.985458
0.347967 0.99913 0.861448
0.497398 1 0.737438
0.64683 1 0.613428
0.529747 0 0.579843
0.679164 0 0.455833
0.828595 0 0.331823
0.978027 0.00129702 0.207813
1 0.0474098 0.0838026
0.453742 0.112505 0.760555
0.603159 0.158618 0.636561
0.75259 0.20473 0.512551
0.902022 0.250858 0.38854
1 0.296971 0.26453
0.377722 0.362081 0.941283
0.527153 0.408194 0.817288
0.676585 0.454307 0.693278
0.826001 0.50042 0.569268
0.975433 0.546532 0.445258
0.301717 0.611658 1
0.451133 0.657771 0.998016
0.600565 0.703883 0.874006
0.749996 0.749996 0.749996
0.899428 0.796109 0.625986
0.225711 0.861219 1
0.375128 0.907332 1
0.524559 0.95346 1
0.673991 0.999573 0.930724
0.823407 1 0.806714
0.706325 0 0.773129
0.855756 0 0.649119
1 0 0.525109
1 0 0.401099
1 0.00172427 0.277089
0.63032 0.0668345 0.953841
0.779751 0.112932 0.829831
0.929168 0.15906 0.705821
1 0.205173 0.581811
1 0.251286 0.457801
0.554314 0.316396 1
0.703731 0.362509 1
0.853162 0.408621 0.886564
1 0.454734 0.762554
1 0.500862 0.638544
0.478309 0.565972 1
0.627726 0.612085 1
0.777157 0.658198 1
0.926589 0.704311 0.943282
1 0.750423 0.819272
0.402289 0.815549 1
0.551705 0.861646 1
0.701137 0.907774 1
0.850568 0.953887 1
1 1 1
