public/LUTS/Color Shift/ColorShift_71.cube
TITLE "Generated by Resolve"
LUT_3D_SIZE 5
0 0 0
0.344228 0 0
0.688472 0 0
1 0 0
1 0 0
0 0.312978 0
0.141726 0.3019 0
0.485969 0.290806 0
0.830213 0.279728 0
1 0.268635 0
0 0.625986 0
0 0.614908 0
0.283467 0.603815 0
0.62771 0.592737 0
0.971954 0.581643 0
0 0.938994 0
0 0.927901 0
0.0809644 0.916823 0
0.425208 0.90573 0
0.769451 0.894652 0
0 1 0
0 1 0
0 1 0
0.222721 1 0
0.566949 1 0
0.108263 0 0.401144
0.452476 0 0.267475
0.796719 0 0.133791
1 0 0.000106813
1 0 0
0 0.261067 0.383673
0.249989 0.249989 0.249989
0.594232 0.238911 0.116304
0.938476 0.227817 0
1 0.216739 0
0 0.574075 0.366186
0.0474861 0.562997 0.232502
0.39173 0.551904 0.0988174
0.735973 0.540825 0
1 0.529732 0
0 0.887083 0.348699
0 0.87599 0.21503
0.189227 0.864912 0.0813458
0.533471 0.853819 0
0.877714 0.842741 0
0 1 0.331212
0 1 0.197543
0 1 0.063859
0.330968 1 0
0.675212 1 0
0.216526 0 0.802319
0.560739 0 0.668635
0.904982 0 0.534951
1 0 0.401266
1 0 0.267582
0.014023 0.209155 0.784833
0.358251 0.198077 0.651164
0.702495 0.186984 0.517479
1 0.175906 0.383795
1 0.164813 0.250111
0 0.522164 0.767361
0.155749 0.51107 0.633677
0.499992 0.499992 0.499992
0.844236 0.488899 0.366308
1 0.477821 0.232624
0 0.835172 0.749874
0 0.824079 0.61619
0.29749 0.813001 0.482506
0.641733 0.801907 0.348821
0.985977 0.790829 0.215137
0 1 0.732387
0 1 0.598718
0.0949874 1 0.465034
0.439231 1 0.33135
0.783475 1 0.197665
0.324788 0 1
0.669001 0 1
1 0 0.936126
1 0 0.802441
1 0 0.668757
0.122286 0.157244 1
0.466514 0.146166 1
0.810758 0.135073 0.918639
1 0.123995 0.784955
1 0.112902 0.65127
0 0.470253 1
0.264012 0.459159 1
0.608255 0.448081 0.901167
0.952499 0.436988 0.767483
1 0.42591 0.633799
0 0.783246 1
0.0615091 0.772168 1
0.405753 0.761074 0.88368
0.749996 0.749996 0.749996
1 0.738918 0.616312
0 1 1
0 1 0.999878
0.20325 1 0.866194
0.547494 1 0.732509
0.891737 1 0.598825
0.433051 0 1
0.777264 0 1
1 0 1
1 0 1
1 0 1
0.230549 0.105333 1
0.574777 0.094255 1
0.91902 0.0831617 1
1 0.0720836 1
1 0.0609903 1
0.0280461 0.418341 1
0.372274 0.407248 1
0.716518 0.39617 1
1 0.385077 1
1 0.373999 1
0 0.731334 1
0.169772 0.720256 1
0.514015 0.709163 1
0.858259 0.698085 1
1 0.686992 1
0 1 1
0 1 1
0.311513 1 1
0.655756 1 1
1 1 1
