public/LUTS/Color Shift/ColorShift_51.cube
TITLE "Generated by Resolve"
LUT_3D_SIZE 5
0 0 0
0 0.158679 0.0360723
0 0.317357 0.0721599
0 0.476036 0.108248
0 0.63473 0.14432
0.363363 0.0704814 0.548379
0.068986 0.229145 0.584451
0 0.387839 0.620539
0 0.546517 0.656611
0 0.705196 0.692699
0.726757 0.140948 1
0.432364 0.299626 1
0.137957 0.45832 1
0 0.616999 1
0 0.775677 1
1 0.211429 1
0.795758 0.370108 1
0.50135 0.528786 1
0.206943 0.68748 1
0 0.846159 1
1 0.28191 1
1 0.440589 1
0.864729 0.599268 1
0.570336 0.757961 1
0.275929 0.91664 1
0.181003 0.0208438 0
0 0.179507 0
0 0.338201 0
0 0.49688 0
0 0.655558 0
0.544366 0.09131 0.213916
0.249989 0.249989 0.249989
0 0.408667 0.286076
0 0.567361 0.322148
0 0.72604 0.358236
0.907759 0.161791 0.76231
0.613367 0.32047 0.798398
0.318975 0.479149 0.83447
0.024567 0.637842 0.870558
0 0.796521 0.906645
1 0.232273 1
0.976761 0.390951 1
0.682353 0.54963 1
0.387961 0.708309 1
0.0935531 0.867002 1
1 0.302754 1
1 0.461433 1
1 0.620111 1
0.751339 0.77879 1
0.456947 0.937484 1
0.362036 0.0416724 0
0.0676432 0.200351 0
0 0.359045 0
0 0.517723 0
0 0.676402 0
0.725399 0.112154 0
0.431006 0.270832 0
0.136614 0.429511 0
0 0.58819 0
0 0.746883 0.023743
1 0.182635 0.427832
0.7944 0.341314 0.463905
0.499992 0.499992 0.499992
0.205585 0.658671 0.53608
0 0.817365 0.572152
1 0.253117 0.976242
1 0.411795 1
0.863371 0.570474 1
0.568978 0.729152 1
0.274571 0.887846 1
1 0.323598 1
1 0.482261 1
1 0.640955 1
0.932357 0.799634 1
0.637964 0.958312 1
0.543053 0.0625162 0
0.248661 0.221195 0
0 0.379873 0
0 0.538567 0
0 0.697246 0
0.906416 0.132998 0
0.612024 0.291676 0
0.317632 0.450355 0
0.0232242 0.609033 0
0 0.767727 0
1 0.203479 0.0933394
0.975418 0.362142 0.129427
0.68101 0.520836 0.165515
0.386618 0.679515 0.201587
0.0922103 0.838193 0.237675
1 0.27396 0.641749
1 0.432624 0.677836
1 0.591318 0.713909
0.749996 0.749996 0.749996
0.455589 0.908675 0.786084
1 0.344427 1
1 0.503105 1
1 0.661799 1
1 0.820478 1
0.818982 0.979156 1
0.724071 0.08336 0
0.429679 0.242039 0
0.135286 0.400717 0
0 0.559396 0
0 0.71809 0
1 0.153841 0
0.793042 0.312505 0
0.49865 0.471199 0
0.204242 0.629877 0
0 0.788556 0
1 0.224323 0
1 0.382986 0
0.862028 0.54168 0
0.567636 0.700359 0
0.273228 0.859037 0
1 0.294789 0.307271
1 0.453468 0.343343
1 0.612146 0.379431
0.931014 0.77084 0.415518
0.636622 0.929519 0.451591
1 0.36527 0.85568
1 0.523949 0.891752
1 0.682628 0.92784
1 0.841321 0.963912
1 1 1
