public/LUTS/Color Shift/ColorShift_62.cube
TITLE "Generated by Resolve"
LUT_3D_SIZE 9
0 0 0
0.00302129 0.0548409 0
0.00602731 0.109682 0
0.0090486 0.164538 0
0.0120699 0.219379 0
0.0150912 0.274235 0
0.0180972 0.329076 0
0.0211185 0.383917 0
0.0241398 0.438773 0
0 0.122347 0.214038
0 0.177188 0.0720989
0 0.232029 0
0 0.286885 0
0 0.341726 0
0 0.396582 0
0 0.451423 0
0 0.506264 0
0 0.56112 0
0 0.244709 0.428122
0 0.29955 0.286168
0 0.354391 0.144213
0 0.409247 0.00224308
0 0.464088 0
0 0.518929 0
0 0.573785 0
0 0.628626 0
0 0.683482 0
0 0.367071 0.642191
0 0.421912 0.500237
0 0.476753 0.358282
0 0.531609 0.216327
0 0.58645 0.0743572
0 0.641291 0
0 0.696147 0
0 0.750988 0
0 0.805844 0
0 0.489433 0.85626
0 0.544274 0.714305
0 0.599115 0.572351
0 0.653971 0.430396
0 0.708812 0.288426
0 0.763653 0.146471
0 0.818509 0.00450141
0 0.87335 0
0 0.928206 0
0 0.611795 1
0 0.666636 0.928389
0 0.721477 0.786419
0 0.776318 0.644465
0 0.831174 0.502495
0 0.886015 0.36054
0 0.940871 0.218585
0 0.995712 0.0766155
0 1 0
0 0.734157 1
0 0.788998 1
0 0.843839 1
0 0.89868 0.858534
0 0.953536 0.716564
0 1 0.574609
0 1 0.432654
0 1 0.290684
0 1 0.14873
0 0.856519 1
0 0.91136 1
0 0.966201 1
0 1 1
0 1 0.930648
0 1 0.788678
0 1 0.646723
0 1 0.504753
0 1 0.362799
0 0.978882 1
0 1 1
0 1 1
0 1 1
0 1 1
0 1 1
0 1 0.860792
0 1 0.718822
0 1 0.576867
0.204898 0 0.0528878
0.207919 0.00263981 0
0.210925 0.0574807 0
0.213947 0.112337 0
0.216968 0.167178 0
0.219989 0.222034 0
0.222995 0.276875 0
0.226017 0.331716 0
0.229038 0.386572 0
0.121965 0.0701457 0.266926
0.124987 0.124987 0.124987
0.128008 0.179828 0
0.131014 0.234684 0
0.134035 0.289525 0
0.137057 0.344381 0
0.140078 0.399222 0
0.143084 0.454063 0
0.146105 0.508919 0
0.0390326 0.192508 0.480995
0.0420539 0.247349 0.339055
0.0450599 0.30219 0.197101
0.0480812 0.357046 0.0551308
0.0511025 0.411887 0
0.0541238 0.466743 0
0.0571298 0.521584 0
0.0601511 0.576425 0
0.0631723 0.631281 0
0 0.31487 0.695079
0 0.369711 0.553124
0 0.424552 0.41117
0 0.479408 0.2692
0 0.534249 0.127245
0 0.58909 0
0 0.643946 0
0 0.698787 0
0 0.753643 0
0 0.437232 0.909148
0 0.492073 0.767193
0 0.546914 0.625238
0 0.60177 0.483284
0 0.656611 0.341314
0 0.711452 0.199359
0 0.766308 0.0573892
0 0.821149 0
0 0.876005 0
0 0.559594 1
0 0.614435 0.981262
0 0.669276 0.839307
0 0.724132 0.697353
0 0.778973 0.555383
0 0.833814 0.413428
0 0.88867 0.271458
0 0.943511 0.129503
0 0.998367 0
0 0.681956 1
0 0.736797 1
0 0.791638 1
0 0.846494 0.911421
0 0.901335 0.769451
0 0.956176 0.627497
0 1 0.485542
0 1 0.343572
0 1 0.201617
0 0.804318 1
0 0.859159 1
0 0.914 1
0 0.968841 1
0 1 0.98352
0 1 0.841566
0 1 0.699611
0 1 0.557641
0 1 0.415686
0 0.92668 1
0 0.981521 1
0 1 1
0 1 1
0 1 1
0 1 1
0 1 0.91368
0 1 0.77171
0 1 0.629755
0.409827 0 0.105776
0.412833 0 0
0.415854 0.00527962 0
0.418875 0.0601205 0
0.421897 0.114977 0
0.424903 0.169818 0
0.427924 0.224674 0
0.430945 0.279515 0
0.433951 0.334356 0
0.326894 0.0179446 0.319829
0.329915 0.0727855 0.177874
0.332921 0.127626 0.0359197
0.335943 0.182467 0
0.338964 0.237324 0
0.341985 0.292165 0
0.344991 0.347021 0
0.348013 0.401862 0
0.351034 0.456703 0
0.243961 0.140307 0.533898
0.246967 0.195148 0.391943
0.249989 0.249989 0.249989
0.25301 0.304829 0.108034
0.256016 0.359686 0
0.259037 0.414527 0
0.262058 0.469383 0
0.26508 0.524224 0
0.268086 0.579065 0
0.161013 0.262669 0.747967
0.164034 0.31751 0.606027
0.167056 0.372351 0.464057
0.170062 0.427192 0.322103
0.173083 0.482048 0.180133
0.176104 0.536889 0.0381781
0.179126 0.591745 0
0.182132 0.646586 0
0.185153 0.701427 0
0.0780804 0.385031 0.962036
0.0811017 0.439857 0.820096
0.0841077 0.494713 0.678126
0.087129 0.549554 0.536171
0.0901503 0.60441 0.394202
0.0931716 0.659251 0.252247
0.0961776 0.714092 0.110292
0.0991989 0.768948 0
0.10222 0.823789 0
0 0.507378 1
0 0.562219 1
0.00117494 0.617075 0.892195
0.00419623 0.671916 0.75024
0.00720226 0.726772 0.608286
0.0102235 0.781613 0.466316
0.0132448 0.836454 0.324361
0.0162661 0.89131 0.182391
0.0192721 0.946151 0.0404364
0 0.62974 1
0 0.684581 1
0 0.739437 1
0 0.794278 0.964309
0 0.849134 0.822354
0 0.903975 0.680385
0 0.958816 0.53843
0 1 0.39646
0 1 0.254505
0 0.752102 1
0 0.806943 1
0 0.861799 1
0 0.91664 1
0 0.971496 1
0 1 0.894453
0 1 0.752499
0 1 0.610544
0 1 0.468574
0 0.874464 1
0 0.929305 1
0 0.984161 1
0 1 1
0 1 1
0 1 1
0 1 0.966567
0 1 0.824613
0 1 0.682643
0.61474 0 0.158663
0.617761 0 0.0167239
0.620783 0 0
0.623789 0.00791943 0
0.62681 0.0627756 0
0.629831 0.117617 0
0.632853 0.172457 0
0.635859 0.227314 0
0.63888 0.282155 0
0.531823 0 0.372717
0.534829 0.0205692 0.230777
0.53785 0.0754253 0.0888075
0.540871 0.130266 0
0.543877 0.185122 0
0.546899 0.239963 0
0.54992 0.294804 0
0.552941 0.34966 0
0.555947 0.404501 0
0.448875 0.0880903 0.586786
0.451896 0.142931 0.444846
0.454917 0.197787 0.302876
0.457923 0.252628 0.160922
0.460945 0.307469 0.0189517
0.463966 0.362325 0
0.466987 0.417166 0
0.469993 0.472023 0
0.473014 0.526864 0
0.365942 0.210452 0.800855
0.368963 0.265293 0.658915
0.371969 0.32015 0.516945
0.37499 0.37499 0.37499
0.378012 0.429831 0.233036
0.381018 0.484688 0.0910658
0.384039 0.539528 0
0.38706 0.594385 0
0.390082 0.649226 0
0.282994 0.332815 1
0.286015 0.387655 0.872984
0.289036 0.442512 0.731029
0.292058 0.497353 0.589059
0.295064 0.552193 0.447105
0.298085 0.60705 0.305135
0.301106 0.661891 0.16318
0.304128 0.716747 0.02121
0.307134 0.771588 0
0.200061 0.455177 1
0.203082 0.510018 1
0.206104 0.564858 0.945098
0.20911 0.619715 0.803128
0.212131 0.674556 0.661173
0.215152 0.729412 0.519203
0.218158 0.784253 0.377249
0.22118 0.839094 0.235294
0.224201 0.89395 0.0933242
0.117128 0.577539 1
0.120134 0.63238 1
0.123156 0.687221 1
0.126177 0.742077 1
0.129198 0.796918 0.875242
0.132204 0.851774 0.733288
0.135225 0.906615 0.591318
0.138247 0.961456 0.449363
0.141268 1 0.307393
0.0341802 0.699901 1
0.0372015 0.754742 1
0.0402228 0.809583 1
0.0432441 0.864439 1
0.0462501 0.91928 1
0.0492714 0.974136 0.947356
0.0522927 1 0.805386
0.055314 1 0.663432
0.05832 1 0.521462
0 0.822263 1
0 0.877104 1
0 0.931945 1
0 0.986801 1
0 1 1
0 1 1
0 1 1
0 1 0.877501
0 1 0.735546
0.819669 0 0.211566
0.82269 0 0.0696117
0.825696 0 0
0.828717 0 0
0.831739 0.0105592 0
0.834745 0.0654154 0
0.837766 0.120256 0
0.840787 0.175097 0
0.843809 0.229953 0
0.736736 0 0.425605
0.739757 0 0.283665
0.742779 0.023209 0.141695
0.745785 0.0780652 0
0.748806 0.132906 0
0.751827 0.187762 0
0.754849 0.242603 0
0.757855 0.297444 0
0.760876 0.3523 0
0.653803 0.0358892 0.639673
0.656809 0.0907301 0.497734
0.659831 0.145571 0.355779
0.662852 0.200427 0.213809
0.665873 0.255268 0.0718547
0.668879 0.310124 0
0.671901 0.364965 0
0.674922 0.419806 0
0.677943 0.474662 0
0.570855 0.158251 0.853742
0.573877 0.213092 0.711803
0.576898 0.267933 0.569848
0.579919 0.322789 0.427878
0.582925 0.37763 0.285924
0.585946 0.432471 0.143954
0.588968 0.487327 0.00199893
0.591989 0.542168 0
0.594995 0.597025 0
0.487922 0.280613 1
0.490944 0.335454 0.925872
0.493965 0.390295 0.783917
0.496971 0.445151 0.641947
0.499992 0.499992 0.499992
0.503014 0.554833 0.358038
0.50602 0.609689 0.216068
0.509041 0.66453 0.0741131
0.512062 0.719387 0
0.40499 0.402975 1
0.407996 0.457816 1
0.411017 0.512657 0.997986
0.414038 0.567514 0.856031
0.41706 0.622354 0.714061
0.420066 0.677195 0.572106
0.423087 0.732052 0.430137
0.426108 0.786892 0.288182
0.429129 0.841749 0.146212
0.322042 0.525338 1
0.325063 0.580179 1
0.328084 0.635019 1
0.331106 0.68986 1
0.334112 0.744717 0.92813
0.337133 0.799558 0.786175
0.340154 0.854414 0.644205
0.34316 0.909255 0.502251
0.346181 0.964096 0.360296
0.239109 0.6477 1
0.24213 0.702541 1
0.245136 0.757382 1
0.248157 0.812222 1
0.251179 0.867079 1
0.2542 0.92192 1
0.257206 0.976776 0.858289
0.260227 1 0.71632
0.263249 1 0.574365
0.156176 0.770062 1
0.159182 0.824903 1
0.162203 0.879744 1
0.165225 0.934585 1
0.168246 0.989441 1
0.171252 1 1
0.174273 1 1
0.177295 1 0.930388
0.180316 1 0.788434
1 0 0.264454
1 0 0.122515
1 0 0
1 0 0
1 0 0
1 0.0131991 0
1 0.0680552 0
1 0.122896 0
1 0.177737 0
0.941665 0 0.478492
0.944671 0 0.336553
0.947692 0 0.194598
0.950713 0.0258488 0.0526284
0.953735 0.080705 0
0.956741 0.135546 0
0.959762 0.190402 0
0.962783 0.245243 0
0.965805 0.300084 0
0.858717 0 0.692576
0.861738 0.038529 0.550622
0.864759 0.09337 0.408667
0.867781 0.148211 0.266697
0.870787 0.203067 0.124743
0.873808 0.257908 0
0.876829 0.312764 0
0.87985 0.367605 0
0.882856 0.422446 0
0.775784 0.10605 0.906645
0.778805 0.160891 0.764691
0.781811 0.215732 0.622736
0.784833 0.270573 0.480781
0.787854 0.325429 0.338811
0.790875 0.38027 0.196857
0.793881 0.435126 0.0548867
0.796902 0.489967 0
0.799924 0.544808 0
0.692851 0.228412 1
0.695857 0.283238 0.978775
0.698878 0.338094 0.836805
0.7019 0.392935 0.69485
0.704921 0.447791 0.55288
0.707927 0.502632 0.410925
0.710948 0.557473 0.268956
0.71397 0.612329 0.127001
0.716991 0.66717 0
0.609903 0.350759 1
0.612924 0.4056 1
0.615946 0.460456 1
0.618967 0.515297 0.908919
0.621973 0.570153 0.766949
0.624994 0.624994 0.624994
0.628016 0.679835 0.48304
0.631022 0.734691 0.34107
0.634043 0.789532 0.199115
0.52697 0.473121 1
0.529992 0.527962 1
0.532998 0.582818 1
0.536019 0.637659 1
0.53904 0.692515 0.981033
0.542062 0.747356 0.839063
0.545068 0.802197 0.697108
0.548089 0.857053 0.555138
0.55111 0.911894 0.413184
0.444038 0.595483 1
0.447044 0.650324 1
0.450065 0.70518 1
0.453086 0.760021 1
0.456107 0.814878 1
0.459113 0.869718 1
0.462135 0.924559 0.911177
0.465156 0.979416 0.769207
0.468162 1 0.627253
0.361089 0.717845 1
0.364111 0.772686 1
0.367132 0.827543 1
0.370138 0.882383 1
0.373159 0.937224 1
0.376181 0.992081 1
0.379202 1 1
0.382208 1 0.983291
0.385229 1 0.841321
1 0 0.317342
1 0 0.175402
1 0 0.0334478
1 0 0
1 0 0
1 0 0
1 0.0158389 0
1 0.0706951 0
1 0.125536 0
1 0 0.531395
1 0 0.389441
1 0 0.247486
1 0 0.105531
1 0.0284886 0
1 0.0833448 0
1 0.138186 0
1 0.193042 0
1 0.247883 0
1 0 0.745464
1 0 0.603525
1 0.0411688 0.461555
1 0.0960098 0.3196
1 0.150851 0.17763
1 0.205707 0.0356756
1 0.260548 0
1 0.315404 0
1 0.370245 0
0.980713 0.0538338 0.959533
0.983719 0.108675 0.817594
0.98674 0.163531 0.675624
0.989761 0.218372 0.533669
0.992782 0.273213 0.391699
0.995789 0.328069 0.249744
0.99881 0.38291 0.10779
1 0.437766 0
1 0.492607 0
0.897765 0.176196 1
0.900786 0.231037 1
0.903807 0.285893 0.889693
0.906828 0.340734 0.747738
0.909834 0.395575 0.605783
0.912856 0.450431 0.463813
0.915877 0.505272 0.321859
0.918883 0.560128 0.179889
0.921904 0.614969 0.0379339
0.814832 0.298558 1
0.817853 0.353399 1
0.820859 0.40824 1
0.82388 0.463096 0.961807
0.826902 0.517937 0.819852
0.829923 0.572793 0.677882
0.832929 0.627634 0.535927
0.83595 0.682475 0.393957
0.838972 0.737331 0.252003
0.731899 0.42092 1
0.734905 0.475761 1
0.737926 0.530602 1
0.740948 0.585458 1
0.743969 0.640299 1
0.746975 0.695155 0.891951
0.749996 0.749996 0.749996
0.753017 0.804837 0.608042
0.756024 0.859693 0.466072
0.648951 0.543282 1
0.651972 0.598123 1
0.654994 0.652964 1
0.658 0.70782 1
0.661021 0.762661 1
0.664042 0.817517 1
0.667063 0.872358 0.964065
0.670069 0.927199 0.82211
0.673091 0.982055 0.68014
0.566018 0.665644 1
0.569039 0.720485 1
0.572045 0.775326 1
0.575067 0.830182 1
0.578088 0.885023 1
0.581109 0.939864 1
0.584115 0.99472 1
0.587137 1 1
0.590158 1 0.894209
1 0 0.370245
1 0 0.22829
1 0 0.0863355
1 0 0
1 0 0
1 0 0
1 0 0
1 0.0184787 0
1 0.0733349 0
1 0 0.584283
1 0 0.442344
1 0 0.300374
1 0 0.158419
1 0 0.0164645
1 0.0311437 0
1 0.0859846 0
1 0.140826 0
1 0.195682 0
1 0 0.798352
1 0 0.656413
1 0 0.514443
1 0.0438087 0.372488
1 0.0986496 0.230533
1 0.15349 0.0885634
1 0.208347 0
1 0.263188 0
1 0.318044 0
1 0.00163272 1
1 0.0564736 0.870481
1 0.111315 0.728527
1 0.166171 0.586557
1 0.221012 0.444602
1 0.275853 0.302632
1 0.330709 0.160678
1 0.38555 0.0187228
1 0.440406 0
1 0.123995 1
1 0.178836 1
1 0.233677 0.942596
1 0.288533 0.800626
1 0.343374 0.658671
1 0.398215 0.516701
1 0.453071 0.374746
1 0.507912 0.232792
1 0.562768 0.0908217
1 0.246357 1
1 0.301198 1
1 0.356039 1
1 0.410895 1
1 0.465736 0.87274
1 0.520577 0.730785
1 0.575433 0.588815
1 0.630274 0.44686
1 0.68513 0.304891
0.936812 0.368719 1
0.939834 0.42356 1
0.942855 0.478401 1
0.945861 0.533242 1
0.948882 0.588098 1
0.951904 0.642939 0.944854
0.954925 0.697795 0.802884
0.957931 0.752636 0.660929
0.960952 0.807477 0.518959
0.85388 0.491081 1
0.856901 0.545922 1
0.859907 0.600763 1
0.862928 0.655604 1
0.86595 0.71046 1
0.868971 0.765301 1
0.871977 0.820157 1
0.874998 0.874998 0.874998
0.878019 0.929839 0.733043
0.770947 0.613443 1
0.773953 0.668284 1
0.776974 0.723125 1
0.779995 0.777966 1
0.783001 0.832822 1
0.786023 0.887663 1
0.789044 0.942519 1
0.792065 0.99736 1
0.795071 1 0.947112
1 0 0.423133
1 0 0.281193
1 0 0.139223
1 0 0
1 0 0
1 0 0
1 0 0
1 0 0
1 0.0211185 0
1 0 0.637171
1 0 0.495232
1 0 0.353277
1 0 0.211307
1 0 0.0693523
1 0 0
1 0.0337835 0
1 0.0886244 0
1 0.143465 0
1 0 0.85124
1 0 0.7093
1 0 0.567346
1 0 0.425376
1 0.0464485 0.283421
1 0.101289 0.141466
1 0.156146 0
1 0.210986 0
1 0.265827 0
1 0 1
1 0.00427253 0.923369
1 0.0591135 0.781415
1 0.113954 0.639445
1 0.168811 0.49749
1 0.223651 0.355535
1 0.278492 0.213565
1 0.333349 0.0716106
1 0.38819 0
1 0.0717937 1
1 0.126619 1
1 0.181476 0.995483
1 0.236316 0.853529
1 0.291173 0.711559
1 0.346014 0.569604
1 0.400854 0.427634
1 0.455711 0.285679
1 0.510552 0.143725
1 0.194141 1
1 0.248981 1
1 0.303838 1
1 0.358679 1
1 0.413535 0.925628
1 0.468376 0.783673
1 0.523217 0.641703
1 0.578073 0.499748
1 0.632914 0.357794
1 0.316503 1
1 0.371344 1
1 0.4262 1
1 0.481041 1
1 0.535897 1
1 0.590738 0.997742
1 0.645579 0.855787
1 0.700435 0.713817
1 0.755276 0.571862
1 0.438865 1
1 0.493706 1
1 0.548562 1
1 0.603403 1
1 0.658244 1
1 0.7131 1
1 0.767941 1
1 0.822797 0.927886
1 0.877638 0.785931
0.97586 0.561227 1
0.978882 0.616068 1
0.981903 0.670924 1
0.984909 0.725765 1
0.98793 0.780606 1
0.990951 0.835462 1
0.993973 0.890303 1
0.996979 0.945159 1
1 1 1
