public/LUTS/Color Shift/ColorShift_96.cube
TITLE "Generated by Resolve"
LUT_3D_SIZE 5
0 0 0
0 0.116075 0.238666
0 0.232166 0.477363
0 0.348257 0.716045
0 0.464347 0.954726
0.552468 0.0370031 0.367468
0.313252 0.153079 0.606134
0.0740063 0.269169 0.844831
0 0.38526 1
0 0.501335 1
1 0.0740063 0.734951
0.865751 0.190082 0.973617
0.626505 0.306172 1
0.387274 0.422263 1
0.148028 0.538338 1
1 0.111009 1
1 0.227085 1
1 0.343175 1
0.939773 0.459266 1
0.700542 0.575341 1
1 0.148013 1
1 0.264088 1
1 0.380179 1
1 0.496269 1
1 0.612345 1
0 0.09691 0
0 0.212985 0
0 0.329076 0.121218
0 0.445167 0.359899
0 0.561257 0.598581
0.489219 0.133913 0.0113222
0.249989 0.249989 0.249989
0.0107424 0.366079 0.48867
0 0.48217 0.727367
0 0.598245 0.966049
1 0.170916 0.378805
0.802502 0.286992 0.617472
0.563256 0.403082 0.856168
0.32401 0.519173 1
0.0847791 0.635248 1
1 0.207919 0.746288
1 0.323995 0.98497
1 0.440085 1
0.876524 0.556161 1
0.637278 0.672251 1
1 0.244923 1
1 0.360998 1
1 0.477089 1
1 0.593164 1
1 0.709255 1
0 0.19382 0
0 0.309895 0
0 0.425986 0
0 0.542077 0.0037232
0 0.658167 0.24242
0.425956 0.230823 0
0.186725 0.346899 0
0 0.462989 0.132509
0 0.57908 0.371191
0 0.695171 0.609873
0.978454 0.267826 0.0226291
0.739239 0.383902 0.261311
0.499992 0.499992 0.499992
0.260746 0.616083 0.738674
0.0215152 0.732174 0.977371
1 0.304829 0.390127
1 0.420905 0.628794
1 0.536995 0.867475
0.81326 0.653086 1
0.574014 0.769177 1
1 0.341833 0.75761
1 0.457908 0.996277
1 0.573999 1
1 0.690089 1
1 0.806165 1
0 0.29073 0
0 0.406821 0
0 0.522911 0
0 0.638987 0
0 0.755077 0
0.362692 0.327733 0
0.123461 0.443824 0
0 0.559899 0
0 0.67599 0.0150149
0 0.792081 0.253712
0.91519 0.364736 0
0.675975 0.480812 0
0.436728 0.596902 0.143816
0.197482 0.712993 0.382513
0 0.829084 0.621195
1 0.40174 0.0339513
1 0.517815 0.272618
0.989242 0.633906 0.511315
0.749996 0.749996 0.749996
0.51075 0.866087 0.988678
1 0.438743 0.401434
1 0.554818 0.640116
1 0.670909 0.878798
1 0.786999 1
1 0.90309 1
0 0.387655 0
0 0.503731 0
0 0.619821 0
0 0.735912 0
0 0.851987 0
0.299428 0.424643 0
0.0601968 0.540734 0
0 0.656825 0
0 0.7729 0
0 0.888991 0
0.851942 0.461646 0
0.612711 0.577737 0
0.373465 0.693828 0
0.134234 0.809903 0.0263371
0 0.925994 0.265019
1 0.49865 0
1 0.61474 0
0.925978 0.730816 0.155138
0.686732 0.846906 0.39382
0.447486 0.962997 0.632517
1 0.535653 0.0452735
1 0.651743 0.28394
1 0.767819 0.522622
1 0.883909 0.761318
1 1 1
