public/LUTS/Color Shift/ColorShift_59.cube
TITLE "Generated by Resolve"
LUT_3D_SIZE 33
0 0 0
0 0.0176699 0
0 0.0353552 0
0 0.0530404 0
0 0.0707256 0
0 0.0883955 0
0 0.106081 0
0 0.123766 0
0 0.141451 0
0 0.159121 0
0 0.176806 0
0 0.194491 0
0 0.212177 0
0 0.229862 0
0 0.247532 0
0 0.265217 0
0 0.282902 0
0 0.300587 0
0 0.318257 0
0 0.335943 0
0 0.353628 0
0 0.371313 0
0 0.388998 0
0 0.406668 0
0 0.424353 0
0 0.442039 0
0 0.459724 0
0 0.477394 0
0 0.495079 0
0 0.512764 0
0 0.530449 0
0 0.548135 0
0 0.565805 0
0 0.0244602 0.0665293
0 0.0421302 0.0361944
0 0.0598154 0.00584421
0 0.0775006 0
0 0.0951705 0
0 0.112856 0
0 0.130541 0
0 0.148226 0
0 0.165911 0
0 0.183581 0
0 0.201266 0
0 0.218952 0
0 0.236637 0
0 0.254307 0
0 0.271992 0
0 0.289677 0
0 0.307362 0
0 0.325048 0
0 0.342718 0
0 0.360403 0
0 0.378088 0
0 0.395773 0
0 0.413443 0
0 0.431128 0
0 0.448814 0
0 0.466499 0
0 0.484184 0
0 0.501854 0
0 0.519539 0
0 0.537224 0
0 0.55491 0
0 0.57258 0
0 0.590265 0
0 0.0489204 0.133104
0 0.0666056 0.102754
0 0.0842756 0.0724041
0 0.101961 0.0420539
0 0.119646 0.0117037
0 0.137331 0
0 0.155016 0
0 0.172686 0
0 0.190372 0
0 0.208057 0
0 0.225742 0
0 0.243412 0
0 0.261097 0
0 0.278782 0
0 0.296468 0
0 0.314153 0
0 0.331823 0
0 0.349508 0
0 0.367193 0
0 0.384878 0
0 0.402564 0
0 0.420233 0
0 0.437919 0
0 0.455604 0
0 0.473289 0
0 0.490959 0
0 0.508644 0
0 0.526329 0
0 0.544015 0
0 0.5617 0
0 0.57937 0
0 0.597055 0
0 0.61474 0
0 0.0733959 0.199664
0 0.0910658 0.169329
0 0.108751 0.138979
0 0.126436 0.108614
0 0.144121 0.0782635
0 0.161791 0.0479133
0 0.179477 0.0175631
0 0.197162 0
0 0.214847 0
0 0.232532 0
0 0.250202 0
0 0.267887 0
0 0.285573 0
0 0.303258 0
0 0.320928 0
0 0.338613 0
0 0.356298 0
0 0.373983 0
0 0.391669 0
0 0.409339 0
0 0.427024 0
0 0.444709 0
0 0.462394 0
0 0.480064 0
0 0.497749 0
0 0.515435 0
0 0.53312 0
0 0.550805 0
0 0.568475 0
0 0.58616 0
0 0.603845 0
0 0.62153 0
0 0.639216 0
0 0.0978714 0.266224
0 0.115541 0.235889
0 0.133227 0.205539
0 0.150912 0.175189
0 0.168582 0.144839
0 0.186267 0.114473
0 0.203952 0.084123
0 0.221637 0.0537728
0 0.239307 0.0234226
0 0.256992 0
0 0.274678 0
0 0.292363 0
0 0.310048 0
0 0.327718 0
0 0.345403 0
0 0.363088 0
0 0.380774 0
0 0.398444 0
0 0.416129 0
0 0.433814 0
0 0.451499 0
0 0.469184 0
0 0.486854 0
0 0.50454 0
0 0.522225 0
0 0.53991 0
0 0.55758 0
0 0.575265 0
0 0.59295 0
0 0.610636 0
0 0.628321 0
0 0.645991 0
0 0.663676 0
0 0.122332 0.332799
0 0.140017 0.302464
0 0.157687 0.272099
0 0.175372 0.241749
0 0.193057 0.211398
0 0.210742 0.181048
0 0.228428 0.150698
0 0.246098 0.120333
0 0.263783 0.0899825
0 0.281468 0.0596323
0 0.299153 0.0292821
0 0.316823 0
0 0.334508 0
0 0.352193 0
0 0.369879 0
0 0.387564 0
0 0.405234 0
0 0.422919 0
0 0.440604 0
0 0.458289 0
0 0.475959 0
0 0.493645 0
0 0.51133 0
0 0.529015 0
0 0.5467 0
0 0.56437 0
0 0.582055 0
0 0.599741 0
0 0.617426 0
0 0.635096 0
0 0.652781 0
0 0.670466 0
0 0.688151 0
0 0.146807 0.399359
0 0.164477 0.369024
0 0.182162 0.338674
0 0.199847 0.308324
0 0.217533 0.277958
0 0.235203 0.247608
0 0.252888 0.217258
0 0.270573 0.186908
0 0.288258 0.156558
0 0.305928 0.126192
0 0.323613 0.0958419
0 0.341299 0.0654917
0 0.358984 0.0351415
0 0.376669 0.00479133
0 0.394339 0
0 0.412024 0
0 0.429709 0
0 0.447395 0
0 0.465064 0
0 0.48275 0
0 0.500435 0
0 0.51812 0
0 0.535805 0
0 0.553475 0
0 0.57116 0
0 0.588846 0
0 0.606531 0
0 0.624216 0
0 0.641886 0
0 0.659571 0
0 0.677256 0
0 0.694942 0
0 0.712612 0
0 0.171283 0.465934
0 0.188952 0.435584
0 0.206638 0.405234
0 0.224308 0.374884
0 0.241993 0.344533
0 0.259678 0.314183
0 0.277363 0.283818
0 0.295048 0.253468
0 0.312718 0.223117
0 0.330404 0.192767
0 0.348089 0.162417
0 0.365774 0.132052
0 0.383444 0.101701
0 0.401129 0.0713512
0 0.418814 0.041001
0 0.4365 0.0106508
0 0.454185 0
0 0.471855 0
0 0.48954 0
0 0.507225 0
0 0.52491 0
0 0.54258 0
0 0.560265 0
0 0.577951 0
0 0.595636 0
0 0.613321 0
0 0.630991 0
0 0.648676 0
0 0.666362 0
0 0.684047 0
0 0.701717 0
0 0.719402 0
0 0.737087 0
0 0.195743 0.532494
0 0.213428 0.502159
0 0.231098 0.471809
0 0.248783 0.441444
0 0.266468 0.411093
0 0.284153 0.380743
0 0.301823 0.350393
0 0.319509 0.320043
0 0.337194 0.289677
0 0.354879 0.259327
0 0.372564 0.228977
0 0.390234 0.198627
0 0.407919 0.168276
0 0.425605 0.137911
0 0.44329 0.107561
0 0.46096 0.0772106
0 0.478645 0.0468605
0 0.49633 0.0165103
0 0.514015 0
0 0.531701 0
0 0.549371 0
0 0.567056 0
0 0.584741 0
0 0.602426 0
0 0.620096 0
0 0.637781 0
0 0.655467 0
0 0.673152 0
0 0.690837 0
0 0.708507 0
0 0.726192 0
0 0.743877 0
0 0.761563 0
0 0.220218 0.599054
0 0.237888 0.568719
0 0.255573 0.538369
0 0.273259 0.508019
0 0.290929 0.477668
0 0.308614 0.447303
0 0.326299 0.416953
0 0.343984 0.386603
0 0.361669 0.356252
0 0.379339 0.325902
0 0.397024 0.295537
0 0.41471 0.265187
0 0.432395 0.234836
0 0.450065 0.204486
0 0.46775 0.174136
0 0.485435 0.143771
0 0.50312 0.11342
0 0.520806 0.0830701
0 0.538476 0.0527199
0 0.556161 0.0223697
0 0.573846 0
0 0.591531 0
0 0.609216 0
0 0.626886 0
0 0.644572 0
0 0.662257 0
0 0.679942 0
0 0.697612 0
0 0.715297 0
0 0.732982 0
0 0.750668 0
0 0.768353 0
0 0.786023 0
0 0.244694 0.665629
0 0.262364 0.635294
0 0.280049 0.604929
0 0.297719 0.574578
0 0.315404 0.544228
0 0.333089 0.513878
0 0.350774 0.483528
0 0.368444 0.453162
0 0.38613 0.422812
0 0.403815 0.392462
0 0.4215 0.362112
0 0.439185 0.331762
0 0.456855 0.301396
0 0.47454 0.271046
0 0.492226 0.240696
0 0.509911 0.210346
0 0.527581 0.179995
0 0.545266 0.14963
0 0.562951 0.11928
0 0.580636 0.0889296
0 0.598321 0.0585794
0 0.615991 0.0282292
0 0.633677 0
0 0.651362 0
0 0.669047 0
0 0.686717 0
0 0.704402 0
0 0.722087 0
0 0.739773 0
0 0.757458 0
0 0.775128 0
0 0.792813 0
0 0.810498 0
0 0.269154 0.732189
0 0.286824 0.701854
0 0.304509 0.671504
0 0.322194 0.641154
0 0.339879 0.610788
0 0.357565 0.580438
0 0.375235 0.550088
0 0.39292 0.519738
0 0.410605 0.489387
0 0.42829 0.459022
0 0.44596 0.428672
0 0.463645 0.398322
0 0.481331 0.367971
0 0.499016 0.337621
0 0.516701 0.307256
0 0.534371 0.276905
0 0.552056 0.246555
0 0.569741 0.216205
0 0.587427 0.185855
0 0.605097 0.155489
0 0.622782 0.125139
0 0.640467 0.094789
0 0.658152 0.0644388
0 0.675837 0.0340887
0 0.693507 0.0037232
0 0.711192 0
0 0.728878 0
0 0.746563 0
0 0.764233 0
0 0.781918 0
0 0.799603 0
0 0.817288 0
0 0.834974 0
0 0.293629 0.798764
0 0.311299 0.768414
0 0.328984 0.738064
0 0.34667 0.707713
0 0.36434 0.677363
0 0.382025 0.647013
0 0.39971 0.616648
0 0.417395 0.586297
0 0.435065 0.555947
0 0.45275 0.525597
0 0.470436 0.495247
0 0.488121 0.464881
0 0.505806 0.434531
0 0.523476 0.404181
0 0.541161 0.373831
0 0.558846 0.343481
0 0.576532 0.313115
0 0.594217 0.282765
0 0.611887 0.252415
0 0.629572 0.222065
0 0.647257 0.191714
0 0.664942 0.161349
0 0.682612 0.130999
0 0.700298 0.100649
0 0.717983 0.0702983
0 0.735668 0.0399481
0 0.753353 0.00958267
0 0.771023 0
0 0.788708 0
0 0.806394 0
0 0.824079 0
0 0.841749 0
0 0.859434 0
0 0.31809 0.865324
0 0.335775 0.834989
0 0.353445 0.804639
0 0.37113 0.774273
0 0.388815 0.743923
0 0.4065 0.713573
0 0.424186 0.683223
0 0.441855 0.652873
0 0.459541 0.622507
0 0.477226 0.592157
0 0.494911 0.561807
0 0.512581 0.531456
0 0.530266 0.501106
0 0.547951 0.470741
0 0.565637 0.440391
0 0.583322 0.41004
0 0.600992 0.37969
0 0.618677 0.34934
0 0.636362 0.318975
0 0.654047 0.288624
0 0.671717 0.258274
0 0.689403 0.227924
0 0.707088 0.197574
0 0.724773 0.167208
0 0.742458 0.136858
0 0.760128 0.106508
0 0.777813 0.0761578
0 0.795499 0.0458076
0 0.813184 0.0154421
0 0.830869 0
0 0.848539 0
0 0.866224 0
0 0.883909 0
0 0.342565 0.931884
0 0.360235 0.901549
0 0.37792 0.871199
0 0.395605 0.840848
0 0.413291 0.810498
0 0.430961 0.780133
0 0.448646 0.749783
0 0.466331 0.719432
0 0.484016 0.689082
0 0.501701 0.658732
0 0.519371 0.628367
0 0.537057 0.598016
0 0.554742 0.567666
0 0.572427 0.537316
0 0.590097 0.506966
0 0.607782 0.4766
0 0.625467 0.44625
0 0.643153 0.4159
0 0.660838 0.38555
0 0.678508 0.3552
0 0.696193 0.324834
0 0.713878 0.294484
0 0.731563 0.264134
0 0.749233 0.233783
0 0.766918 0.203433
0 0.784604 0.173068
0 0.802289 0.142718
0 0.819974 0.112367
0 0.837644 0.0820172
0 0.855329 0.051667
0 0.873014 0.0213016
0 0.8907 0
0 0.90837 0
0 0.367041 0.998459
0 0.38471 0.968124
0 0.402396 0.937758
0 0.420081 0.907408
0 0.437751 0.877058
0 0.455436 0.846708
0 0.473121 0.816358
0 0.490806 0.785992
0 0.508476 0.755642
0 0.526162 0.725292
0 0.543847 0.694942
0 0.561532 0.664591
0 0.579217 0.634226
0 0.596887 0.603876
0 0.614572 0.573526
0 0.632258 0.543175
0 0.649943 0.512825
0 0.667613 0.48246
0 0.685298 0.45211
0 0.702983 0.421759
0 0.720668 0.391409
0 0.738354 0.361059
0 0.756024 0.330694
0 0.773709 0.300343
0 0.791394 0.269993
0 0.809079 0.239643
0 0.826749 0.209293
0 0.844434 0.178927
0 0.862119 0.148577
0 0.879805 0.118227
0 0.89749 0.0878767
0 0.91516 0.0575265
0 0.932845 0.0271611
0 0.391501 1
0 0.409186 1
0 0.426856 1
0 0.444541 0.973983
0 0.462226 0.943618
0 0.479912 0.913268
0 0.497581 0.882918
0 0.515267 0.852567
0 0.532952 0.822217
0 0.550637 0.791852
0 0.568322 0.761501
0 0.585992 0.731151
0 0.603677 0.700801
0 0.621363 0.670451
0 0.639048 0.640085
0 0.656718 0.609735
0 0.674403 0.579385
0 0.692088 0.549035
0 0.709773 0.518685
0 0.727459 0.488319
0 0.745129 0.457969
0 0.762814 0.427619
0 0.780499 0.397269
0 0.798184 0.366918
0 0.815869 0.336553
0 0.833539 0.306203
0 0.851225 0.275853
0 0.86891 0.245502
0 0.886595 0.215152
0 0.904265 0.184787
0 0.92195 0.154437
0 0.939635 0.124086
0 0.957321 0.0937362
0 0.415976 1
0 0.433646 1
0 0.451331 1
0 0.469017 1
0 0.486702 1
0 0.504372 0.979843
0 0.522057 0.949477
0 0.539742 0.919127
0 0.557427 0.888777
0 0.575097 0.858427
0 0.592782 0.828077
0 0.610468 0.797711
0 0.628153 0.767361
0 0.645838 0.737011
0 0.663508 0.706661
0 0.681193 0.67631
0 0.698878 0.645945
0 0.716564 0.615595
0 0.734234 0.585245
0 0.751919 0.554894
0 0.769604 0.524544
0 0.787289 0.494179
0 0.804974 0.463828
0 0.822644 0.433478
0 0.84033 0.403128
0 0.858015 0.372778
0 0.8757 0.342412
0 0.89337 0.312062
0 0.911055 0.281712
0 0.92874 0.251362
0 0.946426 0.221012
0 0.964111 0.190646
0 0.981781 0.160296
0 0.440452 1
0 0.458122 1
0 0.475807 1
0 0.493477 1
0 0.511162 1
0 0.528847 1
0 0.546532 1
0 0.564218 0.985702
0 0.581888 0.955337
0 0.599573 0.924987
0 0.617258 0.894636
0 0.634943 0.864286
0 0.652613 0.833936
0 0.670298 0.803571
0 0.687984 0.77322
0 0.705669 0.74287
0 0.723354 0.71252
0 0.741024 0.68217
0 0.758709 0.651804
0 0.776394 0.621454
0 0.794079 0.591104
0 0.811749 0.560754
0 0.829435 0.530404
0 0.84712 0.500038
0 0.864805 0.469688
0 0.88249 0.439338
0 0.90016 0.408988
0 0.917845 0.378637
0 0.935531 0.348272
0 0.953216 0.317922
0 0.970886 0.287572
0 0.988571 0.257221
0 1 0.226871
0 0.464912 1
0 0.482582 1
0 0.500267 1
0 0.517952 1
0 0.535637 1
0 0.553323 1
0 0.570993 1
0 0.588678 1
0 0.606363 1
0 0.624048 0.991562
0 0.641718 0.961196
0 0.659403 0.930846
0 0.677089 0.900496
0 0.694774 0.870146
0 0.712459 0.839796
0 0.730129 0.80943
0 0.747814 0.77908
0 0.765499 0.74873
0 0.783185 0.718379
0 0.80087 0.688029
0 0.81854 0.657664
0 0.836225 0.627314
0 0.85391 0.596963
0 0.871595 0.566613
0 0.889265 0.536263
0 0.90695 0.505898
0 0.924636 0.475547
0 0.942321 0.445197
0 0.960006 0.414847
0 0.977676 0.384497
0 0.995361 0.354131
0 1 0.323781
0 1 0.293431
0 0.489387 1
0 0.507057 1
0 0.524742 1
0 0.542428 1
0 0.560098 1
0 0.577783 1
0 0.595468 1
0 0.613153 1
0 0.630838 1
0 0.648508 1
0 0.666194 1
0 0.683879 0.997421
0 0.701564 0.967056
0 0.719234 0.936706
0 0.736919 0.906355
0 0.754604 0.876005
0 0.77229 0.845655
0 0.789975 0.81529
0 0.807645 0.784939
0 0.82533 0.754589
0 0.843015 0.724239
0 0.8607 0.693889
0 0.87837 0.663523
0 0.896056 0.633173
0 0.913741 0.602823
0 0.931426 0.572473
0 0.949111 0.542123
0 0.966781 0.511757
0 0.984466 0.481407
0 1 0.451057
0 1 0.420706
0 1 0.390356
0 1 0.359991
0 0.513863 1
0 0.531533 1
0 0.549218 1
0 0.566888 1
0 0.584573 1
0 0.602258 1
0 0.619944 1
0 0.637613 1
0 0.655299 1
0 0.672984 1
0 0.690669 1
0 0.708354 1
0 0.726024 1
0 0.743709 1
0 0.761395 0.972915
0 0.77908 0.942565
0 0.79675 0.912215
0 0.814435 0.881865
0 0.83212 0.851514
0 0.849805 0.821149
0 0.867491 0.790799
0 0.885161 0.760449
0 0.902846 0.730098
0 0.920531 0.699748
0 0.938216 0.669383
0 0.955886 0.639033
0 0.973571 0.608682
0 0.991257 0.578332
0 1 0.547982
0 1 0.517617
0 1 0.487266
0 1 0.456916
0 1 0.426566
0 0.538323 1
0 0.555993 1
0 0.573678 1
0 0.591363 1
0 0.609049 1
0 0.626719 1
0 0.644404 1
0 0.662089 1
0 0.679774 1
0 0.697459 1
0 0.715129 1
0 0.732815 1
0 0.7505 1
0 0.768185 1
0 0.78587 1
0 0.80354 1
0 0.821225 0.978775
0 0.838911 0.948425
0 0.856596 0.918074
0 0.874266 0.887724
0 0.891951 0.857374
0 0.909636 0.827008
0 0.927321 0.796658
0 0.945006 0.766308
0 0.962676 0.735958
0 0.980362 0.705608
0 0.998047 0.675242
0 1 0.644892
0 1 0.614542
0 1 0.584192
0 1 0.553841
0 1 0.523476
0 1 0.493126
0 0.562799 1
0 0.580468 1
0 0.598154 1
0 0.615839 1
0 0.633509 1
0 0.651194 1
0 0.668879 1
0 0.686564 1
0 0.704234 1
0 0.72192 1
0 0.739605 1
0 0.75729 1
0 0.774975 1
0 0.792645 1
0 0.81033 1
0 0.828016 1
0 0.845701 1
0 0.863371 1
0 0.881056 0.984634
0 0.898741 0.954284
0 0.916426 0.923934
0 0.934112 0.893584
0 0.951782 0.863233
0 0.969467 0.832868
0 0.987152 0.802518
0 1 0.772168
0 1 0.741817
0 1 0.711467
0 1 0.681102
0 1 0.650752
0 1 0.620401
0 1 0.590051
0 1 0.559701
0 0.587259 1
0 0.604944 1
0 0.622614 1
0 0.640299 1
0 0.657984 1
0 0.675669 1
0 0.693355 1
0 0.711025 1
0 0.72871 1
0 0.746395 1
0 0.76408 1
0 0.78175 1
0 0.799435 1
0 0.817121 1
0 0.834806 1
0 0.852491 1
0 0.870161 1
0 0.887846 1
0 0.905531 1
0 0.923217 1
0 0.940887 0.990494
0 0.958572 0.960143
0 0.976257 0.929793
0 0.993942 0.899443
0 1 0.869093
0 1 0.838727
0 1 0.808377
0 1 0.778027
0 1 0.747677
0 1 0.717327
0 1 0.686961
0 1 0.656611
0 1 0.626261
0 0.611734 1
0 0.629404 1
0 0.647089 1
0 0.664775 1
0 0.68246 1
0 0.70013 1
0 0.717815 1
0 0.7355 1
0 0.753185 1
0 0.770871 1
0 0.78854 1
0 0.806226 1
0 0.823911 1
0 0.841596 1
0 0.859266 1
0 0.876951 1
0 0.894636 1
0 0.912322 1
0 0.930007 1
0 0.947677 1
0 0.965362 1
0 0.983047 1
0 1 0.996353
0 1 0.966003
0 1 0.935653
0 1 0.905303
0 1 0.874952
0 1 0.844587
0 1 0.814237
0 1 0.783886
0 1 0.753536
0 1 0.723186
0 1 0.692821
0 0.63621 1
0 0.65388 1
0 0.671565 1
0 0.689235 1
0 0.70692 1
0 0.724605 1
0 0.74229 1
0 0.759976 1
0 0.777646 1
0 0.795331 1
0 0.813016 1
0 0.830701 1
0 0.848371 1
0 0.866056 1
0 0.883741 1
0 0.901427 1
0 0.919112 1
0 0.936782 1
0 0.954467 1
0 0.972152 1
0 0.989837 1
0 1 1
0 1 1
0 1 1
0 1 1
0 1 0.971862
0 1 0.941512
0 1 0.911162
0 1 0.880812
0 1 0.850446
0 1 0.820096
0 1 0.789746
0 1 0.759396
0 0.66067 1
0 0.678355 1
0 0.696025 1
0 0.71371 1
0 0.731395 1
0 0.749081 1
0 0.766751 1
0 0.784436 1
0 0.802121 1
