public/LUTS/Color Shift/ColorShift_58.cube
TITLE "Generated by Resolve"
LUT_3D_SIZE 5
0 0 0
0 0.149432 0
0 0.298878 0
0 0.44831 0
0 0.597757 0
0 0.178424 0.556664
0 0.327855 0.33724
0 0.477287 0.117784
0 0.626734 0
0 0.776165 0
1.5259e-05 0.356847 1
0 0.506279 0.893935
0 0.655711 0.674495
0 0.805158 0.455039
0 0.954604 0.235599
1.5259e-05 0.535271 1
0 0.684703 1
0 0.83415 1
0 0.983581 1
0 1 0.792294
1.5259e-05 0.71371 1
0 0.863142 1
0 1 1
0 1 1
0 1 1
0.404059 0 0
0.249989 0.0715648 0
0.0959029 0.221012 0
0 0.370443 0
0 0.51989 0
0.404059 0.100557 0.469413
0.249989 0.249989 0.249989
0.0959029 0.399435 0.0305486
0 0.548867 0
0 0.698314 0
0.404074 0.278981 1
0.249989 0.428412 0.806683
0.0959182 0.577859 0.587243
0 0.727291 0.367803
0 0.876738 0.148348
0.404074 0.45742 1
0.250004 0.606851 1
0.0959182 0.756283 1
0 0.90573 0.924498
0 1 0.705058
0.404074 0.635843 1
0.250004 0.785275 1
0.0959182 0.934722 1
0 1 1
0 1 1
0.808133 0 0
0.654063 0 0
0.499977 0.143145 0
0.345892 0.292592 0
0.191821 0.442023 0
0.808148 0.0226902 0.382162
0.654063 0.172122 0.162737
0.499992 0.321569 0
0.345907 0.471 0
0.191821 0.620447 0
0.808148 0.201114 0.938872
0.654078 0.350545 0.719432
0.499992 0.499992 0.499992
0.345907 0.649439 0.280552
0.191821 0.798871 0.0610971
0.808148 0.379553 1
0.654078 0.528984 1
0.499992 0.678416 1
0.345922 0.827863 0.837247
0.191836 0.977295 0.617807
0.808164 0.557977 1
0.654093 0.707408 1
0.500008 0.856855 1
0.345922 1 1
0.191836 1 1
1 0 0
1 0 0
0.904067 0.0652781 0
0.749981 0.214725 0
0.595895 0.364157 0
1 0 0.294911
1 0.094255 0.0754864
0.904067 0.243702 0
0.749981 0.393133 0
0.595895 0.54258 0
1 0.123262 0.851621
1 0.272694 0.632181
0.904067 0.422126 0.412741
0.749996 0.571572 0.193301
0.595911 0.721004 0
1 0.301686 1
1 0.451118 1
0.904082 0.600549 0.969436
0.749996 0.749996 0.749996
0.595911 0.899443 0.530556
1 0.48011 1
1 0.629541 1
0.904082 0.778988 1
0.749996 0.92842 1
0.595926 1 1
1 0 0
1 0 0
1 0 0
1 0.136858 0
0.999985 0.28629 0
1 0 0.20766
1 0.0163882 0
1 0.165835 0
1 0.315267 0
0.999985 0.464714 0
1 0.0453956 0.76437
1 0.194827 0.54493
1 0.344259 0.32549
1 0.493706 0.10605
0.999985 0.643137 0
1 0.223819 1
1 0.373251 1
1 0.522698 0.882185
1 0.672129 0.662745
1 0.821576 0.443305
1 0.402243 1
1 0.551675 1
1 0.701122 1
1 0.850553 1
1 1 1
