public/LUTS/Color Shift/ColorShift_03.cube
TITLE "Generated by Resolve"
LUT_3D_SIZE 33
0 0 0
0 0.0143587 0.00535592
0 0.0287327 0.0107118
0 0.0431067 0.0160678
0 0.0574807 0.0214237
0 0.0718395 0.0267796
0 0.0862135 0.0321355
0 0.100587 0.0374914
0 0.114961 0.0428473
0 0.12932 0.048188
0 0.143694 0.0535439
0 0.158068 0.0588998
0 0.172442 0.0642557
0 0.186801 0.0696117
0 0.201175 0.0749676
0 0.215549 0.0803235
0 0.229923 0.0856794
0 0.244282 0.0910353
0 0.258656 0.0963912
0 0.27303 0.101747
0 0.287404 0.107103
0 0.301762 0.112459
0 0.316136 0.117815
0 0.33051 0.123171
0 0.344884 0.128527
0 0.359243 0.133883
0 0.373617 0.139239
0 0.387991 0.144594
0 0.402365 0.14995
0 0.416724 0.155306
0 0.431098 0.160662
0 0.445472 0.166018
0 0.459846 0.171374
0.0357061 0.0141756 0.0493019
0.0167697 0.0285496 0.0546578
0 0.0429236 0.0600137
0 0.0572824 0.0653697
0 0.0716564 0.0707256
0 0.0860304 0.0760815
0 0.100404 0.0814374
0 0.114763 0.0867933
0 0.129137 0.0921492
0 0.143511 0.0975052
0 0.157885 0.102861
0 0.172244 0.108217
0 0.186618 0.113573
0 0.200992 0.118929
0 0.215366 0.124285
0 0.229725 0.129641
0 0.244099 0.134997
0 0.258473 0.140352
0 0.272847 0.145693
0 0.287205 0.151049
0 0.301579 0.156405
0 0.315953 0.161761
0 0.330327 0.167117
0 0.344686 0.172473
0 0.35906 0.177829
0 0.373434 0.183185
0 0.387808 0.18854
0 0.402167 0.193896
0 0.416541 0.199252
0 0.430915 0.204608
0 0.445289 0.209964
0 0.459648 0.21532
0 0.474022 0.220676
0.0714427 0.0283665 0.0986343
0.0525063 0.0427405 0.10399
0.0335546 0.0570993 0.109346
0.0146181 0.0714733 0.114702
0 0.0858473 0.120058
0 0.100221 0.125414
0 0.11458 0.13077
0 0.128954 0.136126
0 0.143328 0.141482
0 0.157702 0.146838
0 0.172061 0.152193
0 0.186435 0.157549
0 0.200809 0.162905
0 0.215183 0.168261
0 0.229541 0.173617
0 0.243915 0.178973
0 0.258289 0.184329
0 0.272663 0.18967
0 0.287022 0.195026
0 0.301396 0.200381
0 0.31577 0.205737
0 0.330144 0.211093
0 0.344503 0.216449
0 0.358877 0.221805
0 0.373251 0.227161
0 0.387625 0.232517
0 0.401984 0.237873
0 0.416358 0.243229
0 0.430732 0.248585
0 0.445106 0.253941
0 0.459464 0.259297
0 0.473838 0.264652
0 0.488212 0.270008
0.107164 0.0425574 0.147967
0.0882277 0.0569314 0.153323
0.069276 0.0712902 0.158679
0.0503395 0.0856641 0.164034
0.0313878 0.100038 0.16939
0.0124514 0.114412 0.174746
0 0.128771 0.180102
0 0.143145 0.185458
0 0.157519 0.190814
0 0.171893 0.19617
0 0.186252 0.201526
0 0.200626 0.206882
0 0.215 0.212238
0 0.229374 0.217594
0 0.243732 0.22295
0 0.258106 0.22829
0 0.27248 0.233646
0 0.286854 0.239002
0 0.301213 0.244358
0 0.315587 0.249714
0 0.329961 0.25507
0 0.344335 0.260426
0 0.358694 0.265782
0 0.373068 0.271138
0 0.387442 0.276493
0 0.401816 0.281849
0 0.416175 0.287205
0 0.430549 0.292561
0 0.444923 0.297917
0 0.459297 0.303273
0 0.473655 0.308629
0 0.488029 0.313985
0 0.502403 0.319341
0.142885 0.0567483 0.197299
0.123949 0.0711223 0.202655
0.105013 0.085481 0.208011
0.0860609 0.099855 0.213367
0.0671244 0.114229 0.218723
0.0481727 0.128603 0.224079
0.0292363 0.142962 0.229435
0.0102846 0.157336 0.234791
0 0.17171 0.240146
0 0.186084 0.245502
0 0.200443 0.250858
0 0.214817 0.256214
0 0.229191 0.26157
0 0.243565 0.266926
0 0.257923 0.272267
0 0.272297 0.277623
0 0.286671 0.282979
0 0.301045 0.288334
0 0.315404 0.29369
0 0.329778 0.299046
0 0.344152 0.304402
0 0.358526 0.309758
0 0.372885 0.315114
0 0.387259 0.32047
0 0.401633 0.325826
0 0.416007 0.331182
0 0.430365 0.336538
0 0.444739 0.341894
0 0.459113 0.34725
0 0.473487 0.352605
0 0.487846 0.357961
0 0.50222 0.363317
0 0.516594 0.368673
0.178622 0.0709392 0.246632
0.159686 0.0852979 0.251987
0.140734 0.0996719 0.257343
0.121798 0.114046 0.262699
0.102846 0.12842 0.268055
0.0839094 0.142779 0.273411
0.0649577 0.157153 0.278767
0.0460059 0.171527 0.284123
0.0270695 0.185901 0.289479
0.0081178 0.200259 0.294835
0 0.214633 0.300191
0 0.229007 0.305547
0 0.243381 0.310887
0 0.25774 0.316243
0 0.272114 0.321599
0 0.286488 0.326955
0 0.300862 0.332311
0 0.315221 0.337667
0 0.329595 0.343023
0 0.343969 0.348379
0 0.358343 0.353735
0 0.372702 0.359091
0 0.387076 0.364446
0 0.40145 0.369802
0 0.415824 0.375158
0 0.430182 0.380514
0 0.444556 0.38587
0 0.45893 0.391226
0 0.473304 0.396582
0 0.487663 0.401938
0 0.502037 0.407294
0 0.516411 0.41265
0 0.530785 0.418006
0.214343 0.0851301 0.295964
0.195407 0.0994888 0.30132
0.176471 0.113863 0.306676
0.157519 0.128237 0.312032
0.138567 0.142611 0.317388
0.119631 0.15697 0.322744
0.100679 0.171344 0.328099
0.0817426 0.185718 0.333455
0.0627909 0.200092 0.338811
0.0438544 0.21445 0.344167
0.0249027 0.228824 0.349523
0.00596628 0.243198 0.354864
0 0.257572 0.36022
0 0.271931 0.365576
0 0.286305 0.370932
0 0.300679 0.376287
0 0.315053 0.381643
0 0.329412 0.386999
0 0.343786 0.392355
0 0.35816 0.397711
0 0.372534 0.403067
0 0.386892 0.408423
0 0.401266 0.413779
0 0.415641 0.419135
0 0.430014 0.424491
0 0.444373 0.429847
0 0.458747 0.435203
0 0.473121 0.440558
0 0.487495 0.445914
0 0.501854 0.45127
0 0.516228 0.456626
0 0.530602 0.461982
0 0.544976 0.467338
0.250065 0.099321 0.345296
0.231144 0.11368 0.350652
0.212192 0.128054 0.356008
0.19324 0.142428 0.361364
0.174304 0.156802 0.36672
0.155352 0.17116 0.372076
0.136416 0.185534 0.377432
0.117464 0.199908 0.382788
0.0985275 0.214282 0.388144
0.0795758 0.228641 0.3935
0.0606394 0.243015 0.39884
0.0416876 0.257389 0.404196
0.0227359 0.271763 0.409552
0.0037995 0.286122 0.414908
0 0.300496 0.420264
0 0.31487 0.42562
0 0.329244 0.430976
0 0.343603 0.436332
0 0.357977 0.441688
0 0.372351 0.447044
0 0.386725 0.452399
0 0.401083 0.457755
0 0.415457 0.463111
0 0.429831 0.468467
0 0.444205 0.473823
0 0.458564 0.479179
0 0.472938 0.484535
0 0.487312 0.489891
0 0.501686 0.495247
0 0.516045 0.500603
0 0.530419 0.505959
0 0.544793 0.511315
0 0.559167 0.51667
0.285801 0.113512 0.394629
0.266865 0.127871 0.399985
0.247913 0.142245 0.405341
0.228977 0.156619 0.410697
0.210025 0.170993 0.416052
0.191089 0.185351 0.421408
0.172137 0.199725 0.426764
0.153201 0.214099 0.43212
0.134249 0.228473 0.437461
0.115297 0.242832 0.442817
0.0963607 0.257206 0.448173
0.077409 0.27158 0.453529
0.0584726 0.285954 0.458885
0.0395209 0.300313 0.46424
0.0205844 0.314687 0.469596
0.00163272 0.329061 0.474952
0 0.343435 0.480308
0 0.357794 0.485664
0 0.372168 0.49102
0 0.386542 0.496376
0 0.400916 0.501732
0 0.415274 0.507088
0 0.429648 0.512444
0 0.444022 0.5178
0 0.458396 0.523156
0 0.472755 0.528511
0 0.487129 0.533867
0 0.501503 0.539223
0 0.515877 0.544579
0 0.530236 0.549935
0 0.54461 0.555291
0 0.558984 0.560647
0 0.573358 0.566003
0.321523 0.127703 0.443961
0.302586 0.142061 0.449317
0.28365 0.156435 0.454673
0.264698 0.170809 0.460029
0.245762 0.185168 0.465385
0.22681 0.199542 0.470741
0.207858 0.213916 0.476081
0.188922 0.22829 0.481437
0.16997 0.242649 0.486793
0.151034 0.257023 0.492149
0.132082 0.271397 0.497505
0.113146 0.285771 0.502861
0.0941939 0.30013 0.508217
0.0752575 0.314504 0.513573
0.0563058 0.328878 0.518929
0.0373541 0.343252 0.524285
0.0184176 0.35761 0.529641
0 0.371984 0.534997
0 0.386358 0.540352
0 0.400732 0.545708
0 0.415091 0.551064
0 0.429465 0.55642
0 0.443839 0.561776
0 0.458213 0.567132
0 0.472572 0.572488
0 0.486946 0.577844
0 0.50132 0.5832
0 0.515694 0.588556
0 0.530053 0.593912
0 0.544427 0.599268
0 0.558801 0.604623
0 0.573175 0.609979
0 0.587533 0.61532
0.357259 0.141894 0.493294
0.338323 0.156252 0.49865
0.319371 0.170626 0.504005
0.300435 0.185 0.509361
0.281483 0.199359 0.514717
0.262531 0.213733 0.520058
0.243595 0.228107 0.525414
0.224643 0.242481 0.53077
0.205707 0.25684 0.536126
0.186755 0.271214 0.541482
0.167819 0.285588 0.546838
0.148867 0.299962 0.552193
0.129931 0.314321 0.557549
0.110979 0.328695 0.562905
0.0920272 0.343069 0.568261
0.0730907 0.357443 0.573617
0.054139 0.371801 0.578973
0.0352026 0.386175 0.584329
0.0162509 0.400549 0.589685
0 0.414923 0.595041
0 0.429282 0.600397
0 0.443656 0.605753
0 0.45803 0.611109
0 0.472404 0.616464
0 0.486763 0.62182
0 0.501137 0.627176
0 0.515511 0.632532
0 0.529885 0.637888
0 0.544244 0.643244
0 0.558618 0.6486
0 0.572992 0.653956
0 0.587366 0.659297
0 0.601724 0.664652
0.392981 0.156085 0.542626
0.374044 0.170443 0.547982
0.355093 0.184817 0.553338
0.336156 0.199191 0.558694
0.317205 0.21355 0.564034
0.298268 0.227924 0.56939
0.279316 0.242298 0.574746
0.26038 0.256672 0.580102
0.241428 0.271031 0.585458
0.222492 0.285405 0.590814
0.20354 0.299779 0.59617
0.184588 0.314153 0.601526
0.165652 0.328511 0.606882
0.1467 0.342885 0.612238
0.127764 0.357259 0.617594
0.108812 0.371633 0.62295
0.0898756 0.385992 0.628305
0.0709239 0.400366 0.633661
0.0519875 0.41474 0.639017
0.0330358 0.429114 0.644373
0.0140841 0.443473 0.649729
0 0.457847 0.655085
0 0.472221 0.660441
0 0.486595 0.665797
0 0.500954 0.671153
0 0.515328 0.676509
0 0.529702 0.681865
0 0.544076 0.687221
0 0.558434 0.692576
0 0.572808 0.697917
0 0.587182 0.703273
0 0.601556 0.708629
0 0.615915 0.713985
0.428702 0.170275 0.591959
0.409766 0.184634 0.597314
0.390829 0.199008 0.602655
0.371878 0.213367 0.608011
0.352941 0.227741 0.613367
0.333989 0.242115 0.618723
0.315053 0.256489 0.624079
0.296101 0.270848 0.629435
0.27715 0.285222 0.634791
0.258213 0.299596 0.640146
0.239261 0.31397 0.645502
0.220325 0.328328 0.650858
0.201373 0.342702 0.656214
0.182437 0.357076 0.66157
0.163485 0.37145 0.666926
0.144549 0.385809 0.672282
0.125597 0.400183 0.677638
0.106645 0.414557 0.682994
0.0877089 0.428931 0.68835
0.0687572 0.44329 0.693706
0.0498207 0.457664 0.699062
0.030869 0.472038 0.704417
0.0119326 0.486412 0.709773
0 0.500771 0.715129
0 0.515145 0.720485
0 0.529519 0.725841
0 0.543893 0.731197
0 0.558251 0.736553
0 0.572625 0.741894
0 0.586999 0.74725
0 0.601373 0.752605
0 0.615732 0.757961
0 0.630106 0.763317
0.464439 0.184466 0.641291
0.445502 0.198825 0.646632
0.426551 0.213199 0.651987
0.407614 0.227558 0.657343
0.388663 0.241932 0.662699
0.369726 0.256306 0.668055
0.350774 0.27068 0.673411
0.331823 0.285039 0.678767
0.312886 0.299413 0.684123
0.293935 0.313787 0.689479
0.274998 0.328161 0.694835
0.256046 0.342519 0.700191
0.23711 0.356893 0.705547
0.218158 0.371267 0.710903
0.199222 0.385641 0.716258
0.18027 0.4 0.721614
0.161318 0.414374 0.72697
0.142382 0.428748 0.732326
0.12343 0.443122 0.737682
0.104494 0.457481 0.743038
0.0855421 0.471855 0.748394
0.0666056 0.486229 0.75375
0.0476539 0.500603 0.759106
0.0287022 0.514961 0.764462
0.00976577 0.529335 0.769818
0 0.543709 0.775174
0 0.558083 0.780514
0 0.572442 0.78587
0 0.586816 0.791226
0 0.60119 0.796582
0 0.615564 0.801938
0 0.629923 0.807294
0 0.644297 0.81265
0.50016 0.198657 0.690623
0.481224 0.213016 0.695964
0.462287 0.22739 0.70132
0.443336 0.241749 0.706676
0.424384 0.256123 0.712032
0.405447 0.270497 0.717388
0.386496 0.284871 0.722744
0.367559 0.299229 0.728099
0.348608 0.313603 0.733455
0.329671 0.327977 0.738811
0.310719 0.342351 0.744167
0.291783 0.35671 0.749523
0.272831 0.371084 0.754879
0.25388 0.385458 0.760235
0.234943 0.399832 0.765591
0.215991 0.414191 0.770947
0.197055 0.428565 0.776303
0.178103 0.442939 0.781659
0.159167 0.457313 0.787015
0.140215 0.471672 0.79237
0.121279 0.486046 0.797726
0.102327 0.50042 0.803082
0.0833753 0.514794 0.808438
0.0644388 0.529152 0.813794
0.0454871 0.543526 0.81915
0.0265507 0.5579 0.824491
0.00759899 0.572274 0.829847
0 0.586633 0.835203
0 0.601007 0.840558
0 0.615381 0.845914
0 0.629755 0.85127
0 0.644114 0.856626
0 0.658488 0.861982
0.535882 0.212833 0.739956
0.516945 0.227207 0.745296
0.498009 0.241581 0.750652
0.479057 0.25594 0.756008
0.460121 0.270314 0.761364
0.441169 0.284688 0.76672
0.422232 0.299062 0.772076
0.403281 0.31342 0.777432
0.384344 0.327794 0.782788
0.365393 0.342168 0.788144
0.346441 0.356542 0.7935
0.327504 0.370901 0.798856
0.308553 0.385275 0.804211
0.289616 0.399649 0.809567
0.270665 0.414023 0.814923
0.251728 0.428382 0.820279
0.232776 0.442756 0.825635
0.21384 0.45713 0.830991
0.194888 0.471504 0.836347
0.175937 0.485863 0.841703
0.157 0.500237 0.847059
0.138048 0.514611 0.852415
0.119112 0.528984 0.857771
0.10016 0.543343 0.863111
0.0812238 0.557717 0.868467
0.0622721 0.572091 0.873823
0.0433356 0.586465 0.879179
0.0243839 0.600824 0.884535
0.00543221 0.615198 0.889891
0 0.629572 0.895247
0 0.643946 0.900603
0 0.658305 0.905959
0 0.672679 0.911315
0.571618 0.227024 0.789288
0.552682 0.241398 0.794629
0.53373 0.255756 0.799985
0.514794 0.27013 0.805341
0.495842 0.284504 0.810697
0.476905 0.298878 0.816052
0.457954 0.313237 0.821408
0.439017 0.327611 0.826764
0.420066 0.341985 0.83212
0.401114 0.356359 0.837476
0.382177 0.370718 0.842832
0.363226 0.385092 0.848188
0.344289 0.399466 0.853544
0.325338 0.41384 0.8589
0.306401 0.428199 0.864256
0.287449 0.442573 0.869612
0.268513 0.456947 0.874968
0.249561 0.471321 0.880323
0.23061 0.485679 0.885679
0.211673 0.500053 0.891035
0.192721 0.514427 0.896391
0.173785 0.528801 0.901747
0.154833 0.54316 0.907088
0.135897 0.557534 0.912444
0.116945 0.571908 0.9178
0.0980087 0.586282 0.923156
0.079057 0.600641 0.928512
0.0601053 0.615015 0.933867
0.0411688 0.629389 0.939223
0.0222171 0.643763 0.944579
0.00328069 0.658122 0.949935
0 0.672496 0.955291
0 0.68687 0.960647
0.60734 0.241215 0.838605
0.588403 0.255589 0.843961
0.569467 0.269947 0.849317
0.550515 0.284321 0.854673
0.531579 0.298695 0.860029
0.512627 0.313069 0.865385
0.493675 0.327428 0.870741
0.474739 0.341802 0.876097
0.455787 0.356176 0.881453
0.436851 0.37055 0.886809
0.417899 0.384909 0.892164
0.398962 0.399283 0.89752
0.380011 0.413657 0.902876
0.361074 0.428031 0.908232
0.342123 0.44239 0.913588
0.323171 0.456764 0.918944
0.304234 0.471138 0.9243
0.285283 0.485512 0.929656
0.266346 0.49987 0.935012
0.247395 0.514244 0.940368
0.228458 0.528618 0.945708
0.209506 0.542992 0.951064
0.19057 0.557351 0.95642
0.171618 0.571725 0.961776
0.152667 0.586099 0.967132
0.13373 0.600473 0.972488
0.114778 0.614832 0.977844
0.0958419 0.629206 0.9832
0.0768902 0.64358 0.988556
0.0579538 0.657954 0.993912
0.0390021 0.672312 0.999268
0.0200656 0.686687 1
0.00111391 0.70106 1
0.643076 0.255406 0.887938
0.62414 0.26978 0.893294
0.605188 0.284138 0.89865
0.586236 0.298512 0.904005
0.5673 0.312886 0.909361
0.548348 0.32726 0.914717
0.529412 0.341619 0.920073
0.51046 0.355993 0.925429
0.491524 0.370367 0.930785
0.472572 0.384741 0.936141
0.453635 0.3991 0.941497
0.434684 0.413474 0.946853
0.415732 0.427848 0.952209
0.396796 0.442222 0.957565
0.377844 0.45658 0.962921
0.358907 0.470954 0.968277
0.339956 0.485328 0.973632
0.321019 0.499702 0.978988
0.302068 0.514061 0.984344
0.283131 0.528435 0.989685
0.264179 0.542809 0.995041
0.245228 0.557183 1
0.226291 0.571542 1
0.20734 0.585916 1
0.188403 0.60029 1
0.169451 0.614664 1
0.150515 0.629023 1
0.131563 0.643397 1
0.112627 0.657771 1
0.0936751 0.672145 1
0.0747234 0.686503 1
0.055787 0.700877 1
0.0368353 0.715251 1
0.678798 0.269596 0.93727
0.659861 0.283955 0.942626
0.640909 0.298329 0.947982
0.621973 0.312703 0.953338
0.603021 0.327077 0.958694
0.584085 0.341436 0.96405
0.565133 0.35581 0.969406
0.546197 0.370184 0.974762
0.527245 0.384558 0.980117
0.508309 0.398917 0.985473
0.489357 0.413291 0.990829
0.470405 0.427665 0.996185
0.451469 0.442039 1
0.432517 0.456397 1
0.413581 0.470771 1
0.394629 0.485145 1
0.375692 0.499519 1
0.356741 0.513878 1
0.337804 0.528252 1
0.318853 0.542626 1
0.299901 0.557 1
0.280964 0.571359 1
0.262013 0.585733 1
0.243076 0.600107 1
0.224125 0.614481 1
0.205188 0.62884 1
0.186236 0.643214 1
0.1673 0.657588 1
0.148348 0.671962 1
0.129397 0.68632 1
0.11046 0.700694 1
0.0915084 0.715068 1
0.0725719 0.729442 1
0.714519 0.283787 0.986603
0.695583 0.298146 0.991958
0.676646 0.31252 0.997314
0.657694 0.326894 1
0.638758 0.341268 1
0.619806 0.355627 1
0.60087 0.370001 1
0.581918 0.384375 1
0.562966 0.398749 1
0.54403 0.413108 1
0.525078 0.427482 1
0.506142 0.441855 1
0.48719 0.45623 1
0.468254 0.470588 1
0.449302 0.484962 1
0.430365 0.499336 1
0.411414 0.51371 1
0.392462 0.528069 1
0.373526 0.542443 1
0.354574 0.556817 1
0.335637 0.571191 1
0.316686 0.58555 1
0.297749 0.599924 1
0.278798 0.614298 1
0.259861 0.628672 1
0.240909 0.64303 1
0.221958 0.657404 1
0.203021 0.671778 1
0.18407 0.686152 1
0.165133 0.700511 1
0.146181 0.714885 1
0.127245 0.729259 1
0.108293 0.743633 1
0.750256 0.297978 1
0.731319 0.312337 1
0.712367 0.326711 1
0.693431 0.341085 1
0.674479 0.355459 1
0.655528 0.369818 1
0.636591 0.384192 1
0.617639 0.398566 1
0.598703 0.41294 1
0.579751 0.427298 1
0.560815 0.441672 1
0.541863 0.456046 1
0.522927 0.47042 1
0.503975 0.484779 1
0.485023 0.499153 1
0.466087 0.513527 1
0.447135 0.527901 1
0.428199 0.54226 1
0.409247 0.556634 1
0.390311 0.571008 1
0.371359 0.585382 1
0.352422 0.599741 1
0.333471 0.614115 1
0.314519 0.628489 1
0.295583 0.642863 1
0.276631 0.657221 1
0.257694 0.671595 1
0.238743 0.685969 1
0.219806 0.700343 1
0.200855 0.714702 1
0.181918 0.729076 1
0.162966 0.74345 1
0.144015 0.757824 1
0.785977 0.312169 1
0.76704 0.326528 1
0.748089 0.340902 1
0.729152 0.355276 1
0.710201 0.36965 1
0.691264 0.384009 1
0.672312 0.398383 1
0.653376 0.412757 1
0.634424 0.427131 1
0.615488 0.441489 1
0.596536 0.455863 1
0.577585 0.470237 1
0.558648 0.484611 1
0.539696 0.49897 1
0.52076 0.513344 1
0.501808 0.527718 1
0.482872 0.542092 1
0.46392 0.556451 1
0.444984 0.570825 1
0.426032 0.585199 1
0.40708 0.599573 1
0.388144 0.613931 1
0.369192 0.628305 1
0.350256 0.64268 1
0.331304 0.657053 1
0.312367 0.671412 1
0.293416 0.685786 1
0.274479 0.70016 1
0.255528 0.714534 1
0.236576 0.728893 1
0.217639 0.743267 1
0.198688 0.757641 1
0.179751 0.772015 1
0.821698 0.32636 1
0.802762 0.340719 1
0.783825 0.355093 1
0.764874 0.369467 1
0.745937 0.383825 1
0.726986 0.398199 1
0.708049 0.412573 1
0.689097 0.426947 1
0.670161 0.441306 1
0.651209 0.45568 1
0.632258 0.470054 1
0.613321 0.484428 1
0.594369 0.498787 1
0.575433 0.513161 1
0.556481 0.527535 1
0.537545 0.541909 1
0.518593 0.556268 1
0.499657 0.570642 1
0.480705 0.585016 1
0.461753 0.59939 1
0.442817 0.613748 1
0.423865 0.628122 1
0.404929 0.642496 1
0.385977 0.65687 1
0.367041 0.671229 1
0.348089 0.685603 1
0.329152 0.699977 1
0.310201 0.714351 1
0.291249 0.72871 1
0.272312 0.743084 1
0.253361 0.757458 1
0.234424 0.771832 1
0.215473 0.786191 1
0.857435 0.340551 1
0.838499 0.35491 1
0.819547 0.369284 1
0.80061 0.383658 1
0.781659 0.398016 1
0.762722 0.41239 1
0.74377 0.426764 1
0.724819 0.441138 1
0.705882 0.455497 1
0.686931 0.469871 1
0.667994 0.484245 1
0.649042 0.498619 1
0.630106 0.512978 1
0.611154 0.527352 1
0.592218 0.541726 1
0.573266 0.5561 1
0.554314 0.570459 1
0.535378 0.584833 1
0.516426 0.599207 1
0.49749 0.613581 1
0.478538 0.627939 1
0.459602 0.642313 1
0.44065 0.656687 1
0.421714 0.671061 1
0.402762 0.68542 1
0.38381 0.699794 1
0.364874 0.714168 1
0.345922 0.728542 1
0.326986 0.742901 1
0.308034 0.757275 1
0.289097 0.771649 1
0.270146 0.786023 1
0.251209 0.800381 1
0.893156 0.354742 1
0.87422 0.3691 1
0.855283 0.383474 1
0.836332 0.397848 1
0.81738 0.412207 1
0.798444 0.426581 1
0.779492 0.440955 1
0.760555 0.455329 1
0.741604 0.469688 1
0.722667 0.484062 1
0.703716 0.498436 1
0.684779 0.51281 1
0.665827 0.527169 1
0.646876 0.541543 1
0.627939 0.555917 1
0.608988 0.570291 1
0.590051 0.584649 1
0.571099 0.599023 1
0.552163 0.613397 1
0.533211 0.627771 1
0.514275 0.64213 1
0.495323 0.656504 1
0.476387 0.670878 1
0.457435 0.685252 1
0.438483 0.699611 1
0.419547 0.713985 1
0.400595 0.728359 1
0.381659 0.742733 1
0.362707 0.757092 1
0.343771 0.771466 1
0.324819 0.78584 1
0.305867 0.800214 1
0.286931 0.814572 1
0.928878 0.368933 1
0.909957 0.383291 1
0.891005 0.397665 1
0.872053 0.412024 1
0.853117 0.426398 1
0.834165 0.440772 1
0.815229 0.455146 1
0.796277 0.469505 1
0.77734 0.483879 1
0.758389 0.498253 1
0.739452 0.512627 1
0.7205 0.526986 1
0.701549 0.54136 1
0.682612 0.555734 1
0.663661 0.570108 1
0.644724 0.584466 1
0.625772 0.59884 1
0.606836 0.613214 1
0.587884 0.627588 1
0.568948 0.641947 1
0.549996 0.656321 1
0.531044 0.670695 1
0.512108 0.685069 1
0.493156 0.699428 1
0.47422 0.713802 1
0.455268 0.728176 1
0.436332 0.74255 1
0.41738 0.756909 1
0.398444 0.771282 1
0.379492 0.785657 1
0.36054 0.800031 1
0.341604 0.814389 1
0.322652 0.828763 1
0.964614 0.383124 1
0.945678 0.397482 1
0.926726 0.411856 1
0.90779 0.426215 1
0.888838 0.440589 1
0.869902 0.454963 1
0.85095 0.469337 1
0.832013 0.483696 1
0.813062 0.49807 1
