public/LUTS/Color Shift/ColorShift_55.cube
TITLE "Generated by Resolve"
LUT_3D_SIZE 33
0 0 0
0 0.0204776 0
0 0.0409552 0
0 0.0614328 0
0 0.0819104 0
0 0.102388 0
0 0.122866 0
0 0.143359 0
0 0.163836 0
0 0.184314 0
0 0.204791 0
0 0.225269 0
0 0.245747 0
0 0.266239 0
0 0.286717 0
0 0.307195 0
0 0.327672 0
0 0.34815 0
0 0.368627 0
0 0.38912 0
0 0.409598 0
0 0.430076 0
0 0.450553 0
0 0.471031 0
0 0.491508 0
0 0.512001 0
0 0.532479 0
0 0.552956 0
0 0.573434 0
0 0.593912 0
0 0.614389 0
0 0.634882 0
0 0.65536 0
0.01944 0.0158999 0.0739757
0 0.0363622 0.0583047
0 0.0568399 0.0426337
0 0.0773175 0.0269627
0 0.0978103 0.0112917
0 0.118288 0
0 0.138766 0
0 0.159243 0
0 0.179721 0
0 0.200198 0
0 0.220691 0
0 0.241169 0
0 0.261646 0
0 0.282124 0
0 0.302602 0
0 0.323079 0
0 0.343572 0
0 0.36405 0
0 0.384527 0
0 0.405005 0
0 0.425483 0
0 0.44596 0
0 0.466453 0
0 0.486931 0
0 0.507408 0
0 0.527886 0
0 0.548363 0
0 0.568841 0
0 0.589334 0
0 0.609812 0
0 0.630289 0
0 0.650767 0
0 0.671244 0
0.0388952 0.0317998 0.147982
0.00860609 0.0522621 0.132311
0 0.0727398 0.11664
0 0.0932174 0.100969
0 0.11371 0.0852979
0 0.134188 0.0696269
0 0.154665 0.0539559
0 0.175143 0.0382849
0 0.195621 0.0226139
0 0.216098 0.00694286
0 0.236591 0
0 0.257069 0
0 0.277546 0
0 0.298024 0
0 0.318502 0
0 0.338979 0
0 0.359472 0
0 0.37995 0
0 0.400427 0
0 0.420905 0
0 0.441382 0
0 0.461875 0
0 0.482353 0
0 0.502831 0
0 0.523308 0
0 0.543786 0
0 0.564263 0
0 0.584756 0
0 0.605234 0
0 0.625711 0
0 0.646189 0
0 0.666667 0
0 0.687144 0
0.0583352 0.0476997 0.221988
0.0280461 0.0681621 0.206317
0 0.0886397 0.190646
0 0.109133 0.174975
0 0.12961 0.159304
0 0.150088 0.143633
0 0.170565 0.127962
0 0.191043 0.112291
0 0.211521 0.0966201
0 0.232013 0.0809491
0 0.252491 0.0652781
0 0.272969 0.0496071
0 0.293446 0.0339361
0 0.313924 0.018265
0 0.334401 0.00259403
0 0.354894 0
0 0.375372 0
0 0.39585 0
0 0.416327 0
0 0.436805 0
0 0.457282 0
0 0.477775 0
0 0.498253 0
0 0.51873 0
0 0.539208 0
0 0.559686 0
0 0.580163 0
0 0.600656 0
0 0.621134 0
0 0.641611 0
0 0.662089 0
0 0.682567 0
0 0.703044 0
0.0777905 0.0635996 0.295995
0.0475013 0.084062 0.280324
0.0171969 0.10454 0.264652
0 0.125032 0.248981
0 0.14551 0.23331
0 0.165988 0.217639
0 0.186465 0.201968
0 0.206943 0.186297
0 0.22742 0.170626
0 0.247913 0.154955
0 0.268391 0.139284
0 0.288869 0.123613
0 0.309346 0.107942
0 0.329824 0.0922713
0 0.350301 0.0766003
0 0.370794 0.0609293
0 0.391272 0.0452583
0 0.411749 0.029572
0 0.432227 0.013901
0 0.452705 0
0 0.473182 0
0 0.493675 0
0 0.514153 0
0 0.53463 0
0 0.555108 0
0 0.575586 0
0 0.596063 0
0 0.616556 0
0 0.637034 0
0 0.657511 0
0 0.677989 0
0 0.698466 0
0 0.718944 0
0.0972305 0.0794995 0.370001
0.0669566 0.0999619 0.35433
0.0366522 0.120455 0.338659
0.00634775 0.140932 0.322988
0 0.16141 0.307317
0 0.181888 0.291646
0 0.202365 0.275975
0 0.222843 0.260304
0 0.243336 0.244633
0 0.263813 0.228962
0 0.284291 0.213291
0 0.304768 0.19762
0 0.325246 0.181949
0 0.345724 0.166278
0 0.366217 0.150607
0 0.386694 0.134936
0 0.407172 0.119265
0 0.427649 0.103578
0 0.448127 0.0879072
0 0.468605 0.0722362
0 0.489097 0.0565652
0 0.509575 0.0408942
0 0.530053 0.0252232
0 0.55053 0.00955215
0 0.571008 0
0 0.591485 0
0 0.611978 0
0 0.632456 0
0 0.652934 0
0 0.673411 0
0 0.693889 0
0 0.714366 0
0 0.734859 0
0.116686 0.0953994 0.444007
0.0863966 0.115862 0.428336
0.0560922 0.136355 0.412665
0.025803 0.156832 0.396994
0 0.17731 0.381323
0 0.197787 0.365652
0 0.218265 0.349981
0 0.238743 0.33431
0 0.259236 0.318639
0 0.279713 0.302968
0 0.300191 0.287297
0 0.320668 0.271626
0 0.341146 0.255955
0 0.361624 0.240284
0 0.382116 0.224613
0 0.402594 0.208942
0 0.423072 0.193271
0 0.443549 0.1776
0 0.464027 0.161913
0 0.484504 0.146242
0 0.504997 0.130571
0 0.525475 0.1149
0 0.545953 0.0992294
0 0.56643 0.0835584
0 0.586908 0.0678874
0 0.607385 0.0522164
0 0.627878 0.0365454
0 0.648356 0.0208743
0 0.668833 0.00520333
0 0.689311 0
0 0.709789 0
0 0.730266 0
0 0.750759 0
0.136126 0.111299 0.518013
0.105852 0.131762 0.502342
0.0755474 0.152255 0.486671
0.045243 0.172732 0.471
0.0149538 0.19321 0.455329
0 0.213687 0.439658
0 0.234165 0.423987
0 0.254643 0.408316
0 0.275135 0.392645
0 0.295613 0.376974
0 0.316091 0.361303
0 0.336568 0.345632
0 0.357046 0.329961
0 0.377523 0.31429
0 0.398016 0.298619
0 0.418494 0.282948
0 0.438972 0.267277
0 0.459449 0.251606
0 0.479927 0.23592
0 0.50042 0.220249
0 0.520897 0.204578
0 0.541375 0.188907
0 0.561852 0.173236
0 0.58233 0.157565
0 0.602808 0.141894
0 0.623301 0.126223
0 0.643778 0.110552
0 0.664256 0.0948806
0 0.684733 0.0792096
0 0.705211 0.0635386
0 0.725689 0.0478676
0 0.746181 0.0321965
0 0.766659 0.0165255
0.155581 0.127199 0.59202
0.125292 0.147677 0.576349
0.0950027 0.168154 0.560678
0.0646983 0.188632 0.545007
0.0343938 0.20911 0.529335
0.00408942 0.229587 0.513664
0 0.250065 0.497993
0 0.270558 0.482322
0 0.291035 0.466651
0 0.311513 0.45098
0 0.331991 0.435309
0 0.352468 0.419638
0 0.372946 0.403967
0 0.393439 0.388296
0 0.413916 0.372625
0 0.434394 0.356954
0 0.454871 0.341283
0 0.475349 0.325612
0 0.495827 0.309941
0 0.51632 0.294255
0 0.536797 0.278584
0 0.557275 0.262913
0 0.577752 0.247242
0 0.59823 0.231571
0 0.618708 0.2159
0 0.6392 0.200229
0 0.659678 0.184558
0 0.680156 0.168887
0 0.700633 0.153216
0 0.721111 0.137545
0 0.741588 0.121874
0 0.762081 0.106203
0 0.782559 0.0905318
0.175036 0.143099 0.666026
0.144747 0.163577 0.650355
0.114443 0.184054 0.634684
0.0841382 0.204532 0.619013
0.0538491 0.22501 0.603342
0.0235447 0.245487 0.587671
0 0.265965 0.572
0 0.286458 0.556329
0 0.306935 0.540658
0 0.327413 0.524987
0 0.34789 0.509316
0 0.368368 0.493645
0 0.388846 0.477974
0 0.409339 0.462303
0 0.429816 0.446632
0 0.450294 0.430961
0 0.470771 0.41529
0 0.491249 0.399619
0 0.511727 0.383948
0 0.532219 0.368261
0 0.552697 0.35259
0 0.573175 0.336919
0 0.593652 0.321248
0 0.61413 0.305577
0 0.634607 0.289906
0 0.6551 0.274235
0 0.675578 0.258564
0 0.696056 0.242893
0 0.716533 0.227222
0 0.737011 0.211551
0 0.757488 0.19588
0 0.777981 0.180209
0 0.798459 0.164538
0.194476 0.158999 0.740032
0.164187 0.179477 0.724361
0.133898 0.199954 0.70869
0.103593 0.220432 0.693019
0.0732891 0.240909 0.677348
0.0429999 0.261387 0.661677
0.0126955 0.28188 0.646006
0 0.302358 0.630335
0 0.322835 0.614664
0 0.343313 0.598993
0 0.36379 0.583322
0 0.384268 0.567651
0 0.404761 0.55198
0 0.425238 0.536309
0 0.445716 0.520638
0 0.466194 0.504967
0 0.486671 0.489296
0 0.507149 0.473625
0 0.527642 0.457954
0 0.548119 0.442283
0 0.568597 0.426596
0 0.589075 0.410925
0 0.609552 0.395254
0 0.63003 0.379583
0 0.650523 0.363912
0 0.671 0.348241
0 0.691478 0.33257
0 0.711955 0.316899
0 0.732433 0.301228
0 0.752911 0.285557
0 0.773404 0.269886
0 0.793881 0.254215
0 0.814359 0.238544
0.213931 0.174899 0.814038
0.183642 0.195377 0.798367
0.153338 0.215854 0.782696
0.123049 0.236332 0.767025
0.0927443 0.256809 0.751354
0.0624399 0.277287 0.735683
0.0321355 0.29778 0.720012
0.00184634 0.318257 0.704341
0 0.338735 0.68867
0 0.359213 0.672999
0 0.37969 0.657328
0 0.400168 0.641657
0 0.420661 0.625986
0 0.441138 0.610315
0 0.461616 0.594644
0 0.482094 0.578973
0 0.502571 0.563302
0 0.523049 0.547631
0 0.543542 0.53196
0 0.564019 0.516289
0 0.584497 0.500618
0 0.604974 0.484932
0 0.625452 0.469261
0 0.64593 0.45359
0 0.666423 0.437919
0 0.6869 0.422248
0 0.707378 0.406577
0 0.727855 0.390906
0 0.748333 0.375235
0 0.768811 0.359564
0 0.789303 0.343893
0 0.809781 0.328222
0 0.830259 0.312551
0.233371 0.190799 0.888045
0.203098 0.211276 0.872374
0.172793 0.231754 0.856703
0.142489 0.252232 0.841031
0.112184 0.272709 0.82536
0.0818952 0.293187 0.809689
0.0515908 0.31368 0.794018
0.0212863 0.334157 0.778347
0 0.354635 0.762676
0 0.375113 0.747005
0 0.39559 0.731334
0 0.416068 0.715663
0 0.436561 0.699992
0 0.457038 0.684321
0 0.477516 0.66865
0 0.497993 0.652979
0 0.518471 0.637308
0 0.538949 0.621637
0 0.559442 0.605966
0 0.579919 0.590295
0 0.600397 0.574624
0 0.620874 0.558938
0 0.641352 0.543267
0 0.661845 0.527596
0 0.682322 0.511925
0 0.7028 0.496254
0 0.723278 0.480583
0 0.743755 0.464912
0 0.764233 0.449241
0 0.784726 0.43357
0 0.805203 0.417899
0 0.825681 0.402228
0 0.846159 0.386557
0.252827 0.206699 0.962051
0.222538 0.227176 0.94638
0.192233 0.247654 0.930709
0.161944 0.268132 0.915038
0.13164 0.288609 0.899367
0.101335 0.309102 0.883696
0.071046 0.32958 0.868025
0.0407416 0.350057 0.852354
0.0104372 0.370535 0.836683
0 0.391012 0.821012
0 0.41149 0.805341
0 0.431983 0.78967
0 0.452461 0.773999
0 0.472938 0.758328
0 0.493416 0.742657
0 0.513893 0.726986
0 0.534371 0.711315
0 0.554864 0.695644
0 0.575341 0.679973
0 0.595819 0.664302
0 0.616297 0.64863
0 0.636774 0.632959
0 0.657252 0.617273
0 0.677745 0.601602
0 0.698222 0.585931
0 0.7187 0.57026
0 0.739178 0.554589
0 0.759655 0.538918
0 0.780133 0.523247
0 0.800626 0.507576
0 0.821103 0.491905
0 0.841581 0.476234
0 0.862058 0.460563
0.272267 0.222599 1
0.241993 0.243076 1
0.211688 0.263554 1
0.181384 0.284031 0.989044
0.151095 0.304509 0.973373
0.12079 0.325002 0.957702
0.090486 0.34548 0.942031
0.0601816 0.365957 0.92636
0.0298924 0.386435 0.910689
0 0.406912 0.895018
0 0.42739 0.879347
0 0.447883 0.863676
0 0.46836 0.848005
0 0.488838 0.832334
0 0.509316 0.816663
0 0.529793 0.800992
0 0.550271 0.785321
0 0.570764 0.76965
0 0.591241 0.753979
0 0.611719 0.738308
0 0.632197 0.722637
0 0.652674 0.706966
0 0.673152 0.691279
0 0.693645 0.675608
0 0.714122 0.659937
0 0.7346 0.644266
0 0.755077 0.628595
0 0.775555 0.612924
0 0.796033 0.597253
0 0.816526 0.581582
0 0.837003 0.565911
0 0.857481 0.55024
0 0.877958 0.534569
0.291722 0.238499 1
0.261433 0.258976 1
0.231144 0.279454 1
0.200839 0.299931 1
0.170535 0.320409 1
0.14023 0.340902 1
0.109941 0.361379 1
0.0796368 0.381857 1
0.0493324 0.402335 0.984695
0.0190433 0.422812 0.969024
0 0.443305 0.953353
0 0.463783 0.937682
0 0.48426 0.922011
0 0.504738 0.90634
0 0.525216 0.890669
0 0.545693 0.874998
0 0.566186 0.859327
0 0.586664 0.843656
0 0.607141 0.827985
0 0.627619 0.812314
0 0.648096 0.796643
0 0.668574 0.780972
0 0.689067 0.765301
0 0.709545 0.749615
0 0.730022 0.733944
0 0.7505 0.718273
0 0.770977 0.702602
0 0.791455 0.686931
0 0.811948 0.67126
0 0.832425 0.655589
0 0.852903 0.639918
0 0.873381 0.624247
0 0.893858 0.608576
0.311177 0.254414 1
0.280888 0.274876 1
0.250584 0.295354 1
0.220279 0.315831 1
0.18999 0.336324 1
0.159686 0.356802 1
0.129381 0.377279 1
0.0990921 0.397757 1
0.0687877 0.418235 1
0.0384833 0.438712 1
0.00817884 0.459205 1
0 0.479683 1
0 0.50016 0.996017
0 0.520638 0.980346
0 0.541115 0.964675
0 0.561593 0.949004
0 0.582086 0.933333
0 0.602564 0.917662
0 0.623041 0.901991
0 0.643519 0.88632
0 0.663996 0.870649
0 0.684474 0.854978
0 0.704967 0.839307
0 0.725444 0.823621
0 0.745922 0.80795
0 0.7664 0.792279
0 0.786877 0.776608
0 0.807355 0.760937
0 0.827848 0.745266
0 0.848325 0.729595
0 0.868803 0.713924
0 0.889281 0.698253
0 0.909758 0.682582
0.330617 0.270314 1
0.300328 0.290776 1
0.270039 0.311254 1
0.239734 0.331731 1
0.20943 0.352224 1
0.179141 0.372702 1
0.148836 0.393179 1
0.118532 0.413657 1
0.0882277 0.434134 1
0.0579385 0.454612 1
0.0276341 0.475105 1
0 0.495583 1
0 0.51606 1
0 0.536538 1
0 0.557015 1
0 0.577493 1
0 0.597986 1
0 0.618463 0.991669
0 0.638941 0.975998
0 0.659419 0.960327
0 0.679896 0.944656
0 0.700374 0.928985
0 0.720867 0.913314
0 0.741344 0.897642
0 0.761822 0.881956
0 0.7823 0.866285
0 0.802777 0.850614
0 0.82327 0.834943
0 0.843748 0.819272
0 0.864225 0.803601
0 0.884703 0.78793
0 0.90518 0.772259
0 0.925658 0.756588
0.350072 0.286213 1
0.319783 0.306676 1
0.289479 0.327153 1
0.25919 0.347646 1
0.228885 0.368124 1
0.198581 0.388602 1
0.168276 0.409079 1
0.137987 0.429557 1
0.107683 0.450034 1
0.0773785 0.470527 1
0.0470893 0.491005 1
0.0167849 0.511482 1
0 0.53196 1
0 0.552438 1
0 0.572915 1
0 0.593408 1
0 0.613886 1
0 0.634363 1
0 0.654841 1
0 0.675319 1
0 0.695796 1
0 0.716289 1
0 0.736767 0.98732
0 0.757244 0.971649
0 0.777722 0.955962
0 0.798199 0.940291
0 0.818677 0.92462
0 0.83917 0.908949
0 0.859648 0.893278
0 0.880125 0.877607
0 0.900603 0.861936
0 0.92108 0.846265
0 0.941558 0.830594
0.369512 0.302113 1
0.339239 0.322576 1
0.308934 0.343053 1
0.27863 0.363546 1
0.248325 0.384024 1
0.218036 0.404501 1
0.187732 0.424979 1
0.157427 0.445457 1
0.127138 0.465934 1
0.0968338 0.486427 1
0.0665293 0.506905 1
0.0362249 0.527382 1
0.00593576 0.54786 1
0 0.568338 1
0 0.588815 1
0 0.609308 1
0 0.629786 1
0 0.650263 1
0 0.670741 1
0 0.691218 1
0 0.711696 1
0 0.732189 1
0 0.752667 1
0 0.773144 1
0 0.793622 1
0 0.814099 1
0 0.834577 0.998627
0 0.85507 0.982956
0 0.875547 0.967285
0 0.896025 0.951614
0 0.916503 0.935943
0 0.93698 0.920272
0 0.957458 0.904601
0.388968 0.318013 1
0.358679 0.338476 1
0.328389 0.358953 1
0.298085 0.379446 1
0.267781 0.399924 1
0.237476 0.420401 1
0.207187 0.440879 1
0.176883 0.461357 1
0.146578 0.481834 1
0.116274 0.502327 1
0.0859846 0.522805 1
0.0556802 0.543282 1
0.0253758 0.56376 1
0 0.584237 1
0 0.60473 1
0 0.625208 1
0 0.645685 1
0 0.666163 1
0 0.686641 1
0 0.707118 1
0 0.727611 1
0 0.748089 1
0 0.768566 1
0 0.789044 1
0 0.809522 1
0 0.829999 1
0 0.850492 1
0 0.87097 1
0 0.891447 1
0 0.911925 1
0 0.932403 1
0 0.95288 0.994278
0 0.973373 0.978607
0.408423 0.333913 1
0.378134 0.354376 1
0.347829 0.374868 1
0.317525 0.395346 1
0.287236 0.415824 1
0.256931 0.436301 1
0.226627 0.456779 1
0.196338 0.477256 1
0.166033 0.497749 1
0.135729 0.518227 1
0.105425 0.538705 1
0.0751354 0.559182 1
0.044831 0.57966 1
0.0145266 0.600137 1
0 0.62063 1
0 0.641108 1
0 0.661585 1
0 0.682063 1
0 0.702541 1
0 0.723018 1
0 0.743511 1
0 0.763989 1
0 0.784466 1
0 0.804944 1
0 0.825422 1
0 0.845899 1
0 0.866392 1
0 0.88687 1
0 0.907347 1
0 0.927825 1
0 0.948302 1
0 0.96878 1
0 0.989273 1
0.427863 0.349813 1
0.397574 0.370275 1
0.367285 0.390768 1
0.33698 0.411246 1
0.306676 0.431724 1
0.276387 0.452201 1
0.246082 0.472679 1
0.215778 0.493156 1
0.185473 0.513649 1
0.155184 0.534127 1
0.12488 0.554604 1
0.0945754 0.575082 1
0.064271 0.59556 1
0.0339818 0.616037 1
0.00367742 0.63653 1
0 0.657008 1
0 0.677485 1
0 0.697963 1
0 0.718441 1
0 0.738918 1
0 0.759411 1
0 0.779889 1
0 0.800366 1
0 0.820844 1
0 0.841321 1
0 0.861799 1
0 0.882292 1
0 0.90277 1
0 0.923247 1
0 0.943725 1
0 0.964202 1
0 0.984695 1
0 1 1
0.447318 0.365713 1
0.417029 0.386191 1
0.386725 0.406668 1
0.356435 0.427146 1
0.326131 0.447623 1
0.295827 0.468101 1
0.265522 0.488579 1
0.235233 0.509071 1
0.204929 0.529549 1
0.174624 0.550027 1
0.144335 0.570504 1
0.114031 0.590982 1
0.0837262 0.61146 1
0.0534218 0.631952 1
0.0231327 0.65243 1
0 0.672908 1
0 0.693385 1
0 0.713863 1
0 0.73434 1
0 0.754833 1
0 0.775311 1
0 0.795789 1
0 0.816266 1
0 0.836744 1
0 0.857221 1
0 0.877714 1
0 0.898192 1
0 0.918669 1
0 0.939147 1
0 0.959625 1
0 0.980102 1
0 1 1
0 1 1
0.466758 0.381613 1
0.436484 0.40209 1
0.40618 0.422568 1
0.375875 0.443046 1
0.345571 0.463523 1
0.315282 0.484001 1
0.284977 0.504479 1
0.254673 0.524971 1
0.224384 0.545449 1
0.19408 0.565927 1
0.163775 0.586404 1
0.133471 0.606882 1
0.103182 0.627359 1
0.0728771 0.647852 1
0.0425727 0.66833 1
0.0122683 0.688807 1
0 0.709285 1
0 0.729763 1
0 0.75024 1
0 0.770733 1
0 0.791211 1
0 0.811688 1
0 0.832166 1
0 0.852644 1
0 0.873121 1
0 0.893614 1
0 0.914092 1
0 0.934569 1
0 0.955047 1
0 0.975525 1
0 0.996002 1
0 1 1
0 1 1
0.486213 0.397513 1
0.455924 0.41799 1
0.42562 0.438468 1
0.395331 0.458946 1
0.365026 0.479423 1
0.334722 0.499901 1
0.304433 0.520378 1
0.274128 0.540871 1
0.243824 0.561349 1
0.213519 0.581827 1
0.18323 0.602304 1
0.152926 0.622782 1
0.122621 0.643259 1
0.0923323 0.663752 1
0.0620279 0.68423 1
0.0317235 0.704707 1
0.00141909 0.725185 1
0 0.745663 1
0 0.766155 1
0 0.786633 1
0 0.807111 1
0 0.827588 1
0 0.848066 1
0 0.868544 1
0 0.889036 1
0 0.909514 1
0 0.929992 1
0 0.950469 1
0 0.970947 1
0 0.991424 1
0 1 1
0 1 1
0 1 1
0.505653 0.413413 1
0.47538 0.43389 1
0.445075 0.454368 1
0.414771 0.474845 1
0.384482 0.495323 1
0.354177 0.515801 1
0.323873 0.536294 1
0.293568 0.556771 1
0.263279 0.577249 1
0.232975 0.597726 1
0.20267 0.618204 1
0.172381 0.638682 1
0.142077 0.659175 1
0.111772 0.679652 1
0.0814679 0.70013 1
0.0511788 0.720607 1
0.0208743 0.741085 1
0 0.761563 1
0 0.782055 1
0 0.802533 1
0 0.823011 1
0 0.843488 1
0 0.863966 1
0 0.884443 1
0 0.904936 1
0 0.925414 1
0 0.945891 1
0 0.966369 1
0 0.986847 1
0 1 1
0 1 1
0 1 1
0 1 1
0.525109 0.429313 1
0.49482 0.44979 1
0.46453 0.470268 1
0.434226 0.490745 1
0.403922 0.511223 1
0.373617 0.531701 1
0.343328 0.552193 1
0.313024 0.572671 1
0.282719 0.593149 1
