public/LUTS/Color Shift/ColorShift_54.cube
TITLE "Generated by Resolve"
LUT_3D_SIZE 5
0 0 0
0 0.165194 0
0 0.330404 0
0 0.495598 0
0 0.660807 0
0.209171 0.111284 0.590799
0 0.276478 0.503105
0 0.441688 0.415412
0 0.606882 0.327733
0 0.772091 0.24004
0.418341 0.222568 1
0.155261 0.387762 1
0 0.552972 1
0 0.718166 0.918563
0 0.883375 0.830869
0.627527 0.333852 1
0.364446 0.499046 1
0.10135 0.664256 1
0 0.829465 1
0 0.994659 1
0.836698 0.445151 1
0.573632 0.610346 1
0.310536 0.77554 1
0.0474403 0.940749 1
0 1 1
0.303899 0 0
0.0408179 0.138705 0
0 0.303914 0
0 0.469123 0
0 0.634318 0
0.513069 0.0847944 0.337667
0.249989 0.249989 0.249989
0 0.415198 0.162295
0 0.580392 0.0746014
0 0.745602 0
0.72224 0.196078 0.928512
0.459174 0.361273 0.840818
0.196078 0.526482 0.753124
0 0.691691 0.665431
0 0.856886 0.577752
0.931426 0.307362 1
0.668345 0.472557 1
0.405249 0.637766 1
0.142153 0.802976 1
0 0.968185 1
1 0.418662 1
0.877531 0.583856 1
0.614435 0.74905 1
0.351339 0.91426 1
0.0882429 1 1
0.607813 0 0
0.344747 0.112215 0
0.081651 0.277424 0
0 0.442634 0
0 0.607828 0
0.816983 0.0583047 0.084535
0.553903 0.223499 0
0.290806 0.388708 0
0.0277256 0.553903 0
0 0.719112 0
1 0.169589 0.675364
0.763088 0.334783 0.587686
0.499992 0.499992 0.499992
0.236896 0.665202 0.412299
0 0.830396 0.324605
1 0.280888 1
0.972259 0.446082 1
0.709178 0.611276 1
0.446082 0.776486 1
0.182986 0.941695 0.915434
1 0.392172 1
1 0.557366 1
0.918349 0.72256 1
0.655253 0.88777 1
0.392157 1 1
0.911742 0 0
0.648661 0.0857252 0
0.385565 0.250935 0
0.122469 0.416144 0
0 0.581338 0
1 0.0318151 0
0.857832 0.197009 0
0.594736 0.362219 0
0.33164 0.527428 0
0.0685435 0.692622 0
1 0.143099 0.422232
1 0.308293 0.334554
0.803906 0.473503 0.24686
0.54081 0.638712 0.159167
0.277729 0.803906 0.0714733
1 0.254398 1
1 0.419593 0.925383
1 0.584787 0.83769
0.749996 0.749996 0.749996
0.4869 0.915206 0.662303
1 0.365682 1
1 0.530877 1
1 0.696086 1
0.959182 0.86128 1
0.696086 1 1
1 0 0
0.952575 0.0592355 0
0.689479 0.224445 0
0.426398 0.389654 0
0.163302 0.554849 0
1 0.0053254 0
1 0.17052 0
0.89865 0.335729 0
0.635554 0.500938 0
0.372457 0.666133 0
1 0.116609 0.1691
1 0.281804 0.0814069
1 0.447013 0
0.844739 0.612222 0
0.581643 0.777432 0
1 0.227909 0.75993
1 0.393103 0.672236
1 0.558297 0.584558
1 0.723507 0.496864
0.790814 0.888716 0.409171
1 0.339193 1
1 0.504387 1
1 0.669596 1
1 0.834791 1
1 1 1
