public/LUTS/Color Shift/ColorShift_19.cube
TITLE "Generated by Resolve"
LUT_3D_SIZE 9
0 0 0
0.0747082 0.0230564 0
0.149416 0.0461128 0
0.22414 0.0691691 0
0.298848 0.0922255 0
0.373571 0.115282 0
0.44828 0.138338 0
0.522988 0.161395 0
0.597711 0.184451 0
0 0.124773 0.0903487
0.0366979 0.147829 0.0283513
0.111421 0.170886 0
0.18613 0.193942 0
0.260853 0.216999 0
0.335561 0.240055 0
0.410285 0.263111 0
0.484993 0.286168 0
0.559701 0.309224 0
0 0.249561 0.180713
0 0.272618 0.118715
0.0734112 0.295674 0.0567178
0.148135 0.31873 0
0.222843 0.341787 0
0.297551 0.364843 0
0.372274 0.3879 0
0.446983 0.410956 0
0.521706 0.434012 0
0 0.37435 0.271092
0 0.397391 0.209094
0.0354009 0.420447 0.147082
0.110124 0.443519 0.0850843
0.184833 0.466575 0.0230716
0.259556 0.489632 0
0.334264 0.512688 0
0.408988 0.535744 0
0.483696 0.558801 0
0 0.499123 0.361456
0 0.522179 0.299458
0 0.545235 0.237446
0.0721141 0.568292 0.175448
0.146838 0.591348 0.113436
0.221546 0.61442 0.0514382
0.296254 0.637476 0
0.370977 0.660533 0
0.445686 0.683589 0
0 0.623911 0.45182
0 0.646967 0.389822
0 0.670024 0.32781
0.0341192 0.69308 0.265812
0.108827 0.716136 0.2038
0.183536 0.739193 0.141802
0.258259 0.762249 0.0797894
0.332967 0.785321 0.017792
0.407691 0.808377 0
0 0.748699 0.542184
0 0.771756 0.480186
0 0.794812 0.418173
0 0.817868 0.356176
0.0708171 0.840925 0.294163
0.145541 0.863981 0.232166
0.220249 0.887037 0.170153
0.294972 0.910094 0.108156
0.36968 0.93315 0.0461433
0 0.873487 0.632547
0 0.896544 0.57055
0 0.9196 0.508537
0 0.942657 0.44654
0.0328222 0.965713 0.384527
0.10753 0.988769 0.32253
0.182239 1 0.260517
0.256962 1 0.19852
0.33167 1 0.136507
0 0.998276 0.722911
0 1 0.660914
0 1 0.598901
0 1 0.536904
0 1 0.474891
0.0695201 1 0.412894
0.144244 1 0.350881
0.218952 1 0.288884
0.293675 1 0.226871
0.0882887 0 0.0966354
0.162982 0.000213626 0.034638
0.237705 0.02327 0
0.312413 0.0463264 0
0.387137 0.0693828 0
0.461845 0.0924392 0
0.536568 0.115511 0
0.611276 0.138567 0
0.685985 0.161624 0
0.0502785 0.10193 0.186984
0.124987 0.124987 0.124987
0.199695 0.148043 0.062974
0.274418 0.171099 0.000976577
0.349126 0.194156 0
0.42385 0.217212 0
0.498558 0.240269 0
0.573281 0.26334 0
0.64799 0.286397 0
0.0122683 0.226719 0.277348
0.0869764 0.249775 0.215351
0.1617 0.272831 0.153353
0.236408 0.295888 0.0913405
0.311131 0.318944 0.0293431
0.38584 0.342 0
0.460548 0.365057 0
0.535271 0.388113 0
0.609979 0.41117 0
0 0.351507 0.367712
0.0489815 0.374563 0.305715
0.12369 0.39762 0.243717
0.198398 0.420676 0.181704
0.273121 0.443732 0.119707
0.347829 0.466789 0.0576944
0.422553 0.489845 0
0.497261 0.512901 0
0.571984 0.535958 0
0 0.476295 0.458076
0.0109712 0.499352 0.396078
0.0856794 0.522408 0.334081
0.160403 0.545464 0.272068
0.235111 0.568521 0.210071
0.309834 0.591577 0.148058
0.384543 0.614633 0.0860609
0.459251 0.63769 0.0240482
0.533974 0.660746 0
0 0.601068 0.54844
0 0.624125 0.486442
0.0476844 0.647181 0.424445
0.122393 0.670253 0.362432
0.197116 0.693309 0.300435
0.271824 0.716365 0.238422
0.346532 0.739422 0.176425
0.421256 0.762478 0.114412
0.495964 0.785534 0.0524147
0 0.725856 0.638804
0 0.748913 0.576806
0.00967422 0.771969 0.514809
0.0843824 0.795026 0.452796
0.159106 0.818082 0.390799
0.233814 0.841154 0.328786
0.308537 0.86421 0.266789
0.383246 0.887266 0.204776
0.457969 0.910323 0.142779
0 0.850645 0.729183
0 0.873701 0.667185
0 0.896757 0.605173
0.0463874 0.919814 0.543175
0.121096 0.94287 0.481163
0.195819 0.965927 0.419165
0.270527 0.988983 0.357153
0.345235 1 0.295155
0.419959 1 0.233143
0 0.975433 0.819547
0 0.998489 0.757549
0 1 0.695537
0.0083772 1 0.633539
0.0830854 1 0.571527
0.157809 1 0.509529
0.232517 1 0.447517
0.30724 1 0.385519
0.381949 1 0.323507
0.176577 0 0.193271
0.251286 0 0.131273
0.325994 0.000427253 0.069276
0.400717 0.0234836 0.00726329
0.475425 0.04654 0
0.550134 0.0696117 0
0.624857 0.092668 0
0.699565 0.115724 0
0.774289 0.138781 0
0.138567 0.0790875 0.283619
0.213275 0.102144 0.221622
0.287999 0.1252 0.159625
0.362707 0.148257 0.097612
0.43743 0.171313 0.0356146
0.512139 0.194369 0
0.586847 0.217426 0
0.66157 0.240497 0
0.736278 0.263554 0
0.100572 0.203876 0.373999
0.17528 0.226932 0.312001
0.249989 0.249989 0.249989
0.324697 0.273045 0.187991
0.39942 0.296101 0.125978
0.474128 0.319158 0.0639811
0.548852 0.342214 0.00196841
0.62356 0.36527 0
0.698283 0.388342 0
0.062562 0.328664 0.464363
0.13727 0.35172 0.402365
0.211978 0.374777 0.340352
0.286702 0.397833 0.278355
0.36141 0.42089 0.216342
0.436133 0.443946 0.154345
0.510842 0.467002 0.0923323
0.58555 0.490059 0.0303349
0.660273 0.513115 0
0.0245518 0.453452 0.554726
0.0992599 0.476509 0.492729
0.173983 0.499565 0.430716
0.248692 0.522622 0.368719
0.3234 0.545678 0.306706
0.398123 0.568734 0.244709
0.472831 0.591791 0.182696
0.547555 0.614847 0.120699
0.622263 0.637903 0.0586862
0 0.578241 0.64509
0.0612497 0.601282 0.583093
0.135973 0.624353 0.52108
0.210681 0.64741 0.459083
0.285405 0.670466 0.39707
0.360113 0.693523 0.335073
0.434836 0.716579 0.27306
0.509544 0.739635 0.211063
0.584253 0.762692 0.14905
0 0.703014 0.735454
0.0232548 0.72607 0.673457
0.0979629 0.749126 0.611444
0.172686 0.772183 0.549447
0.247395 0.795254 0.487434
0.322103 0.818311 0.425437
0.396826 0.841367 0.363424
0.471534 0.864424 0.301427
0.546258 0.88748 0.239414
0 0.827802 0.825818
0 0.850858 0.763821
0.059968 0.873915 0.701808
0.134676 0.896971 0.639811
0.209384 0.920027 0.577798
0.284108 0.943084 0.515801
0.358816 0.966155 0.453788
0.433539 0.989212 0.391791
0.508247 1 0.329778
0 0.95259 0.916182
0 0.975647 0.854185
0.0219577 0.998703 0.792187
0.0966659 1 0.730175
0.171389 1 0.668177
0.246098 1 0.606165
0.320821 1 0.544167
0.395529 1 0.482155
0.470237 1 0.420157
0.264866 0 0.289906
0.339574 0 0.227909
0.414282 0 0.165911
0.489006 0.000640879 0.103899
0.563714 0.0237125 0.0419013
0.638437 0.0467689 0
0.713146 0.0698253 0
0.787869 0.0928817 0
0.862577 0.115938 0
0.226871 0.0562448 0.38027
0.301579 0.0793011 0.318273
0.376287 0.102358 0.25626
0.450996 0.125414 0.194263
0.525719 0.14847 0.13225
0.600427 0.171527 0.0702525
0.675151 0.194598 0.00823987
0.749859 0.217655 0
0.824582 0.240711 0
0.188861 0.181033 0.470634
0.263569 0.204089 0.408637
0.338277 0.227146 0.346624
0.413001 0.250202 0.284627
0.487709 0.273259 0.222614
0.562432 0.296315 0.160616
0.63714 0.319371 0.0986038
0.711849 0.342443 0.0366064
0.786572 0.365499 0
0.150851 0.305821 0.560998
0.225559 0.328878 0.499001
0.300282 0.351934 0.436988
0.37499 0.37499 0.37499
0.449699 0.398047 0.312993
0.524422 0.421103 0.25098
0.59913 0.44416 0.188983
0.673854 0.467216 0.12697
0.748562 0.490272 0.0649729
0.112856 0.43061 0.651362
0.187549 0.453666 0.589364
0.262272 0.476722 0.527367
0.33698 0.499779 0.465354
0.411704 0.522835 0.403357
0.486412 0.545892 0.341344
0.561135 0.568948 0.279347
0.635843 0.592004 0.217334
0.710552 0.615061 0.155337
0.0748455 0.555398 0.741726
0.149554 0.578454 0.679728
0.224262 0.601511 0.617731
0.298985 0.624567 0.555718
0.373693 0.647623 0.493721
0.448402 0.67068 0.431708
0.523125 0.693736 0.369711
0.597833 0.716793 0.307698
0.672557 0.739849 0.245701
0.0368353 0.680171 0.83209
0.111543 0.703227 0.770092
0.186252 0.726284 0.708095
0.260975 0.749355 0.646082
0.335683 0.772412 0.584085
0.410407 0.795468 0.522072
0.485115 0.818524 0.460075
0.559838 0.841581 0.398062
0.634546 0.864637 0.336065
0 0.804959 0.922454
0.0735332 0.828016 0.860456
0.148257 0.851072 0.798459
0.222965 0.874128 0.736446
0.297688 0.897185 0.674449
0.372396 0.920256 0.612436
0.447105 0.943313 0.550439
0.521828 0.966369 0.488426
0.596536 0.989425 0.426429
0 0.929747 1
0.0355383 0.952804 0.95082
0.110246 0.97586 0.888823
0.18497 0.998917 0.82681
0.259678 1 0.764813
0.334386 1 0.7028
0.40911 1 0.640803
0.483818 1 0.57879
0.558541 1 0.516793
0.353155 0 0.386557
0.427863 0 0.324559
0.502586 0 0.262547
0.577295 0 0.200549
0.652003 0.000869764 0.138537
0.726726 0.0239261 0.0765393
0.801434 0.0469825 0.0145266
0.876158 0.0700389 0
0.950866 0.0930953 0
0.31516 0.033402 0.476905
0.389868 0.0564584 0.414908
0.464576 0.0795148 0.352911
0.5393 0.102571 0.290898
0.614008 0.125628 0.228901
0.688731 0.148699 0.166888
0.763439 0.171756 0.104891
0.838148 0.194812 0.0428779
0.912871 0.217868 0
0.27715 0.15819 0.567269
0.351858 0.181247 0.505272
0.426581 0.204303 0.443275
0.501289 0.227359 0.381262
0.575998 0.250416 0.319265
0.650721 0.273472 0.257252
0.725429 0.296529 0.195254
0.800153 0.3196 0.133242
0.874861 0.342657 0.0712444
0.239155 0.282979 0.657633
0.313848 0.306035 0.595636
0.388571 0.329091 0.533639
0.463279 0.352148 0.471626
0.538003 0.375204 0.409628
0.612711 0.39826 0.347616
0.687434 0.421317 0.285618
0.762142 0.444373 0.223606
0.836851 0.46743 0.161608
0.201144 0.407767 0.748012
0.275853 0.430823 0.686
0.350561 0.45388 0.624002
0.425284 0.476936 0.56199
0.499992 0.499992 0.499992
0.574701 0.523049 0.437995
0.649424 0.546105 0.375982
0.724132 0.569162 0.313985
0.798856 0.592218 0.251972
0.163134 0.532555 0.838376
0.237842 0.555611 0.776379
0.312551 0.578668 0.714366
0.387274 0.601724 0.652369
0.461982 0.624781 0.590356
0.536706 0.647837 0.528359
0.611414 0.670893 0.466346
0.686137 0.69395 0.404349
0.760845 0.717006 0.342336
0.125124 0.657343 0.92874
0.199832 0.680385 0.866743
0.274556 0.703456 0.80473
0.349264 0.726513 0.742733
0.423987 0.749569 0.68072
0.498695 0.772625 0.618723
0.573404 0.795682 0.55671
0.648127 0.818738 0.494713
0.722835 0.841794 0.4327
0.087129 0.782116 1
0.161837 0.805173 0.957107
0.236545 0.828229 0.895094
0.311254 0.851286 0.833097
0.385977 0.874357 0.771084
0.460685 0.897414 0.709087
0.535409 0.92047 0.647074
0.610117 0.943526 0.585077
0.68484 0.966583 0.523064
0.0491188 0.906905 1
0.123827 0.929961 1
0.198535 0.953017 0.985458
0.273259 0.976074 0.923461
0.347967 0.99913 0.861448
0.42269 1 0.799451
0.497398 1 0.737438
0.572122 1 0.675441
0.64683 1 0.613428
0.441459 0 0.483192
0.516152 0 0.421195
0.590875 0 0.359197
0.665583 0 0.297185
0.740307 0 0.235187
0.815015 0.00108339 0.173175
0.889738 0.0241398 0.111177
0.964446 0.0471962 0.0491646
1 0.0702525 0
0.403449 0.0105592 0.573556
0.478157 0.0336156 0.511559
0.55288 0.056672 0.449546
0.627588 0.0797284 0.387549
0.702296 0.1028 0.325536
0.77702 0.125856 0.263539
0.851728 0.148913 0.201526
0.926452 0.171969 0.139528
1 0.195026 0.0775158
0.365454 0.135348 0.66392
0.440146 0.158404 0.601923
0.51487 0.18146 0.53991
0.589578 0.204517 0.477913
0.664302 0.227573 0.4159
0.73901 0.250629 0.353902
0.813733 0.273701 0.29189
0.888441 0.296757 0.229892
0.963149 0.319814 0.16788
0.327443 0.260136 0.754284
0.402152 0.283192 0.692287
0.47686 0.306249 0.630274
0.551583 0.329305 0.568276
0.626291 0.352361 0.506264
0.700999 0.375418 0.444266
0.775723 0.398474 0.382254
0.850431 0.42153 0.320256
0.925155 0.444602 0.258244
0.289433 0.384924 0.844648
0.364141 0.40798 0.78265
0.438849 0.431037 0.720638
0.513573 0.454093 0.65864
0.588281 0.47715 0.596628
0.663005 0.500206 0.53463
0.737713 0.523262 0.472618
0.812436 0.546319 0.41062
0.887144 0.569375 0.348608
0.251423 0.509712 0.935012
0.326131 0.532769 0.873014
0.400854 0.555825 0.811017
0.475563 0.578882 0.749004
0.550286 0.601938 0.687007
0.624994 0.624994 0.624994
0.699702 0.648051 0.562982
0.774426 0.671107 0.500984
0.849134 0.694163 0.438987
0.213428 0.634501 1
0.288136 0.657557 0.963378
0.362844 0.680613 0.901381
0.437552 0.70367 0.839368
0.512276 0.726726 0.777371
0.586984 0.749783 0.715358
0.661707 0.772839 0.653361
0.736416 0.795895 0.591348
0.811139 0.818952 0.529351
0.175418 0.759274 1
0.250126 0.78233 1
0.324834 0.805386 0.991745
0.399558 0.828458 0.929732
0.474266 0.851514 0.867735
0.548989 0.874571 0.805722
0.623697 0.897627 0.743725
0.698405 0.920684 0.681712
0.773129 0.94374 0.619715
0.137407 0.884062 1
0.212116 0.907118 1
0.286839 0.930175 1
0.361547 0.953231 1
0.436255 0.976287 0.958099
0.510979 0.999359 0.896086
0.585687 1 0.834089
0.66041 1 0.772076
0.735119 1 0.710079
0.529747 0 0.579843
0.604456 0 0.517845
0.679164 0 0.455833
0.753887 0 0.393835
0.828595 0 0.331823
0.903304 0 0.269825
0.978027 0.00129702 0.207813
1 0.0243534 0.145815
1 0.0474098 0.0838026
0.491753 0 0.670192
0.566445 0.0107729 0.608194
0.641169 0.0338293 0.546197
0.715877 0.0569009 0.484184
0.7906 0.0799573 0.422187
0.865309 0.103014 0.360174
0.940032 0.12607 0.298177
1 0.149126 0.236164
1 0.172183 0.174166
0.453742 0.112505 0.760555
0.52845 0.135561 0.698558
0.603159 0.158618 0.636561
0.677882 0.181674 0.574548
0.75259 0.20473 0.512551
0.827298 0.227802 0.450538
0.902022 0.250858 0.38854
0.97673 0.273915 0.326528
1 0.296971 0.26453
0.415732 0.237293 0.850919
0.49044 0.260349 0.788922
0.565148 0.283406 0.726925
0.639872 0.306462 0.664912
0.71458 0.329519 0.602914
0.789303 0.352575 0.540902
0.864012 0.375631 0.478904
0.938735 0.398703 0.416892
1 0.421759 0.354894
0.377722 0.362081 0.941283
0.45243 0.385138 0.879286
0.527153 0.408194 0.817288
0.601862 0.43125 0.755276
0.676585 0.454307 0.693278
0.751293 0.477363 0.631266
0.826001 0.50042 0.569268
0.900725 0.523476 0.507256
0.975433 0.546532 0.445258
0.339727 0.48687 1
0.414435 0.509926 0.96965
0.489143 0.532982 0.907652
0.563851 0.556039 0.84564
0.638575 0.579095 0.783642
0.713283 0.602152 0.72163
0.788006 0.625208 0.659632
0.862715 0.648264 0.59762
0.937438 0.671321 0.535622
0.301717 0.611658 1
0.376425 0.634714 1
0.451133 0.657771 0.998016
0.525856 0.680827 0.936004
0.600565 0.703883 0.874006
0.675288 0.72694 0.812009
0.749996 0.749996 0.749996
0.824704 0.773053 0.687999
0.899428 0.796109 0.625986
0.263706 0.736446 1
0.338415 0.759487 1
0.413138 0.782559 1
0.487846 0.805615 1
0.562554 0.828672 0.96437
0.637278 0.851728 0.902373
0.711986 0.874784 0.84036
0.786709 0.897841 0.778363
0.861418 0.920897 0.71635
0.225711 0.861219 1
0.300404 0.884276 1
0.375128 0.907332 1
0.449836 0.930388 1
0.524559 0.95346 1
0.599268 0.976516 0.992737
0.673991 0.999573 0.930724
0.748699 1 0.868727
0.823407 1 0.806714
0.618036 0 0.676478
0.692744 0 0.614481
0.767452 0 0.552483
0.842176 0 0.490471
0.916884 0 0.428473
0.991608 0 0.366461
1 0 0.304463
1 0.00151064 0.242451
1 0.024567 0.180453
0.580041 0 0.766827
0.654749 0 0.704829
0.729458 0.0110018 0.642832
0.804166 0.0340581 0.580819
0.878889 0.0571145 0.518822
0.953597 0.0801709 0.456809
1 0.103227 0.394812
1 0.126284 0.332799
1 0.14934 0.270802
0.542031 0.089662 0.857206
0.616739 0.112718 0.795209
0.691447 0.135775 0.733196
0.766171 0.158831 0.671199
0.840879 0.181903 0.609186
0.915602 0.204959 0.547189
0.990311 0.228016 0.485176
1 0.251072 0.423178
1 0.274128 0.361166
0.504021 0.21445 0.94757
0.578729 0.237507 0.885573
0.653452 0.260563 0.82356
0.728161 0.283619 0.761563
0.802884 0.306676 0.69955
0.877592 0.329732 0.637552
0.9523 0.352804 0.57554
1 0.37586 0.513542
1 0.398917 0.45153
0.466026 0.339239 1
0.540734 0.362295 0.975937
0.615442 0.385351 0.913924
0.69015 0.408408 0.851926
0.764874 0.431464 0.789914
0.839582 0.45452 0.727916
0.914305 0.477577 0.665904
0.989013 0.500633 0.603906
1 0.523705 0.541894
0.428016 0.464027 1
0.502724 0.487083 1
0.577432 0.51014 1
0.652155 0.533196 0.94229
0.726864 0.556252 0.880278
0.801587 0.579309 0.81828
0.876295 0.602365 0.756268
0.951003 0.625422 0.69427
1 0.648478 0.632258
0.390005 0.588815 1
0.464714 0.611872 1
0.539437 0.634928 1
0.614145 0.657984 1
0.688853 0.681041 0.970642
0.763577 0.704097 0.908644
0.838285 0.727153 0.846632
0.913008 0.75021 0.784634
0.987716 0.773266 0.722622
0.35201 0.713603 1
0.426703 0.736645 1
0.501427 0.759716 1
0.576135 0.782773 1
0.650858 0.805829 1
0.725567 0.828885 0.999008
0.80029 0.851942 0.936996
0.874998 0.874998 0.874998
0.949706 0.898054 0.813001
0.314 0.838376 1
0.388708 0.861433 1
0.463416 0.884489 1
0.53814 0.907546 1
0.612848 0.930617 1
0.687556 0.953674 1
0.76228 0.97673 1
0.836988 0.999786 0.965362
0.911711 1 0.903365
0.706325 0 0.773129
0.781033 0 0.711131
0.855756 0 0.649119
0.930465 0 0.587121
1 0 0.525109
1 0 0.463111
1 0 0.401099
1 0 0.339101
1 0.00172427 0.277089
0.66833 0 0.863478
0.743038 0 0.80148
0.817746 0 0.739467
0.89247 0.0112154 0.67747
0.967178 0.0342718 0.615457
1 0.0573281 0.55346
1 0.0803845 0.491447
1 0.103441 0.42945
1 0.126497 0.367437
0.63032 0.0668345 0.953841
0.705028 0.0898756 0.891844
0.779751 0.112932 0.829831
0.854459 0.136004 0.767834
0.929168 0.15906 0.705821
1 0.182116 0.643824
1 0.205173 0.581811
1 0.228229 0.519814
1 0.251286 0.457801
0.592325 0.191608 1
0.667018 0.214664 0.982208
0.741741 0.23772 0.920211
0.816449 0.260777 0.858198
0.891173 0.283833 0.796201
0.965881 0.306905 0.734188
1 0.329961 0.67219
1 0.353017 0.610178
1 0.376074 0.54818
0.554314 0.316396 1
0.629023 0.339452 1
0.703731 0.362509 1
0.778454 0.385565 0.948562
0.853162 0.408621 0.886564
0.927886 0.431678 0.824552
1 0.454734 0.762554
1 0.477806 0.700542
1 0.500862 0.638544
0.516304 0.441184 1
0.591012 0.46424 1
0.665736 0.487297 1
0.740444 0.510353 1
0.815152 0.53341 0.976928
0.889876 0.556466 0.914916
0.964584 0.579522 0.852918
1 0.602579 0.790906
1 0.625635 0.728908
0.478309 0.565972 1
0.553002 0.589029 1
0.627726 0.612085 1
0.702434 0.635142 1
0.777157 0.658198 1
0.851865 0.681254 1
0.926589 0.704311 0.943282
1 0.727367 0.88127
1 0.750423 0.819272
0.440299 0.690761 1
0.515007 0.713817 1
0.589715 0.736873 1
0.664439 0.75993 1
0.739147 0.782986 1
0.813855 0.806043 1
0.888579 0.829099 1
0.963287 0.852155 0.971633
1 0.875212 0.909636
0.402289 0.815549 1
0.476997 0.83859 1
0.551705 0.861646 1
0.626429 0.884718 1
0.701137 0.907774 1
0.77586 0.930831 1
0.850568 0.953887 1
0.925292 0.976944 1
1 1 1
