public/LUTS/Color Shift/ColorShift_63.cube
TITLE "Generated by Resolve"
LUT_3D_SIZE 33
0 0 0
0.00619516 0.0121309 0
0.0123903 0.0242618 0
0.0185855 0.0363928 0
0.0247807 0.0485237 0
0.0309606 0.0606546 0
0.0371557 0.0727855 0
0.0433509 0.0849165 0
0.049546 0.0970626 0
0.0557412 0.109194 0
0.0619364 0.121324 0
0.0681315 0.133455 0
0.0743267 0.145586 0
0.0805219 0.157717 0
0.086717 0.169848 0
0.0929122 0.181979 0
0.0991073 0.194125 0
0.105303 0.206256 0
0.111482 0.218387 0
0.117678 0.230518 0
0.123873 0.242649 0
0.130068 0.25478 0
0.136263 0.266911 0
0.142458 0.279042 0
0.148653 0.291188 0
0.154849 0.303319 0
0.161044 0.31545 0
0.167239 0.327581 0
0.173434 0.339712 0
0.179629 0.351843 0
0.185824 0.363973 0
0.19202 0.376104 0
0.198199 0.388235 0
0 0.0323796 0.0480507
0 0.0445106 0.0121614
0 0.0566415 0
0 0.0687724 0
0.000366217 0.0809033 0
0.00656138 0.0930343 0
0.0127565 0.105165 0
0.0189517 0.117311 0
0.0251469 0.129442 0
0.0313268 0.141573 0
0.0375219 0.153704 0
0.0437171 0.165835 0
0.0499123 0.177966 0
0.0561074 0.190097 0
0.0623026 0.202228 0
0.0684977 0.214374 0
0.0746929 0.226505 0
0.0808881 0.238636 0
0.0870832 0.250767 0
0.0932784 0.262898 0
0.0994736 0.275029 0
0.105669 0.28716 0
0.111849 0.29929 0
0.118044 0.311421 0
0.124239 0.323568 0
0.130434 0.335698 0
0.136629 0.347829 0
0.142824 0.35996 0
0.14902 0.372091 0
0.155215 0.384222 0
0.16141 0.396353 0
0.167605 0.408484 0
0.1738 0.42063 0
0 0.0647746 0.0961166
0 0.0769055 0.0602274
0 0.0890364 0.0243229
0 0.101167 0
0 0.113298 0
0 0.125429 0
0 0.137575 0
0 0.149706 0
0.000717174 0.161837 0
0.00691234 0.173968 0
0.0131075 0.186099 0
0.0193027 0.19823 0
0.0254978 0.210361 0
0.031693 0.222492 0
0.0378882 0.234638 0
0.0440833 0.246769 0
0.0502632 0.2589 0
0.0564584 0.271031 0
0.0626535 0.283162 0
0.0688487 0.295293 0
0.0750439 0.307424 0
0.081239 0.319554 0
0.0874342 0.331685 0
0.0936294 0.343832 0
0.0998245 0.355962 0
0.10602 0.368093 0
0.112215 0.380224 0
0.11841 0.392355 0
0.124605 0.404486 0
0.130785 0.416617 0
0.13698 0.428748 0
0.143175 0.440894 0
0.149371 0.453025 0
0 0.0971695 0.144183
0 0.1093 0.108293
0 0.121431 0.0724041
0 0.133562 0.0364996
0 0.145693 0.000595102
0 0.157839 0
0 0.16997 0
0 0.182101 0
0 0.194232 0
0 0.206363 0
0 0.218494 0
0 0.230625 0
0.00106813 0.242756 0
0.00726329 0.254902 0
0.0134585 0.267033 0
0.0196536 0.279164 0
0.0258488 0.291295 0
0.0320439 0.303426 0
0.0382391 0.315557 0
0.0444343 0.327688 0
0.0506294 0.339818 0
0.0568246 0.351965 0
0.0630198 0.364096 0
0.0691997 0.376226 0
0.0753948 0.388357 0
0.08159 0.400488 0
0.0877852 0.412619 0
0.0939803 0.42475 0
0.100175 0.436881 0
0.106371 0.449012 0
0.112566 0.461158 0
0.118761 0.473289 0
0.124956 0.48542 0
0 0.12958 0.192248
0 0.141695 0.156374
0 0.153826 0.12047
0 0.165957 0.0845655
0 0.178103 0.048661
0 0.190234 0.0127565
0 0.202365 0
0 0.214496 0
0 0.226627 0
0 0.238758 0
0 0.250889 0
0 0.26302 0
0 0.275166 0
0 0.287297 0
0 0.299428 0
0 0.311559 0
0.00141909 0.32369 0
0.00761425 0.335821 0
0.0138094 0.347951 0
0.0200046 0.360082 0
0.0261997 0.372229 0
0.0323949 0.38436 0
0.0385901 0.39649 0
0.0447852 0.408621 0
0.0509804 0.420752 0
0.0571756 0.432883 0
0.0633707 0.445014 0
0.0695659 0.457145 0
0.075761 0.469276 0
0.0819562 0.481422 0
0.0881361 0.493553 0
0.0943313 0.505684 0
0.100526 0.517815 0
0 0.161975 0.24033
0 0.17409 0.20444
0 0.186236 0.168536
0 0.198367 0.132631
0 0.210498 0.0967269
0 0.222629 0.0608225
0 0.23476 0.0249332
0 0.246891 0
0 0.259022 0
0 0.271153 0
0 0.283284 0
0 0.29543 0
0 0.307561 0
0 0.319692 0
0 0.331823 0
0 0.343954 0
0 0.356085 0
0 0.368215 0
0 0.380346 0
0 0.392493 0
0.00178531 0.404623 0
0.00798047 0.416754 0
0.0141756 0.428885 0
0.0203555 0.441016 0
0.0265507 0.453147 0
0.0327459 0.465278 0
0.038941 0.477409 0
0.0451362 0.489555 0
0.0513313 0.501686 0
0.0575265 0.513817 0
0.0637217 0.525948 0
0.0699168 0.538079 0
0.076112 0.55021 0
0 0.194369 0.288396
0 0.2065 0.252506
0 0.218631 0.216602
0 0.230762 0.180697
0 0.242893 0.144793
0 0.255024 0.108904
0 0.267155 0.0729992
0 0.279286 0.0370947
0 0.291417 0.0011902
0 0.303548 0
0 0.315694 0
0 0.327825 0
0 0.339956 0
0 0.352087 0
0 0.364218 0
0 0.376349 0
0 0.388479 0
0 0.40061 0
0 0.412757 0
0 0.424887 0
0 0.437018 0
0 0.449149 0
0 0.46128 0
0 0.473411 0
0.00213626 0.485542 0
0.00833143 0.497673 0
0.0145266 0.509819 0
0.0207218 0.52195 0
0.0269169 0.534081 0
0.0331121 0.546212 0
0.039292 0.558343 0
0.0454871 0.570474 0
0.0516823 0.582605 0
0 0.226764 0.336461
0 0.238895 0.300572
0 0.251026 0.264668
0 0.263157 0.228779
0 0.275288 0.192874
0 0.287419 0.15697
0 0.29955 0.121065
0 0.311681 0.0851606
0 0.323827 0.0492561
0 0.335958 0.0133516
0 0.348089 0
0 0.36022 0
0 0.372351 0
0 0.384482 0
0 0.396612 0
0 0.408743 0
0 0.420874 0
0 0.433021 0
0 0.445151 0
0 0.457282 0
0 0.469413 0
0 0.481544 0
0 0.493675 0
0 0.505806 0
0 0.517937 0
0 0.530083 0
0 0.542214 0
0 0.554345 0
0.00248722 0.566476 0
0.00868238 0.578607 0
0.0148775 0.590738 0
0.0210727 0.602869 0
0.0272679 0.615 0
0 0.259159 0.384527
0 0.27129 0.348638
0 0.283421 0.312749
0 0.295552 0.276844
0 0.307683 0.24094
0 0.319814 0.205035
0 0.331945 0.169131
0 0.344091 0.133227
0 0.356222 0.0973373
0 0.368353 0.0614328
0 0.380484 0.0255283
0 0.392615 0
0 0.404746 0
0 0.416876 0
0 0.429007 0
0 0.441138 0
0 0.453285 0
0 0.465415 0
0 0.477546 0
0 0.489677 0
0 0.501808 0
0 0.513939 0
0 0.52607 0
0 0.538201 0
0 0.550347 0
0 0.562478 0
0 0.574609 0
0 0.58674 0
0 0.598871 0
0 0.611002 0
0 0.623133 0
0 0.635264 0
0.00283818 0.64741 0
0 0.291554 0.432593
0 0.303685 0.396719
0 0.315816 0.360815
0 0.327947 0.32491
0 0.340078 0.289006
0 0.352209 0.253101
0 0.364355 0.217197
0 0.376486 0.181308
0 0.388617 0.145403
0 0.400748 0.109499
0 0.412879 0.0735943
0 0.42501 0.0376898
0 0.43714 0.00178531
0 0.449271 0
0 0.461418 0
0 0.473548 0
0 0.485679 0
0 0.49781 0
0 0.509941 0
0 0.522072 0
0 0.534203 0
0 0.546334 0
0 0.558465 0
0 0.570611 0
0 0.582742 0
0 0.594873 0
0 0.607004 0
0 0.619135 0
0 0.631266 0
0 0.643397 0
0 0.655528 0
0 0.667674 0
0 0.679805 0
0 0.323949 0.480674
0 0.33608 0.444785
0 0.348211 0.408881
0 0.360342 0.372976
0 0.372473 0.337072
0 0.384619 0.301167
0 0.39675 0.265278
0 0.408881 0.229374
0 0.421012 0.193469
0 0.433143 0.157565
0 0.445274 0.12166
0 0.457404 0.0857557
0 0.469535 0.0498665
0 0.481682 0.013962
0 0.493812 0
0 0.505943 0
0 0.518074 0
0 0.530205 0
0 0.542336 0
0 0.554467 0
0 0.566598 0
0 0.578729 0
0 0.590875 0
0 0.603006 0
0 0.615137 0
0 0.627268 0
0 0.639399 0
0 0.65153 0
0 0.663661 0
0 0.675792 0
0 0.687938 0
0 0.700069 0
0 0.7122 0
0 0.356344 0.52874
0 0.368475 0.492851
0 0.380606 0.456947
0 0.392737 0.421042
0 0.404883 0.385153
0 0.417014 0.349248
0 0.429145 0.313344
0 0.441276 0.27744
0 0.453407 0.241535
0 0.465537 0.205631
0 0.477668 0.169726
0 0.489799 0.133837
0 0.501945 0.0979324
0 0.514076 0.0620279
0 0.526207 0.0261234
0 0.538338 0
0 0.550469 0
0 0.5626 0
0 0.574731 0
0 0.586862 0
0 0.599008 0
0 0.611139 0
0 0.62327 0
0 0.635401 0
0 0.647532 0
0 0.659663 0
0 0.671794 0
0 0.683925 0
0 0.696056 0
0 0.708202 0
0 0.720333 0
0 0.732464 0
0 0.744595 0
0 0.388754 0.576806
0 0.40087 0.540917
0 0.413001 0.505013
0 0.425147 0.469123
0 0.437278 0.433219
0 0.449409 0.397314
0 0.46154 0.36141
0 0.473671 0.325505
0 0.485801 0.289601
0 0.497932 0.253712
0 0.510063 0.217807
0 0.52221 0.181903
0 0.53434 0.145998
0 0.546471 0.110094
0 0.558602 0.0741894
0 0.570733 0.0382849
0 0.582864 0.00239567
0 0.594995 0
0 0.607126 0
0 0.619272 0
0 0.631403 0
0 0.643534 0
0 0.655665 0
0 0.667796 0
0 0.679927 0
0 0.692058 0
0 0.704189 0
0 0.71632 0
0 0.728466 0
0 0.740597 0
0 0.752728 0
0 0.764858 0
0 0.776989 0
0 0.421149 0.624872
0 0.433265 0.588998
0 0.445411 0.553094
0 0.457542 0.517189
0 0.469673 0.481285
0 0.481804 0.44538
0 0.493935 0.409476
0 0.506065 0.373571
0 0.518196 0.337682
0 0.530327 0.301778
0 0.542473 0.265873
0 0.554604 0.229969
0 0.566735 0.194064
0 0.578866 0.15816
0 0.590997 0.122255
0 0.603128 0.0863661
0 0.615259 0.0504616
0 0.62739 0.0145571
0 0.639536 0
0 0.651667 0
0 0.663798 0
0 0.675929 0
0 0.68806 0
0 0.700191 0
0 0.712322 0
0 0.724453 0
0 0.736599 0
0 0.74873 0
0 0.760861 0
0 0.772992 0
0 0.785122 0
0 0.797253 0
0 0.809384 0
0 0.453544 0.672938
0 0.465675 0.637064
0 0.477806 0.60116
0 0.489937 0.565255
0 0.502068 0.529351
0 0.514199 0.493446
0 0.526329 0.457542
0 0.53846 0.421653
0 0.550591 0.385748
0 0.562737 0.349844
0 0.574868 0.313939
0 0.586999 0.278035
0 0.59913 0.24213
0 0.611261 0.206241
0 0.623392 0.170336
0 0.635523 0.134432
0 0.647654 0.0985275
0 0.6598 0.062623
0 0.671931 0.0267185
0 0.684062 0
0 0.696193 0
0 0.708324 0
0 0.720455 0
0 0.732586 0
0 0.744717 0
0 0.756863 0
0 0.768994 0
0 0.781125 0
0 0.793256 0
0 0.805386 0
0 0.817517 0
0 0.829648 0
0 0.841779 0
0 0.485939 0.721019
0 0.49807 0.68513
0 0.510201 0.649226
0 0.522332 0.613321
0 0.534463 0.577417
0 0.546593 0.541527
0 0.558724 0.505623
0 0.570855 0.469718
0 0.583001 0.433814
0 0.595132 0.39791
0 0.607263 0.362005
0 0.619394 0.326101
0 0.631525 0.290211
0 0.643656 0.254307
0 0.655787 0.218402
0 0.667918 0.182498
0 0.680064 0.146593
0 0.692195 0.110689
0 0.704326 0.0747997
0 0.716457 0.0388952
0 0.728588 0.00299077
0 0.740719 0
0 0.75285 0
0 0.764981 0
0 0.777127 0
0 0.789258 0
0 0.801389 0
0 0.813519 0
0 0.82565 0
0 0.837781 0
0 0.849912 0
0 0.862043 0
0 0.874189 0
0 0.518334 0.769085
0 0.530465 0.733196
0 0.542596 0.697292
0 0.554726 0.661387
0 0.566857 0.625498
0 0.578988 0.589593
0 0.591134 0.553689
0 0.603265 0.517784
0 0.615396 0.48188
0 0.627527 0.445975
0 0.639658 0.410086
0 0.651789 0.374182
0 0.66392 0.338277
0 0.676051 0.302373
0 0.688182 0.266468
0 0.700328 0.230564
0 0.712459 0.194659
0 0.72459 0.15877
0 0.736721 0.122866
0 0.748852 0.0869612
0 0.760983 0.0510567
0 0.773114 0.0151522
0 0.785245 0
0 0.797391 0
0 0.809522 0
0 0.821653 0
0 0.833783 0
0 0.845914 0
0 0.858045 0
0 0.870176 0
0 0.882307 0
0 0.894453 0
0 0.906584 0
0 0.550729 0.817151
0 0.56286 0.781262
0 0.57499 0.745373
0 0.587121 0.709468
0 0.599252 0.673564
0 0.611399 0.637659
0 0.623529 0.601755
0 0.63566 0.56585
0 0.647791 0.529946
0 0.659922 0.494057
0 0.672053 0.458152
0 0.684184 0.422248
0 0.696315 0.386343
0 0.708446 0.350439
0 0.720592 0.314534
0 0.732723 0.27863
0 0.744854 0.242741
0 0.756985 0.206836
0 0.769116 0.170932
0 0.781247 0.135027
0 0.793378 0.0991226
0 0.805508 0.0632181
0 0.817655 0.0273289
0 0.829786 0
0 0.841917 0
0 0.854047 0
0 0.866178 0
0 0.878309 0
0 0.89044 0
0 0.902571 0
0 0.914717 0
0 0.926848 0
0 0.938979 0
0 0.583124 0.865217
0 0.595254 0.829343
0 0.607385 0.793439
0 0.619516 0.757534
0 0.631662 0.72163
0 0.643793 0.685725
0 0.655924 0.649821
0 0.668055 0.613931
0 0.680186 0.578027
0 0.692317 0.542123
0 0.704448 0.506218
0 0.716579 0.470314
0 0.728725 0.434409
0 0.740856 0.398505
0 0.752987 0.362615
0 0.765118 0.326711
0 0.777249 0.290806
0 0.78938 0.254902
0 0.801511 0.218997
0 0.813642 0.183093
0 0.825772 0.147189
0 0.837919 0.111299
0 0.85005 0.0753948
0 0.862181 0.0394903
0 0.874311 0.00358587
0 0.886442 0
0 0.898573 0
0 0.910704 0
0 0.922835 0
0 0.934981 0
0 0.947112 0
0 0.959243 0
0 0.971374 0
0 0.615534 0.913298
0 0.627649 0.877409
0 0.63978 0.841505
0 0.651926 0.8056
0 0.664057 0.769696
0 0.676188 0.733791
0 0.688319 0.697902
0 0.70045 0.661997
0 0.712581 0.626093
0 0.724712 0.590188
0 0.736843 0.554284
0 0.748989 0.51838
0 0.76112 0.482475
0 0.773251 0.446586
0 0.785382 0.410681
0 0.797513 0.374777
0 0.809644 0.338872
0 0.821775 0.302968
0 0.833906 0.267063
0 0.846036 0.231174
0 0.858183 0.19527
0 0.870314 0.159365
0 0.882445 0.123461
0 0.894575 0.0875563
0 0.906706 0.0516518
0 0.918837 0.0157473
0 0.930968 0
0 0.943099 0
0 0.955245 0
0 0.967376 0
0 0.979507 0
0 0.991638 0
0 1 0
0 0.647929 0.961364
0 0.660044 0.925475
0 0.67219 0.88957
0 0.684321 0.853666
0 0.696452 0.817761
0 0.708583 0.781872
0 0.720714 0.745968
0 0.732845 0.710063
0 0.744976 0.674159
0 0.757107 0.638254
0 0.769253 0.60235
0 0.781384 0.566461
0 0.793515 0.530556
0 0.805646 0.494652
0 0.817777 0.458747
0 0.829908 0.422843
0 0.842039 0.386938
0 0.85417 0.351034
0 0.866316 0.315145
0 0.878447 0.27924
0 0.890578 0.243336
0 0.902708 0.207431
0 0.914839 0.171527
0 0.92697 0.135622
0 0.939101 0.0997177
0 0.951232 0.0638285
0 0.963363 0.027924
0 0.975509 0
0 0.98764 0
0 0.999771 0
0 1 0
0 1 0
0 1 0
0 0.680323 1
0 0.692454 0.973541
0 0.704585 0.937636
0 0.716716 0.901747
0 0.728847 0.865843
0 0.740978 0.829938
0 0.753109 0.794034
0 0.76524 0.758129
0 0.777371 0.722225
0 0.789517 0.68632
0 0.801648 0.650431
0 0.813779 0.614527
0 0.82591 0.578622
0 0.838041 0.542718
0 0.850172 0.506813
0 0.862303 0.470909
0 0.874434 0.435004
0 0.88658 0.399115
0 0.898711 0.36321
0 0.910842 0.327306
0 0.922972 0.291402
0 0.935103 0.255497
0 0.947234 0.219593
0 0.959365 0.183703
0 0.971496 0.147799
0 0.983627 0.111894
0 0.995773 0.0759899
0 1 0.0400854
0 1 0.00418097
0 1 0
0 1 0
0 1 0
0 1 0
0 0.712718 1
0 0.724849 1
0 0.73698 0.985718
0 0.749111 0.949813
0 0.761242 0.913909
0 0.773373 0.878004
0 0.785504 0.8421
0 0.797635 0.806195
0 0.809781 0.770306
0 0.821912 0.734401
0 0.834043 0.698497
0 0.846174 0.662593
0 0.858305 0.626688
0 0.870436 0.590784
0 0.882567 0.554879
0 0.894697 0.51899
0 0.906844 0.483085
0 0.918975 0.447181
0 0.931105 0.411276
0 0.943236 0.375372
0 0.955367 0.339467
0 0.967498 0.303563
0 0.979629 0.267674
0 0.99176 0.231769
0 1 0.195865
0 1 0.15996
0 1 0.124056
0 1 0.0881514
0 1 0.0522621
0 1 0.0163577
0 1 0
0 1 0
0 1 0
0 0.745113 1
0 0.757244 1
0 0.769375 1
0 0.781506 0.997879
0 0.793637 0.961975
0 0.805768 0.92607
0 0.817899 0.890166
0 0.830045 0.854276
0 0.842176 0.818372
0 0.854307 0.782467
0 0.866438 0.746563
0 0.878569 0.710658
0 0.8907 0.674754
0 0.902831 0.638849
0 0.914961 0.60296
0 0.927108 0.567056
0 0.939239 0.531151
0 0.95137 0.495247
0 0.9635 0.459342
0 0.975631 0.423438
0 0.987762 0.387549
0 0.999893 0.351644
0 1 0.31574
0 1 0.279835
0 1 0.243931
0 1 0.208026
0 1 0.172122
0 1 0.136233
0 1 0.100328
0 1 0.0644236
0 1 0.0285191
0 1 0
0 1 0
0 0.777508 1
0 0.789639 1
0 0.80177 1
0 0.813901 1
0 0.826032 1
0 0.838163 0.974136
0 0.850309 0.938247
0 0.86244 0.902342
0 0.874571 0.866438
0 0.886702 0.830533
0 0.898833 0.794629
0 0.910964 0.758724
0 0.923095 0.722835
0 0.935225 0.686931
0 0.947372 0.651026
0 0.959503 0.615122
0 0.971633 0.579217
0 0.983764 0.543313
0 0.995895 0.507408
0 1 0.471519
0 1 0.435615
0 1 0.39971
0 1 0.363806
0 1 0.327901
0 1 0.291997
0 1 0.256107
0 1 0.220203
0 1 0.184298
0 1 0.148394
0 1 0.11249
0 1 0.076585
0 1 0.0406806
0 1 0.00479133
0 0.809903 1
0 0.822034 1
0 0.834165 1
0 0.846296 1
0 0.858442 1
0 0.870573 1
0 0.882704 0.986313
0 0.894835 0.950408
0 0.906966 0.914504
0 0.919097 0.878599
0 0.931228 0.842695
0 0.943358 0.806806
0 0.955489 0.770901
0 0.967636 0.734997
0 0.979767 0.699092
0 0.991897 0.663188
0 1 0.627283
0 1 0.591394
0 1 0.555489
0 1 0.519585
0 1 0.48368
0 1 0.447776
0 1 0.411872
0 1 0.375967
0 1 0.340078
0 1 0.304173
0 1 0.268269
0 1 0.232364
0 1 0.19646
0 1 0.160555
0 1 0.124651
0 1 0.0887617
0 1 0.0528573
0 0.842313 1
0 0.854429 1
0 0.86656 1
0 0.878706 1
0 0.890837 1
0 0.902968 1
0 0.915099 1
0 0.92723 0.998474
0 0.939361 0.96257
0 0.951492 0.92668
0 0.963623 0.890776
0 0.975769 0.854871
0 0.9879 0.818967
0 1 0.783062
0 1 0.747158
0 1 0.711254
0 1 0.675364
0 1 0.63946
0 1 0.603555
0 1 0.567651
0 1 0.531746
0 1 0.495842
0 1 0.459937
0 1 0.424048
0 1 0.388144
0 1 0.352239
0 1 0.316335
0 1 0.28043
0 1 0.244526
0 1 0.208637
0 1 0.172732
0 1 0.136828
0 1 0.100923
0 0.874708 1
0 0.886824 1
0 0.89897 1
0 0.911101 1
0 0.923232 1
0 0.935363 1
0 0.947494 1
0 0.959625 1
0 0.971756 1
