public/LUTS/Color Shift/ColorShift_96.cube
TITLE "Generated by Resolve"
LUT_3D_SIZE 9
0 0 0
0 0.0580301 0.119326
0 0.116075 0.238666
0 0.174121 0.358022
0 0.232166 0.477363
0 0.290211 0.596704
0 0.348257 0.716045
0 0.406302 0.835386
0 0.464347 0.954726
0.276219 0.0184939 0.183719
0.156619 0.0765393 0.303044
0.0369879 0.134585 0.4224
0 0.19263 0.541741
0 0.25066 0.661082
0 0.308705 0.780423
0 0.366751 0.899763
0 0.424796 1
0 0.482841 1
0.552468 0.0370031 0.367468
0.432868 0.0950332 0.486793
0.313252 0.153079 0.606134
0.193622 0.211124 0.725475
0.0740063 0.269169 0.844831
0 0.327214 0.964172
0 0.38526 1
0 0.443305 1
0 0.501335 1
0.828733 0.0554971 0.551202
0.709117 0.113542 0.670542
0.589502 0.171588 0.789883
0.469886 0.229618 0.909224
0.350256 0.287663 1
0.23064 0.345708 1
0.111025 0.403754 1
0 0.461799 1
0 0.519844 1
1 0.0740063 0.734951
0.985367 0.132036 0.854276
0.865751 0.190082 0.973617
0.746136 0.248127 1
0.626505 0.306172 1
0.506889 0.364218 1
0.387274 0.422263 1
0.267659 0.480308 1
0.148028 0.538338 1
1 0.0925002 0.9187
1 0.150546 1
1 0.208591 1
1 0.266621 1
0.90277 0.324666 1
0.783139 0.382712 1
0.663523 0.440757 1
0.543908 0.498802 1
0.424277 0.556848 1
1 0.111009 1
1 0.169039 1
1 0.227085 1
1 0.28513 1
1 0.343175 1
1 0.401221 1
0.939773 0.459266 1
0.820157 0.517296 1
0.700542 0.575341 1
1 0.129503 1
1 0.187549 1
1 0.245594 1
1 0.303624 1
1 0.361669 1
1 0.419715 1
1 0.47776 1
1 0.535805 1
0.976791 0.593851 1
1 0.148013 1
1 0.206043 1
1 0.264088 1
1 0.322133 1
1 0.380179 1
1 0.438224 1
1 0.496269 1
1 0.554299 1
1 0.612345 1
0 0.0484474 0
0 0.106493 0
0 0.164538 0.0606088
0 0.222568 0.17995
0 0.280613 0.29929
0 0.338659 0.418631
0 0.396704 0.537987
0 0.454749 0.657328
0 0.512795 0.776669
0.244587 0.0669566 0.0056611
0.124987 0.124987 0.124987
0.00537118 0.183032 0.244327
0 0.241077 0.363668
0 0.299123 0.483009
0 0.357168 0.602365
0 0.415198 0.721706
0 0.473243 0.841047
0 0.531289 0.960388
0.520851 0.0854505 0.189395
0.401236 0.143481 0.308736
0.281621 0.201526 0.428077
0.162005 0.259571 0.547417
0.0423743 0.317617 0.666758
0 0.375662 0.786099
0 0.433707 0.90544
0 0.491753 1
0 0.549798 1
0.797101 0.10396 0.373144
0.677501 0.16199 0.49247
0.55787 0.220035 0.611811
0.438254 0.27808 0.731167
0.318639 0.336126 0.850507
0.199008 0.394171 0.969848
0.0793927 0.452201 1
0 0.510246 1
0 0.568292 1
1 0.122454 0.556893
0.95375 0.180484 0.676219
0.834119 0.238529 0.79556
0.714504 0.296574 0.9149
0.594888 0.35462 1
0.475257 0.412665 1
0.355642 0.47071 1
0.236027 0.528756 1
0.116396 0.586801 1
1 0.140948 0.740627
1 0.198993 0.859968
1 0.257038 0.979309
0.990753 0.315084 1
0.871138 0.373129 1
0.751522 0.431159 1
0.631891 0.489204 1
0.512276 0.54725 1
0.39266 0.605295 1
1 0.159457 0.924376
1 0.217487 1
1 0.275532 1
1 0.333577 1
1 0.391623 1
1 0.449668 1
0.908156 0.507713 1
0.788525 0.565759 1
0.66891 0.623804 1
1 0.177951 1
1 0.235996 1
1 0.294041 1
1 0.352087 1
1 0.410132 1
1 0.468162 1
1 0.526207 1
1 0.584253 1
0.945159 0.642298 1
1 0.19646 1
1 0.25449 1
1 0.312535 1
1 0.370581 1
1 0.428626 1
1 0.486671 1
1 0.544717 1
1 0.602762 1
1 0.660807 1
0 0.09691 0
0 0.15494 0
0 0.212985 0
0 0.271031 0.0018616
0 0.329076 0.121218
0 0.387121 0.240558
0 0.445167 0.359899
0 0.503212 0.47924
0 0.561257 0.598581
0.212955 0.115404 0
0.0933547 0.173449 0
0 0.231495 0.0662394
0 0.289525 0.185595
0 0.34757 0.304936
0 0.405615 0.424277
0 0.463661 0.543618
0 0.521706 0.662959
0 0.579751 0.7823
0.489219 0.133913 0.0113222
0.369604 0.191943 0.130648
0.249989 0.249989 0.249989
0.130373 0.308034 0.369329
0.0107424 0.366079 0.48867
0 0.424125 0.608011
0 0.48217 0.727367
0 0.5402 0.846708
0 0.598245 0.966049
0.765469 0.152407 0.195056
0.645869 0.210452 0.314382
0.526238 0.268482 0.433738
0.406622 0.326528 0.553079
0.287007 0.384573 0.672419
0.167376 0.442618 0.79176
0.0477607 0.500664 0.911101
0 0.558709 1
0 0.616754 1
1 0.170916 0.378805
0.922118 0.228946 0.498131
0.802502 0.286992 0.617472
0.682872 0.345037 0.736812
0.563256 0.403082 0.856168
0.443641 0.461128 0.975509
0.32401 0.519173 1
0.204395 0.577203 1
0.0847791 0.635248 1
1 0.18941 0.562554
1 0.247456 0.68188
1 0.305486 0.801221
0.959121 0.363531 0.920562
0.839506 0.421576 1
0.71989 0.479622 1
0.600259 0.537667 1
0.480644 0.595712 1
0.361028 0.653758 1
1 0.207919 0.746288
1 0.265949 0.865614
1 0.323995 0.98497
1 0.38204 1
1 0.440085 1
0.996139 0.498131 1
0.876524 0.556161 1
0.756893 0.614206 1
0.637278 0.672251 1
1 0.226413 0.930037
1 0.284459 1
1 0.342489 1
1 0.400534 1
1 0.458579 1
1 0.516625 1
1 0.57467 1
1 0.632715 1
0.913527 0.690761 1
1 0.244923 1
1 0.302953 1
1 0.360998 1
1 0.419043 1
1 0.477089 1
1 0.535134 1
1 0.593164 1
1 0.651209 1
1 0.709255 1
0 0.145373 0
0 0.203403 0
0 0.261448 0
0 0.319493 0
0 0.377539 0
0 0.435569 0.0624704
0 0.493614 0.181811
0 0.551659 0.301152
0 0.609705 0.420493
0.181323 0.163867 0
0.0617227 0.221897 0
0 0.279942 0
0 0.337987 0.00750744
0 0.396033 0.126848
0 0.454078 0.246189
0 0.512123 0.36553
0 0.570169 0.484871
0 0.628199 0.604227
0.457588 0.182361 0
0.337972 0.240406 0
0.218357 0.298451 0.0719005
0.0987411 0.356497 0.191241
0 0.414527 0.310597
0 0.472572 0.429938
0 0.530617 0.549279
0 0.588663 0.66862
0 0.646708 0.787961
0.733837 0.20087 0.016968
0.614237 0.2589 0.136309
0.494606 0.316945 0.25565
0.37499 0.37499 0.37499
0.255375 0.433036 0.494331
0.135744 0.491081 0.613672
0.0161288 0.549126 0.733013
0 0.607172 0.852369
0 0.665202 0.97171
1 0.219364 0.200717
0.890486 0.277409 0.320043
0.770871 0.335454 0.439384
0.65124 0.393484 0.55874
0.531624 0.45153 0.67808
0.412009 0.509575 0.797421
0.292378 0.56762 0.916762
0.172763 0.625666 1
0.0531472 0.683711 1
1 0.237873 0.384466
1 0.295903 0.503792
1 0.353948 0.623133
0.927504 0.411994 0.742473
0.807874 0.470039 0.861814
0.688258 0.528084 0.98117
0.568643 0.58613 1
0.449012 0.644175 1
0.329397 0.702205 1
1 0.256367 0.5682
1 0.314412 0.687541
1 0.372457 0.806882
1 0.430488 0.926223
1 0.488533 1
0.964508 0.546578 1
0.844892 0.604623 1
0.725261 0.662669 1
0.605646 0.720714 1
1 0.274876 0.751949
1 0.332906 0.871275
1 0.390951 0.990616
1 0.448997 1
1 0.507042 1
1 0.565087 1
1 0.623133 1
1 0.681163 1
0.881895 0.739208 1
1 0.29337 0.935699
1 0.351415 1
1 0.409461 1
1 0.467491 1
1 0.525536 1
1 0.583581 1
1 0.641627 1
1 0.699672 1
1 0.757717 1
0 0.19382 0
0 0.251865 0
0 0.309895 0
0 0.367941 0
0 0.425986 0
0 0.484031 0
0 0.542077 0.0037232
0 0.600122 0.123064
0 0.658167 0.24242
0.149706 0.212314 0
0.0300908 0.270359 0
0 0.328405 0
0 0.38645 0
0 0.444495 0
0 0.502525 0.068101
0 0.560571 0.187442
0 0.618616 0.306798
0 0.676661 0.426139
0.425956 0.230823 0
0.30634 0.288853 0
0.186725 0.346899 0
0.0671092 0.404944 0.0131685
0 0.462989 0.132509
0 0.521035 0.25185
0 0.57908 0.371191
0 0.637125 0.490532
0 0.695171 0.609873
0.702205 0.249317 0
0.582605 0.307362 0
0.462974 0.365408 0.0775616
0.343359 0.423453 0.196902
0.223743 0.481498 0.316243
0.104112 0.539528 0.435599
0 0.597574 0.55494
0 0.655619 0.674281
0 0.713664 0.793622
0.978454 0.267826 0.0226291
0.858854 0.325856 0.14197
0.739239 0.383902 0.261311
0.619608 0.441947 0.380652
0.499992 0.499992 0.499992
0.380377 0.558038 0.619333
0.260746 0.616083 0.738674
0.141131 0.674128 0.858015
0.0215152 0.732174 0.977371
1 0.28632 0.206378
1 0.344366 0.325704
1 0.402411 0.445045
0.895872 0.460456 0.564385
0.776242 0.518486 0.683742
0.656626 0.576532 0.803082
0.537011 0.634577 0.922423
0.41738 0.692622 1
0.297765 0.750668 1
1 0.304829 0.390127
1 0.36286 0.509453
1 0.420905 0.628794
1 0.47895 0.748135
1 0.536995 0.867475
0.932876 0.595041 0.986816
0.81326 0.653086 1
0.693645 0.711131 1
0.574014 0.769177 1
1 0.323323 0.573861
1 0.381369 0.693187
1 0.439414 0.812543
1 0.497459 0.931884
1 0.555489 1
1 0.613535 1
1 0.67158 1
0.969894 0.729625 1
0.850263 0.787671 1
1 0.341833 0.75761
1 0.399863 0.876936
1 0.457908 0.996277
1 0.515953 1
1 0.573999 1
1 0.632044 1
1 0.690089 1
1 0.748135 1
1 0.806165 1
0 0.242283 0
0 0.300313 0
0 0.358358 0
0 0.416403 0
0 0.474449 0
0 0.532494 0
0 0.590539 0
0 0.648585 0
0 0.706615 0.064332
0.118074 0.260777 0
0 0.318822 0
0 0.376852 0
0 0.434897 0
0 0.492943 0
0 0.550988 0
0 0.609033 0.00936904
0 0.667079 0.12871
0 0.725124 0.248051
0.394324 0.279286 0
0.274723 0.337316 0
0.155093 0.395361 0
0.0354772 0.453407 0
0 0.511452 0
0 0.569497 0.0737621
0 0.627527 0.193103
0 0.685573 0.312444
0 0.743618 0.4318
0.670573 0.29778 0
0.550973 0.35581 0
0.431342 0.413855 0
0.311727 0.471901 0.0188144
0.192111 0.529946 0.13817
0.0724804 0.587991 0.257511
0 0.646036 0.376852
0 0.704082 0.496193
0 0.762127 0.615534
0.946822 0.316289 0
0.827222 0.374319 0
0.707607 0.432364 0.0832227
0.587976 0.49041 0.202564
0.46836 0.548455 0.321904
0.348745 0.6065 0.441245
0.229114 0.66453 0.560601
0.109499 0.722576 0.679942
0 0.780621 0.799283
1 0.334783 0.0282902
1 0.392813 0.147616
0.983856 0.450858 0.266972
0.86424 0.508904 0.386313
0.74461 0.566949 0.505653
0.624994 0.624994 0.624994
0.505379 0.68304 0.744335
0.385748 0.741085 0.863676
0.266133 0.79913 0.983032
1 0.353277 0.212039
1 0.411322 0.331365
1 0.469368 0.450706
1 0.527413 0.570047
1 0.585458 0.689387
0.901244 0.643488 0.808743
0.781628 0.701534 0.928084
0.662013 0.759579 1
0.542382 0.817624 1
1 0.371786 0.395773
1 0.429816 0.515114
1 0.487861 0.634455
1 0.545907 0.753796
1 0.603952 0.873137
1 0.661997 0.992477
1 0.720043 1
0.938262 0.778088 1
0.818647 0.836133 1
1 0.39028 0.579522
1 0.448325 0.698848
1 0.506371 0.818189
1 0.564416 0.937545
1 0.622461 1
1 0.680491 1
1 0.738537 1
1 0.796582 1
1 0.854627 1
0 0.29073 0
0 0.348775 0
0 0.406821 0
0 0.464866 0
0 0.522911 0
0 0.580941 0
0 0.638987 0
0 0.697032 0
0 0.755077 0
0.0864424 0.309239 0
0 0.367269 0
0 0.425315 0
0 0.48336 0
0 0.541405 0
0 0.599451 0
0 0.657496 0
0 0.715541 0
0 0.773571 0.0699626
0.362692 0.327733 0
0.243091 0.385779 0
0.123461 0.443824 0
0.00384527 0.501854 0
0 0.559899 0
0 0.617945 0
0 0.67599 0.0150149
0 0.734035 0.134371
0 0.792081 0.253712
0.638941 0.346242 0
0.519341 0.404273 0
0.399725 0.462318 0
0.280095 0.520363 0
0.160479 0.578408 0
0.0408637 0.636454 0.0794232
0 0.694499 0.198764
0 0.752529 0.318105
0 0.810575 0.437446
0.91519 0.364736 0
0.79559 0.422782 0
0.675975 0.480812 0
0.556344 0.538857 0.0244755
0.436728 0.596902 0.143816
0.317113 0.654948 0.263172
0.197482 0.712993 0.382513
0.0778668 0.771038 0.501854
0 0.829084 0.621195
1 0.383246 0
1 0.441276 0
0.952224 0.499321 0.0888838
0.832609 0.557366 0.208225
0.712978 0.615412 0.327565
0.593362 0.673457 0.446906
0.473747 0.731502 0.566247
0.354116 0.789532 0.685603
0.234501 0.847578 0.804944
1 0.40174 0.0339513
1 0.459785 0.153277
1 0.517815 0.272618
1 0.57586 0.391974
0.989242 0.633906 0.511315
0.869612 0.691951 0.630655
0.749996 0.749996 0.749996
0.630381 0.808042 0.869337
0.51075 0.866087 0.988678
1 0.420249 0.2177
1 0.478279 0.337026
1 0.536324 0.456367
1 0.594369 0.575708
1 0.652415 0.695048
1 0.71046 0.814389
1 0.76849 0.933745
0.90663 0.826535 1
0.787015 0.884581 1
1 0.438743 0.401434
1 0.496788 0.52076
1 0.554818 0.640116
1 0.612863 0.759457
1 0.670909 0.878798
1 0.728954 0.998138
1 0.786999 1
1 0.845045 1
1 0.90309 1
0 0.339193 0
0 0.397223 0
0 0.455268 0
0 0.513313 0
0 0.571359 0
0 0.629404 0
0 0.687449 0
0 0.745495 0
0 0.80354 0
0.0548104 0.357687 0
0 0.415732 0
0 0.473777 0
0 0.531823 0
0 0.589853 0
0 0.647898 0
0 0.705943 0
0 0.763989 0
0 0.822034 0
0.33106 0.376196 0
0.21146 0.434226 0
0.0918288 0.492271 0
0 0.550317 0
0 0.608362 0
0 0.666407 0
0 0.724453 0
0 0.782498 0
0 0.840543 0.0756237
0.607309 0.39469 0
0.487709 0.452735 0
0.368093 0.510781 0
0.248463 0.568826 0
0.128847 0.626856 0
0.00923171 0.684901 0
0 0.742947 0.020676
0 0.800992 0.140017
0 0.859037 0.259373
0.883574 0.413199 0
0.763958 0.471229 0
0.644343 0.529274 0
0.524727 0.58732 0
0.405097 0.645365 0
0.285481 0.70341 0.0850843
0.16585 0.761456 0.204425
0.0462348 0.819501 0.323766
0 0.877531 0.443107
1 0.431693 0
1 0.489738 0
0.920592 0.547784 0
0.800977 0.605814 0.0301366
0.681346 0.663859 0.149477
0.56173 0.721904 0.268818
0.442115 0.77995 0.388174
0.322484 0.837995 0.507515
0.202869 0.89604 0.626856
1 0.450202 0
1 0.508232 0
1 0.566278 0.0945449
1 0.624323 0.213886
0.95761 0.682368 0.333227
0.83798 0.740414 0.452567
0.718364 0.798459 0.571908
0.598749 0.856504 0.691249
0.479118 0.914534 0.810605
1 0.468696 0.0396124
1 0.526741 0.158938
1 0.584787 0.278279
1 0.642817 0.39762
1 0.700862 0.516976
1 0.758907 0.636316
0.994614 0.816953 0.755657
0.874998 0.874998 0.874998
0.755383 0.933043 0.994339
1 0.487205 0.223346
1 0.545235 0.342687
1 0.603281 0.462028
1 0.661326 0.581369
1 0.719371 0.70071
1 0.777417 0.82005
1 0.835462 0.939391
1 0.893492 1
1 0.951537 1
0 0.387655 0
0 0.445686 0
0 0.503731 0
0 0.561776 0
0 0.619821 0
0 0.677867 0
0 0.735912 0
0 0.793942 0
0 0.851987 0
0.0231785 0.406149 0
0 0.464179 0
0 0.522225 0
0 0.58027 0
0 0.638315 0
0 0.696361 0
0 0.754406 0
0 0.812451 0
0 0.870497 0
0.299428 0.424643 0
0.179828 0.482689 0
0.0601968 0.540734 0
0 0.598779 0
0 0.656825 0
0 0.714855 0
0 0.7729 0
0 0.830945 0
0 0.888991 0
0.575677 0.443153 0
0.456077 0.501183 0
0.336461 0.559228 0
0.216831 0.617273 0
0.0972152 0.675319 0
0 0.733364 0
0 0.791409 0
0 0.849454 0
0 0.9075 0.0812848
0.851942 0.461646 0
0.732326 0.519692 0
0.612711 0.577737 0
0.493095 0.635782 0
0.373465 0.693828 0
0.253849 0.751858 0
0.134234 0.809903 0.0263371
0.0146029 0.867948 0.145678
0 0.925994 0.265019
1 0.480156 0
1 0.538186 0
0.88896 0.596231 0
0.769345 0.654276 0
0.649729 0.712322 0
0.530098 0.770367 0.0907454
0.410483 0.828412 0.210086
0.290867 0.886458 0.329427
0.171237 0.944503 0.448768
1 0.49865 0
1 0.556695 0
1 0.61474 0
1 0.672786 0.0357977
0.925978 0.730816 0.155138
0.806348 0.788861 0.274479
0.686732 0.846906 0.39382
0.567117 0.904952 0.513176
0.447486 0.962997 0.632517
1 0.517159 0
1 0.575189 0
1 0.633234 0.100191
1 0.691279 0.219547
1 0.749325 0.338888
1 0.80737 0.458228
0.962982 0.865415 0.577569
0.843366 0.923461 0.69691
0.723751 0.981506 0.816251
1 0.535653 0.0452735
1 0.593698 0.164599
1 0.651743 0.28394
1 0.709789 0.403281
1 0.767819 0.522622
1 0.825864 0.641978
1 0.883909 0.761318
1 0.941955 0.880659
1 1 1
