public/LUTS/Color Shift/ColorShift_12.cube
TITLE "Generated by Resolve"
LUT_3D_SIZE 5
0 0 0
0 0.0993057 0
0 0.198596 0
0 0.297902 0
0 0.397208 0
0.0183566 0.197208 0.367758
0 0.296498 0.235523
0 0.395804 0.103288
0 0.495109 0
0 0.594415 0
0.0366979 0.394415 0.735531
0.0123598 0.493721 0.603296
0 0.593011 0.471061
0 0.692317 0.338827
0 0.791623 0.206592
0.0550546 0.591623 1
0.0307164 0.690929 0.971069
0.00637827 0.790234 0.838849
0 0.88954 0.706615
0 0.988846 0.57438
0.0734112 0.788846 1
0.049073 0.888136 1
0.0247349 0.987442 1
0.000396735 1 1
0 1 0.942153
0.25597 0 0.0144656
0.231632 0.052781 0
0.207294 0.152087 0
0.182956 0.251392 0
0.158618 0.350698 0
0.274327 0.150683 0.382208
0.249989 0.249989 0.249989
0.22565 0.349294 0.117754
0.201312 0.4486 0
0.176974 0.547906 0
0.292683 0.347906 0.749996
0.268345 0.447196 0.617761
0.244007 0.546502 0.485527
0.219669 0.645808 0.353292
0.195315 0.745113 0.221057
0.31104 0.545113 1
0.286702 0.644419 0.985534
0.262348 0.743725 0.8533
0.23801 0.84303 0.721065
0.213672 0.942336 0.58883
0.329381 0.742336 1
0.305043 0.841627 1
0.280705 0.940932 1
0.256367 1 1
0.232029 1 0.956603
0.511971 0 0.0289311
0.487633 0.00627146 0
0.463294 0.105577 0
0.438941 0.204883 0
0.414603 0.304189 0
0.530312 0.104173 0.396674
0.505974 0.203479 0.264454
0.481636 0.302785 0.132219
0.457298 0.402075 0
0.432959 0.501381 0
0.548669 0.301396 0.764446
0.52433 0.400687 0.632227
0.499992 0.499992 0.499992
0.475654 0.599298 0.367758
0.451316 0.698604 0.235523
0.567025 0.498604 1
0.542687 0.59791 1
0.518349 0.6972 0.867765
0.494011 0.796506 0.735531
0.469673 0.895811 0.603296
0.585382 0.695811 1
0.561044 0.795117 1
0.536706 0.894423 1
0.512352 0.993729 1
0.488014 1 0.971069
0.767956 0 0.0433814
0.743618 0 0
0.71928 0.0590677 0
0.694942 0.158373 0
0.670604 0.257664 0
0.786313 0.0576638 0.411139
0.761975 0.156954 0.27892
0.737636 0.25626 0.146685
0.713283 0.355566 0.0144503
0.688945 0.454871 0
0.804654 0.254871 0.778912
0.780316 0.354177 0.646693
0.755978 0.453483 0.514458
0.73164 0.552789 0.382223
0.707301 0.652079 0.249989
0.823011 0.452094 1
0.798672 0.551385 1
0.774334 0.65069 0.882231
0.749996 0.749996 0.749996
0.725658 0.849302 0.617761
0.841367 0.649302 1
0.817029 0.748608 1
0.792691 0.847913 1
0.768353 0.947204 1
0.744015 1 0.985534
1 0 0.057847
0.999603 0 0
0.975265 0.0125429 0
0.950927 0.111849 0
0.926589 0.211154 0
1 0.0111543 0.425605
1 0.110445 0.293385
0.993622 0.209751 0.161151
0.969284 0.309056 0.0289158
0.944945 0.408362 0
1 0.208362 0.793378
1 0.307652 0.661158
1 0.406958 0.528923
0.98764 0.506264 0.396689
0.963287 0.60557 0.264454
1 0.40557 1
1 0.504875 1
1 0.604181 0.896696
1 0.703487 0.764462
0.981643 0.802792 0.632227
1 0.602792 1
1 0.702083 1
1 0.801389 1
1 0.900694 1
1 1 1
