public/LUTS/Color Shift/ColorShift_24.cube
TITLE "Generated by Resolve"
LUT_3D_SIZE 33
0 0 0
0.029572 0.00106813 0
0.0591592 0.00213626 0
0.0887312 0.00318914 0
0.118318 0.00425727 0
0.147906 0.0053254 0
0.177493 0.00639353 0
0.207065 0.00746166 0
0.236652 0.00852979 0
0.266239 0.00959792 0
0.295827 0.0106508 0
0.325399 0.0117189 0
0.354986 0.0127871 0
0.384573 0.0138552 0
0.41416 0.0149233 0
0.443732 0.0159915 0
0.47332 0.0170443 0
0.502907 0.0181125 0
0.532494 0.0191806 0
0.562066 0.0202487 0
0.591653 0.0213169 0
0.621241 0.022385 0
0.650828 0.0234531 0
0.6804 0.024506 0
0.709987 0.0255741 0
0.739574 0.0266423 0
0.769162 0.0277104 0
0.798733 0.0287785 0
0.828321 0.0298466 0
0.857908 0.0308995 0
0.887495 0.0319677 0
0.917067 0.0330358 0
0.946654 0.0341039 0
0 0.0318151 0.00442512
0.025742 0.0328832 1.5259e-05
0.0553292 0.0339513 0
0.0849165 0.0350195 0
0.114488 0.0360723 0
0.144076 0.0371405 0
0.173663 0.0382086 0
0.20325 0.0392767 0
0.232822 0.0403449 0
0.262409 0.041413 0
0.291997 0.0424659 0
0.321584 0.043534 0
0.351156 0.0446021 0
0.380743 0.0456703 0
0.41033 0.0467384 0
0.439918 0.0478065 0
0.46949 0.0488594 0
0.499077 0.0499275 0
0.528664 0.0509957 0
0.558251 0.0520638 0
0.587823 0.0531319 0
0.617411 0.0542 0
0.646998 0.0552682 0
0.676585 0.0563211 0
0.706157 0.0573892 0
0.735744 0.0584573 0
0.765332 0.0595254 0
0.794919 0.0605936 0
0.824491 0.0616617 0
0.854078 0.0627146 0
0.883665 0.0637827 0
0.913252 0.0648508 0
0.942824 0.065919 0
0 0.0636454 0.00883497
0.021912 0.0647135 0.00444038
0.0514992 0.0657816 4.57771e-05
0.0810864 0.0668498 0
0.110658 0.0679026 0
0.140246 0.0689708 0
0.169833 0.0700389 0
0.19942 0.071107 0
0.228992 0.0721752 0
0.258579 0.0732433 0
0.288167 0.0742962 0
0.317754 0.0753643 0
0.347326 0.0764324 0
0.376913 0.0775006 0
0.4065 0.0785687 0
0.436088 0.0796368 0
0.46566 0.0806897 0
0.495247 0.0817578 0
0.524834 0.082826 0
0.554421 0.0838941 0
0.583993 0.0849622 0
0.613581 0.0860304 0
0.643168 0.0870985 0
0.672755 0.0881514 0
0.702327 0.0892195 0
0.731914 0.0902876 0
0.761501 0.0913558 0
0.791089 0.0924239 0
0.820661 0.093492 0
0.850248 0.0945449 0
0.879835 0.095613 0
0.909422 0.0966812 0
0.938994 0.0977493 0
0 0.0954757 0.0132601
0.0180819 0.0965438 0.00886549
0.0476692 0.097612 0.00445563
0.0772564 0.0986801 6.10361e-05
0.106828 0.099733 0
0.136416 0.100801 0
0.166003 0.101869 0
0.19559 0.102937 0
0.225162 0.104005 0
0.254749 0.105074 0
0.284337 0.106126 0
0.313924 0.107195 0
0.343496 0.108263 0
0.373083 0.109331 0
0.40267 0.110399 0
0.432258 0.111467 0
0.46183 0.112535 0
0.491417 0.113588 0
0.521004 0.114656 0
0.550591 0.115724 0
0.580179 0.116793 0
0.609751 0.117861 0
0.639338 0.118929 0
0.668925 0.119982 0
0.698512 0.12105 0
0.728084 0.122118 0
0.757671 0.123186 0
0.787259 0.124254 0
0.816846 0.125322 0
0.846418 0.126375 0
0.876005 0.127443 0
0.905592 0.128511 0
0.93518 0.12958 0
0 0.127306 0.0176852
0.0142519 0.128374 0.0132753
0.0438392 0.129442 0.00888075
0.0734264 0.13051 0.00448615
0.103014 0.131563 7.62951e-05
0.132586 0.132631 0
0.162173 0.1337 0
0.19176 0.134768 0
0.221347 0.135836 0
0.250919 0.136904 0
0.280507 0.137957 0
0.310094 0.139025 0
0.339681 0.140093 0
0.369253 0.141161 0
0.39884 0.142229 0
0.428428 0.143297 0
0.458015 0.144366 0
0.487587 0.145418 0
0.517174 0.146487 0
0.546761 0.147555 0
0.576349 0.148623 0
0.60592 0.149691 0
0.635508 0.150759 0
0.665095 0.151812 0
0.694682 0.15288 0
0.724254 0.153948 0
0.753841 0.155016 0
0.783429 0.156085 0
0.813016 0.157153 0
0.842588 0.158221 0
0.872175 0.159274 0
0.901762 0.160342 0
0.93135 0.16141 0
0 0.159136 0.0220951
0.0104219 0.160204 0.0177005
0.0400092 0.161273 0.0133059
0.0695964 0.162341 0.00889601
0.0991836 0.163394 0.00450141
0.128756 0.164462 0.000106813
0.158343 0.16553 0
0.18793 0.166598 0
0.217517 0.167666 0
0.247089 0.168734 0
0.276677 0.169802 0
0.306264 0.170855 0
0.335851 0.171923 0
0.365423 0.172992 0
0.39501 0.17406 0
0.424598 0.175128 0
0.454185 0.176196 0
0.483757 0.177249 0
0.513344 0.178317 0
0.542931 0.179385 0
0.572519 0.180453 0
0.60209 0.181521 0
0.631678 0.182589 0
0.661265 0.183642 0
0.690852 0.18471 0
0.720424 0.185779 0
0.750011 0.186847 0
0.779599 0.187915 0
0.809186 0.188983 0
0.838758 0.190051 0
0.868345 0.191104 0
0.897932 0.192172 0
0.92752 0.19324 0
0 0.190967 0.0265202
0.0065919 0.192035 0.0221256
0.0361791 0.193103 0.0177157
0.0657664 0.194171 0.0133211
0.0953536 0.195224 0.00892653
0.124926 0.196292 0.00451667
0.154513 0.19736 0.000122072
0.1841 0.198428 0
0.213687 0.199496 0
0.243259 0.200565 0
0.272847 0.201633 0
0.302434 0.202686 0
0.332021 0.203754 0
0.361593 0.204822 0
0.39118 0.20589 0
0.420768 0.206958 0
0.450355 0.208026 0
0.479942 0.209079 0
0.509514 0.210147 0
0.539101 0.211215 0
0.568689 0.212284 0
0.598276 0.213352 0
0.627848 0.21442 0
0.657435 0.215488 0
0.687022 0.216541 0
0.716609 0.217609 0
0.746181 0.218677 0
0.775769 0.219745 0
0.805356 0.220813 0
0.834943 0.221881 0
0.864515 0.222934 0
0.894102 0.224002 0
0.92369 0.225071 0
0 0.222797 0.0309453
0.00277714 0.223865 0.0265507
0.0323491 0.224933 0.0221408
0.0619364 0.226001 0.0177462
0.0915236 0.22707 0.0133364
0.121111 0.228122 0.00894179
0.150683 0.229191 0.00454719
0.18027 0.230259 0.000137331
0.209857 0.231327 0
0.239445 0.232395 0
0.269017 0.233463 0
0.298604 0.234516 0
0.328191 0.235584 0
0.357778 0.236652 0
0.38735 0.23772 0
0.416938 0.238788 0
0.446525 0.239857 0
0.476112 0.240909 0
0.505684 0.241978 0
0.535271 0.243046 0
0.564858 0.244114 0
0.594446 0.245182 0
0.624018 0.24625 0
0.653605 0.247318 0
0.683192 0.248371 0
0.712779 0.249439 0
0.742351 0.250507 0
0.771939 0.251575 0
0.801526 0.252644 0
0.831113 0.253712 0
0.860685 0.254765 0
0.890272 0.255833 0
0.91986 0.256901 0
0 0.254627 0.0353704
0 0.255695 0.0309606
0.0285191 0.256764 0.026566
0.0581064 0.257832 0.0221714
0.0876936 0.2589 0.0177615
0.117281 0.259953 0.0133669
0.146853 0.261021 0.00895705
0.17644 0.262089 0.00456245
0.206027 0.263157 0.000167849
0.235615 0.264225 0
0.265187 0.265293 0
0.294774 0.266346 0
0.324361 0.267414 0
0.353948 0.268482 0
0.38352 0.269551 0
0.413108 0.270619 0
0.442695 0.271687 0
0.472282 0.272755 0
0.501854 0.273808 0
0.531441 0.274876 0
0.561028 0.275944 0
0.590616 0.277012 0
0.620188 0.27808 0
0.649775 0.279149 0
0.679362 0.280201 0
0.708949 0.28127 0
0.738521 0.282338 0
0.768109 0.283406 0
0.797696 0.284474 0
0.827283 0.285542 0
0.856855 0.286595 0
0.886442 0.287663 0
0.91603 0.288731 0
0 0.286458 0.0397803
0 0.287526 0.0353857
0.0246891 0.288594 0.0309911
0.0542763 0.289662 0.0265812
0.0838636 0.29073 0.0221866
0.113451 0.291783 0.0177768
0.143023 0.292851 0.0133822
0.17261 0.293919 0.00898756
0.202197 0.294987 0.00457771
0.231785 0.296056 0.000183108
0.261372 0.297124 0
0.290944 0.298177 0
0.320531 0.299245 0
0.350118 0.300313 0
0.379705 0.301381 0
0.409277 0.302449 0
0.438865 0.303517 0
0.468452 0.304585 0
0.498039 0.305638 0
0.527611 0.306706 0
0.557198 0.307774 0
0.586786 0.308843 0
0.616373 0.309911 0
0.645945 0.310979 0
0.675532 0.312032 0
0.705119 0.3131 0
0.734707 0.314168 0
0.764279 0.315236 0
0.793866 0.316304 0
0.823453 0.317372 0
0.85304 0.318425 0
0.882612 0.319493 0
0.9122 0.320562 0
0 0.318288 0.0442054
0 0.319356 0.0398108
0.0208743 0.320424 0.0354009
0.0504463 0.321492 0.0310063
0.0800336 0.32256 0.0266117
0.109621 0.323613 0.0222019
0.139208 0.324681 0.0178073
0.16878 0.32575 0.0133974
0.198367 0.326818 0.00900282
0.227955 0.327886 0.00460822
0.257542 0.328954 0.000198367
0.287114 0.330022 0
0.316701 0.331075 0
0.346288 0.332143 0
0.375875 0.333211 0
0.405447 0.334279 0
0.435035 0.335348 0
0.464622 0.336416 0
0.494209 0.337469 0
0.523781 0.338537 0
0.553368 0.339605 0
0.582956 0.340673 0
0.612543 0.341741 0
0.642115 0.342809 0
0.671702 0.343862 0
0.701289 0.34493 0
0.730877 0.345998 0
0.760449 0.347066 0
0.790036 0.348135 0
0.819623 0.349203 0
0.84921 0.350271 0
0.878782 0.351324 0
0.90837 0.352392 0
0 0.350118 0.0486305
0 0.351186 0.0442206
0.0170443 0.352255 0.039826
0.0466163 0.353323 0.0354314
0.0762036 0.354391 0.0310216
0.105791 0.355444 0.026627
0.135378 0.356512 0.0222171
0.16495 0.35758 0.0178225
0.194537 0.358648 0.0134279
0.224125 0.359716 0.00901808
0.253712 0.360784 0.00462348
0.283284 0.361852 0.000228885
0.312871 0.362905 0
0.342458 0.363973 0
0.372045 0.365042 0
0.401617 0.36611 0
0.431205 0.367178 0
0.460792 0.368246 0
0.490379 0.369299 0
0.519951 0.370367 0
0.549538 0.371435 0
0.579126 0.372503 0
0.608713 0.373571 0
0.638285 0.37464 0
0.667872 0.375692 0
0.697459 0.376761 0
0.727047 0.377829 0
0.756619 0.378897 0
0.786206 0.379965 0
0.815793 0.381033 0
0.84538 0.382101 0
0.874952 0.383154 0
0.90454 0.384222 0
0 0.381949 0.0530404
0 0.383017 0.0486458
0.0132143 0.384085 0.0442512
0.0427863 0.385153 0.0398413
0.0723735 0.386221 0.0354467
0.101961 0.387274 0.0310521
0.131548 0.388342 0.0266423
0.161135 0.38941 0.0222477
0.190707 0.390478 0.0178378
0.220295 0.391546 0.0134432
0.249882 0.392615 0.0090486
0.279469 0.393683 0.00463874
0.309041 0.394736 0.000244144
0.338628 0.395804 0
0.368215 0.396872 0
0.397803 0.39794 0
0.427375 0.399008 0
0.456962 0.400076 0
0.486549 0.401129 0
0.516136 0.402197 0
0.545708 0.403265 0
0.575296 0.404334 0
0.604883 0.405402 0
0.63447 0.40647 0
0.664042 0.407538 0
0.693629 0.408591 0
0.723217 0.409659 0
0.752804 0.410727 0
0.782376 0.411795 0
0.811963 0.412863 0
0.84155 0.413931 0
0.871138 0.414984 0
0.90071 0.416052 0
0 0.413779 0.0574655
0 0.414847 0.0530709
0.0093843 0.415915 0.048661
0.0389715 0.416983 0.0442664
0.0685435 0.418051 0.0398718
0.0981308 0.41912 0.035462
0.127718 0.420172 0.0310674
0.157305 0.421241 0.0266728
0.186877 0.422309 0.0222629
0.216464 0.423377 0.0178683
0.246052 0.424445 0.0134585
0.275639 0.425513 0.00906386
0.305211 0.426566 0.00466926
0.334798 0.427634 0.000259403
0.364385 0.428702 0
0.393973 0.42977 0
0.423545 0.430838 0
0.453132 0.431907 0
0.482719 0.432959 0
0.512306 0.434028 0
0.541878 0.435096 0
0.571466 0.436164 0
0.601053 0.437232 0
0.63064 0.4383 0
0.660212 0.439368 0
0.689799 0.440421 0
0.719387 0.441489 0
0.748974 0.442557 0
0.778546 0.443626 0
0.808133 0.444694 0
0.83772 0.445762 0
0.867308 0.446815 0
0.89688 0.447883 0
0 0.445609 0.0618906
0 0.446677 0.057496
0.00555428 0.447745 0.0530861
0.0351415 0.448814 0.0486915
0.0647135 0.449882 0.0442817
0.0943008 0.45095 0.0398871
0.123888 0.452003 0.0354925
0.153475 0.453071 0.0310826
0.183047 0.454139 0.026688
0.212634 0.455207 0.0222782
0.242222 0.456275 0.0178836
0.271809 0.457343 0.013489
0.301381 0.458396 0.00907912
0.330968 0.459464 0.00468452
0.360555 0.460533 0.000289921
0.390143 0.461601 0
0.419715 0.462669 0
0.449302 0.463737 0
0.478889 0.464805 0
0.508476 0.465858 0
0.538048 0.466926 0
0.567636 0.467994 0
0.597223 0.469062 0
0.62681 0.47013 0
0.656382 0.471199 0
0.685969 0.472251 0
0.715557 0.47332 0
0.745144 0.474388 0
0.774731 0.475456 0
0.804303 0.476524 0
0.83389 0.477592 0
0.863478 0.478645 0
0.893065 0.479713 0
0 0.47744 0.0663157
0 0.478508 0.0619059
0.00172427 0.479576 0.0575113
0.0313115 0.480644 0.0531014
0.0608988 0.481712 0.0487068
0.0904707 0.48278 0.0443122
0.120058 0.483833 0.0399023
0.149645 0.484901 0.0355077
0.179232 0.485969 0.0311131
0.208804 0.487037 0.0267033
0.238392 0.488106 0.0223087
0.267979 0.489174 0.0178988
0.297566 0.490227 0.0135042
0.327138 0.491295 0.00910964
0.356725 0.492363 0.00469978
0.386313 0.493431 0.00030518
0.4159 0.494499 0
0.445472 0.495567 0
0.475059 0.496635 0
0.504646 0.497688 0
0.534234 0.498756 0
0.563806 0.499825 0
0.593393 0.500893 0
0.62298 0.501961 0
0.652567 0.503029 0
0.682139 0.504082 0
0.711727 0.50515 0
0.741314 0.506218 0
0.770901 0.507286 0
0.800473 0.508354 0
0.83006 0.509422 0
0.859648 0.510491 0
0.889235 0.511543 0
0 0.50927 0.0707256
0 0.510338 0.066331
0 0.511406 0.0619364
0.0274815 0.512474 0.0575265
0.0570687 0.513542 0.0531319
0.0866407 0.514611 0.0487221
0.116228 0.515663 0.0443275
0.145815 0.516732 0.0399329
0.175402 0.5178 0.035523
0.204974 0.518868 0.0311284
0.234562 0.519936 0.0267185
0.264149 0.521004 0.0223239
0.293736 0.522072 0.0179294
0.323308 0.523125 0.0135195
0.352895 0.524193 0.0091249
0.382483 0.525261 0.0047303
0.41207 0.526329 0.000320439
0.441642 0.527398 0
0.471229 0.528466 0
0.500816 0.529519 0
0.530404 0.530587 0
0.559976 0.531655 0
0.589563 0.532723 0
0.61915 0.533791 0
0.648737 0.534859 0
0.678309 0.535912 0
0.707897 0.53698 0
0.737484 0.538048 0
0.767071 0.539117 0
0.796643 0.540185 0
0.82623 0.541253 0
0.855817 0.542321 0
0.885405 0.543374 0
0 0.5411 0.0751507
0 0.542168 0.0707561
0 0.543236 0.0663462
0.0236515 0.544305 0.0619516
0.0532387 0.545373 0.057557
0.0828107 0.546441 0.0531472
0.112398 0.547494 0.0487526
0.141985 0.548562 0.0443427
0.171572 0.54963 0.0399481
0.201144 0.550698 0.0355535
0.230732 0.551766 0.0311437
0.260319 0.552834 0.0267491
0.289906 0.553903 0.0223392
0.319478 0.554955 0.0179446
0.349065 0.556023 0.01355
0.378653 0.557092 0.00914015
0.40824 0.55816 0.00474556
0.437812 0.559228 0.000335698
0.467399 0.560296 0
0.496986 0.561349 0
0.526574 0.562417 0
0.556146 0.563485 0
0.585733 0.564553 0
0.61532 0.565621 0
0.644907 0.56669 0
0.674495 0.567758 0
0.704067 0.568811 0
0.733654 0.569879 0
0.763241 0.570947 0
0.792828 0.572015 0
0.8224 0.573083 0
0.851987 0.574151 0
0.881575 0.575204 0
0 0.572931 0.0795758
0 0.573999 0.0751659
0 0.575067 0.0707713
0.0198215 0.576135 0.0663767
0.0494087 0.577203 0.0619669
0.078996 0.578271 0.0575723
0.108568 0.579339 0.0531624
0.138155 0.580392 0.0487678
0.167742 0.58146 0.0443732
0.19733 0.582528 0.0399634
0.226902 0.583597 0.0355688
0.256489 0.584665 0.0311742
0.286076 0.585733 0.0267643
0.315663 0.586786 0.0223697
0.345235 0.587854 0.0179599
0.374823 0.588922 0.0135653
0.40441 0.58999 0.00917067
0.433997 0.591058 0.00476081
0.463569 0.592126 0.000366217
0.493156 0.593179 0
0.522744 0.594247 0
0.552331 0.595315 0
0.581903 0.596384 0
0.61149 0.597452 0
0.641077 0.59852 0
0.670665 0.599588 0
0.700236 0.600641 0
0.729824 0.601709 0
0.759411 0.602777 0
0.788998 0.603845 0
0.81857 0.604913 0
0.848157 0.605982 0
0.877745 0.607034 0
0 0.604776 0.0839857
0 0.605829 0.0795911
0 0.606897 0.0751965
0.0159915 0.607965 0.0707866
0.0455787 0.609033 0.066392
0.0751659 0.610101 0.0619974
0.104738 0.61117 0.0575875
0.134325 0.612222 0.053193
0.163912 0.613291 0.0487831
0.1935 0.614359 0.0443885
0.223072 0.615427 0.0399939
0.252659 0.616495 0.035584
0.282246 0.617563 0.0311894
0.311833 0.618616 0.0267796
0.341405 0.619684 0.022385
0.370993 0.620752 0.0179904
0.40058 0.62182 0.0135805
0.430167 0.622889 0.00918593
0.459739 0.623957 0.00479133
0.489326 0.62501 0.000381476
0.518914 0.626078 0
0.548501 0.627146 0
0.578073 0.628214 0
0.60766 0.629282 0
0.637247 0.63035 0
0.666835 0.631418 0
0.696406 0.632471 0
0.725994 0.633539 0
0.755581 0.634607 0
0.785168 0.635676 0
0.81474 0.636744 0
0.844327 0.637812 0
0.873915 0.638865 0
0 0.636606 0.0884108
0 0.637659 0.0840162
0 0.638727 0.0796063
0.0121614 0.639796 0.0752117
0.0417487 0.640864 0.0708171
0.0713359 0.641932 0.0664073
0.100908 0.643 0.0620127
0.130495 0.644053 0.0576181
0.160082 0.645121 0.0532082
0.18967 0.646189 0.0488136
0.219242 0.647257 0.0444038
0.248829 0.648325 0.0400092
0.278416 0.649393 0.0356146
0.308003 0.650446 0.0312047
0.337575 0.651514 0.0268101
0.367163 0.652583 0.0224002
0.39675 0.653651 0.0180056
0.426337 0.654719 0.013611
0.455909 0.655787 0.00920119
0.485496 0.656855 0.00480659
0.515084 0.657908 0.000396735
0.544671 0.658976 0
0.574258 0.660044 0
0.60383 0.661112 0
0.633417 0.662181 0
0.663005 0.663249 0
0.692592 0.664302 0
0.722164 0.66537 0
0.751751 0.666438 0
0.781338 0.667506 0
0.810925 0.668574 0
0.840497 0.669642 0
0.870085 0.670695 0
0 0.668437 0.0928359
0 0.66949 0.0884413
0 0.670558 0.0840314
0.00833143 0.671626 0.0796368
0.0379187 0.672694 0.075227
0.0675059 0.673762 0.0708324
0.0970932 0.67483 0.0664378
0.126665 0.675883 0.0620279
0.156252 0.676951 0.0576333
0.18584 0.678019 0.0532235
0.215427 0.679088 0.0488289
0.244999 0.680156 0.0444343
0.274586 0.681224 0.0400244
0.304173 0.682277 0.0356298
0.333761 0.683345 0.03122
0.363333 0.684413 0.0268254
0.39292 0.685481 0.0224308
0.422507 0.686549 0.0180209
0.452094 0.687617 0.0136263
0.481666 0.688685 0.00923171
0.511254 0.689738 0.00482185
0.540841 0.690806 0.000427253
0.570428 0.691875 0
0.6 0.692943 0
0.629587 0.694011 0
0.659175 0.695079 0
0.688762 0.696132 0
0.718334 0.6972 0
0.747921 0.698268 0
0.777508 0.699336 0
0.807095 0.700404 0
0.836667 0.701473 0
0.866255 0.702541 0
0 0.700267 0.0972457
0 0.70132 0.0928511
0 0.702388 0.0884565
0.00450141 0.703456 0.0840467
0.0340887 0.704524 0.0796521
0.0636759 0.705592 0.0752575
0.0932631 0.706661 0.0708476
0.122835 0.707713 0.066453
0.152422 0.708782 0.0620584
0.18201 0.70985 0.0576486
0.211597 0.710918 0.053254
0.241169 0.711986 0.0488441
0.270756 0.713054 0.0444495
0.300343 0.714122 0.0400549
0.329931 0.715175 0.0356451
0.359503 0.716243 0.0312505
0.38909 0.717311 0.0268406
0.418677 0.718379 0.022446
0.448264 0.719448 0.0180514
0.477836 0.720516 0.0136416
0.507424 0.721569 0.00924697
0.537011 0.722637 0.00483711
0.566598 0.723705 0.000442512
0.59617 0.724773 0
0.625757 0.725841 0
0.655344 0.726909 0
0.684932 0.727962 0
0.714504 0.72903 0
0.744091 0.730098 0
0.773678 0.731167 0
0.803265 0.732235 0
0.832837 0.733303 0
0.862425 0.734371 0
0 0.732097 0.101671
0 0.73315 0.0972763
0 0.734218 0.0928817
0.000671397 0.735286 0.0884718
0.0302586 0.736355 0.0840772
0.0598459 0.737423 0.0796674
0.0894331 0.738491 0.0752728
0.119005 0.739544 0.0708782
0.148592 0.740612 0.0664683
0.17818 0.74168 0.0620737
0.207767 0.742748 0.0576638
0.237339 0.743816 0.0532692
0.266926 0.744884 0.0488746
0.296513 0.745953 0.0444648
0.326101 0.747005 0.0400702
0.355673 0.748074 0.0356756
0.38526 0.749142 0.0312657
0.414847 0.75021 0.0268711
0.444434 0.751278 0.0224613
0.474022 0.752346 0.0180667
0.503594 0.753399 0.0136721
0.533181 0.754467 0.00926223
0.562768 0.755535 0.00486763
0.592355 0.756603 0.000457771
0.621927 0.757671 0
0.651514 0.75874 0
0.681102 0.759808 0
0.710689 0.760861 0
0.740261 0.761929 0
0.769848 0.762997 0
0.799435 0.764065 0
0.829023 0.765133 0
0.858595 0.766201 0
0 0.763928 0.106096
0 0.764981 0.101701
0 0.766049 0.0972915
0 0.767117 0.0928969
0.0264286 0.768185 0.0885023
0.0560159 0.769253 0.0840925
0.0856031 0.770321 0.0796979
0.11519 0.771389 0.075288
0.144762 0.772442 0.0708934
0.17435 0.77351 0.0664988
0.203937 0.774578 0.062089
0.233524 0.775647 0.0576944
0.263096 0.776715 0.0532845
0.292683 0.777783 0.0488899
0.322271 0.778836 0.0444953
0.351858 0.779904 0.0400854
0.38143 0.780972 0.0356909
0.411017 0.78204 0.031281
0.440604 0.783108 0.0268864
0.470192 0.784176 0.0224918
0.499763 0.785229 0.0180819
0.529351 0.786297 0.0136873
0.558938 0.787366 0.00929274
0.588525 0.788434 0.00488289
0.618097 0.789502 0.000488289
0.647684 0.79057 0
0.677272 0.791638 0
0.706859 0.792691 0
0.736431 0.793759 0
0.766018 0.794827 0
0.795605 0.795895 0
0.825193 0.796963 0
0.854765 0.798032 0
0 0.795758 0.110521
0 0.796811 0.106111
0 0.797879 0.101717
0 0.798947 0.097322
0.0225986 0.800015 0.0929122
0.0521859 0.801083 0.0885176
0.0817731 0.802152 0.0841077
0.11136 0.80322 0.0797131
0.140932 0.804273 0.0753185
0.17052 0.805341 0.0709087
0.200107 0.806409 0.0665141
0.229694 0.807477 0.0621195
0.259266 0.808545 0.0577096
0.288853 0.809613 0.053315
0.318441 0.810666 0.0489052
0.348028 0.811734 0.0445106
0.3776 0.812802 0.040116
0.407187 0.81387 0.0357061
0.436774 0.814939 0.0313115
0.466361 0.816007 0.0269017
0.495933 0.817075 0.0225071
0.525521 0.818128 0.0181125
0.555108 0.819196 0.0137026
0.584695 0.820264 0.009308
0.614267 0.821332 0.00489815
0.643854 0.8224 0.000503548
0.673442 0.823468 0
0.703029 0.824521 0
0.732601 0.825589 0
0.762188 0.826658 0
0.791775 0.827726 0
0.821363 0.828794 0
0.850935 0.829862 0
0 0.827588 0.114931
0 0.828656 0.110536
0 0.829709 0.106142
0 0.830777 0.101732
0.0187686 0.831846 0.0973373
0.0483558 0.832914 0.0929427
0.0779431 0.833982 0.0885328
0.10753 0.83505 0.0841382
0.137102 0.836103 0.0797284
0.16669 0.837171 0.0753338
0.196277 0.838239 0.0709392
0.225864 0.839307 0.0665293
0.255451 0.840375 0.0621347
0.285023 0.841443 0.0577249
0.314611 0.842496 0.0533303
0.344198 0.843565 0.0489357
0.373785 0.844633 0.0445258
0.403357 0.845701 0.0401312
0.432944 0.846769 0.0357366
0.462531 0.847837 0.0313268
0.492119 0.848905 0.0269322
0.521691 0.849958 0.0225223
0.551278 0.851026 0.0181277
0.580865 0.852094 0.0137331
0.610452 0.853162 0.00932326
0.640024 0.854231 0.00492866
0.669612 0.855299 0.000518807
0.699199 0.856352 0
0.728786 0.85742 0
0.758358 0.858488 0
0.787945 0.859556 0
0.817533 0.860624 0
0.84712 0.861692 0
0 0.859419 0.119356
0 0.860487 0.114961
0 0.86154 0.110552
0 0.862608 0.106157
0.0149538 0.863676 0.101762
0.0445258 0.864744 0.0973526
0.0741131 0.865812 0.092958
0.1037 0.86688 0.0885481
0.133288 0.867933 0.0841535
