public/LUTS/Color Shift/ColorShift_99.cube
TITLE "Generated by Resolve"
LUT_3D_SIZE 5
0 0 0
0 0.14699 0.14699
0 0.293996 0.293996
0 0.441001 0.441001
0 0.588006 0.588006
0.489982 0.0399939 0.489982
0.186984 0.186999 0.636973
0 0.334005 0.783978
0 0.480995 0.930983
0 0.628 1
0.97998 0.0800031 0.97998
0.676997 0.226993 1
0.373999 0.373999 1
0.070985 0.521004 1
0 0.668009 1
1 0.119997 1
1 0.266987 1
0.863996 0.413993 1
0.560998 0.560998 1
0.258 0.708003 1
1 0.160006 1
1 0.306996 1
1 0.454002 1
1 0.601007 1
0.747997 0.748012 1
0.0630045 0.0629892 0
0 0.209995 0
0 0.357 0
0 0.504005 0.0540169
0 0.650996 0.201022
0.552972 0.102998 0.102998
0.249989 0.249989 0.249989
0 0.396994 0.396994
0 0.543999 0.543999
0 0.691005 0.69099
1 0.142992 0.592996
0.740001 0.289982 0.740001
0.436988 0.436988 0.887007
0.133989 0.583993 1
0 0.730999 1
1 0.183001 1
1 0.329992 1
0.927001 0.476997 1
0.623987 0.624002 1
0.320989 0.771008 1
1 0.222995 1
1 0.369985 1
1 0.516991 1
1 0.663996 1
0.811002 0.811002 1
0.125994 0.125994 0
0 0.272984 0
0 0.419989 0
0 0.566995 0
0 0.714 0
0.615976 0.165988 0
0.312993 0.312993 0
0.0099794 0.459998 0.0099794
0 0.606989 0.156985
0 0.753994 0.30399
1 0.205997 0.205997
0.802991 0.352987 0.352987
0.499992 0.499992 0.499992
0.196994 0.646998 0.646998
0 0.794003 0.794003
1 0.245991 0.69601
1 0.392996 0.843
0.990005 0.539986 0.990005
0.686992 0.686992 1
0.383993 0.833997 1
1 0.286 1
1 0.43299 1
1 0.579995 1
1 0.727001 1
0.873991 0.874006 1
0.188998 0.188998 0
0 0.335988 0
0 0.482994 0
0 0.629999 0
0 0.777005 0
0.678981 0.228992 0
0.375998 0.375982 0
0.0729839 0.522988 0
0 0.669993 0
0 0.816999 0
1 0.268986 0
0.865995 0.415991 0
0.562997 0.562997 0.112978
0.259983 0.710002 0.259983
0 0.856992 0.406989
1 0.308995 0.308995
1 0.455985 0.455985
1 0.602991 0.602991
0.749996 0.749996 0.749996
0.446998 0.897002 0.897002
1 0.348989 0.799008
1 0.495995 0.945998
1 0.643 1
1 0.78999 1
0.936996 0.936996 1
0.252003 0.251987 0
0 0.398993 0
0 0.545998 0
0 0.693004 0
0 0.839994 0
0.741985 0.291997 0
0.438987 0.438987 0
0.135988 0.585992 0
0 0.732998 0
0 0.880003 0
1 0.331991 0
0.929 0.478981 0
0.626001 0.625986 0
0.322988 0.772992 0
0.0199893 0.919997 0.0199893
1 0.371984 0
1 0.51899 0.068986
1 0.665995 0.215991
0.813001 0.813001 0.362982
0.509987 0.960006 0.509987
1 0.411994 0.411994
1 0.558984 0.558999
1 0.705989 0.705989
1 0.852995 0.852995
1 1 1
