public/LUTS/Color Shift/ColorShift_93.cube
TITLE "Generated by Resolve"
LUT_3D_SIZE 33
0 0 0
0 0.00965896 0.0412604
0 0.0193332 0.082536
0 0.0289921 0.123812
0 0.0386664 0.165103
0 0.0483253 0.206378
0 0.0579995 0.247654
0 0.0676738 0.28893
0 0.0773327 0.330205
0 0.0870069 0.371496
0 0.0966659 0.412772
0 0.10634 0.454047
0 0.115999 0.495323
0 0.125673 0.536599
0 0.135332 0.57789
0 0.145006 0.619165
0 0.154665 0.660441
0 0.16434 0.701717
0 0.174014 0.743008
0 0.183673 0.784283
0 0.193347 0.825559
0 0.203006 0.866835
0 0.21268 0.90811
0 0.222339 0.949401
0 0.232013 0.990677
0 0.241672 1
0 0.251347 1
0 0.261006 1
0 0.27068 1
0 0.280354 1
0 0.290013 1
0 0.299687 1
0 0.309346 1
0.074876 0.00527962 0.0271916
0.0562142 0.0149386 0.068452
0.0375525 0.0246128 0.109728
0.0188907 0.0342718 0.151003
0.000228885 0.043946 0.192294
0 0.0536049 0.23357
0 0.0632792 0.274846
0 0.0729381 0.316121
0 0.0826123 0.357397
0 0.0922713 0.398688
0 0.101946 0.439963
0 0.11162 0.481239
0 0.121279 0.522515
0 0.130953 0.56379
0 0.140612 0.605081
0 0.150286 0.646357
0 0.159945 0.687633
0 0.169619 0.728908
0 0.179278 0.770199
0 0.188952 0.811475
0 0.198611 0.85275
0 0.208286 0.894026
0 0.21796 0.935302
0 0.227619 0.976593
0 0.237293 1
0 0.246952 1
0 0.256626 1
0 0.266285 1
0 0.275959 1
0 0.285618 1
0 0.295293 1
0 0.304952 1
0 0.314626 1
0.149783 0.0105592 0.0543984
0.131136 0.0202182 0.0956588
0.112474 0.0298924 0.136934
0.0937972 0.0395514 0.17821
0.0751354 0.0492256 0.219486
0.0564736 0.0588846 0.260777
0.0378119 0.0685588 0.302052
0.0191501 0.0782177 0.343328
0.000488289 0.087892 0.384604
0 0.0975509 0.425879
0 0.107225 0.46717
0 0.116884 0.508446
0 0.126558 0.549722
0 0.136233 0.590997
0 0.145892 0.632288
0 0.155566 0.673564
0 0.165225 0.714839
0 0.174899 0.756115
0 0.184558 0.797391
0 0.194232 0.838682
0 0.203891 0.879957
0 0.213565 0.921233
0 0.223224 0.962509
0 0.232898 1
0 0.242573 1
0 0.252232 1
0 0.261906 1
0 0.271565 1
0 0.281239 1
0 0.290898 1
0 0.300572 1
0 0.310231 1
0 0.319905 1
0.224689 0.0158389 0.0816052
0.206043 0.0254978 0.122866
0.187381 0.035172 0.164141
0.168719 0.044831 0.205417
0.150057 0.0545052 0.246693
0.13138 0.0641642 0.287968
0.112718 0.0738384 0.329259
0.0940566 0.0834974 0.370535
0.0753948 0.0931716 0.41181
0.056733 0.102831 0.453086
0.0380713 0.112505 0.494377
0.0193942 0.122164 0.535653
0.000732433 0.131838 0.576928
0 0.141512 0.618204
0 0.151171 0.65948
0 0.160845 0.700771
0 0.170504 0.742046
0 0.180179 0.783322
0 0.189837 0.824598
0 0.199512 0.865888
0 0.209171 0.907164
0 0.218845 0.94844
0 0.228504 0.989715
0 0.238178 1
0 0.247852 1
0 0.257511 1
0 0.267185 1
0 0.276844 1
0 0.286519 1
0 0.296178 1
0 0.305852 1
0 0.315511 1
0 0.325185 1
0.299611 0.0211185 0.108812
0.280949 0.0307774 0.150072
0.262287 0.0404364 0.191348
0.243626 0.0501106 0.232624
0.224964 0.0597848 0.273899
0.206302 0.0694438 0.315175
0.18764 0.079118 0.356466
0.168963 0.088777 0.397742
0.150301 0.0984512 0.439017
0.13164 0.10811 0.480293
0.112978 0.117784 0.521569
0.094316 0.127443 0.56286
0.0756542 0.137118 0.604135
0.0569924 0.146792 0.645411
0.0383154 0.156451 0.686687
0.0196536 0.166125 0.727977
0.000991836 0.175784 0.769253
0 0.185458 0.810529
0 0.195117 0.851804
0 0.204791 0.89308
0 0.21445 0.934371
0 0.224125 0.975647
0 0.233783 1
0 0.243458 1
0 0.253132 1
0 0.262791 1
0 0.272465 1
0 0.282124 1
0 0.291798 1
0 0.301457 1
0 0.311131 1
0 0.32079 1
0 0.330465 1
0.374517 0.0263981 0.136004
0.355871 0.0360571 0.177264
0.337194 0.045716 0.218555
0.318532 0.0553902 0.259831
0.29987 0.0650645 0.301106
0.281209 0.0747234 0.342382
0.262547 0.0843977 0.383658
0.243885 0.0940566 0.424949
0.225223 0.103731 0.466224
0.206546 0.11339 0.5075
0.187884 0.123064 0.548775
0.169223 0.132723 0.590066
0.150561 0.142397 0.631342
0.131899 0.152056 0.672618
0.113237 0.16173 0.713893
0.0945754 0.171405 0.755169
0.0758984 0.181064 0.79646
0.0572366 0.190738 0.837736
0.0385748 0.200397 0.879011
0.019913 0.210071 0.920287
0.00125124 0.21973 0.961563
0 0.229404 1
0 0.239063 1
0 0.248737 1
0 0.258396 1
0 0.26807 1
0 0.277745 1
0 0.287404 1
0 0.297078 1
0 0.306737 1
0 0.316411 1
0 0.32607 1
0 0.335744 1
0.449424 0.0316777 0.16321
0.430777 0.0413367 0.204471
0.412116 0.0509957 0.245747
0.393454 0.0606699 0.287037
0.374777 0.0703441 0.328313
0.356115 0.0800031 0.369589
0.337453 0.0896773 0.410864
0.318791 0.0993362 0.452155
0.30013 0.10901 0.493431
0.281468 0.118669 0.534707
0.262806 0.128344 0.575982
0.244129 0.138003 0.617258
0.225467 0.147677 0.658549
0.206806 0.157336 0.699825
0.188144 0.16701 0.7411
0.169482 0.176684 0.782376
0.15082 0.186343 0.823651
0.132158 0.196017 0.864942
0.113481 0.205676 0.906218
0.0948196 0.215351 0.947494
0.0761578 0.22501 0.988769
0.057496 0.234684 1
0.0388342 0.244343 1
0.0201724 0.254017 1
0.00149538 0.263676 1
0 0.27335 1
0 0.283024 1
0 0.292683 1
0 0.302358 1
0 0.312016 1
0 0.321691 1
0 0.33135 1
0 0.341024 1
0.524346 0.0369573 0.190417
0.505684 0.0466163 0.231678
0.487022 0.0562753 0.272953
0.46836 0.0659495 0.314244
0.449699 0.0756237 0.35552
0.431037 0.0852827 0.396796
0.41236 0.0949569 0.438071
0.393698 0.104616 0.479347
0.375036 0.11429 0.520638
0.356374 0.123949 0.561913
0.337713 0.133623 0.603189
0.319051 0.143282 0.644465
0.300389 0.152956 0.68574
0.281712 0.162615 0.727031
0.26305 0.17229 0.768307
0.244388 0.181964 0.809583
0.225727 0.191623 0.850858
0.207065 0.201297 0.892149
0.188403 0.210956 0.933425
0.169741 0.22063 0.974701
0.151064 0.230289 1
0.132403 0.239963 1
0.113741 0.249622 1
0.095079 0.259297 1
0.0764172 0.268956 1
0.0577554 0.27863 1
0.0390936 0.288304 1
0.0204166 0.297963 1
0.00175479 0.307637 1
0 0.317296 1
0 0.32697 1
0 0.336629 1
0 0.346303 1
0.599252 0.042237 0.217624
0.580591 0.0518959 0.258885
0.561929 0.0615549 0.30016
0.543267 0.0712291 0.341436
0.524605 0.0808881 0.382727
0.505943 0.0905623 0.424002
0.487282 0.100237 0.465278
0.46862 0.109895 0.506554
0.449943 0.11957 0.547845
0.431281 0.129229 0.58912
0.412619 0.138903 0.630396
0.393957 0.148562 0.671672
0.375296 0.158236 0.712947
0.356634 0.167895 0.754238
0.337972 0.177569 0.795514
0.319295 0.187228 0.836789
0.300633 0.196902 0.878065
0.281971 0.206577 0.919341
0.26331 0.216236 0.960632
0.244648 0.22591 1
0.225986 0.235569 1
0.207324 0.245243 1
0.188647 0.254902 1
0.169986 0.264576 1
0.151324 0.274235 1
0.132662 0.283909 1
0.114 0.293568 1
0.0953384 0.303243 1
0.0766766 0.312917 1
0.0579995 0.322576 1
0.0393378 0.33225 1
0.020676 0.341909 1
0.00201419 0.351583 1
0.674159 0.0475166 0.244831
0.655512 0.0571756 0.286091
0.636851 0.0668345 0.327367
0.618173 0.0765087 0.368643
0.599512 0.0861677 0.409934
0.58085 0.0958419 0.451209
0.562188 0.105516 0.492485
0.543526 0.115175 0.533761
0.524865 0.124849 0.575036
0.506203 0.134508 0.616327
0.487526 0.144183 0.657603
0.468864 0.153841 0.698878
0.450202 0.163516 0.740154
0.43154 0.173175 0.78143
0.412879 0.182849 0.822721
0.394217 0.192508 0.863996
0.375555 0.202182 0.905272
0.356878 0.211856 0.946548
0.338216 0.221515 0.987839
0.319554 0.231189 1
0.300893 0.240848 1
0.282231 0.250523 1
0.263569 0.260182 1
0.244907 0.269856 1
0.22623 0.279515 1
0.207568 0.289189 1
0.188907 0.298848 1
0.170245 0.308522 1
0.151583 0.318196 1
0.132921 0.327855 1
0.11426 0.33753 1
0.0955825 0.347189 1
0.0769207 0.356863 1
0.749081 0.0527962 0.272038
0.730419 0.0624552 0.313298
0.711757 0.0721141 0.354574
0.693095 0.0817884 0.39585
0.674434 0.0914473 0.437125
0.655756 0.101122 0.478416
0.637095 0.110796 0.519692
0.618433 0.120455 0.560967
0.599771 0.130129 0.602243
0.581109 0.139788 0.643519
0.562448 0.149462 0.68481
0.543786 0.159121 0.726085
0.525109 0.168795 0.767361
0.506447 0.178454 0.808637
0.487785 0.188128 0.849928
0.469123 0.197787 0.891203
0.450462 0.207462 0.932479
0.4318 0.217136 0.973754
0.413138 0.226795 1
0.394461 0.236469 1
0.375799 0.246128 1
0.357137 0.255802 1
0.338476 0.265461 1
0.319814 0.275135 1
0.301152 0.284794 1
0.28249 0.294469 1
0.263813 0.304128 1
0.245151 0.313802 1
0.22649 0.323476 1
0.207828 0.333135 1
0.189166 0.342809 1
0.170504 0.352468 1
0.151843 0.362142 1
0.823987 0.0580758 0.299245
0.805325 0.0677348 0.340505
0.786664 0.0773938 0.381781
0.768002 0.087068 0.423056
0.74934 0.0967269 0.464332
0.730678 0.106401 0.505608
0.712016 0.11606 0.546899
0.693339 0.125734 0.588174
0.674678 0.135409 0.62945
0.656016 0.145068 0.670726
0.637354 0.154742 0.712016
0.618692 0.164401 0.753292
0.600031 0.174075 0.794568
0.581369 0.183734 0.835843
0.562692 0.193408 0.877119
0.54403 0.203067 0.91841
0.525368 0.212741 0.959686
0.506706 0.2224 1
0.488045 0.232074 1
0.469383 0.241749 1
0.450721 0.251408 1
0.432044 0.261082 1
0.413382 0.270741 1
0.39472 0.280415 1
0.376059 0.290074 1
0.357397 0.299748 1
0.338735 0.309407 1
0.320073 0.319081 1
0.301396 0.32874 1
0.282734 0.338415 1
0.264073 0.348089 1
0.245411 0.357748 1
0.226749 0.367422 1
0.898894 0.0633402 0.326452
0.880247 0.0730144 0.367697
0.86157 0.0826734 0.408988
0.842908 0.0923476 0.450263
0.824247 0.102007 0.491539
0.805585 0.111681 0.532815
0.786923 0.12134 0.574105
0.768261 0.131014 0.615381
0.749599 0.140688 0.656657
0.730922 0.150347 0.697932
0.712261 0.160021 0.739208
0.693599 0.16968 0.780499
0.674937 0.179355 0.821775
0.656275 0.189014 0.86305
0.637613 0.198688 0.904326
0.618952 0.208347 0.945602
0.600275 0.218021 0.986893
0.581613 0.22768 1
0.562951 0.237354 1
0.544289 0.247028 1
0.525628 0.256687 1
0.506966 0.266361 1
0.488304 0.27602 1
0.469627 0.285695 1
0.450965 0.295354 1
0.432303 0.305028 1
0.413642 0.314687 1
0.39498 0.324361 1
0.376318 0.33402 1
0.357656 0.343694 1
0.338979 0.353368 1
0.320317 0.363027 1
0.301656 0.372702 1
0.9738 0.0686198 0.353643
0.955154 0.078294 0.394903
0.936492 0.087953 0.436194
0.91783 0.0976272 0.47747
0.899153 0.107286 0.518746
0.880491 0.11696 0.560021
0.86183 0.126619 0.601297
0.843168 0.136294 0.642588
0.824506 0.145968 0.683864
0.805844 0.155627 0.725139
0.787182 0.165301 0.766415
0.768505 0.17496 0.807691
0.749844 0.184634 0.848981
0.731182 0.194293 0.890257
0.71252 0.203967 0.931533
0.693858 0.213626 0.972808
0.675196 0.223301 1
0.656535 0.232959 1
0.637858 0.242634 1
0.619196 0.252308 1
0.600534 0.261967 1
0.581872 0.271641 1
0.56321 0.2813 1
0.544549 0.290974 1
0.525887 0.300633 1
0.50721 0.310307 1
0.488548 0.319966 1
0.469886 0.329641 1
0.451225 0.3393 1
0.432563 0.348974 1
0.413901 0.358648 1
0.395239 0.368307 1
0.376562 0.377981 1
1 0.0738994 0.38085
1 0.0835737 0.42211
1 0.0932326 0.463386
0.992737 0.102907 0.504677
0.974075 0.112566 0.545953
0.955413 0.12224 0.587228
0.936736 0.131899 0.628504
0.918074 0.141573 0.669795
0.899413 0.151232 0.71107
0.880751 0.160906 0.752346
0.862089 0.170581 0.793622
0.843427 0.18024 0.834897
0.824765 0.189914 0.876188
0.806088 0.199573 0.917464
0.787427 0.209247 0.95874
0.768765 0.218906 1
0.750103 0.22858 1
0.731441 0.238239 1
0.712779 0.247913 1
0.694118 0.257572 1
0.675441 0.267247 1
0.656779 0.276921 1
0.638117 0.28658 1
0.619455 0.296254 1
0.600793 0.305913 1
0.582132 0.315587 1
0.56347 0.325246 1
0.544793 0.33492 1
0.526131 0.344579 1
0.507469 0.354253 1
0.488807 0.363928 1
0.470146 0.373587 1
0.451484 0.383261 1
1 0.0791791 0.408057
1 0.0888533 0.449317
1 0.0985122 0.490593
1 0.108186 0.531884
1 0.117845 0.573159
1 0.12752 0.614435
1 0.137179 0.655711
0.992996 0.146853 0.696986
0.974334 0.156512 0.738277
0.955657 0.166186 0.779553
0.936996 0.17586 0.820829
0.918334 0.185519 0.862104
0.899672 0.195193 0.90338
0.88101 0.204852 0.944671
0.862348 0.214527 0.985946
0.843671 0.224186 1
0.82501 0.23386 1
0.806348 0.243519 1
0.787686 0.253193 1
0.769024 0.262852 1
0.750362 0.272526 1
0.731701 0.2822 1
0.713024 0.291859 1
0.694362 0.301534 1
0.6757 0.311192 1
0.657038 0.320867 1
0.638376 0.330526 1
0.619715 0.3402 1
0.601053 0.349859 1
0.582376 0.359533 1
0.563714 0.369192 1
0.545052 0.378866 1
0.52639 0.38854 1
1 0.0844587 0.435264
1 0.0941329 0.476524
1 0.103792 0.5178
1 0.113466 0.559075
1 0.123125 0.600366
1 0.132799 0.641642
1 0.142458 0.682918
1 0.152132 0.724193
1 0.161791 0.765469
1 0.171466 0.80676
1 0.18114 0.848035
0.99324 0.190799 0.889311
0.974578 0.200473 0.930587
0.955917 0.210132 0.971878
0.937255 0.219806 1
0.918593 0.229465 1
0.899931 0.239139 1
0.881254 0.248798 1
0.862593 0.258473 1
0.843931 0.268132 1
0.825269 0.277806 1
0.806607 0.28748 1
0.787945 0.297139 1
0.769284 0.306813 1
0.750607 0.316472 1
0.731945 0.326146 1
0.713283 0.335805 1
0.694621 0.34548 1
0.675959 0.355138 1
0.657298 0.364813 1
0.638636 0.374472 1
0.619959 0.384146 1
0.601297 0.39382 1
1 0.0897383 0.46247
1 0.0994125 0.503731
1 0.109071 0.545007
1 0.118746 0.586282
1 0.128405 0.627558
1 0.138079 0.668849
1 0.147738 0.710124
1 0.157412 0.7514
1 0.167071 0.792676
1 0.176745 0.833967
1 0.186404 0.875242
1 0.196078 0.916518
1 0.205753 0.957794
1 0.215412 0.999069
1 0.225086 1
0.9935 0.234745 1
0.974838 0.244419 1
0.956176 0.254078 1
0.937514 0.263752 1
0.918853 0.273411 1
0.900175 0.283085 1
0.881514 0.29276 1
0.862852 0.302419 1
0.84419 0.312093 1
0.825528 0.321752 1
0.806867 0.331426 1
0.78819 0.341085 1
0.769528 0.350759 1
0.750866 0.360418 1
0.732204 0.370092 1
0.713542 0.379751 1
0.694881 0.389425 1
0.676219 0.3991 1
1 0.0950179 0.489677
1 0.104692 0.530938
1 0.114351 0.572213
1 0.124025 0.613489
1 0.133684 0.654765
1 0.143359 0.696056
1 0.153017 0.737331
1 0.162692 0.778607
1 0.172351 0.819883
1 0.182025 0.861158
1 0.191684 0.902449
1 0.201358 0.943725
1 0.211032 0.985
1 0.220691 1
1 0.230365 1
1 0.240024 1
1 0.249699 1
1 0.259358 1
1 0.269032 1
0.993759 0.278691 1
0.975097 0.288365 1
0.956436 0.298024 1
0.937758 0.307698 1
0.919097 0.317372 1
0.900435 0.327031 1
0.881773 0.336706 1
0.863111 0.346365 1
0.84445 0.356039 1
0.825772 0.365698 1
0.807111 0.375372 1
0.788449 0.385031 1
0.769787 0.394705 1
0.751125 0.404364 1
1 0.100298 0.516884
1 0.109972 0.558145
1 0.119631 0.59942
1 0.129305 0.640696
1 0.138964 0.681971
1 0.148638 0.723247
1 0.158297 0.764538
1 0.167971 0.805814
1 0.17763 0.847089
1 0.187304 0.888365
1 0.196963 0.929641
1 0.206638 0.970932
1 0.216312 1
1 0.225971 1
1 0.235645 1
1 0.245304 1
1 0.254978 1
1 0.264637 1
1 0.274311 1
1 0.28397 1
1 0.293645 1
1 0.303304 1
1 0.312978 1
0.994018 0.322652 1
0.975341 0.332311 1
0.95668 0.341985 1
0.938018 0.351644 1
0.919356 0.361318 1
0.900694 0.370977 1
0.882033 0.380652 1
0.863371 0.390311 1
0.844694 0.399985 1
0.826032 0.409644 1
1 0.105577 0.544091
1 0.115236 0.585336
1 0.12491 0.626627
1 0.134585 0.667903
1 0.144244 0.709178
1 0.153918 0.750454
1 0.163577 0.791745
1 0.173251 0.833021
1 0.18291 0.874296
1 0.192584 0.915572
1 0.202243 0.956847
1 0.211917 0.998138
1 0.221576 1
1 0.23125 1
1 0.240925 1
1 0.250584 1
1 0.260258 1
1 0.269917 1
1 0.279591 1
1 0.28925 1
1 0.298924 1
1 0.308583 1
1 0.318257 1
1 0.327932 1
1 0.337591 1
1 0.347265 1
1 0.356924 1
0.994263 0.366598 1
0.975601 0.376257 1
0.956939 0.385931 1
0.938277 0.39559 1
0.919615 0.405264 1
0.900954 0.414923 1
1 0.110857 0.571283
1 0.120516 0.612543
1 0.13019 0.653834
1 0.139864 0.695109
1 0.149523 0.736385
1 0.159197 0.777661
1 0.168856 0.818936
1 0.178531 0.860227
1 0.18819 0.901503
1 0.197864 0.942779
1 0.207523 0.984054
1 0.217197 1
1 0.226856 1
1 0.23653 1
1 0.246204 1
1 0.255863 1
1 0.265538 1
1 0.275196 1
1 0.284871 1
1 0.29453 1
1 0.304204 1
1 0.313863 1
1 0.323537 1
1 0.333196 1
1 0.34287 1
1 0.352544 1
1 0.362203 1
1 0.371878 1
1 0.381537 1
1 0.391211 1
1 0.40087 1
0.994522 0.410544 1
0.97586 0.420203 1
1 0.116136 0.598489
1 0.125795 0.63975
1 0.13547 0.681025
1 0.145144 0.722316
1 0.154803 0.763592
1 0.164477 0.804868
1 0.174136 0.846143
1 0.18381 0.887419
1 0.193469 0.92871
1 0.203143 0.969985
1 0.212802 1
1 0.222477 1
1 0.232136 1
1 0.24181 1
1 0.251484 1
1 0.261143 1
1 0.270817 1
1 0.280476 1
1 0.29015 1
1 0.299809 1
1 0.309483 1
1 0.319142 1
1 0.328817 1
1 0.338476 1
1 0.34815 1
1 0.357824 1
1 0.367483 1
1 0.377157 1
1 0.386816 1
1 0.39649 1
1 0.406149 1
1 0.415824 1
1 0.425483 1
1 0.121416 0.625696
1 0.131075 0.666957
1 0.140749 0.708232
1 0.150408 0.749508
1 0.160082 0.790799
1 0.169757 0.832074
1 0.179416 0.87335
1 0.18909 0.914626
1 0.198749 0.955917
1 0.208423 0.997192
1 0.218082 1
1 0.227756 1
1 0.237415 1
1 0.247089 1
1 0.256764 1
1 0.266423 1
1 0.276097 1
1 0.285756 1
1 0.29543 1
1 0.305089 1
1 0.314763 1
1 0.324422 1
1 0.334096 1
1 0.343755 1
1 0.353429 1
1 0.363104 1
1 0.372763 1
1 0.382437 1
1 0.392096 1
1 0.40177 1
1 0.411429 1
1 0.421103 1
1 0.430762 1
1 0.126696 0.652903
1 0.136355 0.694163
1 0.146029 0.735439
1 0.155688 0.776715
1 0.165362 0.818006
1 0.175036 0.859281
1 0.184695 0.900557
1 0.194369 0.941833
1 0.204028 0.983108
1 0.213703 1
1 0.223362 1
1 0.233036 1
1 0.242695 1
1 0.252369 1
1 0.262028 1
1 0.271702 1
1 0.281376 1
1 0.291035 1
1 0.30071 1
1 0.310369 1
1 0.320043 1
1 0.329702 1
1 0.339376 1
1 0.349035 1
1 0.358709 1
1 0.368368 1
1 0.378042 1
1 0.387717 1
1 0.397375 1
1 0.40705 1
1 0.416709 1
1 0.426383 1
1 0.436042 1
1 0.131975 0.68011
1 0.141634 0.72137
1 0.151308 0.762646
1 0.160967 0.803922
1 0.170642 0.845197
1 0.180316 0.886488
1 0.189975 0.927764
1 0.199649 0.969039
1 0.209308 1
1 0.218982 1
1 0.228641 1
1 0.238315 1
1 0.247974 1
1 0.257649 1
1 0.267308 1
1 0.276982 1
1 0.286656 1
1 0.296315 1
1 0.305989 1
1 0.315648 1
1 0.325322 1
1 0.334981 1
1 0.344656 1
1 0.354314 1
1 0.363989 1
1 0.373648 1
1 0.383322 1
1 0.392996 1
1 0.402655 1
1 0.412329 1
1 0.421988 1
1 0.431662 1
1 0.441321 1
1 0.137255 0.707317
1 0.146914 0.748577
1 0.156588 0.789853
1 0.166247 0.831128
1 0.175921 0.872404
1 0.18558 0.913695
1 0.195254 0.954971
1 0.204929 0.996246
1 0.214588 1
1 0.224262 1
1 0.233921 1
1 0.243595 1
1 0.253254 1
1 0.262928 1
1 0.272587 1
1 0.282261 1
1 0.291936 1
1 0.301595 1
1 0.311269 1
1 0.320928 1
1 0.330602 1
1 0.340261 1
1 0.349935 1
1 0.359594 1
1 0.369268 1
1 0.378927 1
1 0.388602 1
1 0.398276 1
1 0.407935 1
1 0.417609 1
1 0.427268 1
1 0.436942 1
1 0.446601 1
1 0.142535 0.734524
1 0.152193 0.775784
1 0.161868 0.81706
1 0.171527 0.858335
1 0.181201 0.899611
1 0.19086 0.940887
1 0.200534 0.982177
1 0.210208 1
1 0.219867 1
