public/LUTS/Color Shift/ColorShift_91.cube
TITLE "Generated by Resolve"
LUT_3D_SIZE 9
0 0 0
0 0.0245975 0.185061
0 0.0491951 0.370153
0 0.0738079 0.555245
0 0.0984054 0.740322
0 0.123003 0.925414
0 0.147601 1
0 0.172213 1
0 0.196811 1
0.29868 0.0281224 0.0565194
0.262364 0.0527199 0.241581
0.226047 0.0773175 0.426673
0.189715 0.101915 0.611749
0.153399 0.126513 0.796841
0.117067 0.151125 0.981933
0.0807507 0.175723 1
0.0444343 0.20032 1
0.00810254 0.224918 1
0.597391 0.0562295 0.113039
0.561074 0.080827 0.2981
0.524758 0.10544 0.483192
0.488441 0.130037 0.668284
0.45211 0.154635 0.853361
0.415793 0.179232 1
0.379461 0.203845 1
0.343145 0.228443 1
0.306828 0.25304 1
0.896117 0.0843519 0.169558
0.8598 0.108949 0.35462
0.823468 0.133547 0.539712
0.787152 0.15816 0.724804
0.750835 0.182757 0.90988
0.714504 0.207355 1
0.678187 0.231952 1
0.641855 0.256565 1
0.605539 0.281163 1
1 0.112474 0.226078
1 0.137072 0.411154
1 0.161669 0.596231
1 0.186267 0.781323
1 0.21088 0.966415
1 0.235477 1
0.976898 0.260075 1
0.940581 0.284672 1
0.90425 0.309285 1
1 0.140597 0.282612
1 0.165194 0.467674
1 0.189792 0.652766
1 0.214389 0.837842
1 0.238987 1
1 0.2636 1
1 0.288197 1
1 0.312795 1
1 0.337392 1
1 0.168704 0.339132
1 0.193301 0.524193
1 0.217914 0.709285
1 0.242512 0.894362
1 0.267109 1
1 0.291707 1
1 0.31632 1
1 0.340917 1
1 0.365515 1
1 0.196826 0.395651
1 0.221424 0.580713
1 0.246021 0.765805
1 0.270634 0.950896
1 0.295232 1
1 0.319829 1
1 0.344427 1
1 0.369039 1
1 0.393637 1
1 0.224948 0.452171
1 0.249546 0.637232
1 0.274144 0.822324
1 0.298741 1
1 0.323354 1
1 0.347951 1
1 0.372549 1
1 0.397147 1
1 0.421759 1
0 0.0722667 0
0 0.0968643 0.0684672
0 0.121477 0.253559
0 0.146075 0.438651
0 0.170672 0.623728
0 0.19527 0.80882
0 0.219883 0.993912
0 0.24448 1
0 0.269078 1
0.161303 0.100389 0
0.124987 0.124987 0.124987
0.0886702 0.149584 0.310079
0.0523384 0.174182 0.495155
0.016022 0.198795 0.680247
0 0.223392 0.865339
0 0.24799 1
0 0.272587 1
0 0.2972 1
0.460029 0.128511 0
0.423697 0.153109 0.181506
0.387381 0.177707 0.366598
0.351064 0.202304 0.55169
0.314733 0.226902 0.736767
0.278416 0.251514 0.921859
0.242084 0.276112 1
0.205768 0.30071 1
0.169451 0.325307 1
0.75874 0.156619 0.0529641
0.722423 0.181216 0.238025
0.686091 0.205829 0.423117
0.649775 0.230426 0.608209
0.613458 0.255024 0.793301
0.577127 0.279622 0.978378
0.54081 0.304234 1
0.504479 0.328832 1
0.468162 0.353429 1
1 0.184741 0.109483
1 0.209339 0.29456
0.984817 0.233936 0.479637
0.948486 0.258549 0.664729
0.912169 0.283146 0.849821
0.875853 0.307744 1
0.839521 0.332341 1
0.803204 0.356954 1
0.766873 0.381552 1
1 0.212863 0.166018
1 0.237461 0.35108
1 0.262058 0.536171
1 0.286656 0.721248
1 0.311269 0.90634
1 0.335866 1
1 0.360464 1
1 0.385061 1
1 0.409674 1
1 0.240986 0.222538
1 0.265583 0.407599
1 0.290181 0.592691
1 0.314778 0.777768
1 0.339376 0.96286
1 0.363989 1
1 0.388586 1
1 0.413184 1
1 0.437781 1
1 0.269093 0.279057
1 0.29369 0.464118
1 0.318303 0.64921
1 0.342901 0.834302
1 0.367498 1
1 0.392096 1
1 0.416709 1
1 0.441306 1
1 0.465904 1
1 0.297215 0.335576
1 0.321813 0.520638
1 0.34641 0.70573
1 0.371023 0.890822
1 0.395621 1
1 0.420218 1
1 0.444816 1
1 0.469429 1
1 0.494026 1
0 0.144549 0
0 0.169146 0
0 0.193759 0.13695
0 0.218357 0.322042
0 0.242954 0.507118
0 0.267552 0.69221
0 0.292165 0.877302
0 0.316762 1
0 0.34136 1
0.0239109 0.172671 0
0 0.197269 0.0083772
0 0.221866 0.193469
0 0.246479 0.378546
0 0.271077 0.563638
0 0.295674 0.74873
0 0.320272 0.933822
0 0.344869 1
0 0.369482 1
0.322637 0.200793 0
0.286305 0.225391 0.0648966
0.249989 0.249989 0.249989
0.213672 0.274586 0.43508
0.17734 0.299184 0.620157
0.141024 0.323796 0.805249
0.104692 0.348394 0.990341
0.0683757 0.372992 1
0.0320592 0.397589 1
0.621347 0.228901 0
0.585031 0.253498 0.121431
0.548699 0.278111 0.306508
0.512383 0.302708 0.4916
0.476066 0.327306 0.676692
0.439734 0.351904 0.861769
0.403418 0.376516 1
0.367086 0.401114 1
0.33077 0.425711 1
0.920058 0.257023 0
0.883741 0.281621 0.177951
0.847425 0.306218 0.363027
0.811093 0.330831 0.548119
0.774777 0.355428 0.733211
0.73846 0.380026 0.918303
0.702129 0.404623 1
0.665812 0.429236 1
0.62948 0.453834 1
1 0.285145 0.0494087
1 0.309743 0.23447
1 0.33434 0.419562
1 0.358938 0.604639
1 0.383551 0.789731
1 0.408148 0.974823
1 0.432746 1
0.964523 0.457343 1
0.928206 0.481956 1
1 0.313268 0.105928
1 0.337865 0.29099
1 0.362463 0.476081
1 0.38706 0.661173
1 0.411658 0.84625
1 0.436271 1
1 0.460868 1
1 0.485466 1
1 0.510063 1
1 0.341375 0.162448
1 0.365972 0.347509
1 0.390585 0.532601
1 0.415183 0.717693
1 0.43978 0.90277
1 0.464378 1
1 0.488991 1
1 0.513588 1
1 0.538186 1
1 0.369497 0.218967
1 0.394095 0.404044
1 0.418692 0.58912
1 0.443305 0.774212
1 0.467903 0.959304
1 0.4925 1
1 0.517098 1
1 0.541711 1
1 0.566308 1
0 0.216831 0
0 0.241428 0
0 0.266041 0.0203403
0 0.290639 0.205432
0 0.315236 0.390524
0 0.339834 0.575601
0 0.364446 0.760693
0 0.389044 0.945785
0 0.413642 1
0 0.244953 0
0 0.269551 0
0 0.294148 0.0768597
0 0.318761 0.261952
0 0.343359 0.447028
0 0.367956 0.63212
0 0.392554 0.817212
0 0.417151 1
0 0.441764 1
0.185229 0.273075 0
0.148913 0.297673 0
0.112596 0.322271 0.133379
0.0762798 0.346868 0.318471
0.0399481 0.371481 0.503548
0.00363165 0.396078 0.68864
0 0.420676 0.873732
0 0.445274 1
0 0.469871 1
0.483955 0.301183 0
0.447639 0.325795 0.00482185
0.411307 0.350393 0.189899
0.37499 0.37499 0.37499
0.338674 0.399588 0.560082
0.302342 0.424186 0.745159
0.266026 0.448798 0.930251
0.229694 0.473396 1
0.193378 0.497993 1
0.782666 0.329305 0
0.746349 0.353902 0.0613413
0.710033 0.3785 0.246433
0.673701 0.403113 0.43151
0.637385 0.42771 0.616602
0.601068 0.452308 0.801694
0.564736 0.476905 0.98677
0.52842 0.501518 1
0.492088 0.526116 1
1 0.357427 0
1 0.382025 0.117861
1 0.406622 0.302953
0.972427 0.43122 0.488029
0.936095 0.455833 0.673121
0.899779 0.48043 0.858213
0.863462 0.505028 1
0.827131 0.529625 1
0.790814 0.554238 1
1 0.38555 0
1 0.410147 0.17438
1 0.434745 0.359472
1 0.459342 0.544564
1 0.48394 0.729641
1 0.508553 0.914733
1 0.53315 1
1 0.557748 1
1 0.582345 1
1 0.413657 0.0458381
1 0.438254 0.2309
1 0.462867 0.415991
1 0.487465 0.601083
1 0.512062 0.786175
1 0.53666 0.971252
1 0.561273 1
1 0.58587 1
1 0.610468 1
1 0.441779 0.102358
1 0.466377 0.287434
1 0.490974 0.472511
1 0.515587 0.657603
1 0.540185 0.842695
1 0.564782 1
1 0.58938 1
1 0.613993 1
1 0.63859 1
0 0.289113 0
0 0.31371 0
0 0.338323 0
0 0.362921 0.0888228
0 0.387518 0.273915
0 0.412116 0.458991
0 0.436728 0.644083
0 0.461326 0.829175
0 0.485924 1
0 0.317235 0
0 0.341833 0
0 0.36643 0
0 0.391043 0.145342
0 0.415641 0.330419
0 0.440238 0.515511
0 0.464836 0.700603
0 0.489448 0.885679
0 0.514046 1
0.047837 0.345357 0
0.0115206 0.369955 0
0 0.394553 0.0167697
0 0.41915 0.201862
0 0.443763 0.386954
0 0.46836 0.57203
0 0.492958 0.757122
0 0.517555 0.942214
0 0.542153 1
0.346563 0.373465 0
0.310246 0.398077 0
0.273915 0.422675 0.0732891
0.237598 0.447272 0.258381
0.201282 0.47187 0.443473
0.16495 0.496483 0.62855
0.128634 0.52108 0.813642
0.0923018 0.545678 0.998734
0.0559854 0.570275 1
0.645274 0.401587 0
0.608957 0.426184 0
0.572641 0.450797 0.129824
0.536309 0.475395 0.3149
0.499992 0.499992 0.499992
0.463676 0.52459 0.685084
0.427344 0.549187 0.870161
0.391028 0.5738 1
0.354696 0.598398 1
0.943999 0.429709 0
0.907683 0.454307 0.00125124
0.871351 0.478904 0.186343
0.835035 0.503502 0.371435
0.798703 0.528115 0.556512
0.762387 0.552712 0.741604
0.72607 0.57731 0.926696
0.689738 0.601907 1
0.653422 0.62652 1
1 0.457832 0
1 0.482429 0.0577707
1 0.507027 0.242863
1 0.531624 0.427955
1 0.556222 0.613031
1 0.580835 0.798123
1 0.605432 0.983215
0.988464 0.63003 1
0.952132 0.654627 1
1 0.485939 0
1 0.510536 0.114305
1 0.535149 0.299382
1 0.559747 0.484474
1 0.584344 0.669566
1 0.608942 0.854643
1 0.633555 1
1 0.658152 1
1 0.68275 1
1 0.514061 0
1 0.538659 0.170825
1 0.563256 0.355901
1 0.587869 0.540993
1 0.612467 0.726085
1 0.637064 0.911177
1 0.661662 1
1 0.686275 1
1 0.710872 1
0 0.361395 0
0 0.386007 0
0 0.410605 0
0 0.435203 0
0 0.4598 0.157305
0 0.484398 0.342382
0 0.50901 0.527474
0 0.533608 0.712566
0 0.558206 0.897658
0 0.389517 0
0 0.414115 0
0 0.438712 0
0 0.463325 0.0287327
0 0.487922 0.213809
0 0.51252 0.398901
0 0.537118 0.583993
0 0.56173 0.769085
0 0.586328 0.954162
0 0.417639 0
0 0.442237 0
0 0.466835 0
0 0.491432 0.0852522
0 0.516045 0.270344
0 0.540642 0.455421
0 0.56524 0.640513
0 0.589837 0.825605
0 0.61445 1
0.209171 0.445747 0
0.172854 0.470359 0
0.136522 0.494957 0
0.100206 0.519554 0.141772
0.0638895 0.544152 0.326863
0.0275578 0.568765 0.511955
0 0.593362 0.697032
0 0.61796 0.882124
0 0.642557 1
0.507881 0.473869 0
0.471565 0.498466 0
0.435248 0.523079 0.0132143
0.398917 0.547677 0.198291
0.3626 0.572274 0.383383
0.326284 0.596872 0.568475
0.289952 0.621485 0.753567
0.253635 0.646082 0.938643
0.217304 0.67068 1
0.806607 0.501991 0
0.770291 0.526589 0
0.733959 0.551186 0.0697337
0.697643 0.575799 0.254826
0.661311 0.600397 0.439902
0.624994 0.624994 0.624994
0.588678 0.649592 0.810086
0.552346 0.674189 0.995163
0.51603 0.698802 1
1 0.530114 0
1 0.554711 0
1 0.579309 0.126253
0.996353 0.603906 0.311345
0.960037 0.628504 0.496437
0.923705 0.653117 0.681514
0.887388 0.677714 0.866606
0.851072 0.702312 1
0.81474 0.726909 1
1 0.558221 0
1 0.582834 0
1 0.607431 0.182773
1 0.632029 0.367864
1 0.656626 0.552956
1 0.681224 0.738033
1 0.705837 0.923125
1 0.730434 1
1 0.755032 1
1 0.586343 0
1 0.610941 0.0542153
1 0.635538 0.239307
1 0.660151 0.424384
1 0.684749 0.609476
1 0.709346 0.794568
1 0.733944 0.979644
1 0.758556 1
1 0.783154 1
0 0.433677 0
0 0.458289 0
0 0.482887 0
0 0.507485 0
0 0.532082 0.0406958
0 0.556695 0.225788
0 0.581292 0.410864
0 0.60589 0.595956
0 0.630488 0.781048
0 0.461799 0
0 0.486397 0
0 0.510994 0
0 0.535607 0
0 0.560204 0.0972152
0 0.584802 0.282292
0 0.6094 0.467384
0 0.634012 0.652476
0 0.65861 0.837552
0 0.489921 0
0 0.514519 0
0 0.539117 0
0 0.563714 0
0 0.588327 0.153735
0 0.612924 0.338811
0 0.637522 0.523903
0 0.66212 0.708995
0 0.686732 0.894087
0.0717784 0.518029 0
0.035462 0.542641 0
0 0.567239 0
0 0.591836 0.0251621
0 0.616434 0.210254
0 0.641047 0.395346
0 0.665644 0.580423
0 0.690242 0.765515
0 0.714839 0.950607
0.370489 0.546151 0
0.334173 0.570748 0
0.297856 0.595361 0
0.261524 0.619959 0.0816968
0.225208 0.644556 0.266773
0.188891 0.669154 0.451865
0.15256 0.693767 0.636957
0.116243 0.718364 0.822034
0.0799115 0.742962 1
0.669215 0.574273 0
0.632898 0.598871 0
0.596567 0.623468 0
0.56025 0.648081 0.138216
0.523919 0.672679 0.323293
0.487602 0.697276 0.508385
0.451286 0.721874 0.693477
0.414954 0.746487 0.878553
0.378637 0.771084 1
0.967926 0.602396 0
0.931609 0.626993 0
0.895293 0.651591 0.0096437
0.858961 0.676188 0.194736
0.822644 0.700801 0.379828
0.786313 0.725399 0.564904
0.749996 0.749996 0.749996
0.71368 0.774594 0.935088
0.677348 0.799191 1
1 0.630503 0
1 0.655116 0
1 0.679713 0.0661631
1 0.704311 0.251255
1 0.728908 0.436347
1 0.753521 0.621439
1 0.778119 0.806516
1 0.802716 0.991608
0.976074 0.827314 1
1 0.658625 0
1 0.683223 0
1 0.707835 0.122698
1 0.732433 0.307774
1 0.757031 0.492866
1 0.781628 0.677958
1 0.806226 0.863035
1 0.830839 1
1 0.855436 1
0 0.505959 0
0 0.530571 0
0 0.555169 0
0 0.579767 0
0 0.604364 0
0 0.628977 0.109178
0 0.653574 0.294255
0 0.678172 0.479347
0 0.70277 0.664439
0 0.534081 0
0 0.558679 0
0 0.583276 0
0 0.607889 0
0 0.632486 0
0 0.657084 0.165682
0 0.681682 0.350774
0 0.706294 0.535866
0 0.730892 0.720943
0 0.562203 0
0 0.586801 0
0 0.611399 0
0 0.635996 0
0 0.660609 0.0371252
0 0.685206 0.222217
0 0.709804 0.407294
0 0.734401 0.592386
0 0.759014 0.777478
0 0.590311 0
0 0.614923 0
0 0.639521 0
0 0.664118 0
0 0.688716 0.0936446
0 0.713329 0.278737
0 0.737926 0.463813
0 0.762524 0.648905
0 0.787121 0.833997
0.233097 0.618433 0
0.19678 0.64303 0
0.160464 0.667643 0
0.124132 0.692241 0
0.0878157 0.716838 0.150164
0.0514992 0.741436 0.335256
0.0151675 0.766049 0.520348
0 0.790646 0.705425
0 0.815244 0.890517
0.531823 0.646555 0
0.495506 0.671153 0
0.459174 0.69575 0
0.422858 0.720363 0.0216068
0.386526 0.744961 0.206699
0.35021 0.769558 0.391775
0.313893 0.794156 0.576867
0.277562 0.818769 0.761959
0.241245 0.843366 0.947036
0.830533 0.674678 0
0.794217 0.699275 0
0.7579 0.723873 0
0.721569 0.74847 0.0781262
0.685252 0.773083 0.263218
0.64892 0.797681 0.448295
0.612604 0.822278 0.633387
0.576288 0.846876 0.818479
0.539956 0.871473 1
1 0.702785 0
1 0.727398 0
1 0.751995 0
1 0.776593 0.134646
0.983963 0.80119 0.319738
0.947646 0.825803 0.504829
0.911315 0.850401 0.689906
0.874998 0.874998 0.874998
0.838682 0.899596 1
1 0.730907 0
1 0.755505 0
1 0.780118 0.00608835
1 0.804715 0.191165
1 0.829313 0.376257
1 0.85391 0.561349
1 0.878508 0.746441
1 0.90312 0.931517
1 0.927718 1
0 0.578241 0
0 0.602853 0
0 0.627451 0
0 0.652049 0
0 0.676646 0
0 0.701259 0
0 0.725856 0.177646
0 0.750454 0.362737
0 0.775051 0.547829
0 0.606363 0
0 0.630961 0
0 0.655558 0
0 0.680171 0
0 0.704768 0
0 0.729366 0.049073
0 0.753964 0.234165
0 0.778576 0.419257
0 0.803174 0.604349
0 0.634485 0
0 0.659083 0
0 0.68368 0
0 0.708278 0
0 0.732891 0
0 0.757488 0.105608
0 0.782086 0.290684
0 0.806683 0.475776
0 0.831296 0.660868
0 0.662593 0
0 0.687205 0
0 0.711803 0
0 0.7364 0
0 0.760998 0
0 0.785611 0.162127
0 0.810208 0.347219
0 0.834806 0.532296
0 0.859403 0.717388
0.0957046 0.690715 0
0.0593881 0.715312 0
0.0230716 0.739925 0
0 0.764523 0
0 0.78912 0.0335546
0 0.813718 0.218647
0 0.838331 0.403738
0 0.862928 0.588815
0 0.887526 0.773907
0.39443 0.718837 0
0.358114 0.743435 0
0.321782 0.768032 0
0.285466 0.792645 0
0.249134 0.817243 0.0900893
0.212818 0.84184 0.275166
0.176501 0.866438 0.460258
0.140169 0.891051 0.64535
0.103853 0.915648 0.830427
0.693141 0.74696 0
0.656825 0.771557 0
0.620508 0.796155 0
0.584176 0.820752 0
0.54786 0.845365 0.146609
0.511528 0.869963 0.331701
0.475212 0.89456 0.516777
0.438895 0.919158 0.701869
0.402564 0.943771 0.886961
0.991852 0.775067 0
0.955535 0.79968 0
0.919219 0.824277 0
0.882902 0.848875 0.0180362
0.846571 0.873472 0.203128
0.810254 0.898085 0.38822
0.773922 0.922683 0.573297
0.737606 0.94728 0.758389
0.701289 0.971878 0.943481
1 0.803189 0
1 0.827787 0
1 0.852399 0
1 0.876997 0.0745708
1 0.901595 0.259648
1 0.926192 0.444739
1 0.95079 0.629831
1 0.975402 0.814908
1 1 1
