public/LUTS/Color Shift/ColorShift_16.cube
TITLE "Generated by Resolve"
LUT_3D_SIZE 33
0 0 0
0.00953689 0.00885023 0
0.019089 0.0177157 0
0.0286412 0.026566 0
0.0381933 0.0354314 0
0.0477455 0.0442817 0
0.0572824 0.0531472 0
0.0668345 0.0620127 0
0.0763867 0.0708629 0
0.0859388 0.0797284 0
0.095491 0.0885786 0
0.105028 0.0974441 0
0.11458 0.106294 0
0.124132 0.11516 0
0.133684 0.12401 0
0.143236 0.132876 0
0.152773 0.141741 0
0.162325 0.150591 0
0.171878 0.159457 0
0.18143 0.168307 0
0.190982 0.177172 0
0.200519 0.186023 0
0.210071 0.194888 0
0.219623 0.203738 0
0.229175 0.212604 0
0.238727 0.221469 0
0.248264 0.23032 0
0.257816 0.239185 0
0.267369 0.248035 0
0.276921 0.256901 0
0.286473 0.265751 0
0.29601 0.274617 0
0.305562 0.283467 0
0 0.0290227 0.033814
0.0024567 0.0378729 0.0155642
0.0119936 0.0467231 0
0.0215457 0.0555886 0
0.0310979 0.0644388 0
0.04065 0.0733043 0
0.0502022 0.0821698 0
0.0597391 0.0910201 0
0.0692912 0.0998856 0
0.0788434 0.108736 0
0.0883955 0.117601 0
0.0979477 0.126452 0
0.107485 0.135317 0
0.117037 0.144167 0
0.126589 0.153033 0
0.136141 0.161898 0
0.145693 0.170748 0
0.15523 0.179614 0
0.164782 0.188464 0
0.174334 0.19733 0
0.183886 0.20618 0
0.193439 0.215045 0
0.202976 0.223896 0
0.212528 0.232761 0
0.22208 0.241627 0
0.231632 0.250477 0
0.241184 0.259342 0
0.250721 0.268193 0
0.260273 0.277058 0
0.269825 0.285908 0
0.279377 0.294774 0
0.28893 0.303624 0
0.298466 0.31249 0
0 0.0580453 0.0676585
0 0.0668956 0.0493935
0.00489815 0.075761 0.0311284
0.0144503 0.0846113 0.0128634
0.0240024 0.0934768 0
0.0335546 0.102327 0
0.0430915 0.111192 0
0.0526436 0.120058 0
0.0621958 0.128908 0
0.0717479 0.137774 0
0.0813001 0.146624 0
0.090837 0.155489 0
0.100389 0.16434 0
0.109941 0.173205 0
0.119493 0.182055 0
0.129046 0.190921 0
0.138582 0.199786 0
0.148135 0.208637 0
0.157687 0.217502 0
0.167239 0.226352 0
0.176791 0.235218 0
0.186328 0.244068 0
0.19588 0.252934 0
0.205432 0.261784 0
0.214984 0.270649 0
0.224537 0.279515 0
0.234073 0.288365 0
0.243626 0.29723 0
0.253178 0.306081 0
0.26273 0.314946 0
0.272282 0.323796 0
0.281819 0.332662 0
0.291371 0.341512 0
0 0.087068 0.101488
0 0.0959335 0.083238
0 0.104784 0.0649729
0.00735485 0.113649 0.0467079
0.016907 0.122499 0.0284428
0.0264439 0.131365 0.0101778
0.035996 0.140215 0
0.0455482 0.149081 0
0.0551003 0.157946 0
0.0646525 0.166796 0
0.0741894 0.175662 0
0.0837415 0.184512 0
0.0932937 0.193378 0
0.102846 0.202228 0
0.112398 0.211093 0
0.121935 0.219944 0
0.131487 0.228809 0
0.141039 0.237675 0
0.150591 0.246525 0
0.160143 0.25539 0
0.16968 0.26424 0
0.179232 0.273106 0
0.188785 0.281956 0
0.198337 0.290822 0
0.207889 0.299672 0
0.217426 0.308537 0
0.226978 0.317403 0
0.23653 0.326253 0
0.246082 0.335119 0
0.255634 0.343969 0
0.265171 0.352834 0
0.274723 0.361685 0
0.284276 0.37055 0
0 0.116106 0.135332
0 0.124956 0.117067
0 0.133822 0.0988022
0.000259403 0.142672 0.0805371
0.00979629 0.151537 0.0622721
0.0193484 0.160388 0.044007
0.0289006 0.169253 0.025742
0.0384527 0.178119 0.00747692
0.0480049 0.186969 0
0.0575418 0.195834 0
0.0670939 0.204685 0
0.0766461 0.21355 0
0.0861982 0.2224 0
0.0957504 0.231266 0
0.105287 0.240116 0
0.114839 0.248981 0
0.124392 0.257832 0
0.133944 0.266697 0
0.143496 0.275563 0
0.153033 0.284413 0
0.162585 0.293278 0
0.172137 0.302129 0
0.181689 0.310994 0
0.191241 0.319844 0
0.200778 0.32871 0
0.21033 0.33756 0
0.219883 0.346426 0
0.229435 0.355291 0
0.238987 0.364141 0
0.248524 0.373007 0
0.258076 0.381857 0
0.267628 0.390723 0
0.27718 0.399573 0
0 0.145129 0.169162
0 0.153994 0.150912
0 0.162844 0.132647
0 0.17171 0.114382
0.00270085 0.18056 0.0961166
0.012253 0.189425 0.0778515
0.0218051 0.198276 0.0595865
0.0313573 0.207141 0.0413214
0.0409094 0.216007 0.0230564
0.0504463 0.224857 0.00479133
0.0599985 0.233722 0
0.0695506 0.242573 0
0.0791028 0.251438 0
0.0886549 0.260288 0
0.0981918 0.269154 0
0.107744 0.278004 0
0.117296 0.28687 0
0.126848 0.295735 0
0.1364 0.304585 0
0.145937 0.313451 0
0.155489 0.322301 0
0.165042 0.331167 0
0.174594 0.340017 0
0.184146 0.348882 0
0.193683 0.357733 0
0.203235 0.366598 0
0.212787 0.375448 0
0.222339 0.384314 0
0.231876 0.393179 0
0.241428 0.402029 0
0.25098 0.410895 0
0.260533 0.419745 0
0.270085 0.428611 0
0 0.174166 0.202991
0 0.183017 0.184741
0 0.191882 0.166476
0 0.200732 0.148211
0 0.209598 0.129946
0.00515755 0.218448 0.111681
0.0147097 0.227314 0.0934157
0.0242618 0.236164 0.0751507
0.0337987 0.245029 0.0568856
0.0433509 0.253895 0.0386206
0.052903 0.262745 0.0203555
0.0624552 0.271611 0.00209049
0.0720073 0.280461 0
0.0815442 0.289326 0
0.0910964 0.298177 0
0.100649 0.307042 0
0.110201 0.315892 0
0.119753 0.324758 0
0.12929 0.333623 0
0.138842 0.342473 0
0.148394 0.351339 0
0.157946 0.360189 0
0.167498 0.369055 0
0.177035 0.377905 0
0.186587 0.38677 0
0.196139 0.395621 0
0.205692 0.404486 0
0.215244 0.413352 0
0.224781 0.422202 0
0.234333 0.431067 0
0.243885 0.439918 0
0.253437 0.448783 0
0.262989 0.457633 0
0 0.203189 0.236835
0 0.212055 0.21857
0 0.220905 0.200305
0 0.22977 0.18204
0 0.238621 0.163775
0 0.247486 0.14551
0.00761425 0.256336 0.127245
0.0171511 0.265202 0.10898
0.0267033 0.274052 0.0907149
0.0362554 0.282918 0.0724498
0.0458076 0.291783 0.0541848
0.0553597 0.300633 0.0359197
0.0648966 0.309499 0.0176547
0.0744488 0.318349 0
0.0840009 0.327214 0
0.0935531 0.336065 0
0.103105 0.34493 0
0.112642 0.35378 0
0.122194 0.362646 0
0.131746 0.371511 0
0.141299 0.380362 0
0.150851 0.389227 0
0.160388 0.398077 0
0.16994 0.406943 0
0.179492 0.415793 0
0.189044 0.424659 0
0.198596 0.433509 0
0.208133 0.442374 0
0.217685 0.45124 0
0.227237 0.46009 0
0.236789 0.468956 0
0.246342 0.477806 0
0.255879 0.486671 0
0 0.232227 0.270665
0 0.241077 0.252415
0 0.249943 0.23415
0 0.258793 0.215885
0 0.267659 0.19762
0 0.276509 0.179355
0.000503548 0.285374 0.161089
0.0100557 0.294224 0.142824
0.0196078 0.30309 0.124559
0.02916 0.31194 0.106294
0.0387121 0.320806 0.0880293
0.048249 0.329671 0.0697642
0.0578012 0.338521 0.0514992
0.0673533 0.347387 0.0332341
0.0769055 0.356237 0.0149691
0.0864576 0.365103 0
0.0959945 0.373953 0
0.105547 0.382818 0
0.115099 0.391669 0
0.124651 0.400534 0
0.134203 0.4094 0
0.14374 0.41825 0
0.153292 0.427115 0
0.162844 0.435966 0
0.172396 0.444831 0
0.181949 0.453681 0
0.191485 0.462547 0
0.201038 0.471397 0
0.21059 0.480262 0
0.220142 0.489128 0
0.229694 0.497978 0
0.239231 0.506844 0
0.248783 0.515694 0
0 0.26125 0.304509
0 0.270115 0.286244
0 0.278965 0.267979
0 0.287831 0.249714
0 0.296681 0.231449
0 0.305547 0.213184
0 0.314397 0.194919
0.00296025 0.323262 0.176654
0.0125124 0.332113 0.158389
0.0220645 0.340978 0.140124
0.0316167 0.349828 0.121859
0.0411536 0.358694 0.103593
0.0507057 0.367559 0.0853285
0.0602579 0.37641 0.0670634
0.06981 0.385275 0.0487984
0.0793469 0.394125 0.0305333
0.0888991 0.402991 0.0122683
0.0984512 0.411841 0
0.108003 0.420706 0
0.117556 0.429557 0
0.127092 0.438422 0
0.136645 0.447288 0
0.146197 0.456138 0
0.155749 0.465003 0
0.165301 0.473854 0
0.174838 0.482719 0
0.18439 0.491569 0
0.193942 0.500435 0
0.203494 0.509285 0
0.213046 0.518151 0
0.222583 0.527016 0
0.232136 0.535866 0
0.241688 0.544732 0
0 0.290288 0.338338
0 0.299138 0.320089
0 0.308003 0.301823
0 0.316854 0.283558
0 0.325719 0.265293
0 0.334569 0.247028
0 0.343435 0.228763
0 0.352285 0.210498
0.00541695 0.361151 0.192233
0.0149691 0.370001 0.173968
0.024506 0.378866 0.155703
0.0340581 0.387732 0.137438
0.0436103 0.396582 0.119173
0.0531624 0.405447 0.100908
0.0627146 0.414298 0.0826429
0.0722515 0.423163 0.0643778
0.0818036 0.432013 0.0461128
0.0913558 0.440879 0.0278477
0.100908 0.449729 0.00958267
0.11046 0.458595 0
0.119997 0.467445 0
0.129549 0.47631 0
0.139101 0.485176 0
0.148653 0.494026 0
0.158206 0.502892 0
0.167742 0.511742 0
0.177295 0.520607 0
0.186847 0.529458 0
0.196399 0.538323 0
0.205951 0.547173 0
0.215488 0.556039 0
0.22504 0.564904 0
0.234592 0.573754 0
0 0.31931 0.372168
0 0.328161 0.353918
0 0.337026 0.335653
0 0.345892 0.317388
0 0.354742 0.299123
0 0.363607 0.280858
0 0.372457 0.262592
0 0.381323 0.244327
0 0.390173 0.226062
0.0078584 0.399039 0.207797
0.0174105 0.407889 0.189532
0.0269627 0.416754 0.171267
0.0365148 0.42562 0.153002
0.046067 0.43447 0.134737
0.0556039 0.443336 0.116472
0.065156 0.452186 0.0982071
0.0747082 0.461051 0.079942
0.0842603 0.469902 0.061677
0.0938125 0.478767 0.0434119
0.103349 0.487617 0.0251469
0.112902 0.496483 0.00688182
0.122454 0.505348 0
0.132006 0.514199 0
0.141558 0.523064 0
0.151095 0.531914 0
0.160647 0.54078 0
0.170199 0.54963 0
0.179751 0.558495 0
0.189303 0.567346 0
0.19884 0.576211 0
0.208392 0.585061 0
0.217945 0.593927 0
0.227497 0.602792 0
0 0.348348 0.406012
0 0.357198 0.387747
0 0.366049 0.369482
0 0.374914 0.351217
0 0.38378 0.332952
0 0.39263 0.314687
0 0.401495 0.296422
0 0.410346 0.278157
0 0.419211 0.259892
0.000762951 0.428061 0.241627
0.0103151 0.436927 0.223362
0.0198672 0.445777 0.205097
0.0294194 0.454643 0.186831
0.0389563 0.463508 0.168566
0.0485084 0.472358 0.150301
0.0580606 0.481224 0.132036
0.0676127 0.490074 0.113771
0.0771649 0.498939 0.0955062
0.0867018 0.50779 0.0772412
0.0962539 0.516655 0.0589761
0.105806 0.525505 0.0407111
0.115358 0.534371 0.022446
0.12491 0.543236 0.00418097
0.134447 0.552087 0
0.143999 0.560952 0
0.153552 0.569802 0
0.163104 0.578668 0
0.172656 0.587518 0
0.182193 0.596384 0
0.191745 0.605234 0
0.201297 0.614099 0
0.210849 0.62295 0
0.220401 0.631815 0
0 0.377371 0.439841
0 0.386221 0.421592
0 0.395087 0.403326
0 0.403937 0.385061
0 0.412802 0.366796
0 0.421668 0.348531
0 0.430518 0.330266
0 0.439384 0.312001
0 0.448234 0.293736
0 0.457099 0.275471
0.00321965 0.46595 0.257206
0.0127718 0.474815 0.238941
0.0223087 0.483665 0.220676
0.0318608 0.492531 0.202411
0.041413 0.501396 0.184146
0.0509651 0.510246 0.165881
0.0605173 0.519112 0.147616
0.0700542 0.527962 0.129351
0.0796063 0.536828 0.111086
0.0891585 0.545678 0.0928206
0.0987106 0.554543 0.0745556
0.108263 0.563394 0.0562905
0.1178 0.572259 0.0380255
0.127352 0.581125 0.0197604
0.136904 0.589975 0.00149538
0.146456 0.59884 0
0.156008 0.607691 0
0.165545 0.616556 0
0.175097 0.625406 0
0.184649 0.634272 0
0.194202 0.643122 0
0.203754 0.651987 0
0.213291 0.660853 0
0 0.406409 0.473686
0 0.415259 0.455421
0 0.424109 0.437156
0 0.432975 0.418891
0 0.441825 0.400626
0 0.45069 0.382361
0 0.459556 0.364096
0 0.468406 0.34583
0 0.477272 0.327565
0 0.486122 0.3093
0 0.494987 0.291035
0.00567636 0.503838 0.27277
0.0152132 0.512703 0.254505
0.0247654 0.521553 0.23624
0.0343175 0.530419 0.217975
0.0438697 0.539284 0.19971
0.0534218 0.548135 0.181445
0.0629587 0.557 0.16318
0.0725109 0.56585 0.144915
0.082063 0.574716 0.12665
0.0916152 0.583566 0.108385
0.101167 0.592432 0.0901198
0.110704 0.601282 0.0718547
0.120256 0.610147 0.0535897
0.129809 0.619013 0.0353246
0.139361 0.627863 0.0170596
0.148913 0.636728 0
0.15845 0.645579 0
0.168002 0.654444 0
0.177554 0.663294 0
0.187106 0.67216 0
0.196643 0.68101 0
0.206195 0.689876 0
0 0.435431 0.507515
0 0.444282 0.489265
0 0.453147 0.471
0 0.461997 0.452735
0 0.470863 0.43447
0 0.479713 0.416205
0 0.488579 0.39794
0 0.497444 0.379675
0 0.506294 0.36141
0 0.51516 0.343145
0 0.52401 0.32488
0 0.532876 0.306615
0.0081178 0.541726 0.28835
0.0176699 0.550591 0.270085
0.0272221 0.559442 0.25182
0.0367742 0.568307 0.233555
0.0463111 0.577173 0.21529
0.0558633 0.586023 0.197024
0.0654154 0.594888 0.178759
0.0749676 0.603738 0.160494
0.0845197 0.612604 0.142229
0.0940566 0.621454 0.123964
0.103609 0.63032 0.105699
0.113161 0.63917 0.0874342
0.122713 0.648035 0.0691691
0.132265 0.656901 0.0509041
0.141802 0.665751 0.032639
0.151354 0.674617 0.014374
0.160906 0.683467 0
0.170459 0.692332 0
0.180011 0.701183 0
0.189548 0.710048 0
0.1991 0.718898 0
0 0.464454 0.541344
0 0.47332 0.523095
0 0.48217 0.504829
0 0.491035 0.486564
0 0.499886 0.468299
0 0.508751 0.450034
0 0.517617 0.431769
0 0.526467 0.413504
0 0.535332 0.395239
0 0.544182 0.376974
0 0.553048 0.358709
0 0.561898 0.340444
0.00102235 0.570764 0.322179
0.0105745 0.579614 0.303914
0.0201267 0.588479 0.285649
0.0296635 0.59733 0.267384
0.0392157 0.606195 0.249119
0.0487678 0.615061 0.230854
0.05832 0.623911 0.212589
0.0678721 0.632776 0.194324
0.077409 0.641627 0.176059
0.0869612 0.650492 0.157794
0.0965133 0.659342 0.139528
0.106065 0.668208 0.121263
0.115618 0.677058 0.102998
0.125154 0.685924 0.0847334
0.134707 0.694789 0.0664683
0.144259 0.703639 0.0482032
0.153811 0.712505 0.0299382
0.163363 0.721355 0.0116732
0.1729 0.73022 0
0.182452 0.739071 0
0.192004 0.747936 0
0 0.493492 0.575189
0 0.502342 0.556924
0 0.511208 0.538659
0 0.520058 0.520394
0 0.528923 0.502129
0 0.537774 0.483864
0 0.546639 0.465599
0 0.555505 0.447333
0 0.564355 0.429068
0 0.57322 0.410803
0 0.582071 0.392538
0 0.590936 0.374273
0 0.599786 0.356008
0.00347906 0.608652 0.337743
0.0130159 0.617502 0.319478
0.0225681 0.626368 0.301213
0.0321202 0.635233 0.282948
0.0416724 0.644083 0.264683
0.0512245 0.652949 0.246418
0.0607614 0.661799 0.228153
0.0703136 0.670665 0.209888
0.0798657 0.679515 0.191623
0.0894179 0.68838 0.173358
0.09897 0.69723 0.155093
0.108507 0.706096 0.136828
0.118059 0.714946 0.118563
0.127611 0.723812 0.100298
0.137163 0.732677 0.0820325
0.146715 0.741527 0.0637675
0.156252 0.750393 0.0455024
0.165805 0.759243 0.0272374
0.175357 0.768109 0.0089723
0.184909 0.776959 0
0 0.522515 0.609018
0 0.53138 0.590768
0 0.54023 0.572503
0 0.549096 0.554238
0 0.557946 0.535973
0 0.566812 0.517708
0 0.575662 0.499443
0 0.584527 0.481178
0 0.593393 0.462913
0 0.602243 0.444648
0 0.611109 0.426383
0 0.619959 0.408118
0 0.628824 0.389853
0 0.637675 0.371588
0.0059205 0.64654 0.353323
0.0154726 0.65539 0.335058
0.0250248 0.664256 0.316793
0.0345769 0.673121 0.298528
0.0441291 0.681971 0.280262
0.053666 0.690837 0.261997
0.0632181 0.699687 0.243732
0.0727703 0.708553 0.225467
0.0823224 0.717403 0.207202
0.0918593 0.726268 0.188937
0.101411 0.735119 0.170672
0.110964 0.743984 0.152407
0.120516 0.75285 0.134142
0.130068 0.7617 0.115877
0.139605 0.770565 0.097612
0.149157 0.779416 0.0793469
0.158709 0.788281 0.0610819
0.168261 0.797131 0.0428168
0.177813 0.805997 0.0245518
0 0.551553 0.642863
0 0.560403 0.624598
0 0.569268 0.606332
0 0.578119 0.588067
0 0.586984 0.569802
0 0.595834 0.551537
0 0.6047 0.533272
0 0.61355 0.515007
0 0.622415 0.496742
0 0.631281 0.478477
0 0.640131 0.460212
0 0.648997 0.441947
0 0.657847 0.423682
0 0.666712 0.405417
0 0.675563 0.387152
0.0083772 0.684428 0.368887
0.0179294 0.693278 0.350622
0.0274815 0.702144 0.332357
0.0370184 0.711009 0.314092
0.0465705 0.71986 0.295827
0.0561227 0.728725 0.277562
0.0656748 0.737575 0.259297
0.075227 0.746441 0.241032
0.0847639 0.755291 0.222766
0.094316 0.764157 0.204501
0.103868 0.773007 0.186236
0.11342 0.781872 0.167971
0.122972 0.790738 0.149706
0.132509 0.799588 0.131441
0.142061 0.808454 0.113176
0.151614 0.817304 0.0949111
0.161166 0.826169 0.0766461
0.170718 0.835019 0.058381
0 0.580575 0.676692
0 0.589441 0.658442
0 0.598291 0.640177
0 0.607156 0.621912
0 0.616007 0.603647
0 0.624872 0.585382
0 0.633722 0.567117
0 0.642588 0.548852
0 0.651438 0.530587
0 0.660304 0.512322
0 0.669169 0.494057
0 0.678019 0.475792
0 0.686885 0.457527
0 0.695735 0.439261
0 0.704601 0.420996
0.00128176 0.713451 0.402731
0.0108339 0.722316 0.384466
0.0203708 0.731167 0.366201
0.0299229 0.740032 0.347936
0.0394751 0.748898 0.329671
0.0490272 0.757748 0.311406
0.0585794 0.766613 0.293141
0.0681163 0.775464 0.274876
0.0776684 0.784329 0.256611
0.0872206 0.793179 0.238346
0.0967727 0.802045 0.220081
0.106325 0.810895 0.201816
0.115862 0.81976 0.183551
0.125414 0.828626 0.165286
0.134966 0.837476 0.147021
0.144518 0.846342 0.128756
0.15407 0.855192 0.110491
0.163607 0.864057 0.0922255
0 0.609613 0.710536
0 0.618463 0.692271
0 0.627329 0.674006
0 0.636179 0.655741
0 0.645045 0.637476
0 0.653895 0.619211
0 0.66276 0.600946
0 0.671611 0.582681
0 0.680476 0.564416
0 0.689326 0.546151
0 0.698192 0.527886
0 0.707057 0.509621
0 0.715908 0.491356
0 0.724773 0.473091
0 0.733623 0.454826
0 0.742489 0.436561
0.0037232 0.751339 0.418296
0.0132753 0.760204 0.400031
0.0228275 0.769055 0.381765
0.0323796 0.77792 0.3635
0.0419318 0.786786 0.345235
0.0514687 0.795636 0.32697
0.0610208 0.804501 0.308705
0.070573 0.813352 0.29044
0.0801251 0.822217 0.272175
0.0896773 0.831067 0.25391
0.0992142 0.839933 0.235645
0.108766 0.848783 0.21738
0.118318 0.857649 0.199115
0.127871 0.866514 0.18085
0.137423 0.875364 0.162585
0.14696 0.88423 0.14432
0.156512 0.89308 0.126055
0 0.638636 0.744366
0 0.647501 0.726116
0 0.656352 0.707851
0 0.665217 0.689586
0 0.674067 0.671321
0 0.682933 0.65304
0 0.691783 0.634791
0 0.700648 0.61651
0 0.709499 0.598245
0 0.718364 0.579995
0 0.727214 0.561715
0 0.73608 0.54345
0 0.744945 0.525185
0 0.753796 0.50692
0 0.762661 0.488655
0 0.771511 0.47039
0 0.780377 0.452125
0.0061799 0.789227 0.43386
0.0157321 0.798093 0.415595
0.0252842 0.806943 0.39733
0.0348211 0.815808 0.379065
0.0443732 0.824674 0.3608
0.0539254 0.833524 0.342535
0.0634775 0.84239 0.324269
0.0730297 0.85124 0.306004
0.0825666 0.860105 0.287739
0.0921187 0.868955 0.269474
0.101671 0.877821 0.251209
0.111223 0.886671 0.232944
0.120775 0.895537 0.214679
0.130312 0.904402 0.196414
0.139864 0.913252 0.178149
0.149416 0.922118 0.159884
0 0.667674 0.778195
0 0.676524 0.759945
0 0.685389 0.74168
0 0.69424 0.723415
0 0.703105 0.70515
0 0.711955 0.686885
0 0.720821 0.66862
0 0.729671 0.650355
0 0.738537 0.63209
0 0.747387 0.613825
0 0.756252 0.59556
0 0.765118 0.577295
0 0.773968 0.55903
0 0.782834 0.540764
0 0.791684 0.522499
0 0.800549 0.504234
0 0.8094 0.485969
0 0.818265 0.467704
0.00863661 0.827115 0.449439
0.0181888 0.835981 0.431174
0.0277256 0.844831 0.412909
0.0372778 0.853697 0.394644
0.0468299 0.862562 0.376379
0.0563821 0.871412 0.358114
0.0659342 0.880278 0.339849
0.0754711 0.889128 0.321584
0.0850233 0.897993 0.303319
0.0945754 0.906844 0.285054
0.104128 0.915709 0.266789
0.113664 0.924559 0.248524
0.123217 0.933425 0.230259
0.132769 0.94229 0.211994
0.142321 0.951141 0.193729
0 0.696696 0.812039
0 0.705547 0.793774
0 0.714412 0.775509
0 0.723278 0.757244
0 0.732128 0.738979
0 0.740993 0.720714
0 0.749844 0.702449
0 0.758709 0.684184
0 0.767559 0.665919
0 0.776425 0.647654
0 0.785275 0.629389
0 0.794141 0.611124
0 0.803006 0.592859
0 0.811856 0.574594
0 0.820722 0.556329
0 0.829572 0.538064
0 0.838437 0.519799
0 0.847288 0.501534
0.00154116 0.856153 0.483268
0.0110781 0.865003 0.465003
0.0206302 0.873869 0.446738
0.0301823 0.882734 0.428473
0.0397345 0.891585 0.410208
0.0492866 0.90045 0.391943
0.0588235 0.9093 0.373678
0.0683757 0.918166 0.355413
0.0779278 0.927016 0.337148
0.08748 0.935882 0.318883
0.0970321 0.944732 0.300618
0.106569 0.953597 0.282353
0.116121 0.962448 0.264088
0.125673 0.971313 0.245823
0.135225 0.980179 0.227558
0 0.725734 0.845869
0 0.734585 0.827619
0 0.743435 0.809354
0 0.7523 0.791089
0 0.761166 0.772824
0 0.770016 0.754559
0 0.778881 0.736294
0 0.787732 0.718029
0 0.796597 0.699763
0 0.805447 0.681498
0 0.814313 0.663233
0 0.823163 0.644968
0 0.832029 0.626703
0 0.840894 0.608438
0 0.849744 0.590173
0 0.85861 0.571908
0 0.86746 0.553643
0 0.876326 0.535378
0 0.885176 0.517113
0.0039826 0.894041 0.498848
0.0135348 0.902892 0.480583
0.0230869 0.911757 0.462318
0.032639 0.920623 0.444053
0.0421759 0.929473 0.425788
0.0517281 0.938338 0.407523
0.0612802 0.947188 0.389258
0.0708324 0.956054 0.370993
0.0803845 0.964904 0.352728
0.0899214 0.97377 0.334462
0.0994736 0.98262 0.316197
0.109026 0.991485 0.297932
0.118578 1 0.279667
0.12813 1 0.261402
0 0.754757 0.879713
0 0.763607 0.861448
0 0.772473 0.843183
0 0.781323 0.824918
0 0.790188 0.806653
0 0.799054 0.788388
0 0.807904 0.770123
0 0.81677 0.751858
0 0.82562 0.733593
0 0.834485 0.715328
0 0.843336 0.697063
0 0.852201 0.678798
0 0.861051 0.660533
0 0.869917 0.642267
0 0.878782 0.624002
0 0.887633 0.605737
0 0.896498 0.587472
0 0.905348 0.569207
0 0.914214 0.550942
0 0.923064 0.532677
0.00643931 0.93193 0.514412
0.0159915 0.94078 0.496147
0.0255283 0.949645 0.477882
0.0350805 0.958511 0.459617
0.0446326 0.967361 0.441352
0.0541848 0.976226 0.423087
0.0637369 0.985077 0.404822
0.0732738 0.993942 0.386557
0.082826 1 0.368292
0.0923781 1 0.350027
0.10193 1 0.331762
0.111482 1 0.313497
0.121019 1 0.295232
0 0.783795 0.913542
0 0.792645 0.895293
0 0.801495 0.877028
0 0.810361 0.858763
0 0.819211 0.840497
0 0.828077 0.822232
0 0.836942 0.803967
0 0.845792 0.785702
0 0.854658 0.767437
