public/LUTS/Color Shift/ColorShift_40.cube
TITLE "Generated by Resolve"
LUT_3D_SIZE 33
0 0 0
0.000427253 0.00527962 0.0308385
0.000839246 0.0105592 0.061677
0.0012665 0.0158541 0.0925307
0.00167849 0.0211337 0.123369
0.00210575 0.0264134 0.154223
0.00251774 0.031693 0.185061
0.00294499 0.0369726 0.215915
0.00335698 0.0422675 0.246769
0.00378424 0.0475471 0.277607
0.00419623 0.0528267 0.308461
0.00462348 0.0581064 0.3393
0.00503548 0.0634012 0.370153
0.00546273 0.0686809 0.400992
0.00587472 0.0739605 0.431846
0.00630198 0.0792401 0.462684
0.00671397 0.084535 0.493538
0.00714122 0.0898146 0.524392
0.00755322 0.0950942 0.55523
0.00798047 0.100374 0.586084
0.00839246 0.105669 0.616922
0.00881972 0.110948 0.647776
0.00923171 0.116228 0.678614
0.00965896 0.121508 0.709468
0.0100862 0.126787 0.740322
0.0104982 0.132082 0.77116
0.0109255 0.137362 0.802014
0.0113375 0.142641 0.832853
0.0117647 0.147921 0.863706
0.0121767 0.153216 0.894545
0.012604 0.158495 0.925399
0.0130159 0.163775 0.956252
0.0134432 0.169055 0.987091
0.0521096 0.0138552 0.01355
0.0525216 0.0191501 0.0443732
0.0529488 0.0244297 0.075227
0.0533608 0.0297093 0.106065
0.0537881 0.0349889 0.136919
0.0542 0.0402686 0.167773
0.0546273 0.0455634 0.198611
0.0550393 0.0508431 0.229465
0.0554665 0.0561227 0.260304
0.0558785 0.0614023 0.291157
0.0563058 0.0666972 0.321996
0.0567178 0.0719768 0.35285
0.057145 0.0772564 0.383688
0.0575723 0.082536 0.414542
0.0579843 0.0878309 0.445396
0.0584115 0.0931106 0.476234
0.0588235 0.0983902 0.507088
0.0592508 0.10367 0.537926
0.0596628 0.108965 0.56878
0.06009 0.114244 0.599619
0.060502 0.119524 0.630472
0.0609293 0.124804 0.661326
0.0613413 0.130083 0.692164
0.0617685 0.135378 0.723018
0.0621805 0.140658 0.753857
0.0626078 0.145937 0.78471
0.0630198 0.151217 0.815549
0.063447 0.156512 0.846403
0.063859 0.161791 0.877256
0.0642863 0.167071 0.908095
0.0646983 0.172351 0.938949
0.0651255 0.177646 0.969787
0.0655375 0.182925 1
0.104234 0.0277256 0.0271
0.104662 0.0330053 0.0579232
0.105074 0.0383001 0.088777
0.105501 0.0435798 0.119631
0.105913 0.0488594 0.150469
0.10634 0.054139 0.181323
0.106752 0.0594339 0.212161
0.107179 0.0647135 0.243015
0.107591 0.0699931 0.273854
0.108019 0.0752728 0.304707
0.108431 0.0805676 0.335546
0.108858 0.0858473 0.3664
0.10927 0.0911269 0.397253
0.109697 0.0964065 0.428092
0.110109 0.101686 0.458946
0.110536 0.106981 0.489784
0.110964 0.112261 0.520638
0.111376 0.11754 0.551476
0.111803 0.12282 0.58233
0.112215 0.128115 0.613184
0.112642 0.133394 0.644022
0.113054 0.138674 0.674876
0.113481 0.143954 0.705715
0.113893 0.149248 0.736568
0.114321 0.154528 0.767407
0.114733 0.159808 0.79826
0.11516 0.165087 0.829114
0.115572 0.170382 0.859953
0.115999 0.175662 0.890806
0.116411 0.180941 0.921645
0.116838 0.186221 0.952499
0.11725 0.191501 0.983337
0.117678 0.196796 1
0.156374 0.0415961 0.04065
0.156786 0.0468757 0.0714733
0.157214 0.0521553 0.102327
0.157626 0.0574502 0.133181
0.158053 0.0627298 0.164019
0.158465 0.0680095 0.194873
0.158892 0.0732891 0.225711
0.159304 0.078584 0.256565
0.159731 0.0838636 0.287404
0.160143 0.0891432 0.318257
0.160571 0.0944228 0.349111
0.160983 0.0997177 0.37995
0.16141 0.104997 0.410803
0.161822 0.110277 0.441642
0.162249 0.115557 0.472496
0.162661 0.120851 0.503334
0.163088 0.126131 0.534188
0.1635 0.131411 0.565042
0.163928 0.13669 0.59588
0.16434 0.141985 0.626734
0.164767 0.147265 0.657572
0.165194 0.152544 0.688426
0.165606 0.157824 0.719265
0.166033 0.163104 0.750118
0.166445 0.168399 0.780957
0.166873 0.173678 0.81181
0.167285 0.178958 0.842664
0.167712 0.184237 0.873503
0.168124 0.189532 0.904356
0.168551 0.194812 0.935195
0.168963 0.200092 0.966049
0.16939 0.205371 0.996887
0.169802 0.210666 1
0.208499 0.0554665 0.0542
0.208911 0.0607462 0.0850385
0.209339 0.0660258 0.115877
0.209766 0.0713207 0.146731
0.210178 0.0766003 0.177569
0.210605 0.0818799 0.208423
0.211017 0.0871595 0.239261
0.211444 0.0924544 0.270115
0.211856 0.097734 0.300969
0.212284 0.103014 0.331807
0.212696 0.108293 0.362661
0.213123 0.113588 0.3935
0.213535 0.118868 0.424353
0.213962 0.124147 0.455192
0.214374 0.129427 0.486046
0.214801 0.134707 0.516899
0.215213 0.140002 0.547738
0.215641 0.145281 0.578592
0.216052 0.150561 0.60943
0.21648 0.15584 0.640284
0.216892 0.161135 0.671122
0.217319 0.166415 0.701976
0.217731 0.171695 0.732815
0.218158 0.176974 0.763668
0.21857 0.182269 0.794522
0.218997 0.187549 0.82536
0.219425 0.192828 0.856214
0.219837 0.198108 0.887053
0.220264 0.203403 0.917906
0.220676 0.208682 0.948745
0.221103 0.213962 0.979599
0.221515 0.219242 1
0.221942 0.224521 1
0.260624 0.069337 0.0677501
0.261051 0.0746166 0.0985885
0.261463 0.0798962 0.129427
0.261891 0.0851759 0.160281
0.262303 0.0904707 0.191119
0.26273 0.0957504 0.221973
0.263142 0.10103 0.252827
0.263569 0.10631 0.283665
0.263996 0.111604 0.314519
0.264408 0.116884 0.345357
0.264836 0.122164 0.376211
0.265248 0.127443 0.40705
0.265675 0.132738 0.437903
0.266087 0.138018 0.468757
0.266514 0.143297 0.499596
0.266926 0.148577 0.530449
0.267353 0.153872 0.561288
0.267765 0.159152 0.592142
0.268193 0.164431 0.62298
0.268605 0.169711 0.653834
0.269032 0.175006 0.684672
0.269444 0.180285 0.715526
0.269871 0.185565 0.74638
0.270283 0.190845 0.777218
0.27071 0.196124 0.808072
0.271122 0.201419 0.838911
0.27155 0.206699 0.869764
0.271962 0.211978 0.900603
0.272389 0.217258 0.931456
0.272816 0.222553 0.96231
0.273228 0.227832 0.993149
0.273655 0.233112 1
0.274067 0.238392 1
0.312764 0.0832074 0.0813001
0.313176 0.0884871 0.112139
0.313603 0.0937667 0.142977
0.314015 0.0990463 0.173831
0.314443 0.104341 0.204685
0.314855 0.109621 0.235523
0.315282 0.1149 0.266377
0.315694 0.12018 0.297215
0.316121 0.125475 0.328069
0.316533 0.130755 0.358907
0.31696 0.136034 0.389761
0.317388 0.141314 0.4206
0.3178 0.146593 0.451453
0.318227 0.151888 0.482307
0.318639 0.157168 0.513146
0.319066 0.162448 0.543999
0.319478 0.167727 0.574838
0.319905 0.173022 0.605692
0.320317 0.178302 0.63653
0.320745 0.183581 0.667384
0.321157 0.188861 0.698238
0.321584 0.194156 0.729076
0.321996 0.199435 0.75993
0.322423 0.204715 0.790768
0.322835 0.209995 0.821622
0.323262 0.21529 0.852461
0.323674 0.220569 0.883314
0.324102 0.225849 0.914168
0.324514 0.231128 0.945006
0.324941 0.236423 0.97586
0.325353 0.241703 1
0.32578 0.246983 1
0.326207 0.252262 1
0.364889 0.0970779 0.0948501
0.365316 0.102358 0.125689
0.365728 0.107637 0.156542
0.366155 0.112917 0.187381
0.366567 0.118196 0.218235
0.366995 0.123491 0.249073
0.367407 0.128771 0.279927
0.367834 0.134051 0.310765
0.368246 0.13933 0.341619
0.368673 0.144625 0.372457
0.369085 0.149905 0.403311
0.369512 0.155184 0.434165
0.369924 0.160464 0.465003
0.370352 0.165759 0.495857
0.370779 0.171038 0.526696
0.371191 0.176318 0.557549
0.371618 0.181598 0.588388
0.37203 0.186892 0.619242
0.372457 0.192172 0.650095
0.372869 0.197452 0.680934
0.373297 0.202731 0.711788
0.373709 0.208026 0.742626
0.374136 0.213306 0.77348
0.374548 0.218585 0.804318
0.374975 0.223865 0.835172
0.375387 0.229145 0.866026
0.375814 0.23444 0.896864
0.376226 0.239719 0.927718
0.376654 0.244999 0.958556
0.377066 0.250278 0.98941
0.377493 0.255573 1
0.377905 0.260853 1
0.378332 0.266133 1
0.417029 0.110948 0.1084
0.417441 0.116228 0.139239
0.417868 0.121508 0.170092
0.41828 0.126787 0.200931
0.418708 0.132067 0.231785
0.41912 0.137362 0.262623
0.419547 0.142641 0.293477
0.419959 0.147921 0.324315
0.420386 0.153201 0.355169
0.420798 0.158495 0.386023
0.421225 0.163775 0.416861
0.421637 0.169055 0.447715
0.422065 0.174334 0.478553
0.422477 0.179614 0.509407
0.422904 0.184909 0.540246
0.423316 0.190188 0.571099
0.423743 0.195468 0.601953
0.424155 0.200748 0.632792
0.424582 0.206043 0.663645
0.42501 0.211322 0.694484
0.425422 0.216602 0.725338
0.425849 0.221881 0.756176
0.426261 0.227176 0.78703
0.426688 0.232456 0.817884
0.4271 0.237736 0.848722
0.427527 0.243015 0.879576
0.427939 0.24831 0.910414
0.428367 0.25359 0.941268
0.428779 0.258869 0.972107
0.429206 0.264149 1
0.429618 0.269444 1
0.430045 0.274723 1
0.430457 0.280003 1
0.469154 0.124804 0.121965
0.469581 0.130098 0.152789
0.469993 0.135378 0.183642
0.47042 0.140658 0.214481
0.470832 0.145937 0.245335
0.47126 0.151217 0.276173
0.471672 0.156512 0.307027
0.472099 0.161791 0.337881
0.472511 0.167071 0.368719
0.472938 0.172351 0.399573
0.47335 0.177646 0.430411
0.473777 0.182925 0.461265
0.474189 0.188205 0.492103
0.474617 0.193484 0.522957
0.475029 0.198779 0.553811
0.475456 0.204059 0.584649
0.475868 0.209339 0.615503
0.476295 0.214618 0.646342
0.476707 0.219913 0.677195
0.477134 0.225193 0.708034
0.477546 0.230472 0.738888
0.477974 0.235752 0.769726
0.478386 0.241032 0.80058
0.478813 0.246326 0.831434
0.47924 0.251606 0.862272
0.479652 0.256886 0.893126
0.480079 0.262165 0.923964
0.480491 0.26746 0.954818
0.480919 0.27274 0.985656
0.481331 0.278019 1
0.481758 0.283299 1
0.48217 0.288594 1
0.482597 0.293873 1
0.521279 0.138674 0.135515
0.521706 0.143954 0.166339
0.522118 0.149248 0.197192
0.522545 0.154528 0.228031
0.522957 0.159808 0.258885
0.523384 0.165087 0.289738
0.523812 0.170382 0.320577
0.524224 0.175662 0.351431
0.524651 0.180941 0.382269
0.525063 0.186221 0.413123
0.52549 0.191516 0.443961
0.525902 0.196796 0.474815
0.526329 0.202075 0.505669
0.526741 0.207355 0.536507
0.527169 0.212634 0.567361
0.527581 0.217929 0.598199
0.528008 0.223209 0.629053
0.52842 0.228489 0.659892
0.528847 0.233768 0.690745
0.529259 0.239063 0.721584
0.529686 0.244343 0.752438
0.530098 0.249622 0.783291
0.530526 0.254902 0.81413
0.530938 0.260197 0.844984
0.531365 0.265476 0.875822
0.531777 0.270756 0.906676
0.532204 0.276036 0.937514
0.532631 0.281331 0.968368
0.533043 0.28661 0.999222
0.533471 0.29189 1
0.533883 0.297169 1
0.53431 0.302449 1
0.534722 0.307744 1
0.573419 0.152544 0.149065
0.573831 0.157824 0.179889
0.574258 0.163119 0.210742
0.57467 0.168399 0.241596
0.575097 0.173678 0.272435
0.575509 0.178958 0.303288
0.575936 0.184237 0.334127
0.576349 0.189532 0.364981
0.576776 0.194812 0.395819
0.577203 0.200092 0.426673
0.577615 0.205371 0.457527
0.578042 0.210666 0.488365
0.578454 0.215946 0.519219
0.578882 0.221225 0.550057
0.579293 0.226505 0.580911
0.579721 0.2318 0.611749
0.580133 0.237079 0.642603
0.58056 0.242359 0.673442
0.580972 0.247639 0.704295
0.581399 0.252934 0.735149
0.581811 0.258213 0.765988
0.582238 0.263493 0.796841
0.58265 0.268772 0.82768
0.583078 0.274052 0.858534
0.58349 0.279347 0.889372
0.583917 0.284627 0.920226
0.584329 0.289906 0.95108
0.584756 0.295186 0.981918
0.585168 0.300481 1
0.585595 0.30576 1
0.586023 0.31104 1
0.586435 0.31632 1
0.586862 0.321614 1
0.625544 0.166415 0.162615
0.625971 0.171695 0.193454
0.626383 0.176974 0.224292
0.62681 0.182269 0.255146
0.627222 0.187549 0.285985
0.627649 0.192828 0.316838
0.628061 0.198108 0.347677
0.628489 0.203403 0.378531
0.628901 0.208682 0.409369
0.629328 0.213962 0.440223
0.62974 0.219242 0.471077
0.630167 0.224537 0.501915
0.630594 0.229816 0.532769
0.631006 0.235096 0.563607
0.631434 0.240375 0.594461
0.631846 0.245655 0.625299
0.632273 0.25095 0.656153
0.632685 0.256229 0.687007
0.633112 0.261509 0.717845
0.633524 0.266789 0.748699
0.633951 0.272084 0.779538
0.634363 0.277363 0.810391
0.634791 0.282643 0.84123
0.635203 0.287922 0.872084
0.63563 0.293217 0.902937
0.636042 0.298497 0.933776
0.636469 0.303777 0.96463
0.636881 0.309056 0.995468
0.637308 0.314351 1
0.63772 0.319631 1
0.638148 0.32491 1
0.63856 0.33019 1
0.638987 0.33547 1
0.677684 0.180285 0.176165
0.678096 0.185565 0.207004
0.678523 0.190845 0.237842
0.678935 0.196139 0.268696
0.679362 0.201419 0.299535
0.679774 0.206699 0.330388
0.680201 0.211978 0.361227
0.680613 0.217258 0.392081
0.681041 0.222553 0.422934
0.681453 0.227832 0.453773
0.68188 0.233112 0.484627
0.682292 0.238392 0.515465
0.682719 0.243687 0.546319
0.683131 0.248966 0.577157
0.683558 0.254246 0.608011
0.68397 0.259525 0.638865
0.684398 0.26482 0.669703
0.684825 0.2701 0.700557
0.685237 0.27538 0.731395
0.685664 0.280659 0.762249
0.686076 0.285954 0.793088
0.686503 0.291234 0.823941
0.686915 0.296513 0.854795
0.687343 0.301793 0.885634
0.687755 0.307073 0.916487
0.688182 0.312367 0.947326
0.688594 0.317647 0.97818
0.689021 0.322927 1
0.689433 0.328206 1
0.68986 0.333501 1
0.690272 0.338781 1
0.6907 0.34406 1
0.691112 0.34934 1
0.729809 0.194156 0.189715
0.730236 0.199435 0.220554
0.730648 0.204715 0.251392
0.731075 0.209995 0.282246
0.731487 0.21529 0.313085
0.731914 0.220569 0.343938
0.732326 0.225849 0.374792
0.732754 0.231128 0.405631
0.733166 0.236423 0.436484
0.733593 0.241703 0.467323
0.734005 0.246983 0.498177
0.734432 0.252262 0.529015
0.734844 0.257557 0.559869
0.735271 0.262837 0.590723
0.735683 0.268116 0.621561
0.73611 0.273396 0.652415
0.736522 0.278676 0.683253
0.73695 0.28397 0.714107
0.737362 0.28925 0.744945
0.737789 0.29453 0.775799
0.738201 0.299809 0.806638
0.738628 0.305104 0.837491
0.739055 0.310384 0.868345
0.739467 0.315663 0.899184
0.739895 0.320943 0.930037
0.740307 0.326238 0.960876
0.740734 0.331518 0.99173
0.741146 0.336797 1
0.741573 0.342077 1
0.741985 0.347372 1
0.742412 0.352651 1
0.742824 0.357931 1
0.743252 0.36321 1
0.781933 0.208026 0.203265
0.782361 0.213306 0.234104
0.782773 0.218585 0.264942
0.7832 0.223865 0.295796
0.783627 0.22916 0.32665
0.784039 0.23444 0.357488
0.784466 0.239719 0.388342
0.784878 0.244999 0.419181
0.785306 0.250278 0.450034
0.785718 0.255573 0.480873
0.786145 0.260853 0.511727
0.786557 0.266133 0.54258
0.786984 0.271412 0.573419
0.787396 0.276707 0.604273
0.787823 0.281987 0.635111
0.788235 0.287266 0.665965
0.788663 0.292546 0.696803
0.789075 0.297841 0.727657
0.789502 0.30312 0.758495
0.789914 0.3084 0.789349
0.790341 0.31368 0.820203
0.790753 0.318975 0.851041
0.79118 0.324254 0.881895
0.791592 0.329534 0.912734
0.79202 0.334813 0.943587
0.792447 0.340093 0.974426
0.792859 0.345388 1
0.793286 0.350668 1
0.793698 0.355947 1
0.794125 0.361227 1
0.794537 0.366522 1
0.794965 0.371801 1
0.795377 0.377081 1
0.834073 0.221897 0.216815
0.834485 0.227176 0.247654
0.834913 0.232456 0.278508
0.835325 0.237736 0.309346
0.835752 0.243015 0.3402
0.836164 0.24831 0.371038
0.836591 0.25359 0.401892
0.837018 0.258869 0.432731
0.83743 0.264149 0.463584
0.837858 0.269444 0.494438
0.83827 0.274723 0.525277
0.838697 0.280003 0.55613
0.839109 0.285283 0.586969
0.839536 0.290578 0.617823
0.839948 0.295857 0.648661
0.840375 0.301137 0.679515
0.840787 0.306416 0.710353
0.841215 0.311696 0.741207
0.841627 0.316991 0.772061
0.842054 0.322271 0.802899
0.842466 0.32755 0.833753
0.842893 0.33283 0.864591
0.843305 0.338125 0.895445
0.843732 0.343404 0.926284
0.844144 0.348684 0.957137
0.844572 0.353964 0.987991
0.844984 0.359258 1
0.845411 0.364538 1
0.845823 0.369818 1
0.84625 0.375097 1
0.846677 0.380392 1
0.847089 0.385672 1
0.847517 0.390951 1
0.886198 0.235767 0.230381
0.886625 0.241047 0.261204
0.887037 0.246326 0.292058
0.887465 0.251606 0.322896
0.887877 0.256886 0.35375
0.888304 0.262181 0.384588
0.888716 0.26746 0.415442
0.889143 0.27274 0.446296
0.889555 0.278019 0.477134
0.889982 0.283299 0.507988
0.890394 0.288594 0.538827
0.890822 0.293873 0.56968
0.891249 0.299153 0.600519
0.891661 0.304433 0.631373
0.892088 0.309728 0.662211
0.8925 0.315007 0.693065
0.892927 0.320287 0.723918
0.893339 0.325567 0.754757
0.893767 0.330861 0.785611
0.894179 0.336141 0.816449
0.894606 0.341421 0.847303
0.895018 0.3467 0.878141
0.895445 0.351995 0.908995
0.895857 0.357275 0.939849
0.896284 0.362554 0.970687
0.896696 0.367834 1
0.897124 0.373114 1
0.897536 0.378408 1
0.897963 0.383688 1
0.898375 0.388968 1
0.898802 0.394247 1
0.899214 0.399542 1
0.899641 0.404822 1
0.938338 0.249622 0.243931
0.93875 0.254902 0.274754
0.939178 0.260197 0.305608
0.93959 0.265476 0.336446
0.940017 0.270756 0.3673
0.940429 0.276036 0.398138
0.940856 0.281331 0.428992
0.941268 0.28661 0.459846
0.941695 0.29189 0.490684
0.942107 0.297169 0.521538
0.942535 0.302464 0.552377
0.942946 0.307744 0.58323
0.943374 0.313024 0.614069
0.943786 0.318303 0.644923
0.944213 0.323598 0.675776
0.94464 0.328878 0.706615
0.945052 0.334157 0.737469
0.94548 0.339437 0.768307
0.945891 0.344717 0.799161
0.946319 0.350011 0.829999
0.946731 0.355291 0.860853
0.947158 0.360571 0.891707
0.94757 0.36585 0.922545
0.947997 0.371145 0.953399
0.948409 0.376425 0.984237
0.948837 0.381704 1
0.949248 0.386984 1
0.949676 0.392279 1
0.950088 0.397559 1
0.950515 0.402838 1
0.950927 0.408118 1
0.951354 0.413413 1
0.951766 0.418692 1
0.990463 0.263493 0.257481
0.99089 0.268772 0.288304
0.991302 0.274067 0.319158
0.99173 0.279347 0.349996
0.992142 0.284627 0.38085
0.992569 0.289906 0.411704
0.992981 0.295201 0.442542
0.993408 0.300481 0.473396
0.99382 0.30576 0.504234
0.994247 0.31104 0.535088
0.994659 0.31632 0.565927
0.995087 0.321614 0.59678
0.995499 0.326894 0.627634
0.995926 0.332174 0.658473
0.996338 0.337453 0.689326
0.996765 0.342748 0.720165
0.997177 0.348028 0.751019
0.997604 0.353307 0.781857
0.998016 0.358587 0.812711
0.998444 0.363882 0.843565
0.998871 0.369162 0.874403
0.999283 0.374441 0.905257
0.99971 0.379721 0.936095
1 0.385016 0.966949
1 0.390295 0.997787
1 0.395575 1
1 0.400854 1
1 0.406134 1
1 0.411429 1
1 0.416709 1
1 0.421988 1
1 0.427268 1
1 0.432563 1
1 0.277363 0.271031
1 0.282643 0.301854
1 0.287922 0.332708
1 0.293217 0.363561
1 0.298497 0.3944
1 0.303777 0.425254
1 0.309056 0.456092
1 0.314351 0.486946
1 0.319631 0.517784
1 0.32491 0.548638
1 0.33019 0.579492
1 0.335485 0.61033
1 0.340764 0.641184
1 0.346044 0.672023
1 0.351324 0.702876
1 0.356619 0.733715
1 0.361898 0.764569
1 0.367178 0.795422
1 0.372457 0.826261
1 0.377737 0.857114
1 0.383032 0.887953
1 0.388312 0.918807
1 0.393591 0.949645
1 0.398871 0.980499
1 0.404166 1
1 0.409445 1
1 0.414725 1
1 0.420005 1
1 0.425299 1
1 0.430579 1
1 0.435859 1
1 0.441138 1
1 0.446433 1
1 0.291234 0.284581
1 0.296513 0.315419
1 0.301793 0.346258
1 0.307088 0.377111
1 0.312367 0.40795
1 0.317647 0.438804
1 0.322927 0.469642
1 0.328222 0.500496
1 0.333501 0.53135
1 0.338781 0.562188
1 0.34406 0.593042
1 0.34934 0.62388
1 0.354635 0.654734
1 0.359915 0.685573
1 0.365194 0.716426
1 0.370474 0.747265
1 0.375769 0.778119
1 0.381048 0.808972
1 0.386328 0.839811
1 0.391608 0.870665
1 0.396902 0.901503
1 0.402182 0.932357
1 0.407462 0.963195
1 0.412741 0.994049
1 0.418036 1
1 0.423316 1
1 0.428595 1
1 0.433875 1
1 0.439155 1
1 0.44445 1
1 0.449729 1
1 0.455009 1
1 0.460288 1
1 0.305104 0.298131
1 0.310384 0.328969
1 0.315663 0.359808
1 0.320943 0.390661
1 0.326238 0.4215
1 0.331518 0.452354
1 0.336797 0.483207
1 0.342077 0.514046
1 0.347372 0.5449
1 0.352651 0.575738
1 0.357931 0.606592
1 0.36321 0.63743
1 0.368505 0.668284
1 0.373785 0.699123
1 0.379065 0.729976
1 0.384344 0.76083
1 0.389639 0.791669
1 0.394919 0.822522
1 0.400198 0.853361
1 0.405478 0.884215
1 0.410758 0.915053
1 0.416052 0.945907
1 0.421332 0.976761
1 0.426612 1
1 0.431891 1
1 0.437186 1
1 0.442466 1
1 0.447745 1
1 0.453025 1
1 0.45832 1
1 0.4636 1
1 0.468879 1
1 0.474159 1
1 0.318975 0.311681
1 0.324254 0.342519
1 0.329534 0.373358
1 0.334813 0.404211
1 0.340108 0.43505
1 0.345388 0.465904
1 0.350668 0.496757
1 0.355947 0.527596
1 0.361242 0.55845
1 0.366522 0.589288
1 0.371801 0.620142
1 0.377081 0.65098
1 0.382361 0.681834
1 0.387655 0.712688
1 0.392935 0.743526
1 0.398215 0.77438
1 0.403494 0.805219
1 0.408789 0.836072
1 0.414069 0.866911
1 0.419348 0.897765
1 0.424628 0.928618
1 0.429923 0.959457
1 0.435203 0.990311
1 0.440482 1
1 0.445762 1
1 0.451057 1
1 0.456336 1
1 0.461616 1
1 0.466896 1
1 0.472175 1
1 0.47747 1
1 0.48275 1
1 0.488029 1
1 0.332845 0.325231
1 0.338125 0.356069
1 0.343404 0.386908
1 0.348684 0.417762
1 0.353964 0.448615
1 0.359258 0.479454
1 0.364538 0.510307
1 0.369818 0.541146
1 0.375097 0.572
1 0.380392 0.602838
1 0.385672 0.633692
1 0.390951 0.664546
1 0.396231 0.695384
1 0.401526 0.726238
1 0.406806 0.757076
1 0.412085 0.78793
1 0.417365 0.818769
1 0.42266 0.849622
1 0.427939 0.880476
1 0.433219 0.911315
1 0.438499 0.942168
1 0.443778 0.973007
1 0.449073 1
1 0.454353 1
1 0.459632 1
1 0.464912 1
1 0.470207 1
1 0.475486 1
1 0.480766 1
1 0.486046 1
1 0.491341 1
1 0.49662 1
1 0.5019 1
1 0.346716 0.338781
1 0.351995 0.369619
1 0.357275 0.400473
1 0.362554 0.431312
1 0.367834 0.462165
1 0.373129 0.493004
1 0.378408 0.523857
1 0.383688 0.554696
1 0.388968 0.58555
1 0.394263 0.616403
1 0.399542 0.647242
1 0.404822 0.678096
1 0.410101 0.708934
1 0.415381 0.739788
1 0.420676 0.770626
1 0.425956 0.80148
1 0.431235 0.832334
1 0.436515 0.863172
1 0.44181 0.894026
1 0.447089 0.924865
1 0.452369 0.955718
1 0.457649 0.986557
1 0.462943 1
1 0.468223 1
1 0.473503 1
1 0.478782 1
1 0.484077 1
1 0.489357 1
1 0.494636 1
1 0.499916 1
1 0.505196 1
1 0.510491 1
1 0.51577 1
1 0.360571 0.352346
1 0.365866 0.383169
1 0.371145 0.414023
1 0.376425 0.444862
1 0.381704 0.475715
1 0.386984 0.506554
1 0.392279 0.537408
1 0.397559 0.568261
1 0.402838 0.5991
1 0.408118 0.629953
1 0.413413 0.660792
1 0.418692 0.691646
1 0.423972 0.722484
1 0.429252 0.753338
1 0.434546 0.784176
1 0.439826 0.81503
1 0.445106 0.845884
1 0.450385 0.876722
1 0.45568 0.907576
1 0.46096 0.938415
1 0.466239 0.969268
1 0.471519 1
1 0.476799 1
1 0.482094 1
1 0.487373 1
1 0.492653 1
1 0.497932 1
1 0.503227 1
1 0.508507 1
1 0.513787 1
1 0.519066 1
1 0.524361 1
1 0.529641 1
1 0.374441 0.365896
1 0.379721 0.396719
1 0.385016 0.427573
1 0.390295 0.458412
1 0.395575 0.489265
1 0.400854 0.520119
1 0.406149 0.550958
1 0.411429 0.581811
1 0.416709 0.61265
