public/LUTS/Color Shift/ColorShift_62.cube
TITLE "Generated by Resolve"
LUT_3D_SIZE 5
0 0 0
0.00602731 0.109682 0
0.0120699 0.219379 0
0.0180972 0.329076 0
0.0241398 0.438773 0
0 0.244709 0.428122
0 0.354391 0.144213
0 0.464088 0
0 0.573785 0
0 0.683482 0
0 0.489433 0.85626
0 0.599115 0.572351
0 0.708812 0.288426
0 0.818509 0.00450141
0 0.928206 0
0 0.734157 1
0 0.843839 1
0 0.953536 0.716564
0 1 0.432654
0 1 0.14873
0 0.978882 1
0 1 1
0 1 1
0 1 0.860792
0 1 0.576867
0.409827 0 0.105776
0.415854 0.00527962 0
0.421897 0.114977 0
0.427924 0.224674 0
0.433951 0.334356 0
0.243961 0.140307 0.533898
0.249989 0.249989 0.249989
0.256016 0.359686 0
0.262058 0.469383 0
0.268086 0.579065 0
0.0780804 0.385031 0.962036
0.0841077 0.494713 0.678126
0.0901503 0.60441 0.394202
0.0961776 0.714092 0.110292
0.10222 0.823789 0
0 0.62974 1
0 0.739437 1
0 0.849134 0.822354
0 0.958816 0.53843
0 1 0.254505
0 0.874464 1
0 0.984161 1
0 1 1
0 1 0.966567
0 1 0.682643
0.819669 0 0.211566
0.825696 0 0
0.831739 0.0105592 0
0.837766 0.120256 0
0.843809 0.229953 0
0.653803 0.0358892 0.639673
0.659831 0.145571 0.355779
0.665873 0.255268 0.0718547
0.671901 0.364965 0
0.677943 0.474662 0
0.487922 0.280613 1
0.493965 0.390295 0.783917
0.499992 0.499992 0.499992
0.50602 0.609689 0.216068
0.512062 0.719387 0
0.322042 0.525338 1
0.328084 0.635019 1
0.334112 0.744717 0.92813
0.340154 0.854414 0.644205
0.346181 0.964096 0.360296
0.156176 0.770062 1
0.162203 0.879744 1
0.168246 0.989441 1
0.174273 1 1
0.180316 1 0.788434
1 0 0.317342
1 0 0.0334478
1 0 0
1 0.0158389 0
1 0.125536 0
1 0 0.745464
1 0.0411688 0.461555
1 0.150851 0.17763
1 0.260548 0
1 0.370245 0
0.897765 0.176196 1
0.903807 0.285893 0.889693
0.909834 0.395575 0.605783
0.915877 0.505272 0.321859
0.921904 0.614969 0.0379339
0.731899 0.42092 1
0.737926 0.530602 1
0.743969 0.640299 1
0.749996 0.749996 0.749996
0.756024 0.859693 0.466072
0.566018 0.665644 1
0.572045 0.775326 1
0.578088 0.885023 1
0.584115 0.99472 1
0.590158 1 0.894209
1 0 0.423133
1 0 0.139223
1 0 0
1 0 0
1 0.0211185 0
1 0 0.85124
1 0 0.567346
1 0.0464485 0.283421
1 0.156146 0
1 0.265827 0
1 0.0717937 1
1 0.181476 0.995483
1 0.291173 0.711559
1 0.400854 0.427634
1 0.510552 0.143725
1 0.316503 1
1 0.4262 1
1 0.535897 1
1 0.645579 0.855787
1 0.755276 0.571862
0.97586 0.561227 1
0.981903 0.670924 1
0.98793 0.780606 1
0.993973 0.890303 1
1 1 1
