public/LUTS/Color Shift/ColorShift_36.cube
TITLE "Generated by Resolve"
LUT_3D_SIZE 5
0 0 0
0.104997 0.0119631 0.245319
0.209995 0.0239109 0.490654
0.314992 0.035874 0.735988
0.420005 0.047837 0.981338
0.354986 0.14313 0.00280766
0.459983 0.155093 0.248127
0.564981 0.167041 0.493462
0.669978 0.179004 0.738796
0.77499 0.190967 0.984146
0.709987 0.286275 0.00561532
0.814984 0.298222 0.250935
0.919982 0.310185 0.496269
1 0.322148 0.741604
1 0.334096 0.986938
1 0.429404 0.00842298
1 0.441367 0.253742
1 0.45333 0.499077
1 0.465278 0.744411
1 0.477241 0.989746
1 0.572549 0.0112306
1 0.584512 0.25655
1 0.59646 0.501884
1 0.608423 0.747219
1 0.620386 0.992554
0 0.0948959 0.0018616
0 0.106859 0.247181
0 0.118822 0.492515
0.105013 0.13077 0.73785
0.21001 0.142733 0.9832
0.144991 0.238025 0.00466926
0.249989 0.249989 0.249989
0.354986 0.261952 0.495323
0.459998 0.273899 0.740658
0.564996 0.285863 0.985992
0.499992 0.38117 0.00747692
0.60499 0.393133 0.252796
0.710002 0.405081 0.498131
0.815 0.417044 0.743465
0.919997 0.429007 0.9888
0.855009 0.524315 0.0102846
0.960006 0.536263 0.255604
1 0.548226 0.500938
1 0.560189 0.746273
1 0.572137 0.991608
1 0.667445 0.0130922
1 0.679408 0.258412
1 0.691371 0.503746
1 0.703319 0.749081
1 0.715282 0.994415
0 0.189807 0.0037232
0 0.20177 0.249042
0 0.213718 0.494377
0 0.225681 0.739712
0 0.237644 0.985061
0 0.332937 0.00653086
0.0399786 0.3449 0.25185
0.144991 0.356847 0.497185
0.249989 0.368811 0.742519
0.354986 0.380774 0.987854
0.289998 0.476081 0.00933852
0.394995 0.488029 0.254658
0.499992 0.499992 0.499992
0.60499 0.511955 0.745327
0.710002 0.523903 0.990662
0.644999 0.619211 0.0121462
0.749996 0.631174 0.257465
0.854994 0.643137 0.5028
0.960006 0.655085 0.748135
1 0.667048 0.993469
1 0.762356 0.0149386
1 0.774319 0.260273
1 0.786267 0.505608
1 0.79823 0.750942
1 0.810193 0.996277
0 0.284718 0.0055848
0 0.296666 0.250904
0 0.308629 0.496239
0 0.320592 0.741573
0 0.33254 0.986908
0 0.427848 0.00839246
0 0.439796 0.253712
0 0.451759 0.499046
0.0399786 0.463722 0.744381
0.144991 0.47567 0.989715
0.0799878 0.570977 0.0112001
0.184985 0.58294 0.256519
0.289982 0.594903 0.501854
0.394995 0.606851 0.747189
0.499992 0.618814 0.992523
0.435004 0.714122 0.0140078
0.539986 0.726085 0.259327
0.644999 0.738033 0.504662
0.749996 0.749996 0.749996
0.854994 0.761959 0.995331
0.790005 0.857267 0.0168002
0.895003 0.869215 0.262135
1 0.881178 0.507469
1 0.893141 0.752804
1 0.905089 0.998138
0 0.379614 0.0074464
0 0.391577 0.252766
0 0.40354 0.4981
0 0.415488 0.743435
0 0.427451 0.988769
0 0.522744 0.0102541
0 0.534707 0.255573
0 0.54667 0.500908
0 0.558618 0.746242
0 0.570581 0.991577
0 0.665888 0.0130617
0 0.677852 0.258381
0.0799878 0.689799 0.503716
0.184985 0.701762 0.74905
0.289982 0.713726 0.994385
0.224994 0.809033 0.0158541
0.329992 0.820981 0.261189
0.434989 0.832944 0.506523
0.539986 0.844907 0.751858
0.644999 0.856855 0.997192
0.579995 0.952163 0.0186618
0.684993 0.964126 0.263996
0.78999 0.976089 0.509331
0.895003 0.988037 0.754665
1 1 1
