public/LUTS/Color Shift/ColorShift_69.cube
TITLE "Generated by Resolve"
LUT_3D_SIZE 5
0 0 0
0.288151 0.0140688 0
0.576318 0.0281376 0
0.864485 0.0422217 0
1 0.0562905 0
0 0.311666 0.0806592
0.0480049 0.325734 0
0.336172 0.339803 0
0.624338 0.353872 0
0.912505 0.367956 0
0 0.623346 0.161318
0 0.637415 0
0.096025 0.651484 0
0.384176 0.665553 0
0.672343 0.679637 0
0 0.935027 0.241993
0 0.949096 0.0434882
0 0.963165 0
0.14403 0.977234 0
0.432197 0.991318 0
0 1 0.322652
0 1 0.124163
0 1 0
0 1 0
0.192035 1 0
0.201984 0 0.367834
0.490135 0 0.169329
0.778286 0 0
1 0 0
1 0 0
0 0.23592 0.448493
0.249989 0.249989 0.249989
0.538155 0.264057 0.0514687
0.826322 0.278126 0
1 0.29221 0
0 0.547601 0.529152
0.00982681 0.561669 0.330648
0.297993 0.575738 0.132143
0.58616 0.589807 0
0.874327 0.603891 0
0 0.859281 0.609827
0 0.87335 0.411322
0.057847 0.887419 0.212802
0.346014 0.901488 0.0142977
0.63418 0.915572 0
0 1 0.690486
0 1 0.491981
0 1 0.293477
0.105852 1 0.0949569
0.394018 1 0
0.403967 0 0.735683
0.692119 0 0.537179
0.980285 0 0.338674
1 0 0.140154
1 0 0
0.163836 0.160174 0.816342
0.451987 0.174243 0.617838
0.740154 0.188312 0.419333
1 0.20238 0.220813
1 0.216464 0.0223087
0 0.471855 0.897002
0.211826 0.485924 0.698512
0.499992 0.499992 0.499992
0.788159 0.514061 0.301472
1 0.52813 0.102968
0 0.783536 0.977676
0 0.797604 0.779171
0.259831 0.811673 0.580652
0.547997 0.825742 0.382147
0.836164 0.839811 0.183627
0 1 1
0 1 0.859831
0.0196841 1 0.661326
0.307851 1 0.462806
0.596017 1 0.264302
0.605966 0 1
0.894118 0 0.905028
1 0 0.706523
1 0 0.508003
1 0 0.309499
0.365835 0.0844129 1
0.653971 0.098497 0.985687
0.942138 0.112566 0.787182
1 0.126635 0.588663
1 0.140703 0.390158
0.125673 0.396094 1
0.413825 0.410178 1
0.701991 0.424247 0.867842
0.990158 0.438315 0.669337
1 0.452384 0.470817
0 0.707774 1
0.173663 0.721843 1
0.46183 0.735927 0.948516
0.749996 0.749996 0.749996
1 0.764065 0.551476
0 1 1
0 1 1
0.221683 1 1
0.509834 1 0.830655
0.798001 1 0.632151
0.807965 0 1
1 0 1
1 0 1
1 0 0.875853
1 0 0.677348
0.567819 0.00866712 1
0.85597 0.0227359 1
1 0.03682 1
1 0.0508888 0.956512
1 0.0649577 0.758007
0.327672 0.320348 1
0.615808 0.334417 1
0.903975 0.348501 1
1 0.36257 1
1 0.376638 0.838666
0.0875105 0.632029 1
0.375662 0.646097 1
0.663828 0.660182 1
0.951995 0.67425 1
1 0.688319 0.919341
0 0.943709 1
0.1355 0.957778 1
0.423667 0.971847 1
0.711833 0.985931 1
1 1 1
