public/LUTS/Color Shift/ColorShift_29.cube
TITLE "Generated by Resolve"
LUT_3D_SIZE 5
0 0 0
0.238132 0 0.134951
0.47628 0 0.269932
0.714427 0 0.404898
0.95256 0 0.539864
0.154894 0.212467 0
0.393027 0.198672 0.0653544
0.631159 0.184878 0.20032
0.869307 0.171084 0.335286
1 0.15729 0.470253
0.309789 0.424949 0
0.547921 0.411154 0
0.786068 0.39736 0.130724
1 0.383566 0.26569
1 0.369772 0.400656
0.464683 0.63743 0
0.702815 0.623636 0
0.940963 0.609842 0.0611276
1 0.596048 0.196094
1 0.582254 0.33106
0.619593 0.849912 0
0.85771 0.836118 0
1 0.822324 0
1 0.80853 0.126482
1 0.794736 0.261448
0 0.0513161 0.184634
0.0950942 0.0375219 0.319585
0.333242 0.0237278 0.454551
0.571389 0.00993362 0.589517
0.809537 0 0.724483
0.0118563 0.263783 0.115038
0.249989 0.249989 0.249989
0.488136 0.236194 0.384955
0.726284 0.2224 0.519921
0.964416 0.208606 0.654887
0.166751 0.476265 0.0454261
0.404883 0.46247 0.180392
0.64303 0.448676 0.315358
0.881178 0.434882 0.450324
1 0.421088 0.58529
0.32166 0.688746 0
0.559792 0.674952 0.11078
0.797925 0.661158 0.245747
1 0.647364 0.380713
1 0.63357 0.515679
0.476555 0.901228 0
0.714687 0.887434 0.0411841
0.952834 0.87364 0.17615
1 0.859846 0.311116
1 0.846052 0.446082
0 0.102632 0.369268
0 0.088838 0.504219
0.190204 0.0750439 0.639185
0.428351 0.0612497 0.774151
0.666499 0.0474556 0.909117
0 0.315099 0.299672
0.10695 0.301305 0.434623
0.345098 0.28751 0.569589
0.583246 0.273716 0.704555
0.821378 0.259922 0.839521
0.0237125 0.527581 0.23006
0.261845 0.513787 0.365026
0.499992 0.499992 0.499992
0.73814 0.486198 0.634958
0.976287 0.472404 0.769924
0.178622 0.740063 0.160464
0.416739 0.726268 0.29543
0.654887 0.712474 0.430396
0.893034 0.69868 0.565362
1 0.684886 0.700328
0.333516 0.952544 0.0908675
0.571649 0.93875 0.225818
0.809796 0.924956 0.360784
1 0.911162 0.49575
1 0.897368 0.630716
0 0.153948 0.553903
0 0.140154 0.688869
0.0471656 0.12636 0.823835
0.285313 0.112566 0.958801
0.523461 0.0987716 1
0 0.366415 0.484306
0 0.352621 0.619272
0.20206 0.338827 0.754238
0.440192 0.325032 0.889204
0.67834 0.311238 1
0 0.578897 0.41471
0.118807 0.565103 0.549661
0.356954 0.551308 0.684627
0.595102 0.537514 0.819593
0.833249 0.52372 0.954559
0.035584 0.791379 0.345098
0.273701 0.777584 0.480064
0.511849 0.76379 0.61503
0.749996 0.749996 0.749996
0.988144 0.736202 0.884962
0.190478 1 0.275502
0.428611 0.990066 0.410468
0.666743 0.976272 0.545434
0.904891 0.962478 0.6804
1 0.948684 0.815366
0 0.205264 0.738552
0 0.19147 0.873503
0 0.177676 1
0.142275 0.163882 1
0.380407 0.150088 1
0 0.417731 0.668956
0 0.403937 0.803906
0.0590066 0.390143 0.938872
0.297154 0.376349 1
0.535302 0.362554 1
0 0.630213 0.599344
0 0.616419 0.73431
0.213916 0.602625 0.869276
0.452064 0.58883 1
0.690196 0.575036 1
0 0.842695 0.529747
0.130663 0.828901 0.664698
0.368811 0.815106 0.799664
0.606958 0.801312 0.93463
0.845106 0.787518 1
0.0474403 1 0.460136
0.285573 1 0.595102
0.523705 1 0.730068
0.761852 1 0.865034
1 1 1
