public/LUTS/Color Shift/ColorShift_76.cube
TITLE "Generated by Resolve"
LUT_3D_SIZE 5
0 0 0
0.399374 0 0.0689097
0.798779 0 0.137835
1 0 0.20676
1 0 0.275669
0 0.279515 0
0.385992 0.225834 0
0.785397 0.172152 0
1 0.118471 0.00836194
1 0.0647898 0.0772869
0 0.55903 0
0.372625 0.505348 0
0.772015 0.451667 0
1 0.397986 0
1 0.344305 0
0 0.83856 0
0.359243 0.784878 0
0.758648 0.731197 0
1 0.677516 0
1 0.623835 0
0 1 0
0.345861 1 0
0.745266 1 0
1 0.957046 0
1 0.903365 0
0 0.024155 0.379461
0.263371 0 0.448371
0.662776 0 0.517296
1 0 0.586221
1 0 0.655131
0 0.30367 0.181079
0.249989 0.249989 0.249989
0.649393 0.196307 0.318914
1 0.142626 0.387823
1 0.0889448 0.456748
0 0.5832 0
0.236606 0.529519 0.0515908
0.636011 0.475837 0.1205
1 0.422156 0.189425
1 0.368475 0.25835
0 0.862715 0
0.223224 0.809033 0
0.622629 0.755352 0
1 0.701671 0
1 0.64799 0.0599374
0 1 0
0.209842 1 0
0.609247 1 0
1 0.981201 0
1 0.92752 0
0 0.0483253 0.758953
0.127352 0 0.827863
0.526757 0 0.896788
0.926162 0 0.965698
1 0 1
0 0.327825 0.560555
0.11397 0.274144 0.62948
0.513375 0.220462 0.69839
0.912779 0.166781 0.767315
1 0.1131 0.83624
0 0.607355 0.362158
0.100587 0.553674 0.431067
0.499992 0.499992 0.499992
0.899397 0.446311 0.568917
1 0.39263 0.637827
0 0.886885 0.16376
0.0872053 0.833204 0.23267
0.48661 0.779522 0.301595
0.886015 0.725841 0.370504
1 0.67216 0.439429
0 1 0
0.0738231 1 0.0342718
0.473228 1 0.103182
0.872633 1 0.172107
1 0.951675 0.241032
0 0.0724804 1
0 0.0187991 1
0.390738 0 1
0.790143 0 1
1 0 1
0 0.351995 0.940047
0 0.298314 1
0.377356 0.244633 1
0.776761 0.190951 1
1 0.137255 1
0 0.63151 0.74165
0 0.577829 0.810559
0.363973 0.524147 0.879484
0.763378 0.470466 0.948394
1 0.416785 1
0 0.91104 0.543236
0 0.857359 0.612161
0.350591 0.803677 0.681071
0.749996 0.749996 0.749996
1 0.696315 0.818921
0 1 0.344839
0 1 0.413748
0.337209 1 0.482673
0.736614 1 0.551598
1 0.975845 0.620508
0 0.0966354 1
0 0.0429541 1
0.254719 0 1
0.654124 0 1
1 0 1
0 0.37615 1
0 0.322469 1
0.241337 0.268788 1
0.640742 0.215106 1
1 0.161425 1
0 0.65568 1
0 0.601999 1
0.227955 0.548318 1
0.627359 0.494636 1
1 0.440955 1
0 0.935195 0.922728
0 0.881514 0.991638
0.214572 0.827832 1
0.613977 0.774151 1
1 0.72047 1
0 1 0.72433
0 1 0.79324
0.20119 1 0.862165
0.600595 1 0.931075
1 1 1
