public/LUTS/Color Shift/ColorShift_72.cube
TITLE "Generated by Resolve"
LUT_3D_SIZE 9
0 0 0
0.182773 0 0
0.36556 0 0
0.548348 0 0
0.731151 0 0
0.913939 0 0
1 0 0
1 0 0
1 0 0
0 0.155184 0
0.095491 0.144045 0
0.278294 0.132921 0
0.461082 0.121798 0
0.64387 0.110674 0
0.826658 0.0995346 0
1 0.0884108 0
1 0.0772869 0
1 0.0661479 0
0 0.310384 0
0.00820935 0.299245 0
0.190997 0.288121 0
0.3738 0.276997 0
0.556588 0.265873 0
0.739376 0.254734 0
0.922164 0.24361 0
1 0.232486 0
1 0.221347 0
0 0.465568 0
0 0.454444 0
0.103716 0.44332 0
0.286503 0.432197 0
0.469306 0.421057 0
0.652094 0.409934 0
0.834882 0.39881 0
1 0.387686 0
1 0.376547 0
0 0.620768 0
0 0.609644 0
0.016434 0.59852 0
0.199222 0.587396 0
0.38201 0.576257 0
0.564813 0.565133 0
0.7476 0.554009 0
0.930388 0.54287 0
1 0.531746 0
0 0.775967 0
0 0.764843 0
0 0.753719 0
0.11194 0.742596 0
0.294728 0.731456 0
0.477516 0.720333 0
0.660319 0.709209 0
0.843107 0.69807 0
1 0.686946 0
0 0.931167 0
0 0.920043 0
0 0.908919 0
0.0246433 0.89778 0
0.207446 0.886656 0
0.390234 0.875532 0
0.573022 0.864408 0
0.755825 0.853269 0
0.938613 0.842145 0
0 1 0
0 1 0
0 1 0
0 1 0
0.12015 1 0
0.302953 1 0
0.48574 1 0
0.668528 1 0
0.851331 0.997345 0
0 1 0
0 1 0
0 1 0
0 1 0
0.0328679 1 0
0.215656 1 0
0.398459 1 0
0.581247 1 0
0.764035 1 0
0.0294957 0 0.204471
0.212268 0 0.156176
0.395056 0 0.107881
0.577844 0 0.0595712
0.760632 0 0.0112764
0.943435 0 0
1 0 0
1 0 0
1 0 0
0 0.13611 0.173281
0.124987 0.124987 0.124987
0.307774 0.113863 0.0766918
0.490578 0.102724 0.0283818
0.673365 0.0915999 0
0.856153 0.0804761 0
1 0.0693523 0
1 0.0582132 0
1 0.0470893 0
0 0.29131 0.142092
0.037705 0.280186 0.0937972
0.220493 0.269062 0.0455024
0.403281 0.257923 0
0.586084 0.246799 0
0.768872 0.235676 0
0.951659 0.224537 0
1 0.213413 0
1 0.202289 0
0 0.44651 0.110903
0 0.435386 0.0626078
0.133211 0.424262 0.014313
0.315999 0.413123 0
0.498787 0.401999 0
0.68159 0.390875 0
0.864378 0.379736 0
1 0.368612 0
1 0.357488 0
0 0.601709 0.0797131
0 0.590585 0.0314183
0.0459144 0.579446 0
0.228717 0.568322 0
0.411505 0.557198 0
0.594293 0.546075 0
0.777096 0.534936 0
0.959884 0.523812 0
1 0.512688 0
0 0.756909 0.0485237
0 0.745785 0.000228885
0 0.734646 0
0.141421 0.723522 0
0.324224 0.712398 0
0.507012 0.701259 0
0.689799 0.690135 0
0.872602 0.679011 0
1 0.667887 0
0 0.912108 0.0173342
0 0.900984 0
0 0.889845 0
0.054139 0.878721 0
0.236927 0.867597 0
0.41973 0.856458 0
0.602518 0.845335 0
0.785306 0.834211 0
0.968109 0.823087 0
0 1 0
0 1 0
0 1 0
0 1 0
0.149645 1 0
0.332448 1 0
0.515236 1 0
0.698024 0.98941 0
0.880812 0.978271 0
0 1 0
0 1 0
0 1 0
0 1 0
0.0623636 1 0
0.245151 1 0
0.427955 1 0
0.610742 1 0
0.79353 1 0
0.0589914 0 0.408957
0.241764 0 0.360662
0.424552 0 0.312367
0.60734 0 0.264073
0.790127 0 0.215763
0.97293 0 0.167468
1 0 0.119173
1 0 0.0708782
1 0 0.0225681
0 0.117052 0.377768
0.154482 0.105913 0.329473
0.33727 0.094789 0.281178
0.520073 0.0836652 0.232883
0.702861 0.0725414 0.184588
0.885649 0.0614023 0.136278
1 0.0502785 0.0879835
1 0.0391546 0.0396887
1 0.0280156 0
0 0.272236 0.346578
0.0672007 0.261112 0.298283
0.249989 0.249989 0.249989
0.432776 0.238865 0.201694
0.615579 0.227726 0.153384
0.798367 0.216602 0.105089
0.981155 0.205478 0.0567941
1 0.194354 0.00849927
1 0.183215 0
0 0.427436 0.315389
0 0.416312 0.267094
0.162707 0.405188 0.218799
0.345495 0.394064 0.170504
0.528283 0.382925 0.122194
0.711086 0.371801 0.0738994
0.893874 0.360678 0.0256046
1 0.349538 0
1 0.338415 0
0 0.582635 0.284199
0 0.571511 0.235904
0.0754101 0.560388 0.18761
0.258213 0.549264 0.139315
0.441001 0.538125 0.0910048
0.623789 0.527001 0.04271
0.806592 0.515877 0
0.98938 0.504738 0
1 0.493614 0
0 0.737835 0.25301
0 0.726711 0.204715
0 0.715587 0.15642
0.170916 0.704448 0.108125
0.353719 0.693324 0.0598154
0.536507 0.6822 0.0115206
0.719295 0.671077 0
0.902098 0.659937 0
1 0.648814 0
0 0.893034 0.22182
0 0.88191 0.173526
0 0.870787 0.125231
0.0836347 0.859648 0.076936
0.266423 0.848524 0.0286259
0.449226 0.8374 0
0.632013 0.826261 0
0.814801 0.815137 0
0.997604 0.804013 0
0 1 0.190631
0 1 0.142336
0 1 0.0940414
0 1 0.0457465
0.179141 1 0
0.361929 0.992599 0
0.544732 0.98146 0
0.72752 0.970336 0
0.910307 0.959213 0
0 1 0.159442
0 1 0.111147
0 1 0.0628519
0 1 0.0145418
0.0918593 1 0
0.274647 1 0
0.45745 1 0
0.640238 1 0
0.823026 1 0
0.0884871 0 0.613443
0.27126 0 0.565148
0.454047 0 0.516854
0.636835 0 0.468559
0.819623 0 0.420264
1 0 0.371954
1 0 0.323659
1 0 0.275364
1 0 0.22707
0.00120546 0.0979782 0.582254
0.183978 0.0868544 0.533974
0.366766 0.0757153 0.485664
0.549569 0.0645914 0.437369
0.732357 0.0534676 0.389075
0.915145 0.0423438 0.34078
1 0.0312047 0.29247
1 0.0200809 0.244175
1 0.00895705 0.19588
0 0.253178 0.551064
0.0966964 0.242054 0.502785
0.279484 0.230915 0.454475
0.462272 0.219791 0.40618
0.645075 0.208667 0.357885
0.827863 0.197543 0.30959
1 0.186404 0.26128
1 0.17528 0.212985
1 0.164157 0.164691
0 0.408377 0.519875
0.00939956 0.397253 0.471595
0.192203 0.386114 0.423285
0.37499 0.37499 0.37499
0.557778 0.363867 0.326696
0.740581 0.352728 0.278386
0.923369 0.341604 0.230091
1 0.33048 0.181796
1 0.319356 0.133501
0 0.563577 0.488685
0 0.552438 0.440391
0.104906 0.541314 0.392096
0.287709 0.53019 0.343801
0.470497 0.519066 0.295506
0.653284 0.507927 0.247196
0.836088 0.496803 0.198901
1 0.485679 0.150607
1 0.47454 0.102312
0 0.718776 0.457496
0 0.707637 0.409201
0.0176242 0.696513 0.360906
0.200412 0.685389 0.312612
0.383215 0.674266 0.264317
0.566003 0.663127 0.216007
0.748791 0.652003 0.167712
0.931594 0.640879 0.119417
1 0.62974 0.0711223
0 0.873976 0.426307
0 0.862837 0.378012
0 0.851713 0.329717
0.11313 0.840589 0.281422
0.295918 0.82945 0.233127
0.478721 0.818326 0.184817
0.661509 0.807202 0.136522
0.844297 0.796078 0.0882277
1 0.784939 0.0399329
0 1 0.395117
0 1 0.346822
0 1 0.298528
0.0258488 0.995789 0.250233
0.208637 0.984649 0.201938
0.391424 0.973526 0.153628
0.574228 0.962402 0.105333
0.757015 0.951263 0.0570382
0.939803 0.940139 0.00874342
0 1 0.363928
0 1 0.315633
0 1 0.267338
0 1 0.219043
0.121355 1 0.170748
0.304143 1 0.122438
0.486931 1 0.0741436
0.669734 1 0.0258488
0.852522 1 0
0.117983 0 0.817945
0.300755 0 0.76965
0.483543 0 0.72134
0.666331 0 0.673045
0.849119 0 0.62475
1 0 0.576455
1 0 0.528145
1 0 0.47985
1 0 0.431556
0.0307012 0.0789044 0.786755
0.213474 0.0677806 0.73846
0.396262 0.0566567 0.690166
0.579065 0.0455329 0.641855
0.761852 0.0343938 0.593561
0.94464 0.02327 0.545266
1 0.0121462 0.496971
1 0.0010071 0.448661
1 0 0.400366
0 0.234104 0.755566
0.126192 0.22298 0.707271
0.30898 0.211856 0.658976
0.491768 0.200717 0.610666
0.674571 0.189593 0.562371
0.857359 0.17847 0.514076
1 0.167346 0.465782
1 0.156207 0.417472
1 0.145083 0.369177
0 0.389303 0.724376
0.0388952 0.37818 0.676081
0.221698 0.367056 0.627787
0.404486 0.355917 0.579477
0.587274 0.344793 0.531182
0.770077 0.333669 0.482887
0.952865 0.322545 0.434592
1 0.311406 0.386282
1 0.300282 0.337987
0 0.544503 0.693187
0 0.533379 0.644892
0.134401 0.522255 0.596597
0.317205 0.511116 0.548287
0.499992 0.499992 0.499992
0.68278 0.488869 0.451698
0.865583 0.477729 0.403388
1 0.466606 0.355093
1 0.455482 0.306798
0 0.699702 0.661997
0 0.688579 0.613703
0.0471199 0.67744 0.565393
0.229908 0.666316 0.517098
0.412711 0.655192 0.468803
0.595499 0.644068 0.420508
0.778286 0.632929 0.372198
0.961089 0.621805 0.323903
1 0.610681 0.275608
0 0.854902 0.630808
0 0.843778 0.582513
0 0.832639 0.534203
0.142626 0.821515 0.485908
0.325414 0.810391 0.437613
0.508217 0.799268 0.389319
0.691005 0.788128 0.341009
0.873793 0.777005 0.292714
1 0.765881 0.244419
0 1 0.599619
0 0.998978 0.551324
0 0.987839 0.503014
0.0553445 0.976715 0.454719
0.238132 0.965591 0.406424
0.42092 0.954452 0.358129
0.603723 0.943328 0.309819
0.786511 0.932204 0.261524
0.969299 0.92108 0.21323
0 1 0.568414
0 1 0.520134
0 1 0.471824
0 1 0.423529
0.150851 1 0.375235
0.333639 1 0.32694
0.516426 1 0.27863
0.699229 1 0.230335
0.882017 1 0.18204
0.147478 0 1
0.330251 0 0.974136
0.513039 0 0.925841
0.695827 0 0.877546
0.878614 0 0.829236
1 0 0.780941
1 0 0.732647
1 0 0.684337
1 0 0.636042
0.0601968 0.0598459 0.991241
0.242969 0.0487221 0.942946
0.425757 0.037583 0.894652
0.60856 0.0264591 0.846357
0.791348 0.0153353 0.798047
0.974136 0.00419623 0.749752
1 0 0.701457
1 0 0.653162
1 0 0.604852
0 0.215045 0.960052
0.155688 0.203906 0.911757
0.338476 0.192782 0.863462
0.521263 0.181659 0.815167
0.704067 0.170535 0.766857
0.886854 0.159396 0.718563
1 0.148272 0.670268
1 0.137148 0.621973
1 0.126009 0.573663
0 0.370245 0.928862
0.0683909 0.359106 0.880568
0.251194 0.347982 0.832273
0.433982 0.336858 0.783978
0.61677 0.325719 0.735668
0.799573 0.314595 0.687373
0.982361 0.303471 0.639078
1 0.292348 0.590784
1 0.281209 0.542473
0 0.525429 0.897673
0 0.514305 0.849378
0.163897 0.503182 0.801083
0.3467 0.492058 0.752789
0.529488 0.480919 0.704479
0.712276 0.469795 0.656184
0.895079 0.458671 0.607889
1 0.447547 0.559594
1 0.436408 0.511284
0 0.680629 0.866484
0 0.669505 0.818189
0.0766155 0.658381 0.769894
0.259403 0.647257 0.721599
0.442206 0.636118 0.673289
0.624994 0.624994 0.624994
0.807782 0.61387 0.576699
0.990585 0.602731 0.528389
1 0.591608 0.480095
0 0.835828 0.835294
0 0.824704 0.786999
0 0.813581 0.738705
0.172122 0.802441 0.690394
0.35491 0.791318 0.6421
0.537713 0.780194 0.593805
0.7205 0.76907 0.54551
0.903288 0.757931 0.4972
1 0.746807 0.448905
0 0.991028 0.804105
0 0.979904 0.75581
0 0.96878 0.707515
0.0848402 0.957641 0.659205
0.267628 0.946517 0.61091
0.450416 0.935393 0.562615
0.633219 0.924269 0.514321
0.816007 0.91313 0.466011
0.998795 0.902007 0.417716
0 1 0.772915
0 1 0.72462
0 1 0.676326
0 1 0.628016
0.180346 1 0.579721
0.363134 1 0.531426
0.545922 1 0.483131
0.728725 1 0.434821
0.911513 1 0.386526
0.176974 0 1
0.359747 0 1
0.542535 0 1
0.725322 0 1
0.90811 0 1
1 0 0.985428
1 0 0.937133
1 0 0.888838
1 0 0.840543
0.0896925 0.0407721 1
0.272465 0.0296483 1
0.455253 0.0185245 1
0.638056 0.00738537 1
0.820844 0 1
1 0 0.954253
1 0 0.905943
1 0 0.857649
1 0 0.809354
0.00241093 0.195972 1
0.185183 0.184848 1
0.367971 0.173724 1
0.550759 0.162585 1
0.733562 0.151461 0.971359
0.91635 0.140337 0.923049
1 0.129198 0.874754
1 0.118074 0.826459
1 0.10695 0.778164
0 0.351171 1
0.0978866 0.340047 1
0.28069 0.328908 1
0.463478 0.317784 0.988464
0.646265 0.306661 0.940169
0.829068 0.295537 0.891859
1 0.284398 0.843565
1 0.273274 0.79527
1 0.26215 0.746975
0 0.506371 1
0.010605 0.495247 1
0.193393 0.484108 1
0.376196 0.472984 0.957275
0.558984 0.46186 0.90898
0.741772 0.450721 0.86067
0.924575 0.439597 0.812375
1 0.428473 0.76408
1 0.41735 0.715785
0 0.66157 1
0 0.650446 1
0.106111 0.639307 0.97438
0.288899 0.628183 0.926085
0.471702 0.61706 0.877791
0.65449 0.60592 0.82948
0.837278 0.594797 0.781186
1 0.583673 0.732891
1 0.572549 0.684596
0 0.81677 1
0 0.805631 0.991485
0.0188296 0.794507 0.943191
0.201617 0.783383 0.894896
0.384405 0.772259 0.846601
0.567208 0.76112 0.798291
0.749996 0.749996 0.749996
0.932784 0.738872 0.701701
1 0.727733 0.653391
0 0.971969 1
0 0.96083 0.960296
0 0.949706 0.912001
0.114336 0.938582 0.863706
0.297124 0.927443 0.815396
0.479912 0.91632 0.767102
0.662715 0.905196 0.718807
0.845502 0.894072 0.670512
1 0.882933 0.622202
0 1 0.977401
0 1 0.929107
0 1 0.880812
0.0270542 1 0.832517
0.209842 1 0.784207
0.39263 1 0.735912
0.575418 1 0.687617
0.758221 1 0.639323
0.941009 1 0.591012
0.20647 0 1
0.389227 0 1
0.57203 0 1
0.754818 0 1
0.937606 0 1
1 0 1
1 0 1
1 0 1
1 0 1
0.119188 0.0216983 1
0.301961 0.0105745 1
0.484749 0 1
0.667552 0 1
0.85034 0 1
1 0 1
1 0 1
1 0 1
1 0 1
0.0319066 0.176898 1
0.214679 0.165774 1
0.397467 0.15465 1
0.580255 0.143526 1
0.763058 0.132387 1
0.945846 0.121263 1
1 0.11014 1
1 0.0990005 1
1 0.0878767 0.982651
0 0.332097 1
0.127382 0.320974 1
0.310185 0.30985 1
0.492973 0.298726 1
0.675761 0.287587 1
0.858564 0.276463 1
1 0.265339 1
1 0.2542 0.999756
1 0.243076 0.951461
0 0.487297 1
0.0401007 0.476173 1
0.222889 0.465049 1
0.405692 0.45391 1
0.588479 0.442786 1
0.771267 0.431662 1
0.95407 0.420539 1
1 0.4094 0.968566
1 0.398276 0.920272
0 0.642496 1
0 0.631373 1
0.135607 0.620249 1
0.318395 0.60911 1
0.501198 0.597986 1
0.683986 0.586862 1
0.866773 0.575723 0.985672
1 0.564599 0.937377
1 0.553475 0.889082
0 0.797696 1
0 0.786572 1
0.0483253 0.775448 1
0.231113 0.764309 1
0.413901 0.753185 1
0.596704 0.742061 1
0.779492 0.730922 0.954482
0.96228 0.719799 0.906188
1 0.708675 0.857893
0 0.952895 1
0 0.941772 1
0 0.930632 1
0.143832 0.919509 1
0.326619 0.908385 1
0.509407 0.897261 0.971603
0.69221 0.886122 0.923293
0.874998 0.874998 0.874998
1 0.863874 0.826703
0 1 1
0 1 1
0 1 1
0.0565499 1 1
0.239338 1 0.988708
0.422126 1 0.940398
0.604913 1 0.892103
0.787717 1 0.843809
0.970504 1 0.795514
0.235966 0 1
0.418723 0 1
0.601526 0 1
0.784314 0 1
0.967102 0 1
1 0 1
1 0 1
1 0 1
1 0 1
0.148684 0.00263981 1
0.331456 0 1
0.514244 0 1
0.697032 0 1
0.879835 0 1
1 0 1
1 0 1
1 0 1
1 0 1
0.0614023 0.157839 1
0.244175 0.146715 1
0.426963 0.135576 1
0.609751 0.124453 1
0.792554 0.113329 1
0.975341 0.10219 1
1 0.0910658 1
1 0.079942 1
1 0.0688182 1
0 0.313039 1
0.156878 0.3019 1
0.339681 0.290776 1
0.522469 0.279652 1
0.705257 0.268528 1
0.88806 0.257389 1
1 0.246265 1
1 0.235142 1
1 0.224002 1
0 0.468238 1
0.0695964 0.457099 1
0.252384 0.445975 1
0.435187 0.434852 1
0.617975 0.423728 1
0.800763 0.412589 1
0.983566 0.401465 1
1 0.390341 1
1 0.379202 1
0 0.623438 1
0 0.612299 1
0.165103 0.601175 1
0.34789 0.590051 1
0.530694 0.578912 1
0.713481 0.567788 1
0.896269 0.556664 1
1 0.545541 1
1 0.534401 1
0 0.778622 1
0 0.767498 1
0.077821 0.756374 1
0.260609 0.745251 1
0.443397 0.734112 1
0.6262 0.722988 1
0.808988 0.711864 1
0.991775 0.700725 1
1 0.689601 1
0 0.933822 1
0 0.922698 1
0 0.911574 1
0.173327 0.90045 1
0.356115 0.889311 1
0.538903 0.878187 1
0.721706 0.867063 1
0.904494 0.855924 1
1 0.8448 1
0 1 1
0 1 1
0 1 1
0.0860456 1 1
0.268833 1 1
0.451621 1 1
0.634409 1 1
0.817212 1 1
1 1 1
