public/LUTS/Color Shift/ColorShift_59.cube
TITLE "Generated by Resolve"
LUT_3D_SIZE 9
0 0 0
0 0.0707256 0
0 0.141451 0
0 0.212177 0
0 0.282902 0
0 0.353628 0
0 0.424353 0
0 0.495079 0
0 0.565805 0
0 0.0978714 0.266224
0 0.168582 0.144839
0 0.239307 0.0234226
0 0.310048 0
0 0.380774 0
0 0.451499 0
0 0.522225 0
0 0.59295 0
0 0.663676 0
0 0.195743 0.532494
0 0.266468 0.411093
0 0.337194 0.289677
0 0.407919 0.168276
0 0.478645 0.0468605
0 0.549371 0
0 0.620096 0
0 0.690837 0
0 0.761563 0
0 0.293629 0.798764
0 0.36434 0.677363
0 0.435065 0.555947
0 0.505806 0.434531
0 0.576532 0.313115
0 0.647257 0.191714
0 0.717983 0.0702983
0 0.788708 0
0 0.859434 0
0 0.391501 1
0 0.462226 0.943618
0 0.532952 0.822217
0 0.603677 0.700801
0 0.674403 0.579385
0 0.745129 0.457969
0 0.815869 0.336553
0 0.886595 0.215152
0 0.957321 0.0937362
0 0.489387 1
0 0.560098 1
0 0.630838 1
0 0.701564 0.967056
0 0.77229 0.845655
0 0.843015 0.724239
0 0.913741 0.602823
0 0.984466 0.481407
0 1 0.359991
0 0.587259 1
0 0.657984 1
0 0.72871 1
0 0.799435 1
0 0.870161 1
0 0.940887 0.990494
0 1 0.869093
0 1 0.747677
0 1 0.626261
0 0.685145 1
0 0.755871 1
0 0.826596 1
0 0.897322 1
0 0.968048 1
0 1 1
0 1 1
0 1 1
0 1 0.892531
0 0.783032 1
0 0.853742 1
0 0.924468 1
0 0.995193 1
0 1 1
0 1 1
0 1 1
0 1 1
0 1 1
0.207401 0 0
0.148684 0.0271153 0
0.0899672 0.0978408 0
0.0312352 0.168566 0
0 0.239307 0
0 0.310033 0
0 0.380758 0
0 0.451484 0
0 0.52221 0
0.183703 0.0542611 0.246387
0.124987 0.124987 0.124987
0.0662699 0.195712 0.00357061
0.00753796 0.266438 0
0 0.337163 0
0 0.407889 0
0 0.47863 0
0 0.549355 0
0 0.620081 0
0.160006 0.152148 0.512642
0.101289 0.222873 0.391257
0.0425574 0.293599 0.269841
0 0.364324 0.148425
0 0.43505 0.0270085
0 0.505776 0
0 0.576501 0
0 0.647227 0
0 0.717952 0
0.136294 0.250034 0.778912
0.0775921 0.320745 0.657511
0.0188602 0.39147 0.536095
0 0.462196 0.414694
0 0.532921 0.293278
0 0.603662 0.171862
0 0.674388 0.0504463
0 0.745113 0
0 0.815839 0
0.112596 0.347906 1
0.0538796 0.418631 0.923781
0 0.489357 0.802365
0 0.560082 0.680949
0 0.630808 0.559533
0 0.701534 0.438132
0 0.772259 0.316716
0 0.842985 0.1953
0 0.91371 0.0738842
0.0888991 0.445792 1
0.0301823 0.516503 1
0 0.587228 1
0 0.657954 0.947219
0 0.728695 0.825803
0 0.79942 0.704387
0 0.870146 0.582971
0 0.940871 0.46157
0 1 0.340154
0.0652018 0.543664 1
0.00648508 0.614389 1
0 0.685115 1
0 0.75584 1
0 0.826566 1
0 0.897292 0.970657
0 0.968017 0.849241
0 1 0.727825
0 1 0.606409
0.0414893 0.64155 1
0 0.712261 1
0 0.782986 1
0 0.853712 1
0 0.924453 1
0 0.995178 1
0 1 1
0 1 0.994095
0 1 0.872679
0.017792 0.739422 1
0 0.810147 1
0 0.880873 1
0 0.951598 1
0 1 1
0 1 1
0 1 1
0 1 1
0 1 1
0.414832 0 0
0.356115 0 0
0.297383 0.0542458 0
0.238666 0.124971 0
0.17995 0.195697 0
0.121218 0.266423 0
0.062501 0.337148 0
0.00376898 0.407874 0
0 0.478599 0
0.391135 0.0106661 0.226535
0.332418 0.0813764 0.105135
0.273686 0.152102 0
0.214969 0.222843 0
0.156237 0.293568 0
0.0975204 0.364294 0
0.0388037 0.435019 0
0 0.505745 0
0 0.576471 0
0.367422 0.108537 0.492805
0.308705 0.179263 0.371405
0.249989 0.249989 0.249989
0.191272 0.320714 0.128573
0.13254 0.39144 0.00715648
0.0738231 0.462165 0
0.0150912 0.532891 0
0 0.603632 0
0 0.674357 0
0.343725 0.206424 0.75906
0.285008 0.277134 0.637659
0.226291 0.347875 0.516258
0.167559 0.418601 0.394842
0.108843 0.489326 0.273426
0.0501259 0.560052 0.15201
0 0.630777 0.0305943
0 0.701503 0
0 0.772229 0
0.320027 0.304295 1
0.261311 0.375021 0.903929
0.202594 0.445747 0.782513
0.143862 0.516472 0.661097
0.0851453 0.587198 0.539696
0.0264134 0.657923 0.41828
0 0.728664 0.296864
0 0.79939 0.175448
0 0.870115 0.0540322
0.29633 0.402182 1
0.237613 0.472892 1
0.178882 0.543633 1
0.120165 0.614359 0.927367
0.0614328 0.685084 0.805951
0.00271611 0.75581 0.684535
0 0.826535 0.563134
0 0.897261 0.441718
0 0.967987 0.320302
0.272618 0.500053 1
0.213901 0.570779 1
0.155184 0.641505 1
0.0964675 0.71223 1
0.0377356 0.782956 1
0 0.853697 0.950805
0 0.924422 0.829389
0 0.995148 0.707973
0 1 0.586572
0.24892 0.59794 1
0.190204 0.668666 1
0.131487 0.739391 1
0.072755 0.810117 1
0.0140383 0.880842 1
0 0.951568 1
0 1 1
0 1 0.974243
0 1 0.852827
0.225223 0.695827 1
0.166506 0.766537 1
0.10779 0.837263 1
0.0490578 0.907988 1
0 0.978714 1
0 1 1
0 1 1
0 1 1
0 1 1
0.622248 0 0
0.563531 0 0
0.504814 0.0106355 0
0.446097 0.0813611 0
0.387366 0.152087 0
0.328649 0.222812 0
0.269917 0.293553 0
0.2112 0.364279 0
0.152483 0.435004 0
0.59855 0 0.206683
0.539834 0.0377813 0.0852827
0.481117 0.108507 0
0.422385 0.179232 0
0.363668 0.249958 0
0.304952 0.320684 0
0.24622 0.391409 0
0.187503 0.462135 0
0.128786 0.532876 0
0.574853 0.0649424 0.472953
0.516136 0.135653 0.351553
0.45742 0.206378 0.230137
0.398688 0.277104 0.108721
0.339971 0.347845 0
0.281239 0.41857 0
0.222522 0.489296 0
0.163806 0.560021 0
0.105074 0.630747 0
0.551156 0.162814 0.739208
0.492439 0.233539 0.617823
0.433707 0.304265 0.496406
0.37499 0.37499 0.37499
0.316274 0.445716 0.253574
0.257542 0.516442 0.132158
0.198825 0.587167 0.0107576
0.140093 0.657893 0
0.0813764 0.728634 0
0.527443 0.2607 1
0.468742 0.331411 0.884077
0.41001 0.402136 0.762661
0.351293 0.472877 0.64126
0.292561 0.543603 0.519844
0.233845 0.614328 0.398428
0.175128 0.685054 0.277012
0.116396 0.755779 0.155596
0.0576791 0.826505 0.0341955
0.503746 0.358572 1
0.445029 0.429297 1
0.386313 0.500023 1
0.327596 0.570748 0.907515
0.268864 0.641474 0.786099
0.210147 0.7122 0.664698
0.151415 0.782925 0.543282
0.0926986 0.853666 0.421866
0.0339818 0.924392 0.30045
0.480049 0.456458 1
0.421332 0.527169 1
0.362615 0.597894 1
0.303883 0.668635 1
0.245167 0.739361 1
0.186435 0.810086 0.930953
0.127718 0.880812 0.809537
0.0690013 0.951537 0.688136
0.0102693 1 0.56672
0.456352 0.55433 1
0.397635 0.625055 1
0.338903 0.695781 1
0.280186 0.766506 1
0.221469 0.837232 1
0.162737 0.907958 1
0.104021 0.978683 1
0.0452888 1 0.954391
0 1 0.832975
0.432639 0.652216 1
0.373938 0.722927 1
0.315206 0.793667 1
0.256489 0.864393 1
0.197757 0.935119 1
0.13904 1 1
0.0803235 1 1
0.0215915 1 1
0 1 1
0.829679 0 0
0.770962 0 0
0.712245 0 0
0.653513 0.0377661 0
0.594797 0.108492 0
0.536065 0.179217 0
0.477348 0.249943 0
0.418631 0.320668 0
0.359899 0.391394 0
0.805982 0 0.186831
0.747265 0 0.0654459
0.688548 0.0648966 0
0.629816 0.135622 0
0.571099 0.206348 0
0.512367 0.277089 0
0.453651 0.347814 0
0.394934 0.41854 0
0.336202 0.489265 0
0.782284 0.0213321 0.453101
0.723568 0.0920577 0.331701
0.664836 0.162783 0.210285
0.606119 0.233509 0.0888838
0.547387 0.304234 0
0.48867 0.37496 0
0.429953 0.445686 0
0.371221 0.516411 0
0.312505 0.587137 0
0.758572 0.119219 0.719371
0.699855 0.189929 0.597971
0.641138 0.260655 0.476555
0.582422 0.33138 0.355138
0.52369 0.402106 0.233722
0.464973 0.472847 0.112322
0.406241 0.543572 0
0.347524 0.614298 0
0.288808 0.685023 0
0.734874 0.21709 0.985626
0.676158 0.287816 0.864225
0.617441 0.358541 0.742824
0.558709 0.429267 0.621408
0.499992 0.499992 0.499992
0.441276 0.570718 0.378576
0.382544 0.641443 0.25716
0.323827 0.712169 0.13576
0.265095 0.782895 0.0143435
0.711177 0.314977 1
0.652461 0.385687 1
0.593744 0.456413 1
0.535012 0.527138 0.887663
0.476295 0.597879 0.766262
0.417563 0.668605 0.644846
0.358846 0.73933 0.52343
0.30013 0.810056 0.402014
0.241398 0.880781 0.280598
0.68748 0.412848 1
0.628763 0.483574 1
0.570031 0.554299 1
0.511315 0.625025 1
0.452598 0.69575 1
0.393866 0.766476 0.911101
0.335149 0.837201 0.7897
0.276417 0.907927 0.668284
0.2177 0.978668 0.546868
0.663767 0.510735 1
0.605051 0.581445 1
0.546334 0.652171 1
0.487617 0.722896 1
0.428885 0.793637 1
0.370169 0.864363 1
0.311437 0.935088 1
0.25272 1 0.934539
0.194003 1 0.813138
0.64007 0.608606 1
0.581353 0.679332 1
0.522637 0.750057 1
0.463905 0.820783 1
0.405188 0.891508 1
0.346471 0.962234 1
0.287739 1 1
0.229023 1 1
0.170291 1 1
1 0 0
0.978393 0 0
0.919661 0 0
0.860945 0 0
0.802213 0.0648814 0
0.743496 0.135607 0
0.684779 0.206332 0
0.626047 0.277058 0
0.56733 0.347784 0
1 0 0.166995
0.954696 0 0.045594
0.895964 0.0213016 0
0.837247 0.0920272 0
0.778515 0.162753 0
0.719799 0.233478 0
0.661082 0.304204 0
0.60235 0.374929 0
0.543633 0.445655 0
0.9897 0 0.433249
0.930983 0.0484474 0.311849
0.872267 0.119173 0.190448
0.81355 0.189899 0.0690318
0.754818 0.260624 0
0.696101 0.33135 0
0.637369 0.40209 0
0.578653 0.472816 0
0.519936 0.543542 0
0.966003 0.0756085 0.699519
0.907286 0.146319 0.578119
0.848569 0.21706 0.456703
0.789837 0.287785 0.335286
0.731121 0.358511 0.213886
0.672389 0.429236 0.0924697
0.613672 0.499962 0
0.554955 0.570687 0
0.496223 0.641413 0
0.942306 0.17348 0.965774
0.883589 0.244205 0.844388
0.824857 0.314931 0.722972
0.76614 0.385657 0.601556
0.707424 0.456382 0.48014
0.648692 0.527108 0.358724
0.589975 0.597848 0.237324
0.531243 0.668574 0.115908
0.472526 0.7393 0
0.918593 0.271366 1
0.859892 0.342092 1
0.80116 0.412818 0.989227
0.742443 0.483543 0.867826
0.683711 0.554269 0.74641
0.624994 0.624994 0.624994
0.566278 0.69572 0.503578
0.507546 0.766445 0.382162
0.448829 0.837171 0.260761
0.894896 0.369253 1
0.836179 0.439963 1
0.777462 0.510689 1
0.718746 0.581415 1
0.660014 0.65214 1
0.601297 0.722881 0.891264
0.542565 0.793606 0.769848
0.483848 0.864332 0.648432
0.425132 0.935058 0.527016
0.871199 0.467124 1
0.812482 0.53785 1
0.753765 0.608576 1
0.695033 0.679301 1
0.636316 0.750027 1
0.5776 0.820752 1
0.518868 0.891478 1
0.460151 0.962203 0.914702
0.401419 1 0.793286
0.847501 0.565011 1
0.788785 0.635721 1
0.730053 0.706447 1
0.671336 0.777173 1
0.612619 0.847898 1
0.553887 0.918639 1
0.495171 0.989364 1
0.436439 1 1
0.377722 1 1
1 0 0
1 0 0
1 0 0
1 0 0
1 0.0212711 0
0.950927 0.0919966 0
0.892195 0.162737 0
0.833478 0.233463 0
0.774762 0.304189 0
1 0 0.147143
1 0 0.025742
1 0 0
1 0.0484169 0
0.985946 0.119142 0
0.92723 0.189868 0
0.868498 0.260594 0
0.809781 0.331319 0
0.751049 0.40206 0
1 0 0.413397
1 0.00483711 0.292012
1 0.0755627 0.170596
1 0.146288 0.0491798
0.962249 0.217029 0
0.903517 0.287755 0
0.8448 0.35848 0
0.786084 0.429206 0
0.727352 0.499931 0
1 0.0319982 0.679667
1 0.102724 0.558267
1 0.173449 0.436851
0.997269 0.244175 0.31545
0.938552 0.3149 0.194034
0.87982 0.385626 0.0726177
0.821103 0.456352 0
0.762371 0.527092 0
0.703655 0.597818 0
1 0.129885 0.945937
1 0.200595 0.824537
1 0.271321 0.70312
0.973571 0.342061 0.581704
0.914839 0.412787 0.460288
0.856123 0.483513 0.338888
0.797391 0.554238 0.217472
0.738674 0.624964 0.0960555
0.679957 0.695689 0
1 0.227756 1
1 0.298482 1
1 0.369207 0.96939
0.949859 0.439933 0.847974
0.891142 0.510658 0.726558
0.832425 0.581384 0.605142
0.773693 0.65211 0.483726
0.714977 0.72285 0.362325
0.656245 0.793576 0.240909
1 0.325643 1
1 0.396353 1
0.984894 0.467094 1
0.926162 0.53782 1
0.867445 0.608545 0.992828
0.808713 0.679271 0.871412
0.749996 0.749996 0.749996
0.691279 0.820722 0.62858
0.632547 0.891447 0.507164
1 0.423514 1
1 0.49424 1
0.961181 0.564965 1
0.902464 0.635691 1
0.843748 0.706416 1
0.785016 0.777142 1
0.726299 0.847883 1
0.667567 0.918608 0.89485
0.60885 0.989334 0.773434
1 0.521401 1
0.996201 0.592111 1
0.937484 0.662852 1
0.878767 0.733577 1
0.820035 0.804303 1
0.761318 0.875029 1
0.702602 0.945754 1
0.64387 1 1
0.585153 1 1
1 0 0
1 0 0
1 0 0
1 0 0
1 0 0
1 0.0484016 0
1 0.119127 0
1 0.189853 0
0.982177 0.260578 0
1 0 0.127291
1 0 0.00588998
1 0 0
1 0.00480659 0
1 0.0755322 0
1 0.146273 0
1 0.216999 0
1 0.287724 0
0.95848 0.35845 0
1 0 0.393561
1 0 0.27216
1 0.0319677 0.150744
1 0.102693 0.0293278
1 0.173419 0
1 0.244144 0
1 0.31487 0
0.9935 0.385595 0
0.934783 0.456321 0
1 0 0.659815
1 0.0591135 0.538415
1 0.129839 0.417014
1 0.200565 0.295598
1 0.27129 0.174182
1 0.342031 0.0527657
1 0.412757 0
0.969802 0.483482 0
0.911086 0.554208 0
1 0.0862745 0.926085
1 0.157 0.804685
1 0.227726 0.683268
1 0.298451 0.561852
1 0.369177 0.440452
1 0.439902 0.319036
1 0.510628 0.19762
0.946105 0.581353 0.0762036
0.887373 0.652094 0
1 0.184161 1
1 0.254871 1
1 0.325597 0.949538
1 0.396323 0.828122
1 0.467063 0.706706
1 0.537789 0.58529
0.981125 0.608515 0.46389
0.922393 0.67924 0.342473
0.863676 0.749966 0.221057
1 0.282032 1
1 0.352758 1
1 0.423484 1
1 0.494209 1
1 0.564935 0.972976
1 0.63566 0.85156
0.957427 0.706386 0.730144
0.898695 0.777111 0.608728
0.839979 0.847852 0.487327
1 0.379919 1
1 0.450629 1
1 0.521355 1
1 0.592096 1
1 0.662821 1
0.992447 0.733547 1
0.933715 0.804273 0.996414
0.874998 0.874998 0.874998
0.816281 0.945724 0.753582
1 0.477791 1
1 0.548516 1
1 0.619242 1
1 0.689967 1
1 0.760693 1
0.96875 0.831418 1
0.910018 0.902144 1
0.851301 0.972885 1
0.792569 1 1
1 0 0
1 0 0
1 0 0
1 0 0
1 0 0
1 0.00479133 0
1 0.0755169 0
1 0.146242 0
1 0.216968 0
1 0 0.107439
1 0 0
1 0 0
1 0 0
1 0.0319371 0
1 0.102663 0
1 0.173388 0
1 0.244114 0
1 0.314839 0
1 0 0.373709
1 0 0.252308
1 0 0.130892
1 0.0590829 0.00949111
1 0.129809 0
1 0.200534 0
1 0.271275 0
1 0.342 0
1 0.412726 0
1 0 0.639963
1 0.0155032 0.518578
1 0.086244 0.397162
1 0.15697 0.275746
1 0.227695 0.15433
1 0.298421 0.032929
1 0.369146 0
1 0.439872 0
1 0.510597 0
1 0.0426642 0.906233
1 0.11339 0.784833
1 0.184115 0.663417
1 0.254841 0.542016
1 0.325567 0.4206
1 0.396307 0.299184
1 0.467033 0.177768
1 0.537758 0.0563668
1 0.608484 0
1 0.140551 1
1 0.211276 1
1 0.282002 0.929686
1 0.352728 0.80827
1 0.423453 0.686854
1 0.494179 0.565454
1 0.564904 0.444038
1 0.63563 0.322621
1 0.706355 0.201205
1 0.238437 1
1 0.309148 1
1 0.379873 1
1 0.450599 1
1 0.521324 0.953124
1 0.592065 0.831708
1 0.662791 0.710292
1 0.733516 0.588891
1 0.804242 0.467475
1 0.336309 1
1 0.407034 1
1 0.47776 1
1 0.548486 1
1 0.619211 1
1 0.689937 1
1 0.760662 0.976562
1 0.831388 0.855146
1 0.902113 0.73373
1 0.434195 1
1 0.504906 1
1 0.575631 1
1 0.646357 1
1 0.717098 1
1 0.787823 1
1 0.858549 1
1 0.929274 1
1 1 1
