public/LUTS/Color Shift/ColorShift_01.cube
TITLE "Generated by Resolve"
LUT_3D_SIZE 5
0 0 0
0 0.107439 0.0927901
0 0.214878 0.18558
0 0.322332 0.27837
0 0.42977 0.37116
0.338338 0.102144 0.360449
0.190433 0.209583 0.453239
0.0425269 0.317021 0.546029
0 0.424475 0.638819
0 0.531914 0.731609
0.676692 0.204288 0.720928
0.528801 0.311727 0.813703
0.38088 0.419181 0.906493
0.232975 0.526619 0.999283
0.085069 0.634073 1
1 0.306447 1
0.867155 0.413886 1
0.719249 0.521324 1
0.571328 0.628779 1
0.423423 0.736217 1
1 0.408591 1
1 0.51603 1
1 0.623484 1
0.909697 0.730922 1
0.761776 0.838361 1
0.059556 0.0404059 0
0 0.147845 0
0 0.255283 0
0 0.362737 0.0751202
0 0.470176 0.16791
0.397894 0.14255 0.157198
0.249989 0.249989 0.249989
0.102083 0.357427 0.342779
0 0.464881 0.435569
0 0.57232 0.528359
0.736248 0.244694 0.517678
0.588342 0.352132 0.610468
0.440436 0.459586 0.703258
0.292531 0.567025 0.796048
0.144625 0.674479 0.888838
1 0.346853 0.878157
0.926711 0.454292 0.970932
0.77879 0.56173 1
0.630884 0.669184 1
0.482979 0.776623 1
1 0.448997 1
1 0.556435 1
1 0.66389 1
0.969238 0.771328 1
0.821332 0.878767 1
0.119112 0.0808118 0
0 0.188251 0
0 0.295705 0
0 0.403143 0
0 0.510582 0
0.45745 0.182956 0
0.309545 0.290394 0.0467231
0.161639 0.397848 0.139513
0.0137331 0.505287 0.232303
0 0.612726 0.325093
0.795804 0.285115 0.314412
0.647898 0.392554 0.407202
0.499992 0.499992 0.499992
0.352087 0.607431 0.592782
0.204181 0.714885 0.685573
1 0.387259 0.674891
0.986252 0.494697 0.767681
0.838346 0.602136 0.860471
0.69044 0.70959 0.953262
0.542535 0.817029 1
1 0.489403 1
1 0.596841 1
1 0.704295 1
1 0.811734 1
0.880888 0.919188 1
0.178668 0.121218 0
0.0307622 0.228656 0
0 0.33611 0
0 0.443549 0
0 0.551003 0
0.517006 0.223362 0
0.3691 0.3308 0
0.221195 0.438254 0
0.0732738 0.545693 0.0290532
0 0.653147 0.121843
0.85536 0.325521 0.111162
0.707454 0.432959 0.203937
0.559548 0.540398 0.296727
0.411643 0.647852 0.389517
0.263737 0.755291 0.482307
1 0.427665 0.471626
1 0.535103 0.564416
0.897902 0.642557 0.657206
0.749996 0.749996 0.749996
0.60209 0.857435 0.842786
1 0.529824 0.832105
1 0.637263 0.924895
1 0.744701 1
1 0.85214 1
0.940444 0.959594 1
0.238224 0.161639 0
0.0903182 0.269078 0
0 0.376516 0
0 0.483955 0
0 0.591409 0
0.576547 0.263783 0
0.428656 0.371221 0
0.280751 0.47866 0
0.13283 0.586099 0
0 0.693553 0
0.914916 0.365927 0
0.76701 0.473365 0.000686656
0.619104 0.580804 0.0934768
0.471199 0.688258 0.186267
0.323278 0.795697 0.279057
1 0.468071 0.268376
1 0.575509 0.361151
0.957458 0.682963 0.453941
0.809552 0.790402 0.546731
0.661646 0.897856 0.639521
1 0.57023 0.62884
1 0.677668 0.72163
1 0.785107 0.81442
1 0.892561 0.90721
1 1 1
