public/LUTS/Color Shift/ColorShift_13.cube
TITLE "Generated by Resolve"
LUT_3D_SIZE 9
0 0 0
0 0.0465095 0
0 0.0930343 0
0 0.139559 0
0 0.186084 0
0 0.232609 0
0 0.279118 0
0 0.325643 0
0 0.372168 0
0 0.103426 0.173571
0 0.149935 0.103426
0 0.19646 0.0332494
0 0.242985 0
0 0.289509 0
0 0.336019 0
0 0.382544 0
0 0.429068 0
0 0.475593 0
0 0.206851 0.347173
0 0.253376 0.277012
0 0.299886 0.206851
0 0.34641 0.13669
0 0.392935 0.0665141
0 0.43946 0
0 0.485985 0
0 0.532494 0
0 0.579019 0
0 0.310292 0.520775
0 0.356802 0.450614
0 0.403326 0.380453
0 0.449851 0.310277
0 0.496361 0.240116
0 0.542885 0.169955
0 0.58941 0.0997787
0 0.635935 0.0296178
0 0.68246 0
0 0.413718 0.694377
0 0.460227 0.624216
0 0.506752 0.554055
0 0.553277 0.483879
0 0.599802 0.413718
0 0.646326 0.343542
0 0.692851 0.273381
0 0.739361 0.20322
0 0.785885 0.133043
0 0.517143 0.867979
0 0.563668 0.797818
0 0.610193 0.727657
0 0.656718 0.657481
0 0.703227 0.58732
0 0.749752 0.517143
0 0.796277 0.446983
0 0.842802 0.376806
0 0.889326 0.306645
0 0.620584 1
0 0.667094 0.97142
0 0.713619 0.901244
0 0.760143 0.831083
0 0.806668 0.760922
0 0.853193 0.690745
0 0.899702 0.620584
0 0.946227 0.550408
0 0.992752 0.480247
0 0.72401 1
0 0.770535 1
0 0.81706 1
0 0.863569 1
0 0.910094 0.934508
0 0.956619 0.864347
0 1 0.794186
0 1 0.72401
0 1 0.653849
0 0.827451 1
0 0.87396 1
0 0.920485 1
0 0.96701 1
0 1 1
0 1 1
0 1 0.967773
0 1 0.897612
0 1 0.827436
0.127489 0 0.021561
0.127489 0.021561 0
0.127489 0.0680858 0
0.127489 0.114611 0
0.127489 0.161135 0
0.127489 0.20766 0
0.127489 0.25417 0
0.127489 0.300694 0
0.127489 0.347219 0
0.124987 0.0784772 0.195148
0.124987 0.124987 0.124987
0.124987 0.171511 0.0548257
0.124987 0.218036 0
0.124987 0.264546 0
0.124987 0.31107 0
0.124987 0.357595 0
0.124987 0.40412 0
0.124987 0.450645 0
0.122484 0.181903 0.36875
0.122484 0.228412 0.298589
0.122484 0.274937 0.228412
0.122484 0.321462 0.158251
0.122484 0.367987 0.0880903
0.122484 0.414511 0.0179141
0.122484 0.461036 0
0.122484 0.507546 0
0.122484 0.55407 0
0.119982 0.285328 0.542351
0.119982 0.331853 0.47219
0.119982 0.378378 0.402014
0.119982 0.424903 0.331853
0.119982 0.471412 0.261677
0.119982 0.517937 0.191516
0.119982 0.564462 0.121355
0.119982 0.610986 0.0511788
0.119982 0.657511 0
0.117479 0.388769 0.715938
0.117479 0.435279 0.645792
0.117479 0.481804 0.575616
0.117479 0.528328 0.505455
0.117479 0.574853 0.435279
0.117479 0.621378 0.365118
0.117479 0.667887 0.294942
0.117479 0.714412 0.224781
0.117479 0.760937 0.15462
0.114992 0.492195 0.88954
0.114992 0.53872 0.819379
0.114992 0.585245 0.749218
0.114992 0.631754 0.679057
0.114992 0.678279 0.608881
0.114992 0.724804 0.53872
0.114992 0.771328 0.468544
0.114992 0.817853 0.398383
0.114992 0.864378 0.328206
0.11249 0.595636 1
0.11249 0.642145 0.992981
0.11249 0.68867 0.92282
0.11249 0.735195 0.852644
0.11249 0.78172 0.782483
0.11249 0.828244 0.712322
0.11249 0.874754 0.642145
0.11249 0.921279 0.571984
0.11249 0.967803 0.501808
0.109987 0.699062 1
0.109987 0.745586 1
0.109987 0.792111 1
0.109987 0.838621 1
0.109987 0.885145 0.956085
0.109987 0.93167 0.885908
0.109987 0.978195 0.815747
0.109987 1 0.745571
0.109987 1 0.67541
0.107485 0.802502 1
0.107485 0.849012 1
0.107485 0.895537 1
0.107485 0.942061 1
0.107485 0.988586 1
0.107485 1 1
0.107485 1 0.989349
0.107485 1 0.919173
0.107485 1 0.849012
0.254994 0 0.0431373
0.254994 0 0
0.254994 0.0431373 0
0.254994 0.089662 0
0.254994 0.136187 0
0.254994 0.182696 0
0.254994 0.229221 0
0.254994 0.275746 0
0.254994 0.322271 0
0.252491 0.0535134 0.216709
0.252491 0.100038 0.146563
0.252491 0.146563 0.0763867
0.252491 0.193072 0.00622568
0.252491 0.239597 0
0.252491 0.286122 0
0.252491 0.332647 0
0.252491 0.379171 0
0.252491 0.425681 0
0.249989 0.156954 0.390311
0.249989 0.203464 0.32015
0.249989 0.249989 0.249989
0.249989 0.296513 0.179828
0.249989 0.343038 0.109651
0.249989 0.389548 0.0394903
0.249989 0.436072 0
0.249989 0.482597 0
0.249989 0.529122 0
0.247486 0.26038 0.563912
0.247486 0.306905 0.493751
0.247486 0.353414 0.42359
0.247486 0.399939 0.353414
0.247486 0.446464 0.283253
0.247486 0.492988 0.213092
0.247486 0.539513 0.142916
0.247486 0.586038 0.072755
0.247486 0.632547 0.00257877
0.244984 0.363821 0.737514
0.244984 0.41033 0.667353
0.244984 0.456855 0.597192
0.244984 0.50338 0.527016
0.244984 0.549905 0.456855
0.244984 0.596414 0.386679
0.244984 0.642939 0.316518
0.244984 0.689464 0.246357
0.244984 0.735988 0.176181
0.242481 0.467247 0.911116
0.242481 0.513771 0.840955
0.242481 0.560281 0.770794
0.242481 0.606806 0.700618
0.242481 0.65333 0.630457
0.242481 0.699855 0.560281
0.242481 0.74638 0.49012
0.242481 0.792889 0.419944
0.242481 0.839414 0.349783
0.239994 0.570687 1
0.239994 0.617197 1
0.239994 0.663722 0.944381
0.239994 0.710246 0.87422
0.239994 0.756756 0.804059
0.239994 0.803281 0.733883
0.239994 0.849805 0.663722
0.239994 0.89633 0.593545
0.239994 0.942855 0.523384
0.237491 0.674113 1
0.237491 0.720638 1
0.237491 0.767147 1
0.237491 0.813672 1
0.237491 0.860197 0.977646
0.237491 0.906722 0.907485
0.237491 0.953246 0.837324
0.237491 0.999756 0.767147
0.237491 1 0.696986
0.234989 0.777554 1
0.234989 0.824063 1
0.234989 0.870588 1
0.234989 0.917113 1
0.234989 0.963623 1
0.234989 1 1
0.234989 1 1
0.234989 1 0.940749
0.234989 1 0.870573
0.382498 0 0.0647135
0.382498 0 0
0.382498 0.0181888 0
0.382498 0.0646983 0
0.382498 0.111223 0
0.382498 0.157748 0
0.382498 0.204273 0
0.382498 0.250797 0
0.382483 0.297307 0
0.379995 0.0285649 0.238285
0.379995 0.0750744 0.168124
0.379995 0.121599 0.0979629
0.379995 0.168124 0.0277867
0.379995 0.214649 0
0.379995 0.261173 0
0.379995 0.307698 0
0.379995 0.354208 0
0.379995 0.400732 0
0.377493 0.131991 0.411887
0.377493 0.178515 0.341726
0.377493 0.22504 0.271565
0.377493 0.271565 0.201389
0.377493 0.318074 0.131228
0.377493 0.364599 0.0610513
0.377493 0.411124 0
0.377493 0.457649 0
0.377493 0.504173 0
0.37499 0.235431 0.585489
0.37499 0.281941 0.515328
0.37499 0.328466 0.445151
0.37499 0.37499 0.37499
0.37499 0.421515 0.304829
0.37499 0.46804 0.234653
0.37499 0.514549 0.164492
0.37499 0.561074 0.094316
0.37499 0.607599 0.024155
0.372488 0.338857 0.759091
0.372488 0.385382 0.68893
0.372488 0.431907 0.618753
0.372488 0.478416 0.548592
0.372488 0.524941 0.478416
0.372488 0.571466 0.408255
0.372488 0.61799 0.338094
0.372488 0.664515 0.267918
0.372488 0.71104 0.197757
0.369985 0.442298 0.932677
0.369985 0.488807 0.862531
0.369985 0.535332 0.792355
0.369985 0.581857 0.722194
0.369985 0.628382 0.652018
0.369985 0.674907 0.581857
0.369985 0.721416 0.511681
0.369985 0.767941 0.44152
0.369985 0.814466 0.371359
0.367483 0.545724 1
0.367483 0.592248 1
0.367483 0.638773 0.965957
0.367483 0.685283 0.895796
0.367483 0.731807 0.82562
0.367483 0.778332 0.755459
0.367483 0.824857 0.685283
0.367483 0.871382 0.615122
0.367483 0.917891 0.544945
0.364996 0.649165 1
0.364996 0.695674 1
0.364996 0.742199 1
0.364996 0.788724 1
0.364996 0.835248 0.999222
0.364996 0.881758 0.929061
0.364996 0.928283 0.858885
0.364996 0.974807 0.788724
0.364996 1 0.718547
0.362493 0.75259 1
0.362493 0.799115 1
0.362493 0.84564 1
0.362493 0.892149 1
0.362493 0.938674 1
0.362493 0.985199 1
0.362493 1 1
0.362493 1 0.962325
0.362493 1 0.892149
0.509987 0 0.0862745
0.509987 0 0.0161135
0.509987 0 0
0.509987 0.0397498 0
0.509987 0.0862745 0
0.509987 0.132799 0
0.509987 0.179324 0
0.509987 0.225834 0
0.509987 0.272358 0
0.5075 0.00361639 0.259861
0.5075 0.0501259 0.1897
0.5075 0.0966506 0.119524
0.5075 0.143175 0.0493629
0.5075 0.1897 0
0.5075 0.23621 0
0.5075 0.282734 0
0.5075 0.329259 0
0.5075 0.375784 0
0.504997 0.107042 0.433448
0.504997 0.153567 0.363302
0.504997 0.200076 0.293126
0.504997 0.246601 0.222965
0.504997 0.293126 0.152789
0.504997 0.339651 0.0826276
0.504997 0.386175 0.0124514
0.504997 0.4327 0
0.504997 0.47921 0
0.502495 0.210483 0.60705
0.502495 0.256992 0.536889
0.502495 0.303517 0.466728
0.502495 0.350042 0.396567
0.502495 0.396567 0.32639
0.502495 0.443076 0.256229
0.502495 0.489601 0.186053
0.502495 0.536126 0.115892
0.502495 0.58265 0.045716
0.499992 0.313909 0.780652
0.499992 0.360433 0.710491
0.499992 0.406943 0.64033
0.499992 0.453468 0.570153
0.499992 0.499992 0.499992
0.499992 0.546517 0.429831
0.499992 0.593042 0.359655
0.499992 0.639551 0.289494
0.499992 0.686076 0.219318
0.49749 0.41735 0.954253
0.49749 0.463859 0.884092
0.49749 0.510384 0.813931
0.49749 0.556909 0.743755
0.49749 0.603418 0.673594
0.49749 0.649943 0.603418
0.49749 0.696468 0.533257
0.49749 0.742992 0.463096
0.49749 0.789517 0.39292
0.494987 0.520775 1
0.494987 0.567285 1
0.494987 0.613809 0.987533
0.494987 0.660334 0.917357
0.494987 0.706859 0.847196
0.494987 0.753384 0.77702
0.494987 0.799908 0.706859
0.494987 0.846418 0.636683
0.494987 0.892943 0.566522
0.492485 0.624216 1
0.492485 0.670726 1
0.492485 0.71725 1
0.492485 0.763775 1
0.492485 0.810285 1
0.492485 0.856809 0.950622
0.492485 0.903334 0.880461
0.492485 0.949859 0.810285
0.492485 0.996384 0.740124
0.489998 0.727642 1
0.489998 0.774151 1
0.489998 0.820676 1
0.489998 0.867201 1
0.489998 0.913725 1
0.489998 0.96025 1
0.489998 1 1
0.489998 1 0.983886
0.489998 1 0.913725
0.637491 0 0.107851
0.637491 0 0.0376898
0.637491 0 0
0.637491 0.0148013 0
0.637491 0.061326 0
0.637491 0.107851 0
0.637491 0.15436 0
0.637491 0.200885 0
0.637491 0.24741 0
0.634989 0 0.281422
0.634989 0.0251774 0.211261
0.634989 0.0717021 0.1411
0.634989 0.118227 0.0709239
0.634989 0.164736 0.000762951
0.634989 0.211261 0
0.634989 0.257786 0
0.634989 0.304311 0
0.634989 0.350835 0
0.632502 0.0820935 0.455024
0.632502 0.128603 0.384863
0.632502 0.175128 0.314702
0.632502 0.221653 0.244526
0.632502 0.268177 0.174365
0.632502 0.314702 0.104189
0.632502 0.361212 0.0340276
0.632502 0.407736 0
0.632502 0.454261 0
0.629999 0.185519 0.628626
0.629999 0.232044 0.558465
0.629999 0.278569 0.488304
0.629999 0.325078 0.418128
0.629999 0.371603 0.347967
0.629999 0.418128 0.27779
0.629999 0.464652 0.20763
0.629999 0.511177 0.137453
0.629999 0.557702 0.0672923
0.627497 0.28896 0.802228
0.627497 0.33547 0.732067
0.627497 0.381994 0.661891
0.627497 0.428519 0.59173
0.627497 0.475044 0.521569
0.627497 0.521569 0.451392
0.627497 0.568078 0.381231
0.627497 0.614603 0.311055
0.627497 0.661128 0.240894
0.624994 0.392386 0.97583
0.624994 0.438911 0.905669
0.624994 0.485435 0.835492
0.624994 0.531945 0.765332
0.624994 0.57847 0.695155
0.624994 0.624994 0.624994
0.624994 0.671519 0.554833
0.624994 0.718044 0.484657
0.624994 0.764553 0.414496
0.622492 0.495827 1
0.622492 0.542336 1
0.622492 0.588861 1
0.622492 0.635386 0.938933
0.622492 0.68191 0.868757
0.622492 0.72842 0.798596
0.622492 0.774945 0.72842
0.622492 0.821469 0.658259
0.622492 0.867994 0.588098
0.619989 0.599252 1
0.619989 0.645777 1
0.619989 0.692287 1
0.619989 0.738811 1
0.619989 0.785336 1
0.619989 0.831861 0.972198
0.619989 0.878386 0.902022
0.619989 0.92491 0.831861
0.619989 0.97142 0.761685
0.617487 0.702693 1
0.617487 0.749203 1
0.617487 0.795727 1
0.617487 0.842252 1
0.617487 0.888777 1
0.617487 0.935286 1
0.617487 0.981811 1
0.617487 1 1
0.617487 1 0.935286
0.764996 0 0.129412
0.764996 0 0.0592508
0.764996 0 0
0.764996 0 0
0.764996 0.0363622 0
0.764996 0.082887 0
0.764996 0.129412 0
0.764996 0.175937 0
0.764996 0.222461 0
0.762493 0 0.302998
0.762493 0.000228885 0.232837
0.762493 0.0467384 0.162661
0.762493 0.0932631 0.0925002
0.762493 0.139788 0.0223392
0.762493 0.186313 0
0.762493 0.232837 0
0.762493 0.279347 0
0.762493 0.325872 0
0.759991 0.057145 0.4766
0.759991 0.103655 0.406439
0.759991 0.150179 0.336263
0.759991 0.196704 0.266102
0.759991 0.243229 0.195926
0.759991 0.289738 0.125765
0.759991 0.336263 0.0556039
0.759991 0.382788 0
0.759991 0.429313 0
0.757504 0.160571 0.650202
0.757504 0.207095 0.580041
0.757504 0.253605 0.509865
0.757504 0.30013 0.439704
0.757504 0.346654 0.369528
0.757504 0.393179 0.299367
0.757504 0.439704 0.229191
0.757504 0.486213 0.15903
0.757504 0.532738 0.0888685
0.755001 0.264012 0.823789
0.755001 0.310521 0.753628
0.755001 0.357046 0.683467
0.755001 0.403571 0.613306
0.755001 0.45008 0.54313
0.755001 0.496605 0.472969
0.755001 0.54313 0.402792
0.755001 0.589654 0.332631
0.755001 0.636179 0.262455
0.752499 0.367437 0.997391
0.752499 0.413947 0.92723
0.752499 0.460472 0.857069
0.752499 0.506996 0.786892
0.752499 0.553521 0.716731
0.752499 0.600046 0.646571
0.752499 0.646571 0.576394
0.752499 0.69308 0.506233
0.752499 0.739605 0.436057
0.749996 0.470878 1
0.749996 0.517388 1
0.749996 0.563912 1
0.749996 0.610437 0.960494
0.749996 0.656947 0.890333
0.749996 0.703471 0.820157
0.749996 0.749996 0.749996
0.749996 0.796521 0.679835
0.749996 0.843046 0.609659
0.747494 0.574304 1
0.747494 0.620813 1
0.747494 0.667338 1
0.747494 0.713863 1
0.747494 0.760388 1
0.747494 0.806912 0.993759
0.747494 0.853422 0.923598
0.747494 0.899947 0.853422
0.747494 0.946471 0.783261
0.744991 0.677729 1
0.744991 0.724254 1
0.744991 0.770779 1
0.744991 0.817288 1
0.744991 0.863813 1
0.744991 0.910338 1
0.744991 0.956863 1
0.744991 1 1
0.744991 1 0.956863
0.8925 0 0.150988
0.8925 0 0.080827
0.8925 0 0.0106661
0.8925 0 0
0.8925 0.0114137 0
0.8925 0.0579385 0
0.8925 0.104463 0
0.8925 0.150988 0
0.8925 0.197498 0
0.889998 0 0.324559
0.889998 0 0.254414
0.889998 0.0217899 0.184237
0.889998 0.0683146 0.114076
0.889998 0.114839 0.0439002
0.889998 0.161364 0
0.889998 0.207874 0
0.889998 0.254398 0
0.889998 0.300923 0
0.887495 0.0321813 0.498161
0.887495 0.078706 0.428
0.887495 0.125231 0.357839
0.887495 0.17174 0.287663
0.887495 0.218265 0.217502
0.887495 0.26479 0.147341
0.887495 0.311315 0.0771649
0.887495 0.357839 0.00700389
0.887495 0.404349 0
0.884993 0.135622 0.671763
0.884993 0.182132 0.601602
0.884993 0.228656 0.531441
0.884993 0.275181 0.461265
0.884993 0.321706 0.391104
0.884993 0.368231 0.320928
0.884993 0.41474 0.250767
0.884993 0.461265 0.180606
0.884993 0.50779 0.11043
0.882506 0.239048 0.845365
0.882506 0.285573 0.775204
0.882506 0.332097 0.705043
0.882506 0.378607 0.634867
0.882506 0.425132 0.564706
0.882506 0.471656 0.49453
0.882506 0.518181 0.424369
0.882506 0.564706 0.354192
0.882506 0.611215 0.284031
0.880003 0.342489 1
0.880003 0.388998 0.948806
0.880003 0.435523 0.87863
0.880003 0.482048 0.808469
0.880003 0.528572 0.738308
0.880003 0.575082 0.668132
0.880003 0.621607 0.597971
0.880003 0.668132 0.527794
0.880003 0.714656 0.457633
0.877501 0.445914 1
0.877501 0.492439 1
0.877501 0.538949 1
0.877501 0.585473 0.982071
0.877501 0.631998 0.911894
0.877501 0.678523 0.841733
0.877501 0.725048 0.771572
0.877501 0.771572 0.701396
0.877501 0.818082 0.631235
0.874998 0.549355 1
0.874998 0.595865 1
0.874998 0.64239 1
0.874998 0.688914 1
0.874998 0.735439 1
0.874998 0.781949 1
0.874998 0.828473 0.945159
0.874998 0.874998 0.874998
0.874998 0.921523 0.804837
0.872496 0.652781 1
0.872496 0.699306 1
0.872496 0.745815 1
0.872496 0.79234 1
0.872496 0.838865 1
0.872496 0.88539 1
0.872496 0.931914 1
0.872496 0.978424 1
0.872496 1 0.978424
1 0 0.172564
1 0 0.102403
1 0 0.0322271
1 0 0
1 0 0
1 0.03299 0
1 0.0795148 0
1 0.126024 0
1 0.172549 0
1 0 0.346136
1 0 0.275975
1 0 0.205814
1 0.0433661 0.135637
1 0.0898909 0.0654765
1 0.1364 0
1 0.182925 0
1 0.22945 0
1 0.275975 0
1 0.00723278 0.519738
1 0.0537575 0.449577
1 0.100267 0.379416
1 0.146792 0.309239
1 0.193317 0.239078
1 0.239841 0.168902
1 0.286366 0.0987411
1 0.332876 0.0285649
1 0.3794 0
1 0.110674 0.693339
1 0.157183 0.623178
1 0.203708 0.553002
1 0.250233 0.482841
1 0.296742 0.412665
1 0.343267 0.342504
1 0.389792 0.272343
1 0.436316 0.202167
1 0.482841 0.132006
1 0.214099 0.866941
1 0.260609 0.79678
1 0.307134 0.726604
1 0.353658 0.656443
1 0.400183 0.586267
1 0.446708 0.516106
1 0.493233 0.44593
1 0.539742 0.375769
1 0.586267 0.305608
1 0.31754 1
1 0.36405 0.970382
1 0.410574 0.900206
1 0.457099 0.830045
1 0.503609 0.759869
1 0.550134 0.689708
1 0.596658 0.619532
1 0.643183 0.549371
1 0.689708 0.479194
1 0.420966 1
1 0.467475 1
1 0.514 1
1 0.560525 1
1 0.60705 0.933471
1 0.653574 0.86331
1 0.700084 0.793133
1 0.746609 0.722972
1 0.793133 0.652796
1 0.524392 1
1 0.570916 1
1 0.617441 1
1 0.663951 1
1 0.710475 1
1 0.757 1
1 0.803525 0.966735
1 0.85005 0.896574
1 0.896574 0.826398
1 0.627832 1
1 0.674342 1
1 0.720867 1
1 0.767391 1
1 0.813916 1
1 0.860441 1
1 0.90695 1
1 0.953475 1
1 1 1
