public/LUTS/Color Shift/ColorShift_28.cube
TITLE "Generated by Resolve"
LUT_3D_SIZE 9
0 0 0
0.123674 0 0.0557412
0.247379 0 0.111498
0.371069 0 0.167239
0.494759 0 0.222995
0.618463 0 0.278737
0.742153 0 0.334493
0.865843 0 0.390234
0.989548 0 0.445991
0.0618448 0.110613 0
0.185519 0.103838 0.0232395
0.309209 0.0970626 0.0789807
0.432914 0.0902876 0.134737
0.556603 0.0835126 0.190478
0.680293 0.0767376 0.246235
0.803998 0.0699626 0.301976
0.927687 0.0631876 0.357733
1 0.0564126 0.413489
0.12369 0.221241 0
0.247364 0.214466 0
0.371054 0.207691 0.046479
0.494759 0.200916 0.10222
0.618448 0.194141 0.157977
0.742138 0.187366 0.213718
0.865843 0.180591 0.269474
0.989532 0.173816 0.325216
1 0.167041 0.380972
0.185534 0.331868 0
0.309209 0.325093 0
0.432914 0.318318 0.013962
0.556603 0.311543 0.0697032
0.680293 0.304768 0.12546
0.803998 0.297993 0.181201
0.927687 0.291218 0.236957
1 0.284443 0.292714
1 0.277668 0.348455
0.247379 0.442496 0
0.371054 0.435721 0
0.494759 0.428946 0
0.618448 0.422171 0.0372015
0.742138 0.415396 0.0929427
0.865843 0.408621 0.148699
0.989532 0.401846 0.20444
1 0.395071 0.260197
1 0.388296 0.315938
0.309224 0.553124 0
0.432898 0.546349 0
0.556603 0.539574 0
0.680293 0.532799 0.00468452
0.803983 0.526024 0.060441
0.927687 0.519249 0.116182
1 0.512474 0.171939
1 0.505699 0.22768
1 0.498924 0.283436
0.371069 0.663752 0
0.494759 0.656977 0
0.618448 0.650202 0
0.742138 0.643427 0
0.865843 0.636652 0.027924
0.989532 0.629877 0.0836652
1 0.623102 0.139422
1 0.616327 0.195163
1 0.609552 0.250919
0.432914 0.77438 0
0.556603 0.767605 0
0.680293 0.76083 0
0.803983 0.754055 0
0.927687 0.74728 0
1 0.740505 0.0511635
1 0.73373 0.106905
1 0.726955 0.162661
1 0.72018 0.218402
0.494759 0.885008 0
0.618448 0.878233 0
0.742138 0.871458 0
0.865827 0.864683 0
0.989532 0.857908 0
1 0.851133 0.0186465
1 0.844358 0.074403
1 0.837583 0.130144
1 0.830808 0.185901
0 0.021149 0.101747
0.0631418 0.014374 0.157488
0.186847 0.00759899 0.213245
0.310536 0.000823987 0.269001
0.434226 0 0.324742
0.557931 0 0.380499
0.68162 0 0.43624
0.80531 0 0.491997
0.929015 0 0.547738
0.00131228 0.131762 0.0692454
0.124987 0.124987 0.124987
0.248676 0.118212 0.180743
0.372381 0.111437 0.236484
0.496071 0.104662 0.292241
0.61976 0.0978866 0.347982
0.743465 0.0911116 0.403738
0.867155 0.0843366 0.45948
0.990845 0.0775616 0.515236
0.0631571 0.24239 0.0367285
0.186831 0.235615 0.0924697
0.310521 0.22884 0.148226
0.434226 0.222065 0.203967
0.557916 0.21529 0.259724
0.681605 0.208515 0.31548
0.80531 0.20174 0.371221
0.929 0.194965 0.426978
1 0.18819 0.482719
0.125002 0.353017 0.00421149
0.248676 0.346242 0.059968
0.372381 0.339467 0.115709
0.496071 0.332692 0.171466
0.61976 0.325917 0.227207
0.743465 0.319142 0.282963
0.867155 0.312367 0.338704
0.990845 0.305592 0.394461
1 0.298817 0.450217
0.186847 0.463645 0
0.310521 0.45687 0.027451
0.434226 0.450095 0.0831922
0.557916 0.44332 0.138949
0.681605 0.436545 0.194705
0.80531 0.42977 0.250446
0.929 0.422995 0.306203
1 0.41622 0.361944
1 0.409445 0.4177
0.248692 0.574273 0
0.372366 0.567498 0
0.496071 0.560723 0.0506905
0.61976 0.553948 0.106432
0.74345 0.547173 0.162188
0.867155 0.540398 0.217929
0.990845 0.533623 0.273686
1 0.526848 0.329442
1 0.520073 0.385183
0.310536 0.684901 0
0.434226 0.678126 0
0.557916 0.671351 0.0181735
0.681605 0.664576 0.07393
0.80531 0.657801 0.129671
0.929 0.651026 0.185428
1 0.644251 0.241169
1 0.637476 0.296925
1 0.630686 0.352667
0.372381 0.795529 0
0.496071 0.788754 0
0.61976 0.781979 0
0.74345 0.775204 0.041413
0.867155 0.768429 0.0971542
0.990845 0.761654 0.152911
1 0.754879 0.208667
1 0.748104 0.264408
1 0.741314 0.320165
0.434241 0.906157 0
0.557916 0.899382 0
0.681605 0.892607 0
0.80531 0.885832 0.00889601
0.929 0.879057 0.0646525
1 0.872282 0.120394
1 0.865507 0.17615
1 0.858732 0.231891
1 0.851942 0.287648
0 0.042298 0.20351
0.00260929 0.035523 0.259266
0.126299 0.028748 0.315007
0.250004 0.021973 0.370764
0.373693 0.015198 0.426505
0.497383 0.00842298 0.482261
0.621088 0.00164797 0.538003
0.744778 0 0.593759
0.868467 0 0.649516
0 0.152911 0.171008
0.0644541 0.146136 0.226749
0.188144 0.139361 0.282506
0.311833 0.132586 0.338247
0.435538 0.125811 0.394003
0.559228 0.119036 0.449744
0.682918 0.112261 0.505501
0.806622 0.105486 0.561257
0.930312 0.0987106 0.616999
0.00260929 0.263539 0.138491
0.126299 0.256764 0.194232
0.249989 0.249989 0.249989
0.373678 0.243214 0.305745
0.497383 0.236439 0.361486
0.621073 0.229664 0.417243
0.744762 0.222889 0.472984
0.868467 0.216114 0.52874
0.992157 0.209339 0.584482
0.0644541 0.374166 0.105989
0.188144 0.367391 0.16173
0.311833 0.360616 0.217472
0.435523 0.353841 0.273228
0.559228 0.347066 0.328969
0.682918 0.340291 0.384726
0.806607 0.333516 0.440482
0.930312 0.326741 0.496223
1 0.319966 0.55198
0.126314 0.484794 0.0734722
0.249989 0.478019 0.129213
0.373678 0.471244 0.18497
0.497383 0.464469 0.240711
0.621073 0.457694 0.296468
0.744762 0.450919 0.352209
0.868467 0.444144 0.407965
0.992157 0.437369 0.463706
1 0.430594 0.519463
0.188159 0.595422 0.0409552
0.311833 0.588647 0.0966964
0.435523 0.581872 0.152453
0.559228 0.575097 0.208194
0.682918 0.568322 0.263951
0.806607 0.561547 0.319707
0.930312 0.554772 0.375448
1 0.547997 0.431205
1 0.541222 0.486946
0.250004 0.70605 0.00843824
0.373678 0.699275 0.0641947
0.497368 0.6925 0.119936
0.621073 0.685725 0.175692
0.744762 0.67895 0.231434
0.868452 0.672175 0.28719
0.992157 0.6654 0.342931
1 0.658625 0.398688
1 0.65185 0.454444
0.311849 0.816678 0
0.435523 0.809903 0.0316777
0.559228 0.803128 0.0874189
0.682918 0.796353 0.143175
0.806607 0.789578 0.198932
0.930312 0.782803 0.254673
1 0.776028 0.31043
1 0.769253 0.366171
1 0.762478 0.421927
0.373693 0.927306 0
0.497368 0.920531 0
0.621073 0.913756 0.0549172
0.744762 0.906981 0.110658
0.868452 0.900206 0.166415
0.992157 0.893431 0.222156
1 0.886656 0.277913
1 0.879881 0.333669
1 0.873106 0.38941
0 0.063447 0.305287
0 0.056672 0.361028
0.0657664 0.049897 0.41677
0.189456 0.043122 0.472526
0.313146 0.036347 0.528267
0.436851 0.029572 0.584024
0.56054 0.022797 0.63978
0.68423 0.016022 0.695521
0.807935 0.00924697 0.751278
0 0.17406 0.27277
0.00390631 0.167285 0.328511
0.127596 0.16051 0.384268
0.251301 0.153735 0.440009
0.37499 0.14696 0.495766
0.49868 0.140185 0.551522
0.622385 0.13341 0.607263
0.746075 0.126635 0.66302
0.869764 0.11986 0.718761
0 0.284688 0.240253
0.0657511 0.277913 0.29601
0.189456 0.271138 0.351751
0.313146 0.264363 0.407507
0.436835 0.257588 0.463249
0.56054 0.250813 0.519005
0.68423 0.244038 0.574746
0.807919 0.237263 0.630503
0.931624 0.230488 0.686259
0.00392157 0.395315 0.207752
0.127596 0.38854 0.263493
0.251301 0.381765 0.319234
0.37499 0.37499 0.37499
0.49868 0.368215 0.430747
0.622385 0.36144 0.486488
0.746075 0.354665 0.542245
0.869764 0.34789 0.597986
0.993469 0.341115 0.653742
0.0657664 0.505943 0.175235
0.189441 0.499168 0.230976
0.313146 0.492393 0.286732
0.436835 0.485618 0.342473
0.560525 0.478843 0.39823
0.68423 0.472068 0.453971
0.807919 0.465293 0.509728
0.931609 0.458518 0.565484
1 0.451743 0.621225
0.127611 0.616571 0.142718
0.251301 0.609796 0.198459
0.37499 0.603021 0.254215
0.49868 0.596246 0.309972
0.622385 0.589471 0.365713
0.746075 0.582696 0.421469
0.869764 0.575921 0.477211
0.993469 0.569146 0.532967
1 0.562371 0.588708
0.189456 0.727199 0.110216
0.313146 0.720424 0.165957
0.436835 0.713649 0.221698
0.560525 0.706874 0.277455
0.68423 0.700099 0.333196
0.807919 0.693324 0.388952
0.931609 0.686549 0.444709
1 0.679774 0.50045
1 0.672999 0.556207
0.251301 0.837827 0.0776989
0.37499 0.831052 0.13344
0.49868 0.824277 0.189197
0.62237 0.817502 0.244938
0.746075 0.810727 0.300694
0.869764 0.803952 0.356435
0.993454 0.797177 0.412192
1 0.790402 0.467933
1 0.783627 0.52369
0.313161 0.948455 0.045182
0.436835 0.94168 0.100923
0.560525 0.934905 0.15668
0.68423 0.92813 0.212421
0.807919 0.921355 0.268177
0.931609 0.91458 0.323934
1 0.907805 0.379675
1 0.90103 0.435431
1 0.894255 0.491173
0 0.084596 0.40705
0 0.077821 0.462791
0.00521859 0.071046 0.518532
0.128923 0.064271 0.574289
0.252613 0.057496 0.630045
0.376303 0.050721 0.685786
0.500008 0.043946 0.741543
0.623697 0.037171 0.797284
0.747387 0.030396 0.85304
0 0.195209 0.374533
0 0.188434 0.430274
0.0670634 0.181659 0.48603
0.190753 0.174884 0.541787
0.314458 0.168109 0.597528
0.438148 0.161334 0.653284
0.561837 0.154559 0.709026
0.685542 0.147784 0.764782
0.809232 0.141009 0.820523
0 0.305837 0.342031
0.00521859 0.299062 0.397772
0.128908 0.292287 0.453513
0.252598 0.285512 0.50927
0.376303 0.278737 0.565011
0.499992 0.271962 0.620768
0.623682 0.265187 0.676524
0.747387 0.258412 0.732265
0.871077 0.251637 0.788022
0 0.416464 0.309514
0.0670634 0.409689 0.365255
0.190753 0.402914 0.421012
0.314458 0.396139 0.476753
0.438148 0.389364 0.532509
0.561837 0.382589 0.588251
0.685542 0.375814 0.644007
0.809232 0.369039 0.699748
0.932921 0.362264 0.755505
0.00523384 0.527092 0.276997
0.128908 0.520317 0.332738
0.252598 0.513542 0.388495
0.376303 0.506767 0.444236
0.499992 0.499992 0.499992
0.623682 0.493217 0.555749
0.747387 0.486442 0.61149
0.871077 0.479667 0.667247
0.994766 0.472892 0.722988
0.0670787 0.63772 0.24448
0.190753 0.630945 0.300237
0.314443 0.62417 0.355978
0.438148 0.617395 0.411734
0.561837 0.61062 0.467475
0.685527 0.603845 0.523232
0.809232 0.59707 0.578973
0.932921 0.590295 0.63473
1 0.58352 0.690486
0.128923 0.748348 0.211978
0.252598 0.741573 0.26772
0.376303 0.734798 0.323461
0.499992 0.728023 0.379217
0.623682 0.721248 0.434974
0.747387 0.714473 0.490715
0.871077 0.707698 0.546471
0.994766 0.700923 0.602213
1 0.694148 0.657969
0.190768 0.858976 0.179461
0.314443 0.852201 0.235203
0.438148 0.845426 0.290959
0.561837 0.838651 0.3467
0.685527 0.831876 0.402457
0.809232 0.825101 0.458198
0.932921 0.818326 0.513954
1 0.811551 0.569711
1 0.804776 0.625452
0.252613 0.969604 0.146944
0.376287 0.962829 0.202686
0.499992 0.956054 0.258442
0.623682 0.949279 0.314199
0.747372 0.942504 0.36994
0.871077 0.935729 0.425696
0.994766 0.928954 0.481437
1 0.922179 0.537194
1 0.915404 0.592935
0 0.105745 0.508812
0 0.09897 0.564553
0 0.092195 0.62031
0.0683757 0.08542 0.676051
0.192081 0.078645 0.731807
0.31577 0.07187 0.787549
0.43946 0.065095 0.843305
0.563165 0.05832 0.899046
0.686854 0.051545 0.954803
0 0.216358 0.476295
0 0.209583 0.532052
0.00653086 0.202808 0.587793
0.13022 0.196033 0.643549
0.25391 0.189258 0.69929
0.377615 0.182483 0.755047
0.501305 0.175708 0.810788
0.624994 0.168933 0.866545
0.748699 0.162158 0.922301
0 0.326986 0.443793
0 0.320211 0.499535
0.0683757 0.313436 0.555276
0.192065 0.306661 0.611032
0.315755 0.299886 0.666789
0.43946 0.293111 0.72253
0.563149 0.286336 0.778286
0.686839 0.279561 0.834028
0.810544 0.272786 0.889784
0 0.437613 0.411276
0.0065156 0.430838 0.467018
0.13022 0.424063 0.522774
0.25391 0.417288 0.578515
0.3776 0.410513 0.634272
0.501305 0.403738 0.690013
0.624994 0.396963 0.745769
0.748684 0.390188 0.801526
0.872389 0.383413 0.857267
0 0.548241 0.378759
0.0683757 0.541466 0.434501
0.192065 0.534691 0.490257
0.315755 0.527916 0.546014
0.43946 0.521141 0.601755
0.563149 0.514366 0.657511
0.686839 0.507591 0.713252
0.810544 0.500816 0.769009
0.934234 0.494041 0.82475
0.00653086 0.658869 0.346258
0.13022 0.652094 0.401999
0.25391 0.645319 0.45774
0.3776 0.638544 0.513497
0.501305 0.631769 0.569238
0.624994 0.624994 0.624994
0.748684 0.618219 0.680751
0.872389 0.611444 0.736492
0.996078 0.604669 0.792248
0.0683757 0.769497 0.313741
0.192065 0.762722 0.369482
0.315755 0.755947 0.425238
0.439445 0.749172 0.48098
0.563149 0.742397 0.536736
0.686839 0.735622 0.592477
0.810529 0.728847 0.648234
0.934234 0.722072 0.703975
1 0.715297 0.759731
0.130236 0.880125 0.281224
0.25391 0.87335 0.336965
0.3776 0.866575 0.392721
0.501305 0.8598 0.448463
0.624994 0.853025 0.504219
0.748684 0.84625 0.559976
0.872389 0.839475 0.615717
0.996078 0.8327 0.671473
1 0.825925 0.727214
0.192081 0.990753 0.248722
0.315755 0.983978 0.304463
0.439445 0.977203 0.360204
0.563149 0.970428 0.415961
0.686839 0.963653 0.471702
0.810529 0.956878 0.527459
0.934234 0.950103 0.5832
1 0.943328 0.638956
1 0.936553 0.694713
0 0.126894 0.610574
0 0.120119 0.666316
0 0.113344 0.722072
0.00784314 0.106569 0.777813
0.131533 0.099794 0.83357
0.255222 0.093019 0.889311
0.378927 0.086244 0.945068
0.502617 0.079469 1
0.626307 0.072694 1
0 0.237507 0.578073
0 0.230732 0.633814
0 0.223957 0.689555
0.0696727 0.217182 0.745312
0.193378 0.210407 0.801053
0.317067 0.203632 0.856809
0.440757 0.196857 0.912566
0.564462 0.190082 0.968307
0.688151 0.183307 1
0 0.348135 0.545556
0 0.34136 0.601297
0.00782788 0.334585 0.657053
0.131533 0.32781 0.712795
0.255222 0.321035 0.768551
0.378912 0.31426 0.824292
0.502617 0.307485 0.880049
0.626307 0.30071 0.93579
0.749996 0.293935 0.991547
0 0.458762 0.513039
0 0.451987 0.56878
0.0696727 0.445212 0.624537
0.193378 0.438437 0.680278
0.317067 0.431662 0.736034
0.440757 0.424887 0.791791
0.564462 0.418112 0.847532
0.688151 0.411337 0.903288
0.811841 0.404562 0.95903
0 0.56939 0.480522
0.00782788 0.562615 0.536278
0.131518 0.55584 0.59202
0.255222 0.549065 0.647776
0.378912 0.54229 0.703517
0.502602 0.535515 0.759274
0.626307 0.52874 0.815015
0.749996 0.521965 0.870771
0.873686 0.51519 0.926528
0 0.680018 0.44802
0.0696727 0.673243 0.503761
0.193378 0.666468 0.559503
0.317067 0.659693 0.615259
0.440757 0.652918 0.671016
0.564462 0.646143 0.726757
0.688151 0.639368 0.782513
0.811841 0.632593 0.838254
0.935546 0.625818 0.894011
0.00784314 0.790646 0.415503
0.131518 0.783871 0.471244
0.255222 0.777096 0.527001
0.378912 0.770321 0.582742
0.502602 0.763546 0.638498
0.626307 0.756771 0.69424
0.749996 0.749996 0.749996
0.873686 0.743221 0.805753
0.997391 0.736446 0.861494
0.069688 0.901274 0.382986
0.193362 0.894499 0.438727
0.317067 0.887724 0.494484
0.440757 0.880949 0.55024
0.564446 0.874174 0.605982
0.688151 0.867399 0.661738
0.811841 0.860624 0.717479
0.935531 0.853849 0.773236
1 0.847074 0.828977
0.131533 1 0.350484
0.255222 1 0.406226
0.378912 0.998352 0.461967
0.502602 0.991577 0.517723
0.626307 0.984802 0.573465
0.749996 0.978027 0.629221
0.873686 0.971252 0.684977
0.997391 0.964477 0.740719
1 0.957702 0.796475
0 0.148043 0.712337
0 0.141268 0.768078
0 0.134493 0.823835
0 0.127718 0.879576
0.0710002 0.120943 0.935332
0.19469 0.114168 0.991089
0.318379 0.107393 1
0.442084 0.100618 1
0.565774 0.093843 1
0 0.258656 0.679835
0 0.251881 0.735576
0 0.245106 0.791318
0.00914015 0.238331 0.847074
0.13283 0.231556 0.902831
0.256535 0.224781 0.958572
0.380224 0.218006 1
0.503914 0.211231 1
0.627619 0.204456 1
0 0.369284 0.647318
0 0.362509 0.703059
0 0.355734 0.758816
0.070985 0.348959 0.814557
0.194675 0.342184 0.870314
0.318379 0.335409 0.926055
0.442069 0.328634 0.981811
0.565759 0.321859 1
0.689464 0.315084 1
0 0.479912 0.614801
0 0.473136 0.670542
0.00914015 0.466361 0.726299
0.13283 0.459586 0.782055
0.256535 0.452811 0.837797
0.380224 0.446036 0.893553
0.503914 0.439261 0.949294
0.627619 0.432486 1
0.751308 0.425711 1
0 0.590539 0.5823
0 0.583764 0.638041
0.070985 0.576989 0.693782
0.194675 0.570214 0.749538
0.318379 0.563439 0.80528
0.442069 0.556664 0.861036
0.565759 0.549889 0.916793
0.689464 0.543114 0.972534
0.813153 0.536339 1
0 0.701167 0.549783
0.00914015 0.694392 0.605524
0.13283 0.687617 0.66128
0.256519 0.680842 0.717021
0.380224 0.674067 0.772778
0.503914 0.667292 0.828519
0.627604 0.660517 0.884276
0.751308 0.653742 0.940017
0.874998 0.646967 0.995773
0 0.811795 0.517266
0.070985 0.80502 0.573007
0.194675 0.798245 0.628763
0.318379 0.79147 0.684504
0.442069 0.784695 0.740261
0.565759 0.77792 0.796017
0.689464 0.771145 0.851759
0.813153 0.76437 0.907515
0.936843 0.757595 0.963256
0.00915541 0.922423 0.484764
0.13283 0.915648 0.540505
0.256519 0.908873 0.596246
0.380224 0.902098 0.652003
0.503914 0.895323 0.707744
0.627604 0.888548 0.7635
0.751308 0.881773 0.819242
0.874998 0.874998 0.874998
0.998688 0.868223 0.930755
0.0710002 1 0.452247
0.194675 1 0.507988
0.318364 1 0.563729
0.442069 1 0.619486
0.565759 1 0.675242
0.689448 0.999176 0.730983
0.813153 0.992401 0.78674
0.936843 0.985626 0.842481
1 0.978851 0.898238
0 0.169192 0.814099
0 0.162417 0.869841
0 0.155642 0.925597
0 0.148867 0.981353
0.0104524 0.142092 1
0.134157 0.135317 1
0.257847 0.128542 1
0.381537 0.121767 1
0.505241 0.114992 1
0 0.27982 0.781598
0 0.273045 0.837339
0 0.266255 0.893095
0 0.25948 0.948837
0.0722972 0.252705 1
0.195987 0.24593 1
0.319677 0.239155 1
0.443381 0.23238 1
0.567071 0.225605 1
0 0.390448 0.749081
0 0.383673 0.804822
0 0.376883 0.860578
0.0104524 0.370108 0.91632
0.134142 0.363333 0.972076
0.257832 0.356558 1
0.381537 0.349783 1
0.505226 0.343008 1
0.628916 0.336233 1
0 0.501076 0.716564
0 0.494301 0.77232
0 0.487511 0.828061
0.0722972 0.480735 0.883818
0.195987 0.47396 0.939559
0.319677 0.467185 0.995315
0.443381 0.46041 1
0.567071 0.453635 1
0.690761 0.44686 1
0 0.611704 0.684062
0 0.604913 0.739803
0.0104524 0.598138 0.795544
0.134142 0.591363 0.851301
0.257832 0.584588 0.907057
0.381537 0.577813 0.962798
0.505226 0.571038 1
0.628916 0.564263 1
0.752621 0.557488 1
0 0.722316 0.651545
0 0.715541 0.707286
0.0722972 0.708766 0.763043
0.195987 0.701991 0.818784
0.319677 0.695216 0.87454
0.443381 0.688441 0.930282
0.567071 0.681666 0.986038
0.690761 0.674891 1
0.814466 0.668116 1
0 0.832944 0.619028
0.0104372 0.826169 0.674769
0.134142 0.819394 0.730526
0.257832 0.812619 0.786282
0.381521 0.805844 0.842023
0.505226 0.799069 0.89778
0.628916 0.792294 0.953521
0.752605 0.785519 1
0.87631 0.778744 1
0 0.943572 0.586526
0.0722972 0.936797 0.642267
0.195987 0.930022 0.698009
0.319677 0.923247 0.753765
0.443381 0.916472 0.809506
0.567071 0.909697 0.865263
0.690761 0.902922 0.921019
0.814466 0.896147 0.976761
0.938155 0.889372 1
0.0104524 1 0.554009
0.134142 1 0.609751
0.257832 1 0.665507
0.381521 1 0.721248
0.505226 1 0.777005
0.628916 1 0.832746
0.752605 1 0.888502
0.87631 1 0.944244
1 1 1
