public/LUTS/Color Shift/ColorShift_86.cube
TITLE "Generated by Resolve"
LUT_3D_SIZE 9
0 0 0
0.0708629 0 0.190143
0.141741 0 0.380301
0.212619 0 0.570459
0.283497 0 0.760616
0.354376 0 0.95079
0.425254 0 1
0.496117 0 1
0.566995 0 1
0.240467 0.0604105 0
0.311345 0.0522011 0.131273
0.382223 0.0439918 0.321447
0.453101 0.0357824 0.511604
0.523964 0.0275731 0.701762
0.594842 0.0193637 0.89192
0.665721 0.0111391 1
0.736599 0.00292973 1
0.807477 0 1
0.48098 0.120836 0
0.551843 0.112612 0.0724193
0.622721 0.104402 0.262577
0.693599 0.0961929 0.452735
0.764477 0.0879835 0.642893
0.835355 0.0797742 0.833051
0.906233 0.0715648 1
0.977096 0.0633555 1
1 0.0551461 1
0.721477 0.181247 0
0.792355 0.173037 0.01355
0.863218 0.164828 0.203708
0.934096 0.156619 0.393866
1 0.148409 0.584024
1 0.140185 0.774197
1 0.131975 0.964355
1 0.123766 1
1 0.115557 1
0.96199 0.241657 0
1 0.233448 0
1 0.225238 0.144839
1 0.217029 0.335012
1 0.20882 0.52517
1 0.20061 0.715328
1 0.192401 0.905486
1 0.184192 1
1 0.175982 1
1 0.302083 0
1 0.293873 0
1 0.285664 0.0859846
1 0.277455 0.276143
1 0.269245 0.4663
1 0.261021 0.656458
1 0.252811 0.846616
1 0.244602 1
1 0.236393 1
1 0.362493 0
1 0.354284 0
1 0.346075 0.0271153
1 0.337865 0.217273
1 0.329656 0.407431
1 0.321447 0.597589
1 0.313237 0.787762
1 0.305028 0.97792
1 0.296818 1
1 0.422919 0
1 0.41471 0
1 0.4065 0
1 0.398291 0.158404
1 0.390082 0.348562
1 0.381857 0.538735
1 0.373648 0.728893
1 0.365438 0.919051
1 0.357229 1
1 0.48333 0
1 0.47512 0
1 0.466911 0
1 0.458701 0.0995346
1 0.450492 0.289708
1 0.442283 0.479866
1 0.434073 0.670024
1 0.425864 0.860182
1 0.417655 1
0 0.0727855 0
0 0.0645762 0.183841
0 0.0563668 0.374014
0.0262608 0.0481575 0.564172
0.0971389 0.0399481 0.75433
0.168017 0.0317388 0.944488
0.238895 0.0235142 1
0.309773 0.0153048 1
0.380652 0.00709545 1
0.0541238 0.133196 0
0.124987 0.124987 0.124987
0.195865 0.116777 0.315145
0.266743 0.108568 0.505302
0.337621 0.100359 0.695476
0.408484 0.0921492 0.885634
0.479362 0.0839246 1
0.55024 0.0757153 1
0.621118 0.0675059 1
0.294621 0.193622 0
0.365484 0.185397 0.0661173
0.436362 0.177188 0.256275
0.50724 0.168978 0.446448
0.578119 0.160769 0.636606
0.648997 0.15256 0.826764
0.719875 0.14435 1
0.790753 0.136141 1
0.861616 0.127932 1
0.535134 0.254032 0
0.605997 0.245823 0.00724804
0.676875 0.237613 0.197421
0.747753 0.229404 0.387579
0.818616 0.221195 0.577737
0.889494 0.212985 0.767895
0.960372 0.204761 0.958068
1 0.196551 1
1 0.188342 1
0.775631 0.314458 0
0.846494 0.306233 0
0.917372 0.298024 0.138552
0.988251 0.289815 0.32871
1 0.281605 0.518868
1 0.273396 0.709041
1 0.265187 0.899199
1 0.256977 1
1 0.248768 1
1 0.374868 0
1 0.366659 0
1 0.35845 0.0796826
1 0.35024 0.269841
1 0.342031 0.460014
1 0.333822 0.650172
1 0.325597 0.84033
1 0.317388 1
1 0.309178 1
1 0.435294 0
1 0.42707 0
1 0.41886 0.0208133
1 0.410651 0.210986
1 0.402441 0.401144
1 0.394232 0.591302
1 0.386023 0.78146
1 0.377813 0.971618
1 0.369604 1
1 0.495705 0
1 0.487495 0
1 0.479286 0
1 0.471077 0.152117
1 0.462867 0.342275
1 0.454658 0.532433
1 0.446433 0.722591
1 0.438224 0.912764
1 0.430014 1
1 0.55613 0
1 0.547906 0
1 0.539696 0
1 0.531487 0.0932479
1 0.523278 0.283406
1 0.515068 0.473564
1 0.506859 0.663737
1 0.49865 0.853895
1 0.49044 1
0 0.145586 0
0 0.137377 0.177554
0 0.129152 0.367712
0 0.120943 0.55787
0 0.112734 0.748028
0 0.104524 0.938201
0.0525216 0.0963149 1
0.123384 0.0881056 1
0.194263 0.0798962 1
0 0.205997 0
0 0.197787 0.1187
0.00949111 0.189578 0.308858
0.080354 0.181353 0.499016
0.151232 0.173144 0.689174
0.22211 0.164935 0.879332
0.292988 0.156725 1
0.363867 0.148516 1
0.434745 0.140307 1
0.108248 0.266407 0
0.17911 0.258198 0.0598306
0.249989 0.249989 0.249989
0.320867 0.241779 0.440146
0.391745 0.23357 0.630304
0.462623 0.22536 0.820478
0.533486 0.217151 1
0.604364 0.208927 1
0.675242 0.200717 1
0.348745 0.326833 0
0.419623 0.318624 0.000961318
0.490486 0.310399 0.191119
0.561364 0.30219 0.381277
0.632242 0.29398 0.57145
0.70312 0.285771 0.761608
0.773999 0.277562 0.951766
0.844877 0.269352 1
0.915755 0.261143 1
0.589258 0.387243 0
0.660121 0.379034 0
0.730999 0.370825 0.13225
0.801877 0.362615 0.322423
0.872755 0.354406 0.512581
0.943618 0.346197 0.702739
1 0.337987 0.892897
1 0.329763 1
1 0.321553 1
0.829755 0.447669 0
0.900618 0.43946 0
0.971496 0.431235 0.0733959
1 0.423026 0.263554
1 0.414816 0.453712
1 0.406607 0.64387
1 0.398398 0.834043
1 0.390188 1
1 0.381979 1
1 0.50808 0
1 0.49987 0
1 0.491661 0.0145266
1 0.483452 0.204685
1 0.475242 0.394842
1 0.467033 0.585016
1 0.458824 0.775174
1 0.450599 0.965331
1 0.44239 1
1 0.568505 0
1 0.560296 0
1 0.552071 0
1 0.543862 0.145815
1 0.535653 0.335988
1 0.527443 0.526146
1 0.519234 0.716304
1 0.511025 0.906462
1 0.502815 1
1 0.628916 0
1 0.620706 0
1 0.612497 0
1 0.604288 0.0869612
1 0.596078 0.277119
1 0.587869 0.467277
1 0.57966 0.657435
1 0.571435 0.847593
1 0.563226 1
0 0.218372 0
0 0.210163 0.171252
0 0.201953 0.361425
0 0.193744 0.551583
0 0.185534 0.741741
0 0.177325 0.931899
0 0.169116 1
0 0.160906 1
0.00788891 0.152682 1
0 0.278782 0
0 0.270573 0.112398
0 0.262364 0.302556
0 0.254154 0.492729
0 0.245945 0.682887
0.0357366 0.237736 0.873045
0.106615 0.229526 1
0.177493 0.221317 1
0.248356 0.213092 1
0 0.339208 0
0 0.330999 0.0535286
0.0636149 0.322789 0.243702
0.134493 0.31458 0.43386
0.205356 0.306355 0.624018
0.276234 0.298146 0.814176
0.347112 0.289937 1
0.41799 0.281727 1
0.488869 0.273518 1
0.162371 0.399619 0
0.233234 0.391409 0
0.304112 0.3832 0.184833
0.37499 0.37499 0.37499
0.445869 0.366781 0.565148
0.516747 0.358572 0.755306
0.587625 0.350362 0.94548
0.658488 0.342153 1
0.729366 0.333928 1
0.402869 0.460044 0
0.473747 0.451835 0
0.544625 0.443626 0.125963
0.615488 0.435401 0.316121
0.686366 0.427192 0.506279
0.757244 0.418982 0.696452
0.828122 0.410773 0.88661
0.899001 0.402564 1
0.969879 0.394354 1
0.643381 0.520455 0
0.714244 0.512245 0
0.785122 0.504036 0.0670939
0.856001 0.495827 0.257252
0.926879 0.487617 0.447425
0.997757 0.479408 0.637583
1 0.471199 0.827741
1 0.462989 1
1 0.454765 1
0.883879 0.58088 0
0.954757 0.572671 0
1 0.564462 0.00822461
1 0.556237 0.198398
1 0.548028 0.388556
1 0.539818 0.578714
1 0.531609 0.768872
1 0.5234 0.959045
1 0.51519 1
1 0.641291 0
1 0.633082 0
1 0.624872 0
1 0.616663 0.139528
1 0.608454 0.329686
1 0.600244 0.519844
1 0.592035 0.710018
1 0.583825 0.900175
1 0.575601 1
1 0.701717 0
1 0.693507 0
1 0.685298 0
1 0.677073 0.0806592
1 0.668864 0.270817
1 0.660655 0.46099
1 0.652445 0.651148
1 0.644236 0.841306
1 0.636027 1
0 0.291173 0
0 0.282963 0.164965
0 0.274754 0.355123
0 0.266545 0.545281
0 0.258335 0.735454
0 0.250111 0.925612
0 0.241901 1
0 0.233692 1
0 0.225483 1
0 0.351583 0
0 0.343374 0.106111
0 0.335164 0.296269
0 0.326955 0.486427
0 0.318746 0.676585
0 0.310521 0.866758
0 0.302312 1
0 0.294102 1
0.0619821 0.285893 1
0 0.411994 0
0 0.403784 0.0472419
0 0.395575 0.2374
0 0.387366 0.427558
0.0189822 0.379156 0.617731
0.0898604 0.370947 0.807889
0.160739 0.362737 0.998047
0.231617 0.354528 1
0.302495 0.346319 1
0 0.472419 0
0.0468605 0.46421 0
0.117739 0.456001 0.178531
0.188617 0.447791 0.368704
0.259495 0.439582 0.558862
0.330358 0.431357 0.74902
0.401236 0.423148 0.939178
0.472114 0.414939 1
0.542992 0.406729 1
0.216495 0.53283 0
0.287358 0.52462 0
0.358236 0.516411 0.119677
0.429114 0.508202 0.309834
0.499992 0.499992 0.499992
0.570871 0.491783 0.69015
0.641749 0.483574 0.880308
0.712627 0.475364 1
0.78349 0.467155 1
0.457008 0.593256 0
0.527871 0.585046 0
0.598749 0.576837 0.0608072
0.669627 0.568627 0.250965
0.74049 0.560403 0.441123
0.811368 0.552193 0.631281
0.882246 0.543984 0.821454
0.953124 0.535775 1
1 0.527565 1
0.697505 0.653666 0
0.768368 0.645457 0
0.839246 0.637247 0.0019379
0.910124 0.629038 0.192096
0.981003 0.620829 0.382254
1 0.612619 0.572427
1 0.60441 0.762585
1 0.596201 0.952743
1 0.587991 1
0.938003 0.714092 0
1 0.705882 0
1 0.697673 0
1 0.689464 0.133242
1 0.681239 0.3234
1 0.67303 0.513558
1 0.66482 0.703716
1 0.656611 0.893874
1 0.648402 1
1 0.774502 0
1 0.766293 0
1 0.758083 0
1 0.749874 0.0743725
1 0.741665 0.26453
1 0.733455 0.454688
1 0.725246 0.644846
1 0.717037 0.835019
1 0.708827 1
0 0.363973 0
0 0.355749 0.158679
0 0.347539 0.348837
0 0.33933 0.538994
0 0.331121 0.729152
0 0.322911 0.91931
0 0.314702 1
0 0.306493 1
0 0.298283 1
0 0.424384 0
0 0.416159 0.0998093
0 0.40795 0.289967
0 0.399741 0.48014
0 0.391531 0.670298
0 0.383322 0.860456
0 0.375113 1
0 0.366903 1
0 0.358694 1
0 0.484794 0
0 0.476585 0.04094
0 0.468376 0.231113
0 0.460166 0.421271
0 0.451957 0.611429
0 0.443748 0.801587
0 0.435523 0.99176
0.0452277 0.427314 1
0.116106 0.419104 1
0 0.54522 0
0 0.536995 0
0 0.528786 0.172244
0.00222782 0.520577 0.362402
0.073106 0.512367 0.55256
0.143984 0.504158 0.742733
0.214862 0.495949 0.932891
0.28574 0.487739 1
0.356619 0.47953 1
0.0301213 0.605631 0
0.100984 0.597421 0
0.171862 0.589212 0.113375
0.242741 0.581003 0.303532
0.313619 0.572793 0.493706
0.384497 0.564584 0.683864
0.45536 0.556359 0.874022
0.526238 0.54815 1
0.597116 0.53994 1
0.270619 0.666041 0
0.341497 0.657832 0
0.41236 0.649622 0.0545052
0.483238 0.641413 0.244678
0.554116 0.633204 0.434836
0.624994 0.624994 0.624994
0.695872 0.616785 0.815152
0.766751 0.608576 1
0.837629 0.600366 1
0.511131 0.726467 0
0.581994 0.718257 0
0.652873 0.710048 0
0.723751 0.701839 0.185809
0.794629 0.693629 0.375967
0.865492 0.685405 0.566125
0.93637 0.677195 0.756283
1 0.668986 0.946456
1 0.660777 1
0.751629 0.786877 0
0.822492 0.778668 0
0.89337 0.770459 0
0.964248 0.762249 0.12694
1 0.75404 0.317098
1 0.74583 0.507256
1 0.737621 0.697429
1 0.729412 0.887587
1 0.721202 1
0.992126 0.847303 0
1 0.839094 0
1 0.830884 0
1 0.822675 0.0680705
1 0.814466 0.258244
1 0.806241 0.448402
1 0.798032 0.63856
1 0.789822 0.828717
1 0.781613 1
0 0.436759 0
0 0.42855 0.152377
0 0.42034 0.342535
0 0.412131 0.532708
0 0.403922 0.722866
0 0.395712 0.913024
0 0.387503 1
0 0.379278 1
0 0.371069 1
0 0.497169 0
0 0.48896 0.0935225
0 0.480751 0.28368
0 0.472541 0.473838
0 0.464332 0.663996
0 0.456123 0.85417
0 0.447913 1
0 0.439689 1
0 0.431479 1
0 0.557595 0
0 0.549386 0.0346532
0 0.541161 0.224811
0 0.532952 0.414969
0 0.524742 0.605142
0 0.516533 0.7953
0 0.508324 0.985458
0 0.500114 1
0 0.491905 1
0 0.618006 0
0 0.609796 0
0 0.601587 0.165942
0 0.593378 0.356115
0 0.585168 0.546273
0 0.576959 0.736431
0.0284886 0.56875 0.926589
0.0993668 0.560525 1
0.17023 0.552316 1
0 0.678431 0
0 0.670222 0
0 0.661997 0.107088
0.0563668 0.653788 0.297246
0.12723 0.645579 0.487404
0.198108 0.637369 0.677562
0.268986 0.62916 0.867735
0.339864 0.620951 1
0.410742 0.612741 1
0.0842451 0.738842 0
0.155108 0.730632 0
0.225986 0.722423 0.0482185
0.296864 0.714214 0.238376
0.367742 0.706004 0.428534
0.438621 0.697795 0.618708
0.509499 0.689586 0.808865
0.580362 0.681361 0.999023
0.65124 0.673152 1
0.324742 0.799268 0
0.395621 0.791058 0
0.466499 0.782834 0
0.537362 0.774624 0.179507
0.60824 0.766415 0.36968
0.679118 0.758206 0.559838
0.749996 0.749996 0.749996
0.820874 0.741787 0.940154
0.891752 0.733577 1
0.565255 0.859678 0
0.636118 0.851469 0
0.706996 0.843259 0
0.777874 0.83505 0.120653
0.848753 0.826841 0.310811
0.919631 0.818631 0.500969
0.990494 0.810407 0.691127
1 0.802197 0.881285
1 0.793988 1
0.805753 0.920104 0
0.876616 0.911894 0
0.947494 0.90367 0
1 0.89546 0.0617838
1 0.887251 0.251942
1 0.879042 0.4421
1 0.870832 0.632258
1 0.862623 0.822431
1 0.854414 1
0 0.50956 0
0 0.50135 0.14609
0 0.493141 0.336248
0 0.484916 0.526406
0 0.476707 0.716564
0 0.468498 0.906722
0 0.460288 1
0 0.452079 1
0 0.44387 1
0 0.56997 0
0 0.561761 0.0872206
0 0.553552 0.277394
0 0.545327 0.467552
0 0.537118 0.65771
0 0.528908 0.847868
0 0.520699 1
0 0.512489 1
0 0.50428 1
0 0.630381 0
0 0.622171 0.0283665
0 0.613962 0.218524
0 0.605753 0.408682
0 0.597543 0.59884
0 0.589334 0.788998
0 0.581125 0.979171
0 0.572915 1
0 0.564691 1
0 0.690806 0
0 0.682597 0
0 0.674388 0.159655
0 0.666163 0.349813
0 0.657954 0.539971
0 0.649744 0.730144
0 0.641535 0.920302
0 0.633326 1
0 0.625116 1
0 0.751217 0
0 0.743008 0
0 0.734798 0.100786
0 0.726589 0.290944
0 0.718379 0.481117
0.0117342 0.71017 0.671275
0.0826123 0.701961 0.861433
0.15349 0.693751 1
0.224369 0.685527 1
0 0.811643 0
0 0.803433 0
0.0396124 0.795224 0.0419318
0.110491 0.786999 0.23209
0.181369 0.77879 0.422248
0.252232 0.770581 0.612406
0.32311 0.762371 0.802563
0.393988 0.754162 0.992737
0.464866 0.745953 1
0.138369 0.872053 0
0.209232 0.863844 0
0.28011 0.855634 0
0.350988 0.847425 0.17322
0.421866 0.839216 0.363378
0.492744 0.831006 0.553536
0.563622 0.822797 0.743709
0.634501 0.814588 0.933867
0.705364 0.806363 1
0.378882 0.932479 0
0.449744 0.924269 0
0.520623 0.91606 0
0.591501 0.907835 0.114351
0.662364 0.899626 0.304509
0.733242 0.891417 0.494682
0.80412 0.883207 0.68484
0.874998 0.874998 0.874998
0.945876 0.866789 1
0.619379 0.992889 0
0.690242 0.98468 0
0.76112 0.976471 0
0.831998 0.968261 0.0554818
0.902876 0.960052 0.245655
0.973754 0.951843 0.435813
1 0.943633 0.625971
1 0.935409 0.816129
1 0.927199 1
0 0.582345 0
0 0.574136 0.139788
0 0.565927 0.329946
0 0.557717 0.520119
0 0.549508 0.710277
0 0.541299 0.900435
0 0.533089 1
0 0.52488 1
0 0.51667 1
0 0.642756 0
0 0.634546 0.0809339
0 0.626337 0.271092
0 0.618128 0.46125
0 0.609918 0.651423
0 0.601709 0.841581
0 0.5935 1
0 0.58529 1
0 0.577081 1
0 0.703182 0
0 0.694972 0.0220645
0 0.686763 0.212222
0 0.678553 0.402396
0 0.670329 0.592554
0 0.66212 0.782712
0 0.65391 0.972869
0 0.645701 1
0 0.637491 1
0 0.763592 0
0 0.755383 0
0 0.747173 0.153368
0 0.738964 0.343526
0 0.730755 0.533684
0 0.722545 0.723842
0 0.714336 0.914
0 0.706127 1
0 0.697917 1
0 0.824018 0
0 0.815808 0
0 0.807599 0.0944991
0 0.79939 0.284657
0 0.791165 0.474815
0 0.782956 0.664973
0 0.774746 0.855146
0 0.766537 1
0.0379797 0.758328 1
0 0.884428 0
0 0.876219 0
0 0.868009 0.0356298
0 0.8598 0.225788
0 0.851591 0.415946
0.0658579 0.843381 0.606119
0.136736 0.835172 0.796277
0.207614 0.826963 0.986435
0.278492 0.818753 1
0 0.944854 0
0.022858 0.936645 0
0.0937362 0.928435 0
0.164614 0.920226 0.166934
0.235492 0.912001 0.357092
0.306371 0.903792 0.54725
0.377234 0.895582 0.737408
0.448112 0.887373 0.927565
0.51899 0.879164 1
0.192493 1 0
0.263371 0.997055 0
0.334234 0.988846 0
0.405112 0.980636 0.108064
0.47599 0.972427 0.298222
0.546868 0.964218 0.48838
0.617746 0.956008 0.678538
0.688624 0.947799 0.868711
0.759503 0.93959 1
0.433005 1 0
0.503868 1 0
0.574746 1 0
0.645624 1 0.0491951
0.716503 1 0.239353
0.787366 1 0.429511
0.858244 1 0.619684
0.929122 1 0.809842
1 1 1
