public/LUTS/Color Shift/ColorShift_11.cube
TITLE "Generated by Resolve"
LUT_3D_SIZE 9
0 0 0
0 0.0523995 0
0 0.104814 0
0 0.157229 0
0 0.209644 0
0 0.262058 0
0 0.314473 0
0 0.366888 0
0 0.419303 0
0.0220798 0.0935988 0.19263
0 0.145998 0.132036
0 0.198413 0.0714122
0 0.250828 0.0108034
0 0.303243 0
0 0.355657 0
0 0.408072 0
0 0.460487 0
0 0.512901 0
0.0441749 0.187198 0.38529
0.0204471 0.239612 0.324681
0 0.292027 0.264073
0 0.344442 0.203464
0 0.396841 0.142855
0 0.449256 0.0822461
0 0.501671 0.0216373
0 0.554086 0
0 0.6065 0
0.0662547 0.280812 0.577935
0.0425269 0.333211 0.517342
0.0187991 0.385626 0.456733
0 0.438041 0.396124
0 0.490455 0.335515
0 0.54287 0.274907
0 0.595285 0.214282
0 0.6477 0.153674
0 0.700114 0.0930648
0.0883497 0.374411 0.770596
0.064622 0.426825 0.710002
0.0408789 0.47924 0.649378
0.0171511 0.53164 0.588769
0 0.584054 0.528161
0 0.636469 0.467552
0 0.688884 0.406943
0 0.741299 0.346334
0 0.793713 0.285725
0.110445 0.468025 0.963256
0.0867018 0.520424 0.902647
0.062974 0.572839 0.842039
0.0392462 0.625254 0.78143
0.0155032 0.677668 0.720821
0 0.730083 0.660212
0 0.782498 0.599603
0 0.834913 0.538994
0 0.887312 0.478386
0.132525 0.561624 1
0.108797 0.614038 1
0.085069 0.666453 1
0.061326 0.718853 0.97409
0.0375982 0.771267 0.913481
0.0138552 0.823682 0.852872
0 0.876097 0.792248
0 0.928512 0.73164
0 0.980926 0.671031
0.15462 0.655238 1
0.130877 0.707637 1
0.107149 0.760052 1
0.0834211 0.812467 1
0.059678 0.864881 1
0.0359503 0.917296 1
0.0122225 0.969711 0.984909
0 1 0.9243
0 1 0.863691
0.176699 0.748837 1
0.152972 0.801251 1
0.129244 0.853651 1
0.105501 0.906065 1
0.0817731 0.95848 1
0.0580301 1 1
0.0343023 1 1
0.0105745 1 1
0 1 1
0.126635 0 0
0.102907 0.0313878 0
0.0791638 0.0838026 0
0.055436 0.136217 0
0.031693 0.188632 0
0.00796521 0.241047 0
0 0.293462 0
0 0.345876 0
0 0.398291 0
0.148714 0.0725872 0.185595
0.124987 0.124987 0.124987
0.101259 0.177401 0.0643778
0.0775158 0.229816 0.00376898
0.0537881 0.282231 0
0.030045 0.334646 0
0.00631724 0.38706 0
0 0.43946 0
0 0.491875 0
0.170809 0.166186 0.378241
0.147082 0.218585 0.317647
0.123339 0.271 0.257038
0.0996109 0.323415 0.196414
0.0758679 0.37583 0.135805
0.0521401 0.428244 0.0751965
0.0284123 0.480659 0.0145876
0.00466926 0.533074 0
0 0.585489 0
0.192889 0.259785 0.570901
0.169162 0.3122 0.510292
0.145434 0.364614 0.449683
0.121691 0.417029 0.389075
0.0979629 0.469444 0.328466
0.0742351 0.521859 0.267857
0.0504921 0.574273 0.207248
0.0267643 0.626673 0.146639
0.00302129 0.679088 0.0860304
0.214984 0.353399 0.763561
0.191257 0.405798 0.702953
0.167514 0.458213 0.642344
0.143786 0.510628 0.581735
0.120043 0.563043 0.521126
0.0963149 0.615457 0.460517
0.0725872 0.667872 0.399908
0.0488441 0.720287 0.339284
0.0251164 0.772702 0.278676
0.237064 0.446998 0.956207
0.213336 0.499413 0.895613
0.189609 0.551827 0.835004
0.165866 0.604242 0.774395
0.142138 0.656657 0.713771
0.11841 0.709072 0.653162
0.094667 0.761471 0.592554
0.0709392 0.813886 0.531945
0.0471962 0.8663 0.471336
0.259159 0.540612 1
0.235431 0.593011 1
0.211688 0.645426 1
0.187961 0.697841 0.967041
0.164233 0.750256 0.906432
0.14049 0.80267 0.845823
0.116762 0.855085 0.785214
0.093019 0.9075 0.724605
0.0692912 0.959915 0.663996
0.281254 0.634211 1
0.257511 0.686625 1
0.233783 0.73904 1
0.210056 0.791455 1
0.186313 0.84387 1
0.162585 0.896284 1
0.138842 0.948684 0.977874
0.115114 1 0.91725
0.0913863 1 0.856641
0.303334 0.727825 1
0.279606 0.780224 1
0.255863 0.832639 1
0.232136 0.885054 1
0.208408 0.937469 1
0.184665 0.989883 1
0.160937 1 1
0.137194 1 1
0.113466 1 1
0.253285 0 0
0.229541 0.0103761 0
0.205814 0.0627909 0
0.182086 0.115206 0
0.158343 0.16762 0
0.134615 0.220035 0
0.110887 0.272435 0
0.0871443 0.324849 0
0.0634165 0.377264 0
0.275364 0.0515602 0.178546
0.251637 0.103975 0.117937
0.227893 0.15639 0.0573281
0.204166 0.208789 0
0.180438 0.261204 0
0.156695 0.313619 0
0.132967 0.366033 0
0.109224 0.418448 0
0.0854963 0.470863 0
0.297459 0.145174 0.371206
0.273716 0.197574 0.310597
0.249989 0.249989 0.249989
0.226261 0.302403 0.18938
0.202518 0.354818 0.128771
0.17879 0.407233 0.0681621
0.155047 0.459648 0.00755322
0.131319 0.512062 0
0.107591 0.564462 0
0.319539 0.238773 0.563851
0.295811 0.291188 0.503258
0.272084 0.343587 0.442649
0.248341 0.396002 0.38204
0.224613 0.448417 0.321416
0.20087 0.500832 0.260807
0.177142 0.553246 0.200198
0.153414 0.605661 0.13959
0.129671 0.658076 0.0789807
0.341634 0.332387 0.756512
0.317891 0.384787 0.695903
0.294163 0.437201 0.635294
0.270436 0.489616 0.574685
0.246693 0.542031 0.514076
0.222965 0.594446 0.453468
0.199237 0.64686 0.392859
0.175494 0.699275 0.33225
0.151766 0.751675 0.271641
0.363714 0.425986 0.949172
0.339986 0.478401 0.888563
0.316258 0.5308 0.827955
0.292515 0.583215 0.767346
0.268788 0.63563 0.706737
0.245045 0.688045 0.646128
0.221317 0.740459 0.585519
0.197589 0.792874 0.52491
0.173846 0.845289 0.464286
0.385809 0.5196 1
0.362081 0.572 1
0.338338 0.624414 1
0.314611 0.676829 0.960006
0.290867 0.729244 0.899397
0.26714 0.781659 0.838773
0.243412 0.834073 0.778164
0.219669 0.886473 0.717556
0.195941 0.938888 0.656947
0.407889 0.613199 1
0.384161 0.665599 1
0.360433 0.718013 1
0.33669 0.770428 1
0.312963 0.822843 1
0.289235 0.875257 1
0.265492 0.927672 0.970825
0.241764 0.980087 0.910216
0.218021 1 0.849607
0.429984 0.706798 1
0.406256 0.759213 1
0.382513 0.811627 1
0.358785 0.864042 1
0.335058 0.916457 1
0.311315 0.968872 1
0.287587 1 1
0.263844 1 1
0.240116 1 1
0.379934 0 0
0.356191 0 0
0.332464 0.0417639 0
0.308736 0.0941787 0
0.284993 0.146593 0
0.261265 0.199008 0
0.237522 0.251423 0
0.213794 0.303838 0
0.190066 0.356252 0
0.402014 0.0305486 0.171496
0.378286 0.082948 0.110903
0.354543 0.135363 0.0502937
0.330816 0.187778 0
0.307088 0.240192 0
0.283345 0.292607 0
0.259617 0.345022 0
0.235874 0.397436 0
0.212146 0.449851 0
0.424094 0.124147 0.364157
0.400366 0.176562 0.303563
0.376638 0.228977 0.242939
0.352895 0.281392 0.18233
0.329168 0.333791 0.121721
0.30544 0.386206 0.0611124
0.281697 0.438621 0.000503548
0.257969 0.491035 0
0.234226 0.54345 0
0.446189 0.217762 0.556817
0.422461 0.270161 0.496208
0.398718 0.322576 0.435599
0.37499 0.37499 0.37499
0.351263 0.427405 0.314382
0.32752 0.47982 0.253773
0.303792 0.532235 0.193164
0.280049 0.584649 0.132555
0.256321 0.637064 0.0719463
0.468284 0.31136 0.749462
0.444541 0.363775 0.688869
0.420813 0.41619 0.62826
0.397086 0.468589 0.567651
0.373342 0.521004 0.507042
0.349615 0.573419 0.446418
0.325872 0.625834 0.385809
0.302144 0.678248 0.3252
0.278416 0.730663 0.264591
0.490364 0.404974 0.942123
0.466636 0.457374 0.881529
0.442908 0.509789 0.820905
0.419165 0.562203 0.760296
0.395438 0.614618 0.699687
0.371695 0.667033 0.639078
0.347967 0.719448 0.57847
0.324239 0.771862 0.517861
0.300496 0.824277 0.457252
0.512459 0.498573 1
0.488716 0.550988 1
0.464988 0.603403 1
0.44126 0.655802 0.952956
0.417517 0.708217 0.892348
0.39379 0.760632 0.831739
0.370047 0.813046 0.77113
0.346319 0.865461 0.710521
0.322591 0.917876 0.649912
0.534539 0.592187 1
0.510811 0.644587 1
0.487083 0.697002 1
0.46334 0.749416 1
0.439612 0.801831 1
0.415869 0.854246 1
0.392142 0.906661 0.963775
0.368414 0.959075 0.903166
0.344671 1 0.842557
0.556634 0.685786 1
0.532906 0.738201 1
0.509163 0.7906 1
0.485435 0.843015 1
0.461692 0.89543 1
0.437964 0.947845 1
0.414237 1 1
0.390494 1 1
0.366766 1 1
0.506569 0 0
0.482841 0 0
0.459113 0.0207523 0
0.43537 0.073167 0
0.411643 0.125582 0
0.387915 0.177996 0
0.364172 0.230411 0
0.340444 0.282826 0
0.316701 0.335225 0
0.528664 0.00952163 0.164462
0.504936 0.0619364 0.103853
0.481193 0.114351 0.0432441
0.457465 0.166766 0
0.433722 0.219181 0
0.409995 0.27158 0
0.386267 0.323995 0
0.362524 0.37641 0
0.338796 0.428824 0
0.550744 0.103136 0.357122
0.527016 0.155535 0.296513
0.503288 0.20795 0.235904
0.479545 0.260365 0.175296
0.455817 0.312779 0.114687
0.43209 0.365194 0.054078
0.408347 0.417609 0
0.384619 0.470024 0
0.360876 0.522438 0
0.572839 0.196735 0.549767
0.549111 0.249149 0.489174
0.525368 0.301564 0.428565
0.50164 0.353979 0.367941
0.477897 0.406394 0.307332
0.45417 0.458793 0.246723
0.430442 0.511208 0.186114
0.406699 0.563622 0.125505
0.382971 0.616037 0.0648966
0.594919 0.290349 0.742428
0.571191 0.342748 0.681819
0.547463 0.395163 0.62121
0.52372 0.447578 0.560601
0.499992 0.499992 0.499992
0.476265 0.552407 0.439384
0.452522 0.604822 0.378775
0.428794 0.657237 0.318166
0.405051 0.709651 0.257557
0.617014 0.383948 0.935088
0.593286 0.436362 0.874479
0.569543 0.488777 0.81387
0.545815 0.541192 0.753262
0.522087 0.593591 0.692653
0.498344 0.646006 0.632044
0.474617 0.698421 0.57142
0.450874 0.750835 0.510811
0.427146 0.80325 0.450202
0.639094 0.477562 1
0.615366 0.529961 1
0.591638 0.582376 1
0.567895 0.634791 0.945907
0.544167 0.687205 0.885298
0.520439 0.73962 0.824689
0.496696 0.792035 0.76408
0.472969 0.84445 0.703471
0.449241 0.896864 0.642863
0.661189 0.57116 1
0.637461 0.623575 1
0.613718 0.67599 1
0.58999 0.728405 1
0.566262 0.780804 1
0.542519 0.833219 1
0.518791 0.885634 0.956741
0.495048 0.938048 0.896132
0.471321 0.990463 0.835523
0.683284 0.664775 1
0.659541 0.717174 1
0.635813 0.769589 1
0.612085 0.822003 1
0.588342 0.874418 1
0.564614 0.926833 1
0.540871 0.979248 1
0.517143 1 1
0.493416 1 1
0.633219 0 0
0.609491 0 0
0.585763 0 0
0.56202 0.0521553 0
0.538293 0.104555 0
0.514549 0.15697 0
0.490822 0.209384 0
0.467094 0.261799 0
0.443351 0.314214 0
0.655314 0 0.157412
0.631571 0.0409094 0.0968185
0.607843 0.0933242 0.0362097
0.584115 0.145739 0
0.560372 0.198154 0
0.536645 0.250568 0
0.512901 0.302983 0
0.489174 0.355398 0
0.465446 0.407813 0
0.677394 0.0821088 0.350072
0.653666 0.134524 0.289464
0.629938 0.186938 0.228855
0.606195 0.239353 0.168246
0.582467 0.291768 0.107637
0.558724 0.344182 0.0470283
0.534997 0.396582 0
0.511269 0.448997 0
0.487526 0.501411 0
0.699489 0.175723 0.542733
0.675746 0.228122 0.482124
0.652018 0.280537 0.421515
0.62829 0.332952 0.360906
0.604547 0.385367 0.300298
0.580819 0.437781 0.239689
0.557092 0.490196 0.17908
0.533349 0.542611 0.118456
0.509621 0.595026 0.057847
0.721569 0.269322 0.735378
0.697841 0.321736 0.674784
0.674113 0.374151 0.614176
0.65037 0.426566 0.553567
0.626642 0.478981 0.492943
0.602899 0.531395 0.432334
0.579171 0.583795 0.371725
0.555444 0.63621 0.311116
0.531701 0.688624 0.250507
0.743664 0.362936 0.928038
0.719936 0.415335 0.86743
0.696193 0.46775 0.806821
0.672465 0.520165 0.746212
0.648722 0.57258 0.685603
0.624994 0.624994 0.624994
0.601267 0.677409 0.564385
0.577523 0.729824 0.503777
0.553796 0.782238 0.443168
0.765743 0.456535 1
0.742016 0.508949 1
0.718288 0.561364 0.999481
0.694545 0.613779 0.938872
0.670817 0.666194 0.878264
0.647089 0.718593 0.817655
0.623346 0.771008 0.757046
0.599619 0.823423 0.696422
0.575875 0.875837 0.635813
0.787839 0.550149 1
0.764111 0.602548 1
0.740368 0.654963 1
0.71664 0.707378 1
0.692912 0.759793 1
0.669169 0.812207 1
0.645441 0.864622 0.949691
0.621698 0.917037 0.889082
0.597971 0.969451 0.828473
0.809918 0.643748 1
0.786191 0.696162 1
0.762463 0.748577 1
0.73872 0.800992 1
0.714992 0.853407 1
0.691264 0.905806 1
0.667521 0.958221 1
0.643793 1 1
0.62005 1 1
0.759869 0 0
0.736141 0 0
0.712398 0 0
0.68867 0.0311284 0
0.664942 0.0835431 0
0.641199 0.135958 0
0.617472 0.188373 0
0.593729 0.240787 0
0.570001 0.293202 0
0.781949 0 0.150378
0.758221 0.0198978 0.0897688
0.734493 0.0723125 0.02916
0.71075 0.124727 0
0.687022 0.177142 0
0.663294 0.229557 0
0.639551 0.281971 0
0.615824 0.334386 0
0.592081 0.386786 0
0.804044 0.0610971 0.343023
0.780316 0.113512 0.282429
0.756573 0.165911 0.22182
0.732845 0.218326 0.161212
0.709117 0.270741 0.100587
0.685374 0.323156 0.0399786
0.661646 0.37557 0
0.637903 0.427985 0
0.614176 0.4804 0
0.826139 0.154711 0.535683
0.802396 0.207111 0.475074
0.778668 0.259525 0.414466
0.75494 0.31194 0.353857
0.731197 0.364355 0.293248
0.707469 0.41677 0.232639
0.683726 0.469184 0.17203
0.659998 0.521584 0.111421
0.636271 0.573999 0.0508125
0.848219 0.24831 0.728344
0.824491 0.300725 0.667735
0.800748 0.353124 0.607126
0.77702 0.405539 0.546517
0.753292 0.457954 0.485908
0.729549 0.510369 0.425299
0.705821 0.562783 0.364691
0.682094 0.615198 0.304082
0.658351 0.667613 0.243458
0.870314 0.341909 0.920989
0.846571 0.394324 0.860395
0.822843 0.446738 0.799786
0.799115 0.499153 0.739178
0.775372 0.551568 0.678569
0.751644 0.603983 0.617945
0.727901 0.656397 0.557336
0.704173 0.708797 0.496727
0.680446 0.761212 0.436118
0.892393 0.435523 1
0.868666 0.487922 1
0.844938 0.540337 0.992432
0.821195 0.592752 0.931823
0.797467 0.645167 0.871214
0.773724 0.697581 0.810605
0.749996 0.749996 0.749996
0.726268 0.802411 0.689387
0.702525 0.854826 0.628779
0.914488 0.529122 1
0.890761 0.581537 1
0.867018 0.633951 1
0.84329 0.686366 1
0.819547 0.738781 1
0.795819 0.791196 1
0.772091 0.843595 0.942657
0.748348 0.89601 0.882048
0.72462 0.948425 0.821424
0.936568 0.622736 1
0.91284 0.675135 1
0.889113 0.72755 1
0.86537 0.779965 1
0.841642 0.83238 1
0.817914 0.884794 1
0.794171 0.937209 1
0.770443 0.989624 1
0.7467 1 1
0.886519 0 0
0.862791 0 0
0.839048 0 0
0.81532 0.0101167 0
0.791592 0.0625315 0
0.767849 0.114946 0
0.744121 0.167346 0
0.720378 0.21976 0
0.696651 0.272175 0
0.908598 0 0.143328
0.884871 0 0.0827344
0.861143 0.0513008 0.0221103
0.8374 0.1037 0
0.813672 0.156115 0
0.789929 0.20853 0
0.766201 0.260945 0
0.742473 0.313359 0
0.71873 0.365774 0
0.930694 0.0400854 0.335988
0.906966 0.0924849 0.27538
0.883223 0.1449 0.214771
0.859495 0.197314 0.154162
0.835752 0.249729 0.0935531
0.812024 0.302144 0.0329442
0.788296 0.354559 0
0.764553 0.406973 0
0.740826 0.459388 0
0.952773 0.133684 0.528634
0.929046 0.186099 0.46804
0.905318 0.238514 0.407431
0.881575 0.290913 0.346822
0.857847 0.343328 0.286213
0.834119 0.395743 0.225589
0.810376 0.448157 0.164981
0.786648 0.500572 0.104372
0.762905 0.552987 0.0437629
0.974868 0.227298 0.721294
0.951141 0.279698 0.6607
0.927398 0.332113 0.600076
0.90367 0.384527 0.539467
0.879942 0.436942 0.478859
0.856199 0.489357 0.41825
0.832471 0.541772 0.357641
0.808728 0.594186 0.297032
0.785 0.646586 0.236423
0.996948 0.320897 0.913954
0.97322 0.373312 0.853346
0.949493 0.425727 0.792737
0.92575 0.478126 0.732128
0.902022 0.530541 0.671519
0.878294 0.582956 0.61091
0.854551 0.63537 0.550301
0.830823 0.687785 0.489693
0.807095 0.7402 0.429084
1 0.414511 1
0.995315 0.466911 1
0.971572 0.519326 0.985397
0.947845 0.57174 0.924788
0.924117 0.624155 0.864179
0.900374 0.67657 0.803571
0.876646 0.728985 0.742947
0.852903 0.781399 0.682338
0.829175 0.833799 0.621729
1 0.50811 1
1 0.560525 1
0.993667 0.612924 1
0.96994 0.665339 1
0.946197 0.717754 1
0.922469 0.770169 0.996216
0.898726 0.822583 0.935607
0.874998 0.874998 0.874998
0.85127 0.927413 0.814389
1 0.601724 1
1 0.654124 1
1 0.706538 1
0.99202 0.758953 1
0.968292 0.811368 1
0.944549 0.863783 1
0.920821 0.916197 1
0.897093 0.968597 1
0.87335 1 1
1 0 0
0.989441 0 0
0.965698 0 0
0.94197 0 0
0.918227 0.0415045 0
0.894499 0.0939193 0
0.870771 0.146334 0
0.847028 0.198749 0
0.823301 0.251164 0
1 0 0.136294
1 0 0.0756847
0.987793 0.0302739 0.0150759
0.96405 0.0826886 0
0.940322 0.135103 0
0.916579 0.187518 0
0.892851 0.239933 0
0.869123 0.292348 0
0.84538 0.344762 0
1 0.0190585 0.328939
1 0.0714733 0.268345
1 0.123888 0.207736
0.986145 0.176303 0.147112
0.962402 0.228702 0.0865034
0.938674 0.281117 0.0258946
0.914931 0.333532 0
0.891203 0.385946 0
0.867475 0.438361 0
1 0.112673 0.521599
1 0.165072 0.46099
1 0.217487 0.400381
1 0.269902 0.339773
0.984497 0.322316 0.279164
0.960754 0.374731 0.218555
0.937026 0.427146 0.157946
0.913298 0.479561 0.0973373
0.889555 0.531975 0.0367285
1 0.206271 0.71426
1 0.258686 0.653651
1 0.311101 0.593042
1 0.363516 0.532433
1 0.415915 0.471824
0.982849 0.46833 0.411215
0.959121 0.520745 0.350591
0.935378 0.573159 0.289982
0.91165 0.625574 0.229374
1 0.299886 0.906905
1 0.352285 0.846311
1 0.4047 0.785702
1 0.457115 0.725078
1 0.509529 0.664469
1 0.561944 0.603861
0.981201 0.614359 0.543252
0.957473 0.666773 0.482643
0.93373 0.719188 0.422034
1 0.393484 1
1 0.445899 1
1 0.498314 0.978347
1 0.550729 0.917739
1 0.603128 0.85713
1 0.655543 0.796521
1 0.707958 0.735912
0.979553 0.760372 0.675303
0.955825 0.812787 0.614694
1 0.487098 1
1 0.539498 1
1 0.591913 1
1 0.644327 1
1 0.696742 1
1 0.749157 0.989181
1 0.801572 0.928573
1 0.853986 0.867948
0.977905 0.906401 0.80734
1 0.580697 1
1 0.633112 1
1 0.685527 1
1 0.737926 1
1 0.790341 1
1 0.842756 1
1 0.895171 1
1 0.947585 1
1 1 1
