public/LUTS/Color Shift/ColorShift_58.cube
TITLE "Generated by Resolve"
LUT_3D_SIZE 9
0 0 0
0 0.0747082 0
0 0.149432 0
0 0.224155 0
0 0.298878 0
0 0.373587 0
0 0.44831 0
0 0.523033 0
0 0.597757 0
0 0.0892042 0.278309
0 0.163912 0.168612
0 0.238636 0.0588846
0 0.313359 0
0 0.388067 0
0 0.462791 0
0 0.537514 0
0 0.612238 0
0 0.686961 0
0 0.178424 0.556664
0 0.253132 0.446952
0 0.327855 0.33724
0 0.402564 0.227512
0 0.477287 0.117784
0 0.55201 0.00807202
0 0.626734 0
0 0.701442 0
0 0.776165 0
1.5259e-05 0.267628 0.835019
0 0.342336 0.725307
0 0.41706 0.615579
0 0.491783 0.505867
0 0.566506 0.396139
0 0.64123 0.286412
0 0.715938 0.176699
0 0.790661 0.0669718
0 0.865385 0
1.5259e-05 0.356847 1
0 0.431556 1
0 0.506279 0.893935
0 0.581003 0.784207
0 0.655711 0.674495
0 0.730434 0.564767
0 0.805158 0.455039
0 0.879881 0.345327
0 0.954604 0.235599
1.5259e-05 0.446067 1
0 0.520775 1
0 0.595499 1
0 0.670207 1
0 0.74493 0.952834
0 0.819654 0.843122
0 0.894377 0.733394
0 0.969085 0.623667
0 1 0.513954
1.5259e-05 0.535271 1
0 0.609979 1
0 0.684703 1
0 0.759426 1
0 0.83415 1
0 0.908873 1
0 0.983581 1
0 1 0.902022
0 1 0.792294
1.5259e-05 0.624491 1
0 0.699199 1
0 0.773922 1
0 0.848646 1
0 0.923354 1
0 0.998077 1
0 1 1
0 1 1
0 1 1
1.5259e-05 0.71371 1
0 0.788418 1
0 0.863142 1
0 0.93785 1
0 1 1
0 1 1
0 1 1
0 1 1
0 1 1
0.202014 0 0
0.124987 0.0357824 0
0.0479438 0.110506 0
0 0.185229 0
0 0.259937 0
0 0.334661 0
0 0.409384 0
0 0.484108 0
0 0.558816 0
0.202014 0.0502785 0.234699
0.124987 0.124987 0.124987
0.0479438 0.19971 0.015259
0 0.274434 0
0 0.349142 0
0 0.423865 0
0 0.498589 0
0 0.573312 0
0 0.64802 0
0.202014 0.139483 0.513039
0.124987 0.214206 0.403342
0.0479438 0.288914 0.293614
0 0.363638 0.183886
0 0.438361 0.0741741
0 0.513085 0
0 0.587808 0
0 0.662516 0
0 0.73724 0
0.202029 0.228702 0.791394
0.124987 0.30341 0.681682
0.0479438 0.378134 0.571969
0 0.452857 0.462242
0 0.527581 0.352514
0 0.602289 0.242802
0 0.677012 0.133074
0 0.751736 0.0233463
0 0.826459 0
0.202029 0.317922 1
0.125002 0.39263 0.960037
0.0479591 0.467353 0.850309
0 0.542077 0.740597
0 0.616785 0.630869
0 0.691508 0.521141
0 0.766232 0.411429
0 0.840955 0.301701
0 0.915663 0.191974
0.202029 0.407126 1
0.125002 0.481849 1
0.0479591 0.556558 1
0 0.631281 1
0 0.706004 0.909224
0 0.780728 0.799496
0 0.855451 0.689769
0 0.930159 0.580056
0 1 0.470329
0.202029 0.496345 1
0.125002 0.571054 1
0.0479591 0.645777 1
0 0.7205 1
0 0.795224 1
0 0.869932 1
0 0.944656 0.968124
0 1 0.858396
0 1 0.748684
0.202029 0.585565 1
0.125002 0.660273 1
0.0479591 0.734997 1
0 0.80972 1
0 0.884428 1
0 0.959152 1
0 1 1
0 1 1
0 1 1
0.202045 0.674784 1
0.125002 0.749493 1
0.0479591 0.824201 1
0 0.898924 1
0 0.973648 1
0 1 1
0 1 1
0 1 1
0 1 1
0.404059 0 0
0.327031 0 0
0.249989 0.0715648 0
0.172946 0.146288 0
0.0959029 0.221012 0
0.0188602 0.295735 0
0 0.370443 0
0 0.445167 0
0 0.51989 0
0.404059 0.0113375 0.191073
0.327031 0.0860609 0.0813611
0.249989 0.160769 0
0.172946 0.235492 0
0.0959029 0.310216 0
0.0188602 0.384939 0
0 0.459648 0
0 0.534371 0
0 0.609094 0
0.404059 0.100557 0.469413
0.327031 0.175265 0.359716
0.249989 0.249989 0.249989
0.172946 0.324712 0.140261
0.0959029 0.399435 0.0305486
0.0188602 0.474144 0
0 0.548867 0
0 0.62359 0
0 0.698314 0
0.404059 0.189776 0.747768
0.327031 0.264485 0.638056
0.249989 0.339208 0.528344
0.172946 0.413916 0.418616
0.0959029 0.48864 0.308888
0.0188602 0.563363 0.199176
0 0.638086 0.0894484
0 0.71281 0
0 0.787518 0
0.404074 0.278981 1
0.327031 0.353704 0.916411
0.249989 0.428412 0.806683
0.172946 0.503136 0.696971
0.0959182 0.577859 0.587243
0.0188754 0.652583 0.477516
0 0.727291 0.367803
0 0.802014 0.258076
0 0.876738 0.148348
0.404074 0.3682 1
0.327031 0.442908 1
0.250004 0.517632 1
0.172961 0.592355 0.975311
0.0959182 0.667079 0.865599
0.0188754 0.741787 0.755871
0 0.81651 0.646143
0 0.891234 0.536431
0 0.965957 0.426703
0.404074 0.45742 1
0.327047 0.532128 1
0.250004 0.606851 1
0.172961 0.681559 1
0.0959182 0.756283 1
0.0188754 0.831006 1
0 0.90573 0.924498
0 0.980453 0.814771
0 1 0.705058
0.404074 0.546624 1
0.327047 0.621347 1
0.250004 0.696056 1
0.172961 0.770779 1
0.0959182 0.845502 1
0.0188754 0.920226 1
0 0.994934 1
0 1 1
0 1 0.983398
0.404074 0.635843 1
0.327047 0.710552 1
0.250004 0.785275 1
0.172961 0.859998 1
0.0959182 0.934722 1
0.0188754 1 1
0 1 1
0 1 1
0 1 1
0.606104 0 0
0.529061 0 0
0.452018 0.032639 0
0.374975 0.107362 0
0.297948 0.182071 0
0.220905 0.256794 0
0.143862 0.331518 0
0.0668193 0.406241 0
0 0.480964 0
0.606104 0 0.147448
0.529061 0.0471199 0.0377356
0.452033 0.121843 0
0.37499 0.196567 0
0.297948 0.271275 0
0.220905 0.345998 0
0.143862 0.420722 0
0.0668193 0.495445 0
0 0.570169 0
0.606104 0.0616312 0.425788
0.529076 0.136339 0.316091
0.452033 0.211063 0.206363
0.37499 0.285771 0.0966354
0.297948 0.360494 0
0.220905 0.435218 0
0.143862 0.509941 0
0.0668193 0.584649 0
0 0.659373 0
0.606104 0.150835 0.704143
0.529076 0.225544 0.59443
0.452033 0.300267 0.484718
0.37499 0.37499 0.37499
0.297948 0.449714 0.265263
0.220905 0.524437 0.15555
0.143862 0.599145 0.0458228
0.0668193 0.673869 0
0 0.748592 0
0.606104 0.240055 0.982498
0.529076 0.314763 0.872786
0.452033 0.389487 0.763058
0.37499 0.46421 0.653346
0.297948 0.538918 0.543618
0.220905 0.613642 0.43389
0.143862 0.688365 0.324178
0.0668345 0.763088 0.21445
0 0.837812 0.104723
0.606104 0.329274 1
0.529076 0.403983 1
0.452033 0.478706 1
0.37499 0.553414 0.931685
0.297948 0.628138 0.821973
0.22092 0.702861 0.712245
0.143877 0.777584 0.602518
0.0668345 0.852293 0.492805
0 0.927016 0.383078
0.606119 0.418479 1
0.529076 0.493187 1
0.452033 0.56791 1
0.375006 0.642634 1
0.297963 0.717357 1
0.22092 0.792081 0.9906
0.143877 0.866789 0.880873
0.0668345 0.941512 0.771145
0 1 0.661433
0.606119 0.507698 1
0.529091 0.582406 1
0.452049 0.65713 1
0.375006 0.731853 1
0.297963 0.806561 1
0.22092 0.881285 1
0.143877 0.956008 1
0.0668345 1 1
0 1 0.939773
0.606119 0.596918 1
0.529091 0.671626 1
0.452049 0.746349 1
0.375006 0.821057 1
0.297963 0.895781 1
0.22092 0.970504 1
0.143877 1 1
0.0668345 1 1
0 1 1
0.808133 0 0
0.731106 0 0
0.654063 0 0
0.57702 0.0684215 0
0.499977 0.143145 0
0.422934 0.217868 0
0.345892 0.292592 0
0.268864 0.3673 0
0.191821 0.442023 0
0.808133 0 0.103822
0.731106 0.00819409 0
0.654063 0.0829023 0
0.57702 0.157626 0
0.499977 0.232349 0
0.42295 0.307073 0
0.345907 0.381796 0
0.268864 0.456504 0
0.191821 0.531228 0
0.808148 0.0226902 0.382162
0.731106 0.0973983 0.272465
0.654063 0.172122 0.162737
0.577035 0.246845 0.0530098
0.499992 0.321569 0
0.42295 0.396277 0
0.345907 0.471 0
0.268864 0.545724 0
0.191821 0.620447 0
0.808148 0.11191 0.660517
0.731121 0.186618 0.550805
0.654078 0.261341 0.441093
0.577035 0.336065 0.331365
0.499992 0.410773 0.221637
0.42295 0.485496 0.111925
0.345907 0.56022 0.0021973
0.268864 0.634943 0
0.191821 0.709651 0
0.808148 0.201114 0.938872
0.731121 0.275837 0.82916
0.654078 0.350545 0.719432
0.577035 0.425269 0.60972
0.499992 0.499992 0.499992
0.42295 0.574716 0.390265
0.345907 0.649439 0.280552
0.268864 0.724147 0.170825
0.191821 0.798871 0.0610971
0.808148 0.290333 1
0.731121 0.365042 1
0.654078 0.439765 0.997787
0.577035 0.514488 0.88806
0.499992 0.589212 0.778347
0.42295 0.66392 0.66862
0.345907 0.738643 0.558892
0.268864 0.813367 0.44918
0.191836 0.88809 0.339452
0.808148 0.379553 1
0.731121 0.454261 1
0.654078 0.528984 1
0.577035 0.603708 1
0.499992 0.678416 1
0.42295 0.75314 0.946975
0.345922 0.827863 0.837247
0.268879 0.902586 0.72752
0.191836 0.977295 0.617807
0.808164 0.468772 1
0.731121 0.543481 1
0.654078 0.618189 1
0.577035 0.692912 1
0.500008 0.767636 1
0.422965 0.842359 1
0.345922 0.917082 1
0.268879 0.991791 1
0.191836 1 0.896147
0.808164 0.557977 1
0.731121 0.632685 1
0.654093 0.707408 1
0.57705 0.782132 1
0.500008 0.856855 1
0.422965 0.931563 1
0.345922 1 1
0.268879 1 1
0.191836 1 1
1 0 0
0.93315 0 0
0.856107 0 0
0.779065 0.0294957 0
0.702022 0.104219 0
0.624979 0.178927 0
0.547936 0.253651 0
0.470893 0.328374 0
0.393851 0.403098 0
1 0 0.0601968
0.93315 0 0
0.856107 0.0439765 0
0.779065 0.1187 0
0.702022 0.193423 0
0.624979 0.268132 0
0.547936 0.342855 0
0.470893 0.417578 0
0.393866 0.492302 0
1 0 0.338537
0.93315 0.0584726 0.22884
0.856107 0.133196 0.119112
0.779065 0.207904 0.0093843
0.702022 0.282628 0
0.624979 0.357351 0
0.547951 0.432074 0
0.470909 0.506798 0
0.393866 0.581506 0
1 0.0729686 0.616892
0.93315 0.147692 0.507179
0.856107 0.2224 0.397467
0.779065 0.297124 0.287739
0.702037 0.371847 0.178012
0.624994 0.446571 0.0682994
0.547951 0.521279 0
0.470909 0.596002 0
0.393866 0.670726 0
1 0.162188 0.895247
0.93315 0.236896 0.785534
0.856123 0.31162 0.675807
0.77908 0.386343 0.566094
0.702037 0.461067 0.456367
0.624994 0.535775 0.346639
0.547951 0.610498 0.236927
0.470909 0.685222 0.127199
0.393866 0.759945 0.0174716
1 0.251408 1
0.933165 0.326116 1
0.856123 0.400839 0.954162
0.77908 0.475547 0.844434
0.702037 0.550271 0.734722
0.624994 0.624994 0.624994
0.547951 0.699718 0.515267
0.470909 0.774441 0.405554
0.393866 0.849149 0.295827
1 0.340612 1
0.933165 0.415335 1
0.856123 0.490043 1
0.77908 0.564767 1
0.702037 0.63949 1
0.624994 0.714214 0.903349
0.547951 0.788922 0.793622
0.470909 0.863645 0.683894
0.393866 0.938369 0.574182
1 0.429831 1
0.933165 0.50454 1
0.856123 0.579263 1
0.77908 0.653986 1
0.702037 0.72871 1
0.624994 0.803418 1
0.547951 0.878141 1
0.470924 0.952865 0.962249
0.393881 1 0.852522
1 0.519051 1
0.933165 0.593759 1
0.856123 0.668482 1
0.77908 0.743191 1
0.702037 0.817914 1
0.62501 0.892638 1
0.547967 0.967361 1
0.470924 1 1
0.393881 1 1
1 0 0
1 0 0
1 0 0
0.981109 0 0
0.904067 0.0652781 0
0.827024 0.140002 0
0.749981 0.214725 0
0.672938 0.289433 0
0.595895 0.364157 0
1 0 0.0165713
1 0 0
1 0.00505074 0
0.981109 0.0797589 0
0.904067 0.154482 0
0.827024 0.229206 0
0.749981 0.303929 0
0.672938 0.378637 0
0.595895 0.453361 0
1 0 0.294911
1 0.0195315 0.185214
1 0.094255 0.0754864
0.981109 0.168978 0
0.904067 0.243702 0
0.827024 0.318425 0
0.749981 0.393133 0
0.672938 0.467857 0
0.595895 0.54258 0
1 0.0340429 0.573266
1 0.108751 0.463554
1 0.183474 0.353841
0.981109 0.258198 0.244114
0.904067 0.332906 0.134386
0.827024 0.40763 0.0246738
0.749981 0.482353 0
0.672953 0.557076 0
0.595911 0.6318 0
1 0.123262 0.851621
1 0.197971 0.741909
1 0.272694 0.632181
0.981109 0.347402 0.522469
0.904067 0.422126 0.412741
0.827039 0.496849 0.303014
0.749996 0.571572 0.193301
0.672953 0.646281 0.0835737
0.595911 0.721004 0
1 0.212467 1
1 0.287175 1
1 0.361898 0.910536
0.981125 0.436622 0.800809
0.904082 0.511345 0.691096
0.827039 0.586069 0.581369
0.749996 0.660777 0.471641
0.672953 0.7355 0.361929
0.595911 0.810224 0.252201
1 0.301686 1
1 0.376394 1
1 0.451118 1
0.981125 0.525841 1
0.904082 0.600549 0.969436
0.827039 0.675273 0.859724
0.749996 0.749996 0.749996
0.672953 0.82472 0.640269
0.595911 0.899443 0.530556
1 0.390906 1
1 0.465614 1
1 0.540337 1
0.981125 0.615045 1
0.904082 0.689769 1
0.827039 0.764492 1
0.749996 0.839216 1
0.672953 0.913924 0.918624
0.595911 0.988647 0.808896
1 0.48011 1
1 0.554818 1
1 0.629541 1
0.981125 0.704265 1
0.904082 0.778988 1
0.827039 0.853712 1
0.749996 0.92842 1
0.672953 1 1
0.595926 1 1
1 0 0
1 0 0
1 0 0
1 0 0
1 0.0263523 0
1 0.101061 0
0.952026 0.175784 0
0.874983 0.250507 0
0.79794 0.325231 0
1 0 0
1 0 0
1 0 0
1 0.0408331 0
1 0.115557 0
1 0.190265 0
0.952026 0.264988 0
0.874983 0.339712 0
0.79794 0.414435 0
1 0 0.251286
1 0 0.141588
1 0.0553292 0.0318608
1 0.130053 0
1 0.204761 0
1 0.279484 0
0.952026 0.354208 0
0.874983 0.428931 0
0.79794 0.503639 0
1 0 0.529641
1 0.0698253 0.419928
1 0.144533 0.310216
1 0.219257 0.200488
1 0.29398 0.0907607
1 0.368704 0
0.952026 0.443427 0
0.874983 0.518135 0
0.79794 0.592859 0
1 0.0843214 0.807996
1 0.15903 0.698283
1 0.233753 0.588556
1 0.308476 0.478843
1 0.3832 0.369116
1 0.457908 0.259388
0.952026 0.532631 0.149676
0.874983 0.607355 0.0399481
0.797955 0.682078 0
1 0.173541 1
1 0.248249 0.976638
1 0.322972 0.866911
1 0.397696 0.757183
1 0.472404 0.647471
1 0.547127 0.537743
0.952041 0.621851 0.428016
0.874998 0.696574 0.318303
0.797955 0.771282 0.208576
1 0.262745 1
1 0.337469 1
1 0.412177 1
1 0.4869 1
1 0.561624 0.925811
1 0.636347 0.816098
0.952041 0.71107 0.706371
0.874998 0.785779 0.596643
0.797955 0.860502 0.486931
1 0.351965 1
1 0.426673 1
1 0.501396 1
1 0.57612 1
1 0.650843 1
1 0.725551 1
0.952041 0.800275 0.984726
0.874998 0.874998 0.874998
0.797955 0.949722 0.76527
1 0.441184 1
1 0.515892 1
1 0.590616 1
1 0.665339 1
1 0.740047 1
1 0.814771 1
0.952041 0.889494 1
0.874998 0.964218 1
0.797955 1 1
1 0 0
1 0 0
1 0 0
1 0 0
1 0 0
1 0.0621347 0
1 0.136858 0
1 0.211582 0
0.999985 0.28629 0
1 0 0
1 0 0
1 0 0
1 0.00189212 0
1 0.0766155 0
1 0.151339 0
1 0.226062 0
1 0.300786 0
0.999985 0.375494 0
1 0 0.20766
1 0 0.0979629
1 0.0163882 0
1 0.0911116 0
1 0.165835 0
1 0.240558 0
1 0.315267 0
1 0.38999 0
0.999985 0.464714 0
1 0 0.486015
1 0.0308843 0.376303
1 0.105608 0.26659
1 0.180331 0.156863
1 0.255055 0.0471351
1 0.329763 0
1 0.404486 0
1 0.47921 0
0.999985 0.553933 0
1 0.0453956 0.76437
1 0.120104 0.654658
1 0.194827 0.54493
1 0.269535 0.435218
1 0.344259 0.32549
1 0.418982 0.215763
1 0.493706 0.10605
1 0.568429 0
0.999985 0.643137 0
1 0.1346 1
1 0.209323 0.933013
1 0.284031 0.823285
1 0.358755 0.713558
1 0.433478 0.603845
1 0.508202 0.494118
1 0.58291 0.38439
1 0.657633 0.274678
0.999985 0.732357 0.16495
1 0.223819 1
1 0.298528 1
1 0.373251 1
1 0.447974 0.991913
1 0.522698 0.882185
1 0.597406 0.772473
1 0.672129 0.662745
1 0.746853 0.553017
1 0.821576 0.443305
1 0.313039 1
1 0.387747 1
1 0.46247 1
1 0.537179 1
1 0.611902 1
1 0.686625 1
1 0.761349 0.9411
1 0.836072 0.831373
1 0.91078 0.721645
1 0.402243 1
1 0.476967 1
1 0.551675 1
1 0.626398 1
1 0.701122 1
1 0.775845 1
1 0.850553 1
1 0.925277 1
1 1 1
