public/LUTS/Color Shift/ColorShift_88.cube
TITLE "Generated by Resolve"
LUT_3D_SIZE 5
0 0 0
0.0554513 0.00793469 0.392203
0.110903 0.0158846 0.784421
0.166339 0.0238193 1
0.22179 0.031754 1
0.545342 0.0908217 0
0.600793 0.0987564 0.357656
0.656245 0.106706 0.749874
0.711696 0.114641 1
0.767147 0.122576 1
1 0.181659 0
1 0.189593 0.323095
1 0.197528 0.715328
1 0.205478 1
1 0.213413 1
1 0.27248 0
1 0.280415 0.288548
1 0.288365 0.680766
1 0.2963 1
1 0.304234 1
1 0.363317 0
1 0.371252 0.254002
1 0.379187 0.64622
1 0.387137 1
1 0.395071 1
0 0.151232 0
0 0.159167 0.284535
0 0.167102 0.676753
0 0.175051 1
0 0.182986 1
0.194537 0.242054 0
0.249989 0.249989 0.249989
0.30544 0.257923 0.642206
0.360891 0.265873 1
0.416342 0.273808 1
0.739925 0.332876 0
0.795361 0.34081 0.215442
0.850813 0.34876 0.60766
0.906264 0.356695 0.999878
0.961715 0.36463 1
1 0.423713 0
1 0.431647 0.180896
1 0.439582 0.573114
1 0.447532 0.965331
1 0.455467 1
1 0.514534 0
1 0.522469 0.146349
1 0.530419 0.538567
1 0.538354 0.930785
1 0.546288 1
0 0.302464 0
0 0.310399 0.176867
0 0.318334 0.569085
0 0.326284 0.961303
0 0.334218 1
0 0.393286 0
0 0.401221 0.142321
0 0.409171 0.534539
0.0100557 0.417105 0.926757
0.065507 0.42504 1
0.38909 0.484108 0
0.444541 0.492058 0.107774
0.499992 0.499992 0.499992
0.555444 0.507927 0.89221
0.610895 0.515877 1
0.934478 0.574945 0
0.989929 0.582879 0.073228
1 0.590814 0.465446
1 0.598764 0.857664
1 0.606699 1
1 0.665766 0
1 0.673716 0.0386816
1 0.681651 0.4309
1 0.689586 0.823117
1 0.697536 1
0 0.453696 0
0 0.461631 0.0691997
0 0.469581 0.461418
0 0.477516 0.853635
0 0.485451 1
0 0.544518 0
0 0.552453 0.0346532
0 0.560403 0.426871
0 0.568338 0.819089
0 0.576272 1
0.0382696 0.635355 0
0.0937209 0.64329 0.000106813
0.149172 0.651225 0.392325
0.204623 0.659175 0.784543
0.26006 0.667109 1
0.583658 0.726177 0
0.639094 0.734112 0
0.694545 0.742061 0.357778
0.749996 0.749996 0.749996
0.805447 0.757931 1
1 0.817014 0
1 0.824948 0
1 0.832883 0.323232
1 0.840818 0.71545
1 0.848768 1
0 0.604929 0
0 0.612863 0
0 0.620813 0.35375
0 0.628748 0.745968
0 0.636683 1
0 0.69575 0
0 0.7037 0
0 0.711635 0.319203
0 0.71957 0.711421
0 0.72752 1
0 0.786587 0
0 0.794522 0
0 0.802457 0.284657
0 0.810407 0.676875
0 0.818341 1
0.232822 0.877409 0
0.288273 0.885359 0
0.343725 0.893294 0.250111
0.399176 0.901228 0.642329
0.454627 0.909178 1
0.77821 0.968246 0
0.833646 0.976181 0
0.889097 0.984115 0.215564
0.944549 0.992065 0.607782
1 1 1
