public/LUTS/Color Shift/ColorShift_19.cube
TITLE "Generated by Resolve"
LUT_3D_SIZE 33
0 0 0
0.018677 0.00576791 0
0.0373541 0.0115206 0
0.0560311 0.0172885 0
0.0747082 0.0230564 0
0.0933852 0.0288243 0
0.112062 0.0345769 0
0.130739 0.0403449 0
0.149416 0.0461128 0
0.168093 0.0518807 0
0.18677 0.0576486 0
0.205463 0.0634012 0
0.22414 0.0691691 0
0.242817 0.0749371 0
0.261494 0.080705 0
0.280171 0.0864576 0
0.298848 0.0922255 0
0.317525 0.0979934 0
0.336202 0.103761 0
0.354879 0.109514 0
0.373571 0.115282 0
0.392248 0.12105 0
0.410925 0.126818 0
0.429603 0.132586 0
0.44828 0.138338 0
0.466957 0.144106 0
0.485634 0.149874 0
0.504311 0.155642 0
0.522988 0.161395 0
0.54168 0.167163 0
0.560357 0.17293 0
0.579034 0.178698 0
0.597711 0.184451 0
0 0.0311742 0.0225834
0.00917067 0.0369421 0.00708019
0.0278477 0.04271 0
0.0465248 0.0484779 0
0.0652018 0.0542306 0
0.0838941 0.0599985 0
0.102571 0.0657664 0
0.121248 0.0715343 0
0.139925 0.0772869 0
0.158602 0.0830549 0
0.177279 0.0888228 0
0.195956 0.0945907 0
0.214633 0.100359 0
0.23331 0.106111 0
0.252003 0.111879 0
0.27068 0.117647 0
0.289357 0.123415 0
0.308034 0.129168 0
0.326711 0.134936 0
0.345388 0.140703 0
0.364065 0.146471 0
0.382742 0.152224 0
0.401419 0.157992 0
0.420111 0.16376 0
0.438788 0.169528 0
0.457465 0.175296 0
0.476143 0.181048 0
0.49482 0.186816 0
0.513497 0.192584 0
0.532174 0.198352 0
0.550851 0.204105 0
0.569528 0.209873 0
0.588205 0.215641 0
0 0.0623789 0.0451667
0 0.0681468 0.0296788
0.0183566 0.0738994 0.0141756
0.0370336 0.0796674 0
0.0557107 0.0854353 0
0.0743877 0.0912032 0
0.0930648 0.0969558 0
0.111742 0.102724 0
0.130419 0.108492 0
0.149096 0.11426 0
0.167773 0.120012 0
0.186465 0.12578 0
0.205142 0.131548 0
0.223819 0.137316 0
0.242496 0.143084 0
0.261173 0.148836 0
0.27985 0.154604 0
0.298528 0.160372 0
0.317205 0.16614 0
0.335882 0.171893 0
0.354574 0.177661 0
0.373251 0.183429 0
0.391928 0.189197 0
0.410605 0.194949 0
0.429282 0.200717 0
0.447959 0.206485 0
0.466636 0.212253 0
0.485313 0.218021 0
0.50399 0.223774 0
0.522667 0.229541 0
0.54136 0.235309 0
0.560037 0.241077 0
0.578714 0.24683 0
0 0.0935683 0.0677653
0 0.0993362 0.0522621
0.00885023 0.105104 0.0367742
0.0275273 0.110872 0.0212711
0.0462043 0.116625 0.00576791
0.0648814 0.122393 0
0.0835584 0.128161 0
0.102235 0.133928 0
0.120928 0.139681 0
0.139605 0.145449 0
0.158282 0.151217 0
0.176959 0.156985 0
0.195636 0.162737 0
0.214313 0.168505 0
0.23299 0.174273 0
0.251667 0.180041 0
0.270344 0.185809 0
0.289036 0.191562 0
0.307713 0.19733 0
0.32639 0.203098 0
0.345068 0.208865 0
0.363745 0.214618 0
0.382422 0.220386 0
0.401099 0.226154 0
0.419776 0.231922 0
0.438453 0.237675 0
0.45713 0.243442 0
0.475822 0.24921 0
0.494499 0.254978 0
0.513176 0.260746 0
0.531853 0.266499 0
0.55053 0.272267 0
0.569207 0.278035 0
0 0.124773 0.0903487
0 0.130526 0.0748608
0 0.136294 0.0593576
0.0180209 0.142061 0.0438544
0.0366979 0.147829 0.0283513
0.0553902 0.153597 0.0128481
0.0740673 0.15935 0
0.0927443 0.165118 0
0.111421 0.170886 0
0.130098 0.176654 0
0.148775 0.182406 0
0.167452 0.188174 0
0.18613 0.193942 0
0.204807 0.19971 0
0.223499 0.205463 0
0.242176 0.211231 0
0.260853 0.216999 0
0.27953 0.222766 0
0.298207 0.228534 0
0.316884 0.234287 0
0.335561 0.240055 0
0.354238 0.245823 0
0.372915 0.251591 0
0.391592 0.257343 0
0.410285 0.263111 0
0.428962 0.268879 0
0.447639 0.274647 0
0.466316 0.2804 0
0.484993 0.286168 0
0.50367 0.291936 0
0.522347 0.297704 0
0.541024 0.303471 0
0.559701 0.309224 0
0 0.155962 0.112947
0 0.16173 0.0974594
0 0.167498 0.0819562
0.00852979 0.173251 0.066453
0.0272068 0.179019 0.0509499
0.0458839 0.184787 0.0354467
0.0645609 0.190555 0.0199435
0.083238 0.196323 0.00444038
0.101915 0.202075 0
0.120592 0.207843 0
0.139269 0.213611 0
0.157961 0.219379 0
0.176638 0.225132 0
0.195315 0.2309 0
0.213993 0.236667 0
0.23267 0.242435 0
0.251347 0.248188 0
0.270024 0.253956 0
0.288701 0.259724 0
0.307378 0.265492 0
0.326055 0.27126 0
0.344747 0.277012 0
0.363424 0.28278 0
0.382101 0.288548 0
0.400778 0.294316 0
0.419455 0.300069 0
0.438132 0.305837 0
0.456809 0.311604 0
0.475486 0.317372 0
0.494163 0.323125 0
0.512856 0.328893 0
0.531533 0.334661 0
0.55021 0.340429 0
0 0.187167 0.135531
0 0.19292 0.120043
0 0.198688 0.10454
0 0.204456 0.0890364
0.0177005 0.210224 0.0735332
0.0363775 0.215976 0.0580453
0.0550546 0.221744 0.0425422
0.0737316 0.227512 0.027039
0.0924239 0.23328 0.0115358
0.111101 0.239048 0
0.129778 0.2448 0
0.148455 0.250568 0
0.167132 0.256336 0
0.185809 0.262104 0
0.204486 0.267857 0
0.223163 0.273625 0
0.24184 0.279393 0
0.260517 0.285161 0
0.27921 0.290913 0
0.297887 0.296681 0
0.316564 0.302449 0
0.335241 0.308217 0
0.353918 0.313985 0
0.372595 0.319738 0
0.391272 0.325505 0
0.409949 0.331273 0
0.428626 0.337041 0
0.447318 0.342794 0
0.465995 0.348562 0
0.484672 0.35433 0
0.503349 0.360098 0
0.522026 0.36585 0
0.540703 0.371618 0
0 0.218357 0.158129
0 0.224125 0.142641
0 0.229892 0.127138
0 0.235645 0.111635
0.00819409 0.241413 0.0961318
0.0268864 0.247181 0.0806287
0.0455634 0.252949 0.0651255
0.0642405 0.258701 0.0496223
0.0829175 0.264469 0.0341192
0.101595 0.270237 0.0186313
0.120272 0.276005 0.0031281
0.138949 0.281773 0
0.157626 0.287526 0
0.176303 0.293294 0
0.19498 0.299062 0
0.213672 0.304829 0
0.232349 0.310582 0
0.251026 0.31635 0
0.269703 0.322118 0
0.28838 0.327886 0
0.307057 0.333639 0
0.325734 0.339406 0
0.344411 0.345174 0
0.363088 0.350942 0
0.381781 0.35671 0
0.400458 0.362463 0
0.419135 0.368231 0
0.437812 0.373999 0
0.456489 0.379767 0
0.475166 0.385519 0
0.493843 0.391287 0
0.51252 0.397055 0
0.531197 0.402823 0
0 0.249561 0.180713
0 0.255314 0.165225
0 0.261082 0.149722
0 0.26685 0.134218
0 0.272618 0.118715
0.01738 0.27837 0.103227
0.0360571 0.284138 0.0877241
0.0547341 0.289906 0.072221
0.0734112 0.295674 0.0567178
0.0920882 0.301427 0.0412146
0.110765 0.307195 0.0257115
0.129442 0.312963 0.0102083
0.148135 0.31873 0
0.166812 0.324498 0
0.185489 0.330251 0
0.204166 0.336019 0
0.222843 0.341787 0
0.24152 0.347555 0
0.260197 0.353307 0
0.278874 0.359075 0
0.297551 0.364843 0
0.316243 0.370611 0
0.33492 0.376364 0
0.353597 0.382132 0
0.372274 0.3879 0
0.390951 0.393668 0
0.409628 0.399435 0
0.428305 0.405188 0
0.446983 0.410956 0
0.46566 0.416724 0
0.484352 0.422492 0
0.503029 0.428244 0
0.521706 0.434012 0
0 0.280751 0.203311
0 0.286519 0.187823
0 0.292271 0.17232
0 0.298039 0.156817
0 0.303807 0.141314
0.00787366 0.309575 0.125811
0.0265507 0.315343 0.110307
0.0452277 0.321096 0.0948043
0.0639048 0.326863 0.0793011
0.0825971 0.332631 0.0638132
0.101274 0.338399 0.0483101
0.119951 0.344152 0.0328069
0.138628 0.34992 0.0173037
0.157305 0.355688 0.00180056
0.175982 0.361456 0
0.194659 0.367224 0
0.213336 0.372976 0
0.232013 0.378744 0
0.250706 0.384512 0
0.269383 0.39028 0
0.28806 0.396033 0
0.306737 0.401801 0
0.325414 0.407568 0
0.344091 0.413336 0
0.362768 0.419089 0
0.381445 0.424857 0
0.400122 0.430625 0
0.418814 0.436393 0
0.437491 0.442161 0
0.456168 0.447913 0
0.474845 0.453681 0
0.493523 0.459449 0
0.5122 0.465217 0
0 0.311955 0.22591
0 0.317708 0.210407
0 0.323476 0.194903
0 0.329244 0.1794
0 0.334997 0.163897
0 0.340764 0.148409
0.0170596 0.346532 0.132906
0.0357366 0.3523 0.117403
0.0544137 0.358068 0.1019
0.0730907 0.363821 0.0863966
0.0917678 0.369589 0.0708934
0.110445 0.375357 0.0553902
0.129122 0.381125 0.0398871
0.147799 0.386877 0.0243992
0.166476 0.392645 0.00889601
0.185168 0.398413 0
0.203845 0.404181 0
0.222522 0.409949 0
0.241199 0.415702 0
0.259876 0.421469 0
0.278553 0.427237 0
0.29723 0.433005 0
0.315908 0.438758 0
0.334585 0.444526 0
0.353277 0.450294 0
0.371954 0.456062 0
0.390631 0.461814 0
0.409308 0.467582 0
0.427985 0.47335 0
0.446662 0.479118 0
0.465339 0.484886 0
0.484016 0.490639 0
0.502693 0.496406 0
0 0.343145 0.248493
0 0.348913 0.233005
0 0.354665 0.217502
0 0.360433 0.201999
0 0.366201 0.186496
0 0.371969 0.170993
0.00755322 0.377722 0.155489
0.0262303 0.38349 0.139986
0.0449073 0.389258 0.124498
0.0635843 0.395026 0.108995
0.0822614 0.400793 0.093492
0.100938 0.406546 0.0779889
0.119631 0.412314 0.0624857
0.138308 0.418082 0.0469825
0.156985 0.42385 0.0314794
0.175662 0.429603 0.0159762
0.194339 0.43537 0.000488289
0.213016 0.441138 0
0.231693 0.446906 0
0.25037 0.452674 0
0.269047 0.458427 0
0.287739 0.464195 0
0.306416 0.469963 0
0.325093 0.475731 0
0.343771 0.481483 0
0.362448 0.487251 0
0.381125 0.493019 0
0.399802 0.498787 0
0.418479 0.50454 0
0.437156 0.510307 0
0.455848 0.516075 0
0.474525 0.521843 0
0.493202 0.527611 0
0 0.37435 0.271092
0 0.380102 0.255589
0 0.38587 0.240085
0 0.391638 0.224582
0 0.397391 0.209094
0 0.403159 0.193591
0 0.408927 0.178088
0.0167239 0.414694 0.162585
0.0354009 0.420447 0.147082
0.0540932 0.426215 0.131579
0.0727703 0.431983 0.116075
0.0914473 0.437751 0.100572
0.110124 0.443519 0.0850843
0.128801 0.449271 0.0695811
0.147478 0.455039 0.054078
0.166155 0.460807 0.0385748
0.184833 0.466575 0.0230716
0.20351 0.472328 0.00756847
0.222202 0.478096 0
0.240879 0.483864 0
0.259556 0.489632 0
0.278233 0.495399 0
0.29691 0.501152 0
0.315587 0.50692 0
0.334264 0.512688 0
0.352941 0.518456 0
0.371618 0.524208 0
0.390311 0.529976 0
0.408988 0.535744 0
0.427665 0.541512 0
0.446342 0.547265 0
0.465019 0.553033 0
0.483696 0.558801 0
0 0.405539 0.293675
0 0.411307 0.278187
0 0.41706 0.262684
0 0.422827 0.247181
0 0.428595 0.231678
0 0.434363 0.216175
0 0.440116 0.200671
0.00723278 0.445884 0.185168
0.0259098 0.451652 0.16968
0.0445869 0.45742 0.154177
0.0632639 0.463172 0.138674
0.0819409 0.46894 0.123171
0.100618 0.474708 0.107668
0.119295 0.480476 0.0921645
0.137972 0.486244 0.0766613
0.156664 0.491997 0.0611582
0.175341 0.497765 0.0456703
0.194018 0.503532 0.0301671
0.212696 0.5093 0.0146639
0.231373 0.515053 0
0.25005 0.520821 0
0.268727 0.526589 0
0.287404 0.532357 0
0.306081 0.538125 0
0.324773 0.543877 0
0.34345 0.549645 0
0.362127 0.555413 0
0.380804 0.561181 0
0.399481 0.566934 0
0.418158 0.572702 0
0.436835 0.57847 0
0.455512 0.584237 0
0.474189 0.58999 0
0 0.436728 0.316274
0 0.442496 0.300771
0 0.448264 0.285267
0 0.454032 0.269764
0 0.459785 0.254276
0 0.465553 0.238773
0 0.471321 0.22327
0 0.477089 0.207767
0.0164034 0.482841 0.192264
0.0350805 0.488609 0.176761
0.0537575 0.494377 0.161257
0.0724346 0.500145 0.145754
0.0911269 0.505898 0.130266
0.109804 0.511666 0.114763
0.128481 0.517433 0.0992599
0.147158 0.523201 0.0837568
0.165835 0.528969 0.0682536
0.184512 0.534722 0.0527504
0.203189 0.54049 0.0372473
0.221866 0.546258 0.0217441
0.240543 0.552026 0.0062562
0.259236 0.557778 0
0.277913 0.563546 0
0.29659 0.569314 0
0.315267 0.575082 0
0.333944 0.58085 0
0.352621 0.586603 0
0.371298 0.592371 0
0.389975 0.598138 0
0.408652 0.603906 0
0.427329 0.609659 0
0.446021 0.615427 0
0.464698 0.621195 0
0 0.467933 0.338857
0 0.473686 0.323369
0 0.479454 0.307866
0 0.485222 0.292363
0 0.49099 0.27686
0 0.496757 0.261357
0 0.50251 0.245853
0 0.508278 0.23035
0.00689708 0.514046 0.214862
0.0255894 0.519814 0.199359
0.0442664 0.525567 0.183856
0.0629435 0.531334 0.168353
0.0816205 0.537102 0.15285
0.100298 0.54287 0.137346
0.118975 0.548623 0.121843
0.137652 0.554391 0.10634
0.156329 0.560159 0.0908522
0.175006 0.565927 0.075349
0.193698 0.571694 0.0598459
0.212375 0.577447 0.0443427
0.231052 0.583215 0.0288396
0.249729 0.588983 0.0133364
0.268406 0.594751 0
0.287083 0.600504 0
0.30576 0.606271 0
0.324437 0.612039 0
0.343114 0.617807 0
0.361791 0.623575 0
0.380484 0.629328 0
0.399161 0.635096 0
0.417838 0.640864 0
0.436515 0.646632 0
0.455192 0.652384 0
0 0.499123 0.361456
0 0.504891 0.345953
0 0.510658 0.330449
0 0.516411 0.314961
0 0.522179 0.299458
0 0.527947 0.283955
0 0.533715 0.268452
0 0.539483 0.252949
0 0.545235 0.237446
0.016083 0.551003 0.221942
0.0347601 0.556771 0.206439
0.0534371 0.562539 0.190951
0.0721141 0.568292 0.175448
0.0907912 0.57406 0.159945
0.109468 0.579828 0.144442
0.128161 0.585595 0.128939
0.146838 0.591348 0.113436
0.165515 0.597116 0.0979324
0.184192 0.602884 0.0824292
0.202869 0.608652 0.0669413
0.221546 0.61442 0.0514382
0.240223 0.620172 0.035935
0.2589 0.62594 0.0204318
0.277577 0.631708 0.00492866
0.296254 0.637476 0
0.314946 0.643229 0
0.333623 0.648997 0
0.3523 0.654765 0
0.370977 0.660533 0
0.389654 0.6663 0
0.408331 0.672053 0
0.427008 0.677821 0
0.445686 0.683589 0
0 0.530327 0.384039
0 0.53608 0.368551
0 0.541848 0.353048
0 0.547616 0.337545
0 0.553384 0.322042
0 0.559136 0.306538
0 0.564904 0.291035
0 0.570672 0.275547
0 0.57644 0.260044
0.00657664 0.582208 0.244541
0.0252537 0.587961 0.229038
0.0439307 0.593729 0.213535
0.062623 0.599496 0.198032
0.0813001 0.605264 0.182528
0.0999771 0.611017 0.167025
0.118654 0.616785 0.151537
0.137331 0.622553 0.136034
0.156008 0.628321 0.120531
0.174685 0.634073 0.105028
0.193362 0.639841 0.0895247
0.212039 0.645609 0.0740215
0.230732 0.651377 0.0585184
0.249409 0.657145 0.0430152
0.268086 0.662898 0.0275273
0.286763 0.668666 0.0120241
0.30544 0.674434 0
0.324117 0.680201 0
0.342794 0.685954 0
0.361471 0.691722 0
0.380148 0.69749 0
0.398825 0.703258 0
0.417517 0.709026 0
0.436194 0.714778 0
0 0.561517 0.406638
0 0.567285 0.391135
0 0.573053 0.375631
0 0.578805 0.360143
0 0.584573 0.34464
0 0.590341 0.329137
0 0.596109 0.313634
0 0.601862 0.298131
0 0.60763 0.282628
0 0.613397 0.267124
0.0157626 0.619165 0.251621
0.0344396 0.624933 0.236133
0.0531167 0.630686 0.22063
0.0717937 0.636454 0.205127
0.0904707 0.642222 0.189624
0.109148 0.64799 0.174121
0.127825 0.653742 0.158618
0.146502 0.65951 0.143114
0.165194 0.665278 0.127611
0.183871 0.671046 0.112123
0.202548 0.676814 0.0966201
0.221225 0.682567 0.081117
0.239902 0.688334 0.0656138
0.258579 0.694102 0.0501106
0.277256 0.69987 0.0346075
0.295933 0.705623 0.0191043
0.314611 0.711391 0.00360113
0.333288 0.717159 0
0.35198 0.722927 0
0.370657 0.728679 0
0.389334 0.734447 0
0.408011 0.740215 0
0.426688 0.745983 0
0 0.592721 0.429221
0 0.598474 0.413733
0 0.604242 0.39823
0 0.61001 0.382727
0 0.615778 0.367224
0 0.62153 0.35172
0 0.627298 0.336217
0 0.633066 0.320729
0 0.638834 0.305226
0 0.644587 0.289723
0.0062562 0.650355 0.27422
0.0249332 0.656123 0.258717
0.0436103 0.661891 0.243214
0.0622873 0.667659 0.22771
0.0809644 0.673411 0.212207
0.0996567 0.679179 0.196719
0.118334 0.684947 0.181216
0.137011 0.690715 0.165713
0.155688 0.696468 0.15021
0.174365 0.702235 0.134707
0.193042 0.708003 0.119203
0.211719 0.713771 0.1037
0.230396 0.719524 0.0881971
0.249073 0.725292 0.0727092
0.26775 0.73106 0.0572061
0.286442 0.736828 0.0417029
0.305119 0.742596 0.0261997
0.323796 0.748348 0.0106966
0.342473 0.754116 0
0.361151 0.759884 0
0.379828 0.765652 0
0.398505 0.771405 0
0.417182 0.777173 0
0 0.623911 0.45182
0 0.629679 0.436316
0 0.635447 0.420813
0 0.641199 0.405325
0 0.646967 0.389822
0 0.652735 0.374319
0 0.658503 0.358816
0 0.664256 0.343313
0 0.670024 0.32781
0 0.675792 0.312306
0 0.681559 0.296803
0.0154269 0.687312 0.281315
0.0341192 0.69308 0.265812
0.0527962 0.698848 0.250309
0.0714733 0.704616 0.234806
0.0901503 0.710384 0.219303
0.108827 0.716136 0.2038
0.127504 0.721904 0.188296
0.146181 0.727672 0.172793
0.164858 0.73344 0.157305
0.183536 0.739193 0.141802
0.202213 0.744961 0.126299
0.220905 0.750729 0.110796
0.239582 0.756497 0.0952926
0.258259 0.762249 0.0797894
0.276936 0.768017 0.0642863
0.295613 0.773785 0.0487831
0.31429 0.779553 0.0332952
0.332967 0.785321 0.017792
0.351644 0.791074 0.00228885
0.370321 0.796841 0
0.389013 0.802609 0
0.407691 0.808377 0
0 0.655116 0.474403
0 0.660868 0.458915
0 0.666636 0.443412
0 0.672404 0.427909
0 0.678172 0.412406
0 0.683925 0.396902
0 0.689693 0.381399
0 0.69546 0.365911
0 0.701228 0.350408
0 0.706981 0.334905
0 0.712749 0.319402
0.00593576 0.718517 0.303899
0.0246128 0.724285 0.288396
0.0432898 0.730037 0.272892
0.0619669 0.735805 0.257389
0.0806439 0.741573 0.241901
0.099321 0.747341 0.226398
0.117998 0.753109 0.210895
0.136675 0.758862 0.195392
0.155367 0.76463 0.179889
0.174044 0.770397 0.164385
0.192721 0.776165 0.148882
0.211398 0.781918 0.133394
0.230076 0.787686 0.117891
0.248753 0.793454 0.102388
0.26743 0.799222 0.0868849
0.286107 0.804974 0.0713817
0.304784 0.810742 0.0558785
0.323476 0.81651 0.0403754
0.342153 0.822278 0.0248722
0.36083 0.828046 0.00936904
0.379507 0.833799 0
0.398184 0.839567 0
0 0.686305 0.497002
0 0.692073 0.481498
0 0.697826 0.466011
0 0.703593 0.450507
0 0.709361 0.435004
0 0.715129 0.419501
0 0.720897 0.403998
0 0.72665 0.388495
0 0.732418 0.372992
0 0.738186 0.357488
0 0.743954 0.342
0 0.749706 0.326497
0.0151064 0.755474 0.310994
0.0337835 0.761242 0.295491
0.0524605 0.76701 0.279988
0.0711376 0.772763 0.264485
0.0898299 0.778531 0.248981
0.108507 0.784298 0.233478
0.127184 0.790066 0.21799
0.145861 0.795834 0.202487
0.164538 0.801587 0.186984
0.183215 0.807355 0.171481
0.201892 0.813123 0.155978
0.220569 0.818891 0.140475
0.239246 0.824643 0.124971
0.257939 0.830411 0.109468
0.276616 0.836179 0.0939803
0.295293 0.841947 0.0784772
0.31397 0.847715 0.062974
0.332647 0.853468 0.0474708
0.351324 0.859236 0.0319677
0.370001 0.865003 0.0164645
0.388678 0.870771 0.000961318
0 0.71751 0.519585
0 0.723262 0.504097
0 0.72903 0.488594
0 0.734798 0.473091
0 0.740551 0.457588
0 0.746319 0.442084
0 0.752087 0.426596
0 0.757855 0.411093
0 0.763622 0.39559
0 0.769375 0.380087
0 0.775143 0.364584
0 0.780911 0.349081
0.00560006 0.786679 0.333577
0.0242924 0.792432 0.318074
0.0429694 0.798199 0.302586
0.0616465 0.803967 0.287083
0.0803235 0.809735 0.27158
0.0990005 0.815488 0.256077
0.117678 0.821256 0.240574
0.136355 0.827024 0.225071
0.155032 0.832792 0.209567
0.173709 0.83856 0.194064
0.192401 0.844312 0.178576
0.211078 0.85008 0.163073
0.229755 0.855848 0.14757
0.248432 0.861616 0.132067
0.267109 0.867369 0.116564
0.285786 0.873137 0.101061
0.304463 0.878904 0.0855573
0.32314 0.884672 0.0700542
0.341817 0.89044 0.0545663
0.36051 0.896193 0.0390631
0.379187 0.901961 0.0235599
0 0.748699 0.542184
0 0.754467 0.52668
0 0.76022 0.511193
0 0.765988 0.495689
0 0.771756 0.480186
0 0.777523 0.464683
0 0.783276 0.44918
0 0.789044 0.433677
0 0.794812 0.418173
0 0.80058 0.40267
0 0.806348 0.387182
0 0.8121 0.371679
0 0.817868 0.356176
0.014786 0.823636 0.340673
0.033463 0.829404 0.32517
0.0521401 0.835157 0.309667
0.0708171 0.840925 0.294163
0.0894942 0.846693 0.27866
0.108171 0.852461 0.263172
0.126864 0.858213 0.247669
0.145541 0.863981 0.232166
0.164218 0.869749 0.216663
0.182895 0.875517 0.20116
0.201572 0.881285 0.185657
0.220249 0.887037 0.170153
0.238926 0.892805 0.15465
0.257603 0.898573 0.139162
0.27628 0.904341 0.123659
0.294972 0.910094 0.108156
0.313649 0.915862 0.0926528
0.332326 0.92163 0.0771496
0.351003 0.927398 0.0616465
0.36968 0.93315 0.0461433
0 0.779889 0.564767
0 0.785657 0.549279
0 0.791424 0.533776
0 0.797192 0.518273
0 0.802945 0.50277
0 0.808713 0.487266
0 0.814481 0.471778
0 0.820249 0.456275
0 0.826001 0.440772
0 0.831769 0.425269
0 0.837537 0.409766
0 0.843305 0.394263
0 0.849073 0.378759
0.00527962 0.854826 0.363256
0.0239567 0.860594 0.347768
0.0426337 0.866361 0.332265
0.061326 0.872129 0.316762
0.0800031 0.877882 0.301259
0.0986801 0.88365 0.285756
0.117357 0.889418 0.270253
0.136034 0.895186 0.254749
0.154711 0.900938 0.239246
0.173388 0.906706 0.223758
0.192065 0.912474 0.208255
0.210742 0.918242 0.192752
0.229435 0.92401 0.177249
0.248112 0.929763 0.161746
0.266789 0.935531 0.146242
0.285466 0.941299 0.130739
0.304143 0.947066 0.115236
0.32282 0.952819 0.0997482
0.341497 0.958587 0.0842451
0.360174 0.964355 0.0687419
0 0.811093 0.587366
0 0.816861 0.571862
0 0.822614 0.556374
0 0.828382 0.540871
0 0.83415 0.525368
0 0.839918 0.509865
0 0.84567 0.494362
0 0.851438 0.478859
0 0.857206 0.463355
0 0.862974 0.447852
0 0.868727 0.432364
0 0.874495 0.416861
0 0.880262 0.401358
0 0.88603 0.385855
0.0144656 0.891798 0.370352
0.0331426 0.897551 0.354849
0.0518196 0.903319 0.339345
0.0704967 0.909087 0.323842
0.0891737 0.914855 0.308354
0.107851 0.920607 0.292851
0.126528 0.926375 0.277348
0.145205 0.932143 0.261845
0.163897 0.937911 0.246342
0.182574 0.943664 0.230838
0.201251 0.949432 0.215335
0.219928 0.9552 0.199832
0.238605 0.960967 0.184344
0.257282 0.966735 0.168841
0.275959 0.972488 0.153338
0.294636 0.978256 0.137835
0.313313 0.984024 0.122332
0.332006 0.989792 0.106828
0.350683 0.995544 0.0913252
0 0.842283 0.609949
0 0.848051 0.594461
0 0.853819 0.578958
0 0.859586 0.563455
0 0.865339 0.547951
0 0.871107 0.532464
0 0.876875 0.51696
0 0.882643 0.501457
0 0.888395 0.485954
