public/LUTS/Color Shift/ColorShift_75.cube
TITLE "Generated by Resolve"
LUT_3D_SIZE 33
0 0 0
0.0498512 0 0.00328069
0.099733 0 0.00656138
0.149615 0 0.00984207
0.199496 0 0.0131228
0.249378 0 0.0164034
0.299245 0 0.0196841
0.349126 0 0.0229801
0.399008 0 0.0262608
0.44889 0 0.0295415
0.498772 0 0.0328222
0.548653 0 0.0361028
0.59852 0 0.0393835
0.648402 0 0.0426642
0.698283 0 0.0459449
0.748165 0 0.0492256
0.798047 0 0.0525063
0.847913 0 0.0558022
0.897795 0 0.0590829
0.947677 0 0.0623636
0.997559 0 0.0656443
1 0 0.068925
1 0 0.0722057
1 0 0.0754864
1 0 0.0787671
1 0 0.0820478
1 0 0.0853285
1 0 0.0886244
1 0 0.0919051
1 0 0.0951858
1 0 0.0984665
1 0 0.101747
1 0 0.105028
0 0.0362402 0
0.0423743 0.0302434 0
0.092256 0.0242313 0
0.142123 0.0182193 0
0.192004 0.0122072 0
0.241886 0.00619516 0
0.291768 0.000183108 0
0.34165 0 0.00148013
0.391531 0 0.00476081
0.441398 0 0.0080415
0.491279 0 0.0113222
0.541161 0 0.0146029
0.591043 0 0.0178836
0.640925 0 0.0211643
0.690806 0 0.024445
0.740673 0 0.0277256
0.790555 0 0.0310063
0.840436 0 0.0343023
0.890318 0 0.037583
0.9402 0 0.0408637
0.990082 0 0.0441444
1 0 0.047425
1 0 0.0507057
1 0 0.0539864
1 0 0.0572671
1 0 0.0605478
1 0 0.0638285
1 0 0.0671244
1 0 0.0704051
1 0 0.0736858
1 0 0.0769665
1 0 0.0802472
1 0 0.0835279
0 0.0725109 0
0.0348821 0.0664988 0
0.0847639 0.0604868 0
0.134646 0.0544747 0
0.184527 0.0484627 0
0.234409 0.0424506 0
0.284276 0.0364385 0
0.334157 0.0304265 0
0.384039 0.0244297 0
0.433921 0.0184176 0
0.483803 0.0124056 0
0.533669 0.00639353 0
0.583551 0.000381476 0
0.633433 0 0
0.683314 0 0.00294499
0.733196 0 0.00622568
0.783078 0 0.00950637
0.832944 0 0.0127871
0.882826 0 0.0160678
0.932708 0 0.0193484
0.982589 0 0.0226291
1 0 0.0259098
1 0 0.0291905
1 0 0.0324712
1 0 0.0357671
1 0 0.0390478
1 0 0.0423285
1 0 0.0456092
1 0 0.0488899
1 0 0.0521706
1 0 0.0554513
1 0 0.058732
1 0 0.0620127
0 0.108766 0
0.0274052 0.102754 0
0.0772717 0.0967575 0
0.127153 0.0907454 0
0.177035 0.0847334 0
0.226917 0.0787213 0
0.276799 0.0727092 0
0.32668 0.0666972 0
0.376547 0.0606851 0
0.426429 0.0546731 0
0.47631 0.048661 0
0.526192 0.042649 0
0.576074 0.0366369 0
0.62594 0.0306249 0
0.675822 0.0246281 0
0.725704 0.018616 0
0.775586 0.012604 0
0.825467 0.0065919 0
0.875349 0.000579843 0
0.925216 0 0
0.975097 0 0.00111391
1 0 0.00440986
1 0 0.00769055
1 0 0.0109712
1 0 0.0142519
1 0 0.0175326
1 0 0.0208133
1 0 0.024094
1 0 0.0273747
1 0 0.0306554
1 0 0.0339361
1 0 0.037232
1 0 0.0405127
0 0.145037 0
0.019913 0.139025 0
0.0697948 0.133013 0
0.119677 0.127001 0
0.169543 0.120989 0
0.219425 0.114977 0
0.269306 0.108965 0
0.319188 0.102953 0
0.36907 0.0969406 0
0.418952 0.0909438 0
0.468818 0.0849317 0
0.5187 0.0789197 0
0.568582 0.0729076 0
0.618463 0.0668956 0
0.668345 0.0608835 0
0.718227 0.0548714 0
0.768093 0.0488594 0
0.817975 0.0428473 0
0.867857 0.0368353 0
0.917739 0.0308232 0
0.96762 0.0248112 0
1 0.0188144 0
1 0.0128023 0
1 0.00679026 0
1 0.00077821 0
1 0 0
1 0 0
1 0 0.00257877
1 0 0.00587472
1 0 0.00915541
1 0 0.0124361
1 0 0.0157168
1 0 0.0189975
0 0.181292 0
0.0124208 0.17528 0
0.0623026 0.169268 0
0.112184 0.163256 0
0.162066 0.157259 0
0.211948 0.151247 0
0.261814 0.145235 0
0.311696 0.139223 0
0.361578 0.133211 0
0.41146 0.127199 0
0.461341 0.121187 0
0.511223 0.115175 0
0.56109 0.109163 0
0.610971 0.103151 0
0.660853 0.0971389 0
0.710735 0.0911269 0
0.760616 0.0851301 0
0.810498 0.079118 0
0.860365 0.073106 0
0.910246 0.0670939 0
0.960128 0.0610819 0
1 0.0550698 0
1 0.0490578 0
1 0.0430457 0
1 0.0370336 0
1 0.0310216 0
1 0.0250095 0
1 0.0189975 0
1 0.0130007 0
1 0.00698863 0
1 0.000976577 0
1 0 0
1 0 0
0 0.217548 0
0.00494392 0.211551 0
0.0548104 0.205539 0
0.104692 0.199527 0
0.154574 0.193515 0
0.204456 0.187503 0
0.254337 0.181491 0
0.304219 0.175479 0
0.354086 0.169467 0
0.403967 0.163455 0
0.453849 0.157443 0
0.503731 0.151446 0
0.553613 0.145434 0
0.603494 0.139422 0
0.653361 0.13341 0
0.703243 0.127398 0
0.753124 0.121386 0
0.803006 0.115373 0
0.852888 0.109361 0
0.90277 0.103349 0
0.952636 0.0973373 0
1 0.0913252 0
1 0.0853132 0
1 0.0793164 0
1 0.0733043 0
1 0.0672923 0
1 0.0612802 0
1 0.0552682 0
1 0.0492561 0
1 0.0432441 0
1 0.037232 0
1 0.03122 0
1 0.0252079 0
0 0.253819 0
0 0.247807 0
0.0473335 0.241794 0
0.0972152 0.235782 0
0.147097 0.22977 0
0.196963 0.223758 0
0.246845 0.217762 0
0.296727 0.211749 0
0.346609 0.205737 0
0.39649 0.199725 0
0.446357 0.193713 0
0.496239 0.187701 0
0.54612 0.181689 0
0.596002 0.175677 0
0.645884 0.169665 0
0.695766 0.163653 0
0.745632 0.157641 0
0.795514 0.151629 0
0.845396 0.145632 0
0.895277 0.13962 0
0.945159 0.133608 0
0.995041 0.127596 0
1 0.121584 0
1 0.115572 0
1 0.10956 0
1 0.103548 0
1 0.0975357 0
1 0.0915236 0
1 0.0855116 0
1 0.0794995 0
1 0.0735027 0
1 0.0674907 0
1 0.0614786 0
0 0.290074 0
0 0.284077 0
0.0398413 0.278065 0
0.0897231 0.272053 0
0.139605 0.266041 0
0.189487 0.260029 0
0.239368 0.254017 0
0.289235 0.248005 0
0.339117 0.241993 0
0.388998 0.235981 0
0.43888 0.229969 0
0.488762 0.223957 0
0.538643 0.21796 0
0.58851 0.211948 0
0.638392 0.205936 0
0.688273 0.199924 0
0.738155 0.193912 0
0.788037 0.1879 0
0.837903 0.181888 0
0.887785 0.175875 0
0.937667 0.169863 0
0.987549 0.163851 0
1 0.157839 0
1 0.151827 0
1 0.14583 0
1 0.139818 0
1 0.133806 0
1 0.127794 0
1 0.121782 0
1 0.11577 0
1 0.109758 0
1 0.103746 0
1 0.097734 0
0 0.326345 0
0 0.320333 0
0.0323644 0.314321 0
0.0822309 0.308309 0
0.132113 0.302296 0
0.181994 0.296284 0
0.231876 0.290272 0
0.281758 0.284276 0
0.33164 0.278264 0
0.381506 0.272251 0
0.431388 0.266239 0
0.48127 0.260227 0
0.531151 0.254215 0
0.581033 0.248203 0
0.630915 0.242191 0
0.680781 0.236179 0
0.730663 0.230167 0
0.780545 0.224155 0
0.830427 0.218143 0
0.880308 0.212146 0
0.930175 0.206134 0
0.980056 0.200122 0
1 0.19411 0
1 0.188098 0
1 0.182086 0
1 0.176074 0
1 0.170062 0
1 0.16405 0
1 0.158038 0
1 0.152026 0
1 0.146014 0
1 0.140017 0
1 0.134005 0
0 0.3626 0
0 0.356588 0
0.0248722 0.350591 0
0.0747539 0.344579 0
0.124636 0.338567 0
0.174502 0.332555 0
0.224384 0.326543 0
0.274266 0.320531 0
0.324147 0.314519 0
0.374029 0.308507 0
0.423911 0.302495 0
0.473777 0.296483 0
0.523659 0.290471 0
0.573541 0.284459 0
0.623423 0.278462 0
0.673304 0.27245 0
0.723186 0.266438 0
0.773053 0.260426 0
0.822934 0.254414 0
0.872816 0.248402 0
0.922698 0.24239 0
0.97258 0.236378 0
1 0.230365 0
1 0.224353 0
1 0.218341 0
1 0.212329 0
1 0.206332 0
1 0.20032 0
1 0.194308 0
1 0.188296 0
1 0.182284 0
1 0.176272 0
1 0.17026 0
0 0.398871 0
0 0.392859 0
0.01738 0.386847 0
0.0672618 0.380835 0
0.117144 0.374823 0
0.167025 0.368811 0
0.216907 0.362799 0
0.266773 0.356786 0
0.316655 0.350774 0
0.366537 0.344778 0
0.416419 0.338766 0
0.4663 0.332753 0
0.516182 0.326741 0
0.566049 0.320729 0
0.61593 0.314717 0
0.665812 0.308705 0
0.715694 0.302693 0
0.765576 0.296681 0
0.815457 0.290669 0
0.865324 0.284657 0
0.915206 0.278645 0
0.965087 0.272648 0
1 0.266636 0
1 0.260624 0
1 0.254612 0
1 0.2486 0
1 0.242588 0
1 0.236576 0
1 0.230564 0
1 0.224552 0
1 0.21854 0
1 0.212528 0
1 0.206516 0
0 0.435126 0
0 0.429114 0
0.0099031 0.423102 0
0.0597848 0.417105 0
0.109651 0.411093 0
0.159533 0.405081 0
0.209415 0.399069 0
0.259297 0.393057 0
0.309178 0.387045 0
0.359045 0.381033 0
0.408927 0.375021 0
0.458808 0.369009 0
0.50869 0.362997 0
0.558572 0.356985 0
0.608454 0.350973 0
0.65832 0.344976 0
0.708202 0.338964 0
0.758083 0.332952 0
0.807965 0.32694 0
0.857847 0.320928 0
0.907729 0.314916 0
0.957595 0.308904 0
1 0.302892 0
1 0.29688 0
1 0.290867 0
1 0.284855 0
1 0.278843 0
1 0.272847 0
1 0.266835 0
1 0.260822 0
1 0.25481 0
1 0.248798 0
1 0.242786 0
0 0.471397 0
0 0.465385 0
0.00241093 0.459373 0
0.0522927 0.453361 0
0.102174 0.447349 0
0.152056 0.441337 0
0.201923 0.435325 0
0.251804 0.429313 0
0.301686 0.423301 0
0.351568 0.417288 0
0.40145 0.411292 0
0.451331 0.40528 0
0.501198 0.399268 0
0.55108 0.393256 0
0.600961 0.387243 0
0.650843 0.381231 0
0.700725 0.375219 0
0.750591 0.369207 0
0.800473 0.363195 0
0.850355 0.357183 0
0.900236 0.351171 0
0.950118 0.345159 0
1 0.339162 0
1 0.33315 0
1 0.327138 0
1 0.321126 0
1 0.315114 0
1 0.309102 0
1 0.30309 0
1 0.297078 0
1 0.291066 0
1 0.285054 0
1 0.279042 0
0 0.507652 0
0 0.50164 0
0 0.495628 0
0.0448005 0.489616 0
0.0946822 0.483604 0
0.144564 0.477607 0
0.194446 0.471595 0
0.244327 0.465583 0
0.294194 0.459571 0
0.344076 0.453559 0
0.393957 0.447547 0
0.443839 0.441535 0
0.493721 0.435523 0
0.543603 0.429511 0
0.593469 0.423499 0
0.643351 0.417487 0
0.693233 0.411475 0
0.743114 0.405478 0
0.792996 0.399466 0
0.842863 0.393454 0
0.892744 0.387442 0
0.942626 0.38143 0
0.992508 0.375418 0
1 0.369406 0
1 0.363394 0
1 0.357382 0
1 0.35137 0
1 0.345357 0
1 0.339345 0
1 0.333349 0
1 0.327337 0
1 0.321324 0
1 0.315312 0
0 0.543908 0
0 0.537911 0
0 0.531899 0
0.0373236 0.525887 0
0.0871901 0.519875 0
0.137072 0.513863 0
0.186954 0.507851 0
0.236835 0.501839 0
0.286717 0.495827 0
0.336599 0.489815 0
0.386465 0.483803 0
0.436347 0.477791 0
0.486229 0.471794 0
0.53611 0.465782 0
0.585992 0.45977 0
0.635874 0.453758 0
0.68574 0.447745 0
0.735622 0.441733 0
0.785504 0.435721 0
0.835386 0.429709 0
0.885267 0.423697 0
0.935149 0.417685 0
0.985016 0.411673 0
1 0.405661 0
1 0.399664 0
1 0.393652 0
1 0.38764 0
1 0.381628 0
1 0.375616 0
1 0.369604 0
1 0.363592 0
1 0.35758 0
1 0.351568 0
0 0.580179 0
0 0.574166 0
0 0.568154 0
0.0298314 0.562142 0
0.0797131 0.55613 0
0.129595 0.550118 0
0.179461 0.544106 0
0.229343 0.538109 0
0.279225 0.532097 0
0.329107 0.526085 0
0.378988 0.520073 0
0.42887 0.514061 0
0.478737 0.508049 0
0.528618 0.502037 0
0.5785 0.496025 0
0.628382 0.490013 0
0.678264 0.484001 0
0.728145 0.477989 0
0.778012 0.471977 0
0.827893 0.46598 0
0.877775 0.459968 0
0.927657 0.453956 0
0.977539 0.447944 0
1 0.441932 0
1 0.43592 0
1 0.429908 0
1 0.423896 0
1 0.417884 0
1 0.411872 0
1 0.405859 0
1 0.399847 0
1 0.393851 0
1 0.387839 0
0 0.616434 0
0 0.610437 0
0 0.604425 0
0.0223392 0.598413 0
0.072221 0.592401 0
0.122103 0.586389 0
0.171984 0.580377 0
0.221866 0.574365 0
0.271733 0.568353 0
0.321614 0.562341 0
0.371496 0.556329 0
0.421378 0.550317 0
0.47126 0.544305 0
0.521141 0.538308 0
0.571008 0.532296 0
0.62089 0.526284 0
0.670771 0.520272 0
0.720653 0.51426 0
0.770535 0.508247 0
0.820417 0.502235 0
0.870283 0.496223 0
0.920165 0.490211 0
0.970047 0.484199 0
1 0.478187 0
1 0.472175 0
1 0.466178 0
1 0.460166 0
1 0.454154 0
1 0.448142 0
1 0.44213 0
1 0.436118 0
1 0.430106 0
1 0.424094 0
0 0.652705 0
0 0.646693 0
0 0.640681 0
0.0148623 0.634668 0
0.064744 0.628656 0
0.114611 0.622644 0
0.164492 0.616632 0
0.214374 0.61062 0
0.264256 0.604623 0
0.314137 0.598611 0
0.364019 0.592599 0
0.413886 0.586587 0
0.463767 0.580575 0
0.513649 0.574563 0
0.563531 0.568551 0
0.613413 0.562539 0
0.663279 0.556527 0
0.713161 0.550515 0
0.763043 0.544503 0
0.812924 0.538491 0
0.862806 0.532494 0
0.912688 0.526482 0
0.962554 0.52047 0
1 0.514458 0
1 0.508446 0
1 0.502434 0
1 0.496422 0
1 0.49041 0
1 0.484398 0
1 0.478386 0
1 0.472374 0
1 0.466361 0
1 0.460365 0
0 0.68896 0
0 0.682948 0
0 0.676936 0
0.00737011 0.670939 0
0.0572519 0.664927 0
0.107134 0.658915 0
0.157015 0.652903 0
0.206882 0.646891 0
0.256764 0.640879 0
0.306645 0.634867 0
0.356527 0.628855 0
0.406409 0.622843 0
0.456291 0.616831 0
0.506157 0.610819 0
0.556039 0.604807 0
0.60592 0.59881 0
0.655802 0.592798 0
0.705684 0.586786 0
0.755566 0.580774 0
0.805432 0.574762 0
0.855314 0.56875 0
0.905196 0.562737 0
0.955077 0.556725 0
1 0.550713 0
1 0.544701 0
1 0.538689 0
1 0.532677 0
1 0.52668 0
1 0.520668 0
1 0.514656 0
1 0.508644 0
1 0.502632 0
1 0.49662 0
0 0.725231 0
0 0.719219 0
0 0.713207 0
0 0.707195 0
0.0497597 0.701183 0
0.0996414 0.695171 0
0.149523 0.689158 0
0.199405 0.683146 0
0.249287 0.677134 0
0.299153 0.671122 0
0.349035 0.665125 0
0.398917 0.659113 0
0.448798 0.653101 0
0.49868 0.647089 0
0.548562 0.641077 0
0.598428 0.635065 0
0.64831 0.629053 0
0.698192 0.623041 0
0.748074 0.617029 0
0.797955 0.611017 0
0.847837 0.605005 0
0.897704 0.598993 0
0.947585 0.592996 0
0.997467 0.586984 0
1 0.580972 0
1 0.57496 0
1 0.568948 0
1 0.562936 0
1 0.556924 0
1 0.550912 0
1 0.5449 0
1 0.538888 0
1 0.532876 0
0 0.761486 0
0 0.755474 0
0 0.749462 0
0 0.74345 0
0.0422827 0.737453 0
0.0921492 0.731441 0
0.142031 0.725429 0
0.191913 0.719417 0
0.241794 0.713405 0
0.291676 0.707393 0
0.341558 0.701381 0
0.391424 0.695369 0
0.441306 0.689357 0
0.491188 0.683345 0
0.54107 0.677333 0
0.590951 0.671321 0
0.640833 0.665324 0
0.6907 0.659312 0
0.740581 0.6533 0
0.790463 0.647288 0
0.840345 0.641276 0
0.890227 0.635264 0
0.940108 0.629252 0
0.989975 0.62324 0
1 0.617227 0
1 0.611215 0
1 0.605203 0
1 0.599191 0
1 0.593194 0
1 0.587182 0
1 0.58117 0
1 0.575158 0
1 0.569146 0
0 0.797742 0
0 0.791745 0
0 0.785733 0
0 0.779721 0
0.0347906 0.773709 0
0.0846723 0.767697 0
0.134554 0.761685 0
0.184436 0.755673 0
0.234302 0.74966 0
0.284184 0.743648 0
0.334066 0.737636 0
0.383948 0.73164 0
0.433829 0.725628 0
0.483696 0.719615 0
0.533578 0.713603 0
0.583459 0.707591 0
0.633341 0.701579 0
0.683223 0.695567 0
0.733104 0.689555 0
0.782971 0.683543 0
0.832853 0.677531 0
0.882734 0.671519 0
0.932616 0.665507 0
0.982498 0.65951 0
1 0.653498 0
1 0.647486 0
1 0.641474 0
1 0.635462 0
1 0.62945 0
1 0.623438 0
1 0.617426 0
1 0.611414 0
1 0.605402 0
0 0.834012 0
0 0.828 0
0 0.821988 0
0 0.815976 0
0.0272984 0.809964 0
0.0771801 0.803952 0
0.127062 0.797955 0
0.176944 0.791943 0
0.226825 0.785931 0
0.276707 0.779919 0
0.326574 0.773907 0
0.376455 0.767895 0
0.426337 0.761883 0
0.476219 0.755871 0
0.526101 0.749859 0
0.575967 0.743847 0
0.625849 0.737835 0
0.675731 0.731823 0
0.725612 0.725826 0
0.775494 0.719814 0
0.825376 0.713802 0
0.875242 0.70779 0
0.925124 0.701778 0
0.975006 0.695766 0
1 0.689754 0
1 0.683742 0
1 0.677729 0
1 0.671717 0
1 0.665705 0
1 0.659693 0
1 0.653696 0
1 0.647684 0
1 0.641672 0
0 0.870268 0
0 0.864271 0
0 0.858259 0
0 0.852247 0
0.0198215 0.846235 0
0.0697032 0.840223 0
0.11957 0.834211 0
0.169451 0.828199 0
0.219333 0.822187 0
0.269215 0.816175 0
0.319097 0.810162 0
0.368978 0.80415 0
0.418845 0.798138 0
0.468727 0.792142 0
0.518608 0.78613 0
0.56849 0.780118 0
0.618372 0.774105 0
0.668238 0.768093 0
0.71812 0.762081 0
0.768002 0.756069 0
0.817884 0.750057 0
0.867765 0.744045 0
0.917647 0.738033 0
0.967514 0.732021 0
1 0.726009 0
1 0.720012 0
1 0.714 0
1 0.707988 0
1 0.701976 0
1 0.695964 0
1 0.689952 0
1 0.68394 0
1 0.677928 0
0 0.906538 0
0 0.900526 0
0 0.894514 0
0 0.888502 0
0.0123293 0.88249 0
0.062211 0.876478 0
0.112093 0.870466 0
0.161975 0.864454 0
0.211841 0.858457 0
0.261723 0.852445 0
0.311604 0.846433 0
0.361486 0.840421 0
0.411368 0.834409 0
0.46125 0.828397 0
0.511116 0.822385 0
0.560998 0.816373 0
0.61088 0.810361 0
0.660761 0.804349 0
0.710643 0.798337 0
0.760525 0.792325 0
0.810391 0.786328 0
0.860273 0.780316 0
0.910155 0.774304 0
0.960037 0.768292 0
1 0.76228 0
1 0.756268 0
1 0.750256 0
1 0.744244 0
1 0.738231 0
1 0.732219 0
1 0.726207 0
1 0.720195 0
1 0.714199 0
0 0.942794 0
0 0.936782 0
0 0.930785 0
0 0.924773 0
0.00483711 0.918761 0
0.0547189 0.912749 0
0.104601 0.906737 0
0.154482 0.900725 0
0.204364 0.894713 0
0.254246 0.888701 0
0.304112 0.882689 0
0.353994 0.876677 0
0.403876 0.870665 0
0.453758 0.864652 0
0.503639 0.858656 0
0.553521 0.852644 0
0.603387 0.846632 0
0.653269 0.84062 0
0.703151 0.834607 0
0.753033 0.828595 0
0.802915 0.822583 0
0.852796 0.816571 0
0.902663 0.810559 0
0.952544 0.804547 0
1 0.798535 0
1 0.792523 0
1 0.786526 0
1 0.780514 0
1 0.774502 0
1 0.76849 0
1 0.762478 0
1 0.756466 0
1 0.750454 0
0 0.979065 0
0 0.973053 0
0 0.967041 0
0 0.961028 0
0 0.955016 0
0.0472419 0.949004 0
0.0971237 0.942992 0
0.14699 0.93698 0
0.196872 0.930968 0
