public/LUTS/Color Shift/ColorShift_72.cube
TITLE "Generated by Resolve"
LUT_3D_SIZE 5
0 0 0
0.36556 0 0
0.731151 0 0
1 0 0
1 0 0
0 0.310384 0
0.190997 0.288121 0
0.556588 0.265873 0
0.922164 0.24361 0
1 0.221347 0
0 0.620768 0
0.016434 0.59852 0
0.38201 0.576257 0
0.7476 0.554009 0
1 0.531746 0
0 0.931167 0
0 0.908919 0
0.207446 0.886656 0
0.573022 0.864408 0
0.938613 0.842145 0
0 1 0
0 1 0
0.0328679 1 0
0.398459 1 0
0.764035 1 0
0.0589914 0 0.408957
0.424552 0 0.312367
0.790127 0 0.215763
1 0 0.119173
1 0 0.0225681
0 0.272236 0.346578
0.249989 0.249989 0.249989
0.615579 0.227726 0.153384
0.981155 0.205478 0.0567941
1 0.183215 0
0 0.582635 0.284199
0.0754101 0.560388 0.18761
0.441001 0.538125 0.0910048
0.806592 0.515877 0
1 0.493614 0
0 0.893034 0.22182
0 0.870787 0.125231
0.266423 0.848524 0.0286259
0.632013 0.826261 0
0.997604 0.804013 0
0 1 0.159442
0 1 0.0628519
0.0918593 1 0
0.45745 1 0
0.823026 1 0
0.117983 0 0.817945
0.483543 0 0.72134
0.849119 0 0.62475
1 0 0.528145
1 0 0.431556
0 0.234104 0.755566
0.30898 0.211856 0.658976
0.674571 0.189593 0.562371
1 0.167346 0.465782
1 0.145083 0.369177
0 0.544503 0.693187
0.134401 0.522255 0.596597
0.499992 0.499992 0.499992
0.865583 0.477729 0.403388
1 0.455482 0.306798
0 0.854902 0.630808
0 0.832639 0.534203
0.325414 0.810391 0.437613
0.691005 0.788128 0.341009
1 0.765881 0.244419
0 1 0.568414
0 1 0.471824
0.150851 1 0.375235
0.516426 1 0.27863
0.882017 1 0.18204
0.176974 0 1
0.542535 0 1
0.90811 0 1
1 0 0.937133
1 0 0.840543
0.00241093 0.195972 1
0.367971 0.173724 1
0.733562 0.151461 0.971359
1 0.129198 0.874754
1 0.10695 0.778164
0 0.506371 1
0.193393 0.484108 1
0.558984 0.46186 0.90898
0.924575 0.439597 0.812375
1 0.41735 0.715785
0 0.81677 1
0.0188296 0.794507 0.943191
0.384405 0.772259 0.846601
0.749996 0.749996 0.749996
1 0.727733 0.653391
0 1 0.977401
0 1 0.880812
0.209842 1 0.784207
0.575418 1 0.687617
0.941009 1 0.591012
0.235966 0 1
0.601526 0 1
0.967102 0 1
1 0 1
1 0 1
0.0614023 0.157839 1
0.426963 0.135576 1
0.792554 0.113329 1
1 0.0910658 1
1 0.0688182 1
0 0.468238 1
0.252384 0.445975 1
0.617975 0.423728 1
0.983566 0.401465 1
1 0.379202 1
0 0.778622 1
0.077821 0.756374 1
0.443397 0.734112 1
0.808988 0.711864 1
1 0.689601 1
0 1 1
0 1 1
0.268833 1 1
0.634409 1 1
1 1 1
