public/LUTS/Color Shift/ColorShift_66.cube
TITLE "Generated by Resolve"
LUT_3D_SIZE 9
0 0 0
0.0888075 0.0278935 0
0.17763 0.0558022 0
0.266453 0.0836957 0
0.355276 0.111589 0
0.444114 0.139498 0
0.532937 0.167391 0
0.621759 0.1953 0
0.710582 0.223194 0
0 0.146868 0.118471
0 0.174762 0
0.0539406 0.202655 0
0.142763 0.230564 0
0.231586 0.258457 0
0.320409 0.286366 0
0.409232 0.31426 0
0.498054 0.342153 0
0.586877 0.370062 0
0 0.293751 0.236942
0 0.321645 0.104372
0 0.349538 0
0.0190433 0.377447 0
0.107866 0.405341 0
0.196689 0.433249 0
0.285512 0.461143 0
0.374334 0.489036 0
0.463157 0.516945 0
0 0.440635 0.355428
0 0.468528 0.222858
0 0.496437 0.0902724
0 0.52433 0
0 0.552224 0
0.0729839 0.580133 0
0.161807 0.608026 0
0.250629 0.635935 0
0.339452 0.663828 0
0 0.587518 0.473899
0 0.615412 0.341329
0 0.64332 0.208743
0 0.671214 0.0761578
0 0.699107 0
0 0.727016 0
0.0380865 0.75491 0
0.126909 0.782818 0
0.215732 0.810712 0
0 0.734401 0.592386
0 0.762295 0.459815
0 0.790204 0.32723
0 0.818097 0.194644
0 0.845991 0.0620584
0 0.873899 0
0 0.901793 0
0.00318914 0.929702 0
0.0920119 0.957595 0
0 0.881285 0.710872
0 0.909178 0.578302
0 0.937087 0.445716
0 0.964981 0.313115
0 0.992874 0.180529
0 1 0.0479438
0 1 0
0 1 0
0 1 0
0 1 0.829343
0 1 0.696773
0 1 0.564187
0 1 0.431601
0 1 0.299016
0 1 0.16643
0 1 0.0338445
0 1 0
0 1 0
0 1 0.947829
0 1 0.815259
0 1 0.682673
0 1 0.550088
0 1 0.417502
0 1 0.284916
0 1 0.152331
0 1 0.0197299
0 1 0
0.159869 0 0.139086
0.248692 0 0.0065156
0.337514 0.00602731 0
0.426337 0.0339208 0
0.51516 0.0618143 0
0.603983 0.0897231 0
0.692805 0.117617 0
0.781628 0.14551 0
0.870451 0.173419 0
0.0361791 0.0970932 0.257557
0.124987 0.124987 0.124987
0.213809 0.15288 0
0.302632 0.180789 0
0.391455 0.208682 0
0.480278 0.236591 0
0.5691 0.264485 0
0.657923 0.292378 0
0.746746 0.320287 0
0 0.243977 0.376043
0.0012665 0.27187 0.243473
0.0900893 0.299763 0.110887
0.178912 0.327672 0
0.267735 0.355566 0
0.356573 0.383474 0
0.445396 0.411368 0
0.534218 0.439261 0
0.623041 0.46717 0
0 0.39086 0.494514
0 0.418753 0.361944
0 0.446647 0.229358
0.0552071 0.474556 0.0967727
0.14403 0.502449 0
0.232853 0.530358 0
0.321675 0.558251 0
0.410498 0.586145 0
0.499321 0.614054 0
0 0.537743 0.613001
0 0.565637 0.48043
0 0.593545 0.347845
0 0.621439 0.215259
0.0203098 0.649332 0.0826734
0.109133 0.677241 0
0.197955 0.705135 0
0.286778 0.733043 0
0.375601 0.760937 0
0 0.684627 0.731472
0 0.71252 0.598901
0 0.740429 0.466316
0 0.768322 0.33373
0 0.796216 0.201144
0 0.824125 0.0685588
0.0742504 0.852018 0
0.163073 0.879927 0
0.251896 0.90782 0
0 0.83151 0.849958
0 0.859403 0.717388
0 0.887312 0.584802
0 0.915206 0.452216
0 0.943099 0.319631
0 0.971008 0.187045
0 0.998901 0.0544594
0.039353 1 0
0.128176 1 0
0 0.978393 0.968444
0 1 0.835874
0 1 0.703273
0 1 0.570687
0 1 0.438102
0 1 0.305516
0 1 0.17293
0 1 0.0403449
0.00447089 1 0
0 1 1
0 1 0.954345
0 1 0.821759
0 1 0.689174
0 1 0.556588
0 1 0.424002
0 1 0.291417
0 1 0.158831
0 1 0.0262455
0.319768 0 0.278202
0.408576 0 0.145632
0.497398 0 0.0130465
0.586221 0 0
0.675044 0.0120394 0
0.763867 0.0399329 0
0.852689 0.0678416 0
0.941512 0.0957351 0
1 0.123629 0
0.196063 0.047303 0.396658
0.284886 0.0752117 0.264088
0.373709 0.103105 0.131502
0.462531 0.130999 0
0.551354 0.158907 0
0.640177 0.186801 0
0.729 0.21471 0
0.817823 0.242603 0
0.906645 0.270497 0
0.0723583 0.194186 0.515145
0.161166 0.222095 0.382574
0.249989 0.249989 0.249989
0.338811 0.277882 0.117403
0.427634 0.305791 0
0.516457 0.333684 0
0.60528 0.361593 0
0.694102 0.389487 0
0.782925 0.41738 0
0 0.34107 0.633631
0.0374456 0.368978 0.50106
0.126268 0.396872 0.368475
0.215091 0.424765 0.235889
0.303914 0.452674 0.103288
0.392752 0.480568 0
0.481575 0.508476 0
0.570397 0.53637 0
0.65922 0.564263 0
0 0.487968 0.752102
0 0.515862 0.619532
0.00256352 0.543755 0.486946
0.0913863 0.571664 0.35436
0.180209 0.599557 0.221775
0.269032 0.627451 0.089189
0.357855 0.65536 0
0.446677 0.683253 0
0.5355 0.711147 0
0 0.634852 0.870588
0 0.662745 0.738018
0 0.690639 0.605432
0 0.718547 0.472847
0.0564889 0.746441 0.340261
0.145312 0.774334 0.207675
0.234134 0.802243 0.0750896
0.322957 0.830137 0
0.41178 0.858045 0
0 0.781735 0.989059
0 0.809628 0.856489
0 0.837522 0.723903
0 0.865431 0.591318
0 0.893324 0.458732
0.0216068 0.921218 0.326146
0.11043 0.949126 0.193561
0.199252 0.97702 0.0609751
0.288075 1 0
0 0.928618 1
0 0.956512 0.974975
0 0.984405 0.84239
0 1 0.709804
0 1 0.577218
0 1 0.444633
0 1 0.312047
0.0755322 1 0.179461
0.164355 1 0.0468757
0 1 1
0 1 1
0 1 0.960876
0 1 0.828275
0 1 0.695689
0 1 0.563104
0 1 0.430518
0 1 0.297932
0.0406348 1 0.165347
0.479652 0 0.417304
0.568475 0 0.284733
0.657298 0 0.152148
0.74612 0 0.0195621
0.834943 0 0
0.923766 0 0
1 0.0180514 0
1 0.0459602 0
1 0.0738537 0
0.355962 0 0.535775
0.44477 0.0254215 0.403204
0.533593 0.053315 0.270619
0.622415 0.0812238 0.138033
0.711238 0.109117 0.00544747
0.800061 0.137026 0
0.888884 0.16492 0
0.977707 0.192813 0
1 0.220722 0
0.232242 0.144411 0.654261
0.321065 0.172305 0.521691
0.409888 0.200214 0.38909
0.498711 0.228107 0.256504
0.587533 0.256001 0.123919
0.676356 0.283909 0
0.765179 0.311803 0
0.854002 0.339712 0
0.942824 0.367605 0
0.108537 0.291295 0.772732
0.197345 0.319188 0.640162
0.286168 0.347097 0.507576
0.37499 0.37499 0.37499
0.463813 0.402884 0.242405
0.552636 0.430793 0.109819
0.641459 0.458686 0
0.730282 0.486595 0
0.819104 0.514488 0
0 0.438178 0.891218
0.0736248 0.466072 0.758648
0.162448 0.49398 0.626062
0.25127 0.521874 0.493477
0.340093 0.549767 0.360891
0.428916 0.577676 0.22829
0.517754 0.60557 0.0957046
0.606577 0.633478 0
0.695399 0.661372 0
0 0.585061 1
0 0.612955 0.877119
0.0387427 0.640864 0.744533
0.127565 0.668757 0.611948
0.216388 0.696666 0.479362
0.305211 0.724559 0.346777
0.394034 0.752453 0.214191
0.482856 0.780362 0.0816052
0.571679 0.808255 0
0 0.731945 1
0 0.759838 0.995605
0 0.787747 0.86302
0.00384527 0.815641 0.730434
0.092668 0.843549 0.597848
0.181491 0.871443 0.465263
0.270314 0.899336 0.332677
0.359136 0.927245 0.200092
0.447959 0.955139 0.0675059
0 0.878828 1
0 0.906722 1
0 0.93463 0.981491
0 0.962524 0.848905
0 0.990433 0.71632
0.0577859 1 0.583734
0.146609 1 0.451148
0.235431 1 0.318563
0.324254 1 0.185977
0 1 1
0 1 1
0 1 1
0 1 0.967391
0 1 0.834806
0 1 0.70222
0.0228885 1 0.569635
0.111711 1 0.437049
0.200534 1 0.304463
0.639551 0 0.55642
0.728359 0 0.42385
0.817182 0 0.291264
0.90602 0 0.158679
0.994842 0 0.0260929
1 0 0
1 0 0
1 0 0
1 0.0240787 0
0.515846 0 0.674876
0.604669 0 0.542306
0.693492 0.00354009 0.40972
0.782315 0.0314336 0.277134
0.871138 0.0593423 0.144549
0.95996 0.0872358 0.0119631
1 0.115145 0
1 0.143038 0
1 0.170932 0
0.392142 0.0946365 0.793362
0.480949 0.12253 0.660792
0.569772 0.150423 0.528206
0.658595 0.178332 0.395621
0.747417 0.206226 0.263035
0.83624 0.234119 0.130449
0.925063 0.262028 0
1 0.289921 0
1 0.317815 0
0.268421 0.24152 0.911849
0.357244 0.269413 0.779278
0.446067 0.297307 0.646693
0.53489 0.325216 0.514092
0.623713 0.353109 0.381506
0.712535 0.381003 0.24892
0.801358 0.408911 0.116335
0.890181 0.436805 0
0.979004 0.464714 0
0.144717 0.388403 1
0.233524 0.416297 0.897749
0.322347 0.44419 0.765164
0.41117 0.472099 0.632578
0.499992 0.499992 0.499992
0.588815 0.527886 0.367407
0.677638 0.555795 0.234821
0.766461 0.583688 0.102235
0.855283 0.611597 0
0.0209964 0.535286 1
0.109804 0.56318 1
0.198627 0.591073 0.88365
0.287449 0.618982 0.751064
0.376272 0.646876 0.618479
0.465095 0.674769 0.485893
0.553918 0.702678 0.353292
0.642756 0.730571 0.220706
0.731579 0.75848 0.0881208
0 0.68217 1
0 0.710063 1
0.0749218 0.737957 1
0.163745 0.765866 0.869535
0.252567 0.793759 0.73695
0.34139 0.821668 0.604364
0.430213 0.849561 0.471778
0.519036 0.877455 0.339193
0.607858 0.905364 0.206607
0 0.829053 1
0 0.856947 1
0 0.88484 1
0.0400244 0.912749 0.988022
0.128847 0.940642 0.855436
0.21767 0.968551 0.72285
0.306493 0.996445 0.590265
0.395315 1 0.457679
0.484138 1 0.325093
0 0.975937 1
0 1 1
0 1 1
0 1 1
0.00512703 1 0.973907
0.0939651 1 0.841321
0.182788 1 0.708736
0.271611 1 0.57615
0.360433 1 0.443565
0.799451 0 0.695521
0.888258 0 0.562951
0.977081 0 0.430365
1 0 0.29778
1 0 0.165194
1 0 0.0326085
1 0 0
1 0 0
1 0 0
0.675746 0 0.813993
0.764553 0 0.681422
0.853376 0 0.548837
0.942199 0 0.416251
1 0.00955215 0.283665
1 0.0374609 0.15108
1 0.0653544 0.0184939
1 0.0932631 0
1 0.121157 0
0.552026 0.0448463 0.932464
0.640848 0.0727398 0.799893
0.729671 0.100649 0.667308
0.818494 0.128542 0.534722
0.907317 0.156435 0.402136
0.996139 0.184344 0.269551
1 0.212238 0.136965
1 0.240146 0.00437934
1 0.26804 0
0.428321 0.19173 1
0.517128 0.219623 0.918379
0.605951 0.247532 0.785794
0.694774 0.275425 0.653208
0.783597 0.303334 0.520623
0.872419 0.331228 0.388037
0.961242 0.359121 0.255451
1 0.38703 0.122866
1 0.414923 0
0.304601 0.338613 1
0.393408 0.366506 1
0.482246 0.394415 0.90428
0.571069 0.422309 0.771695
0.659892 0.450217 0.639094
0.748714 0.478111 0.506508
0.837537 0.506004 0.373922
0.92636 0.533913 0.241337
1 0.561807 0.108751
0.18088 0.485496 1
0.269703 0.51339 1
0.358526 0.541299 1
0.447349 0.569192 0.890166
0.536171 0.597101 0.75758
0.624994 0.624994 0.624994
0.713817 0.652888 0.492409
0.80264 0.680797 0.359823
0.891463 0.70869 0.227237
0.0571756 0.63238 1
0.145983 0.660273 1
0.234806 0.688182 1
0.323629 0.716075 1
0.412451 0.743984 0.876066
0.501274 0.771878 0.743481
0.590097 0.799771 0.610895
0.67892 0.82768 0.478294
0.767742 0.855573 0.345708
0 0.779263 1
0.0222782 0.807172 1
0.111101 0.835065 1
0.199924 0.862959 1
0.288746 0.890867 0.994537
0.377569 0.918761 0.861952
0.466392 0.946654 0.729366
0.555215 0.974563 0.59678
0.644038 1 0.464195
0 0.926146 1
0 0.954055 1
0 0.981949 1
0.0762036 1 1
0.165026 1 1
0.253849 1 0.980438
0.342672 1 0.847852
0.431495 1 0.715267
0.520317 1 0.582681
0.959335 0 0.834638
1 0 0.702068
1 0 0.569482
1 0 0.436896
1 0 0.304311
1 0 0.17171
1 0 0.0391241
1 0 0
1 0 0
0.835645 0 0.953094
0.924453 0 0.820523
1 0 0.687938
1 0 0.555352
1 0 0.422766
1 0 0.290181
1 0.0155795 0.157595
1 0.043473 0.0250095
1 0.0713817 0
0.711925 0 1
0.800732 0.0229648 0.93901
0.889555 0.0508583 0.806424
0.978378 0.0787671 0.673838
1 0.106661 0.541253
1 0.134554 0.408667
1 0.162463 0.276081
1 0.190356 0.143496
1 0.218265 0.0109102
0.588205 0.141955 1
0.677028 0.169848 1
0.76585 0.197742 0.924895
0.854673 0.22565 0.792309
0.943496 0.253544 0.659724
1 0.281437 0.527138
1 0.309346 0.394553
1 0.33724 0.261967
1 0.365148 0.129381
0.4645 0.288838 1
0.553307 0.316732 1
0.64213 0.344625 1
0.730953 0.372534 0.910796
0.819776 0.400427 0.77821
0.908598 0.428336 0.645624
0.997421 0.45623 0.513039
1 0.484123 0.380453
1 0.512032 0.247868
0.34078 0.435721 1
0.429587 0.463615 1
0.51841 0.491508 1
0.607248 0.519417 1
0.696071 0.547311 0.896696
0.784894 0.575219 0.764096
0.873716 0.603113 0.63151
0.962539 0.631006 0.498924
1 0.658915 0.366339
0.21706 0.582605 1
0.305882 0.610498 1
0.394705 0.638392 1
0.483528 0.6663 1
0.572351 0.694194 1
0.661173 0.722103 0.882582
0.749996 0.749996 0.749996
0.838819 0.77789 0.617411
0.927642 0.805798 0.484825
0.0933547 0.729488 1
0.182162 0.757382 1
0.270985 0.785275 1
0.359808 0.813184 1
0.448631 0.841077 1
0.537453 0.868986 1
0.626276 0.89688 0.868482
0.715099 0.924773 0.735897
0.803922 0.952682 0.603296
0 0.876371 1
0.0584573 0.904265 1
0.14728 0.932174 1
0.236103 0.960067 1
0.324926 0.987961 1
0.413748 1 1
0.502571 1 0.986954
0.591394 1 0.854368
0.680217 1 0.721782
1 0 0.973739
1 0 0.841169
1 0 0.708583
1 0 0.575998
1 0 0.443412
1 0 0.310826
1 0 0.178241
1 0 0.045655
1 0 0
0.995529 0 1
1 0 0.95964
1 0 0.827054
1 0 0.694469
1 0 0.561883
1 0 0.429297
1 0 0.296696
1 0 0.164111
1 0.0215915 0.0315251
0.871824 0 1
0.960632 0 1
1 0.00108339 0.945525
1 0.0289769 0.81294
1 0.0568856 0.680354
1 0.0847791 0.547768
1 0.112673 0.415183
1 0.140581 0.282597
1 0.168475 0.150011
0.748104 0.0921645 1
0.836912 0.120058 1
0.925734 0.147967 1
1 0.17586 0.931426
1 0.203769 0.79884
1 0.231662 0.666255
1 0.259556 0.533669
1 0.287465 0.401083
1 0.315358 0.268498
0.624384 0.239048 1
0.713207 0.266941 1
0.802029 0.29485 1
0.890852 0.322744 1
0.979675 0.350652 0.917311
1 0.378546 0.784726
1 0.406439 0.65214
1 0.434348 0.519554
1 0.462242 0.386969
0.500679 0.385931 1
0.589487 0.41384 1
0.678309 0.441733 1
0.767132 0.469627 1
0.855955 0.497536 1
0.944778 0.525429 0.903212
1 0.553323 0.770626
1 0.581231 0.638041
1 0.609125 0.505455
0.376959 0.532815 1
0.465766 0.560723 1
0.554589 0.588617 1
0.643412 0.61651 1
0.73225 0.644419 1
0.821073 0.672312 1
0.909895 0.700221 0.889097
0.998718 0.728115 0.756512
1 0.756008 0.623926
0.253239 0.679698 1
0.342061 0.707607 1
0.430884 0.7355 1
0.519707 0.763394 1
0.60853 0.791302 1
0.697353 0.819196 1
0.786175 0.847105 1
0.874998 0.874998 0.874998
0.963821 0.902892 0.742412
0.129534 0.826596 1
0.218341 0.85449 1
0.307164 0.882383 1
0.395987 0.910277 1
0.48481 0.938186 1
0.573632 0.966079 1
0.662455 0.993988 1
0.751278 1 0.993484
0.840101 1 0.860899
1 0 1
1 0 0.980285
1 0 0.8477
1 0 0.715099
1 0 0.582513
1 0 0.449928
1 0 0.317342
1 0 0.184756
1 0 0.0521706
1 0 1
1 0 1
1 0 0.966155
1 0 0.83357
1 0 0.700984
1 0 0.568399
1 0 0.435813
1 0 0.303227
1 0 0.170642
1 0 1
1 0 1
1 0 1
1 0 0.952056
1 0.00709545 0.819471
1 0.0350042 0.686885
1 0.0628977 0.554299
1 0.0907912 0.421714
1 0.1187 0.289113
0.908003 0.0423896 1
0.996811 0.0702831 1
1 0.0981765 1
1 0.126085 1
1 0.153979 0.937942
1 0.181888 0.805356
1 0.209781 0.67277
1 0.237675 0.540185
1 0.265583 0.407599
0.784283 0.189273 1
0.873091 0.217166 1
0.961913 0.24506 1
1 0.272969 1
1 0.300862 1
1 0.328771 0.923842
1 0.356664 0.791257
1 0.384558 0.658671
1 0.412467 0.526085
0.660563 0.336156 1
0.749386 0.36405 1
0.838209 0.391943 1
0.927031 0.419852 1
1 0.447745 1
1 0.475654 1
1 0.503548 0.909728
1 0.531441 0.777142
1 0.55935 0.644556
0.536858 0.48304 1
0.625666 0.510933 1
0.714488 0.538842 1
0.803311 0.566735 1
0.892134 0.594629 1
0.980957 0.622538 1
1 0.650431 1
1 0.67834 0.895628
1 0.706233 0.763043
0.413138 0.629923 1
0.501945 0.657816 1
0.590768 0.685725 1
0.679591 0.713619 1
0.768414 0.741512 1
0.857252 0.769421 1
0.946075 0.797314 1
1 0.825223 1
1 0.853117 0.881514
0.289418 0.776806 1
0.378241 0.8047 1
0.467063 0.832609 1
0.555886 0.860502 1
0.644709 0.888395 1
0.733532 0.916304 1
0.822354 0.944198 1
0.911177 0.972107 1
1 1 1
