public/LUTS/Color Shift/ColorShift_39.cube
TITLE "Generated by Resolve"
LUT_3D_SIZE 9
0 0 0
0.0142977 0.0170596 0.125551
0.0286107 0.0341344 0.251102
0.0429084 0.051194 0.376669
0.0572213 0.0682689 0.502235
0.071519 0.0853285 0.627787
0.085832 0.102388 0.753353
0.10013 0.119463 0.87892
0.114427 0.136522 1
0.203372 0.0588693 0.0396582
0.21767 0.0759442 0.165194
0.231983 0.0930037 0.290761
0.246281 0.110079 0.416327
0.260578 0.127138 0.541878
0.274891 0.144198 0.667445
0.289189 0.161273 0.793011
0.303502 0.178332 0.918563
0.3178 0.195407 1
0.40676 0.117754 0.0793164
0.421073 0.134829 0.204868
0.43537 0.151888 0.330419
0.449668 0.168963 0.455985
0.463981 0.186023 0.581552
0.478279 0.203082 0.707103
0.492592 0.220157 0.83267
0.506889 0.237217 0.958236
0.521202 0.254292 1
0.610162 0.176638 0.118975
0.62446 0.193713 0.244526
0.638758 0.210773 0.370077
0.653071 0.227848 0.495644
0.667369 0.244907 0.62121
0.681682 0.261967 0.746761
0.695979 0.279042 0.872328
0.710292 0.296101 0.997894
0.72459 0.313176 1
0.81355 0.235523 0.158633
0.827848 0.252598 0.284184
0.842161 0.269657 0.409751
0.856458 0.286717 0.535302
0.870771 0.303792 0.660868
0.885069 0.320851 0.786435
0.899382 0.337926 0.911986
0.91368 0.354986 1
0.927993 0.372061 1
1 0.294408 0.198291
1 0.311482 0.323842
1 0.328542 0.449409
1 0.345602 0.57496
1 0.362676 0.700526
1 0.379736 0.826093
1 0.396811 0.951644
1 0.41387 1
1 0.430945 1
1 0.353292 0.237964
1 0.370367 0.3635
1 0.387427 0.489067
1 0.404486 0.614633
1 0.421561 0.740185
1 0.438621 0.865751
1 0.455695 0.991318
1 0.472755 1
1 0.48983 1
1 0.412177 0.277623
1 0.429236 0.403159
1 0.446311 0.528725
1 0.463371 0.654292
1 0.480446 0.779843
1 0.497505 0.905409
1 0.51458 1
1 0.53164 1
1 0.548699 1
1 0.471061 0.317281
1 0.488121 0.442832
1 0.505196 0.568383
1 0.522255 0.69395
1 0.53933 0.819516
1 0.55639 0.945068
1 0.573465 1
1 0.590524 1
1 0.607584 1
0 0.0490425 0
0 0.0661173 0.0853285
0 0.0831769 0.210895
0 0.100237 0.336446
0 0.117311 0.462013
0 0.134371 0.587579
0 0.151446 0.71313
0.0074464 0.168505 0.838697
0.0217441 0.18558 0.964263
0.110689 0.107927 0
0.124987 0.124987 0.124987
0.139284 0.142046 0.250553
0.153597 0.159121 0.376104
0.167895 0.176181 0.501671
0.182208 0.193256 0.627237
0.196506 0.210315 0.752789
0.210819 0.22739 0.878355
0.225116 0.24445 1
0.314076 0.166812 0.0391089
0.328374 0.183871 0.164645
0.342687 0.200931 0.290211
0.356985 0.218006 0.415763
0.371298 0.235065 0.541329
0.385595 0.25214 0.666896
0.399908 0.2692 0.792447
0.414206 0.286275 0.918013
0.428519 0.303334 1
0.517479 0.225696 0.0787671
0.531777 0.242756 0.204303
0.546075 0.259815 0.32987
0.560388 0.27689 0.455436
0.574685 0.29395 0.580987
0.588998 0.311025 0.706554
0.603296 0.328084 0.83212
0.617609 0.345144 0.957671
0.631907 0.362219 1
0.720867 0.284581 0.118425
0.735164 0.30164 0.243961
0.749477 0.3187 0.369528
0.763775 0.335775 0.495094
0.778088 0.352834 0.620645
0.792386 0.369909 0.746212
0.806683 0.386969 0.871778
0.820996 0.404028 0.99733
0.835294 0.421103 1
0.924254 0.343465 0.158083
0.938567 0.360525 0.283635
0.952865 0.377584 0.409186
0.967178 0.394659 0.534752
0.981476 0.411719 0.660319
0.995773 0.428794 0.78587
1 0.445853 0.911437
1 0.462913 1
1 0.479988 1
1 0.402335 0.197742
1 0.419409 0.323293
1 0.436469 0.448844
1 0.453544 0.574411
1 0.470603 0.699977
1 0.487663 0.825528
1 0.504738 0.951095
1 0.521798 1
1 0.538872 1
1 0.461219 0.2374
1 0.478294 0.362951
1 0.495354 0.488518
1 0.512428 0.614069
1 0.529488 0.739635
1 0.546548 0.865202
1 0.563622 0.990753
1 0.580682 1
1 0.597757 1
1 0.520104 0.277073
1 0.537179 0.402609
1 0.554238 0.528176
1 0.571313 0.653727
1 0.588373 0.779293
1 0.605432 0.90486
1 0.622507 1
1 0.639567 1
1 0.656641 1
0 0.0981003 0
0 0.11516 0.0451057
0 0.132235 0.170672
0 0.149294 0.296239
0 0.166354 0.42179
0 0.183429 0.547356
0 0.200488 0.672923
0 0.217563 0.798474
0 0.234623 0.924041
0.0179904 0.15697 0
0.0322881 0.174044 0.0847639
0.0466011 0.191104 0.21033
0.0608988 0.208164 0.335882
0.0751965 0.225238 0.461448
0.0895094 0.242298 0.587015
0.103807 0.259373 0.712566
0.11812 0.276432 0.838132
0.132418 0.293507 0.963699
0.221378 0.215854 0
0.235691 0.232929 0.124422
0.249989 0.249989 0.249989
0.264286 0.267048 0.375555
0.278599 0.284123 0.501106
0.292897 0.301183 0.626673
0.30721 0.318257 0.752239
0.321508 0.335317 0.877791
0.335821 0.352392 1
0.424781 0.274739 0.0385443
0.439078 0.291814 0.164096
0.453376 0.308873 0.289647
0.467689 0.325933 0.415213
0.481987 0.343008 0.540764
0.4963 0.360067 0.666331
0.510597 0.377142 0.791897
0.52491 0.394202 0.917449
0.539208 0.411276 1
0.628168 0.333623 0.0782025
0.642466 0.350683 0.203754
0.656779 0.367758 0.329305
0.671077 0.384817 0.454871
0.685389 0.401892 0.580438
0.699687 0.418952 0.705989
0.714 0.436027 0.831556
0.728298 0.453086 0.957122
0.742611 0.470146 1
0.831556 0.392508 0.117861
0.845869 0.409567 0.243412
0.860166 0.426642 0.368963
0.874479 0.443702 0.49453
0.888777 0.460777 0.620096
0.90309 0.477836 0.745647
0.917388 0.494911 0.871214
0.931685 0.511971 0.99678
0.945998 0.52903 1
1 0.451392 0.157519
1 0.468452 0.28307
1 0.485527 0.408637
1 0.502586 0.534188
1 0.519661 0.659754
1 0.536721 0.785321
1 0.553796 0.910872
1 0.570855 1
1 0.587915 1
1 0.510277 0.197192
1 0.527337 0.322728
1 0.544411 0.448295
1 0.561471 0.573846
1 0.578546 0.699413
1 0.595605 0.824979
1 0.612665 0.95053
1 0.62974 1
1 0.646799 1
1 0.569162 0.236851
1 0.586221 0.362387
1 0.603296 0.487953
1 0.620356 0.613519
1 0.63743 0.739071
1 0.65449 0.864637
1 0.67155 0.990204
1 0.688624 1
1 0.705684 1
0 0.147143 0
0 0.164218 0.00489815
0 0.181277 0.130449
0 0.198352 0.256016
0 0.215412 0.381567
0 0.232471 0.507134
0 0.249546 0.6327
0 0.266606 0.758251
0 0.28368 0.883818
0 0.206027 0
0 0.223087 0.0445411
0 0.240162 0.170108
0 0.257221 0.295674
0 0.274296 0.421225
0 0.291356 0.546792
0.0111238 0.308415 0.672358
0.0254215 0.32549 0.797909
0.0397192 0.34255 0.923476
0.128679 0.264912 0
0.142992 0.281971 0.0842145
0.15729 0.299046 0.209766
0.171603 0.316106 0.335332
0.185901 0.333165 0.460883
0.200198 0.35024 0.58645
0.214511 0.3673 0.712016
0.228809 0.384375 0.837568
0.243122 0.401434 0.963134
0.332082 0.323796 0
0.34638 0.340856 0.123873
0.360693 0.357931 0.249424
0.37499 0.37499 0.37499
0.389288 0.39205 0.500557
0.403601 0.409125 0.626108
0.417899 0.426184 0.751675
0.432212 0.443259 0.877241
0.44651 0.460319 1
0.53547 0.382681 0.0379797
0.549783 0.399741 0.163531
0.56408 0.416815 0.289097
0.578378 0.433875 0.414649
0.592691 0.450935 0.540215
0.606989 0.468009 0.665766
0.621302 0.485069 0.791333
0.635599 0.502144 0.916899
0.649912 0.519203 1
0.738872 0.441566 0.0776379
0.75317 0.458625 0.203189
0.767468 0.475685 0.328756
0.781781 0.49276 0.454307
0.796078 0.509819 0.579873
0.810391 0.526894 0.70544
0.824689 0.543954 0.830991
0.839002 0.561028 0.956558
0.8533 0.578088 1
0.94226 0.50045 0.117311
0.956558 0.51751 0.242847
0.970871 0.534569 0.368414
0.985168 0.551644 0.493965
0.999481 0.568704 0.619532
1 0.585779 0.745098
1 0.602838 0.870649
1 0.619913 0.996216
1 0.636973 1
1 0.559335 0.15697
1 0.576394 0.282506
1 0.593454 0.408072
1 0.610529 0.533639
1 0.627588 0.65919
1 0.644663 0.784756
1 0.661723 0.910323
1 0.678798 1
1 0.695857 1
1 0.618219 0.196628
1 0.635279 0.322179
1 0.652338 0.44773
1 0.669413 0.573297
1 0.686473 0.698848
1 0.703548 0.824414
1 0.720607 0.949981
1 0.737667 1
1 0.754742 1
0 0.196201 0
0 0.21326 0
0 0.230335 0.0902266
0 0.247395 0.215793
0 0.264469 0.34136
0 0.281529 0.466911
0 0.298604 0.592477
0 0.315663 0.718044
0 0.332723 0.843595
0 0.255085 0
0 0.272145 0.00433356
0 0.289204 0.129885
0 0.306279 0.255451
0 0.323339 0.381018
0 0.340414 0.506569
0 0.357473 0.632136
0 0.374533 0.757687
0 0.391608 0.883253
0.0359808 0.31397 0
0.0502937 0.331029 0.0439918
0.0645914 0.348089 0.169543
0.0789044 0.365164 0.295109
0.0932021 0.382223 0.420676
0.107515 0.399298 0.546227
0.121813 0.416358 0.671794
0.136126 0.433417 0.79736
0.150423 0.450492 0.922911
0.239384 0.372839 0
0.253681 0.389914 0.08365
0.267994 0.406973 0.209216
0.282292 0.424048 0.334768
0.296605 0.441108 0.460334
0.310903 0.458167 0.585885
0.3252 0.475242 0.711452
0.339513 0.492302 0.837018
0.353811 0.509377 0.96257
0.442771 0.431724 0
0.457084 0.448798 0.123308
0.471382 0.465858 0.248875
0.485695 0.482933 0.374426
0.499992 0.499992 0.499992
0.51429 0.517052 0.625559
0.528603 0.534127 0.75111
0.542901 0.551186 0.876677
0.557214 0.568261 1
0.646174 0.490608 0.0374304
0.660471 0.507683 0.162966
0.674784 0.524742 0.288533
0.689082 0.541817 0.414099
0.70338 0.558877 0.539651
0.717693 0.575936 0.665217
0.731991 0.593011 0.790768
0.746303 0.610071 0.916335
0.760601 0.627146 1
0.849561 0.549493 0.0770886
0.863859 0.566567 0.202625
0.878172 0.583627 0.328191
0.89247 0.600687 0.453758
0.906783 0.617761 0.579309
0.92108 0.634821 0.704875
0.935393 0.651896 0.830442
0.949691 0.668956 0.955993
0.964004 0.68603 1
1 0.608377 0.116747
1 0.625452 0.242298
1 0.642512 0.367849
1 0.659571 0.493416
1 0.676646 0.618967
1 0.693706 0.744533
1 0.710781 0.8701
1 0.72784 0.995651
1 0.744915 1
1 0.667262 0.156405
1 0.684337 0.281956
1 0.701396 0.407507
1 0.718456 0.533074
1 0.735531 0.65864
1 0.75259 0.784192
1 0.769665 0.909758
1 0.786725 1
1 0.8038 1
0 0.245258 0
0 0.262318 0
0 0.279377 0.0500191
0 0.296452 0.17557
0 0.313512 0.301137
0 0.330587 0.426703
0 0.347646 0.552254
0 0.364721 0.677821
0 0.381781 0.803372
0 0.304128 0
0 0.321187 0
0 0.338262 0.089662
0 0.355322 0.215228
0 0.372396 0.340795
0 0.389456 0.466346
0 0.406531 0.591913
0 0.42359 0.717479
0 0.44065 0.84303
0 0.363012 0
0 0.380072 0.00376898
0 0.397147 0.129335
0 0.414206 0.254887
0.000503548 0.431281 0.380453
0.0148165 0.448341 0.50602
0.0291142 0.465415 0.631571
0.0434272 0.482475 0.757137
0.0577249 0.499535 0.882689
0.146685 0.421897 0
0.160983 0.438956 0.0434272
0.175296 0.456031 0.168994
0.189593 0.473091 0.294545
0.203906 0.490166 0.420111
0.218204 0.507225 0.545678
0.232517 0.5243 0.671229
0.246815 0.54136 0.796796
0.261128 0.558419 0.922362
0.350072 0.480781 0
0.364385 0.497841 0.0830854
0.378683 0.514916 0.208652
0.392996 0.531975 0.334218
0.407294 0.54905 0.45977
0.421607 0.56611 0.585336
0.435904 0.583169 0.710887
0.450202 0.600244 0.836454
0.464515 0.617304 0.96202
0.553475 0.539666 0
0.567773 0.556725 0.122744
0.582086 0.5738 0.24831
0.596384 0.59086 0.373877
0.610697 0.607935 0.499428
0.624994 0.624994 0.624994
0.639292 0.642054 0.750561
0.653605 0.659129 0.876112
0.667903 0.676188 1
0.756863 0.59855 0.0368658
0.771176 0.61561 0.162417
0.785473 0.632685 0.287968
0.799786 0.649744 0.413535
0.814084 0.666819 0.539101
0.828382 0.683879 0.664652
0.842695 0.700938 0.790219
0.856992 0.718013 0.91577
0.871305 0.735073 1
0.960266 0.657435 0.076524
0.974563 0.674495 0.202075
0.988861 0.691569 0.327626
1 0.708629 0.453193
1 0.725689 0.578759
1 0.742763 0.704311
1 0.759823 0.829877
1 0.776898 0.955444
1 0.793957 1
1 0.71632 0.116182
1 0.733379 0.241733
1 0.750454 0.3673
1 0.767514 0.492851
1 0.784573 0.618418
1 0.801648 0.743969
1 0.818708 0.869535
1 0.835782 0.995102
1 0.852842 1
0 0.294301 0
0 0.311376 0
0 0.328435 0.00979629
0 0.345495 0.135348
0 0.36257 0.260914
0 0.379629 0.386481
0 0.396704 0.512032
0 0.413764 0.637598
0 0.430838 0.763165
0 0.353185 0
0 0.370245 0
0 0.38732 0.0494545
0 0.404379 0.175006
0 0.421439 0.300572
0 0.438514 0.426139
0 0.455573 0.55169
0 0.472648 0.677256
0 0.489708 0.802808
0 0.41207 0
0 0.429129 0
0 0.446189 0.0891127
0 0.463264 0.214664
0 0.480323 0.34023
0 0.497398 0.465797
0 0.514458 0.591348
0 0.531533 0.716915
0 0.548592 0.842481
0.0539864 0.470954 0
0.0682841 0.488014 0.00320439
0.0825971 0.505074 0.128771
0.0968948 0.522148 0.254337
0.111208 0.539208 0.379889
0.125505 0.556283 0.505455
0.139818 0.573343 0.631022
0.154116 0.590417 0.756573
0.168429 0.607477 0.882139
0.257389 0.529839 0
0.271687 0.546899 0.0428626
0.285985 0.563958 0.168429
0.300298 0.581033 0.293996
0.314595 0.598093 0.419547
0.328908 0.615167 0.545113
0.343206 0.632227 0.67068
0.357519 0.649302 0.796231
0.371817 0.666362 0.921798
0.460777 0.588724 0
0.475074 0.605783 0.082536
0.489387 0.622843 0.208087
0.503685 0.639918 0.333654
0.517998 0.656977 0.45922
0.532296 0.674052 0.584772
0.546609 0.691112 0.710338
0.560906 0.708171 0.835889
0.575204 0.725246 0.961456
0.664164 0.647608 0
0.678477 0.664668 0.122194
0.692775 0.681727 0.247745
0.707088 0.698802 0.373312
0.721386 0.715862 0.498878
0.735698 0.732937 0.62443
0.749996 0.749996 0.749996
0.764294 0.767056 0.875563
0.778607 0.784131 1
0.867567 0.706493 0.0363012
0.881865 0.723552 0.161852
0.896178 0.740612 0.287419
0.910475 0.757687 0.41297
0.924788 0.774746 0.538537
0.939086 0.791821 0.664103
0.953384 0.808881 0.789654
0.967697 0.82594 0.915221
0.981994 0.843015 1
1 0.765362 0.0759594
1 0.782437 0.201511
1 0.799496 0.327077
1 0.816571 0.452628
1 0.833631 0.578195
1 0.85069 0.703761
1 0.867765 0.829313
1 0.884825 0.954879
1 0.9019 1
0 0.343359 0
0 0.360418 0
0 0.377493 0
0 0.394553 0.09514
0 0.411627 0.220691
0 0.428687 0.346258
0 0.445747 0.471824
0 0.462821 0.597375
0 0.479881 0.722942
0 0.402228 0
0 0.419303 0
0 0.436362 0.00923171
0 0.453437 0.134783
0 0.470497 0.260349
0 0.487556 0.385916
0 0.504631 0.511467
0 0.521691 0.637034
0 0.538766 0.7626
0 0.461112 0
0 0.478187 0
0 0.495247 0.0488899
0 0.512322 0.174456
0 0.529381 0.300008
0 0.546441 0.425574
0 0.563516 0.551141
0 0.580575 0.676692
0 0.59765 0.802258
0 0.519997 0
0 0.537072 0
0 0.554131 0.0885481
0.00421149 0.571191 0.214115
0.0185092 0.588266 0.339666
0.0328069 0.605325 0.465232
0.0471199 0.6224 0.590799
0.0614176 0.63946 0.71635
0.0757305 0.656535 0.841917
0.164691 0.578882 0
0.178988 0.595956 0.00265507
0.193286 0.613016 0.128206
0.207599 0.630076 0.253773
0.221897 0.64715 0.379339
0.23621 0.66421 0.504891
0.250507 0.681285 0.630457
0.26482 0.698344 0.756024
0.279118 0.715419 0.881575
0.368078 0.637766 0
0.382376 0.654841 0.0423133
0.396689 0.671901 0.167865
0.410986 0.68896 0.293431
0.425299 0.706035 0.418997
0.439597 0.723095 0.544549
0.45391 0.740169 0.670115
0.468208 0.757229 0.795682
0.482521 0.774304 0.921233
0.571481 0.696651 0
0.585779 0.71371 0.0819715
0.600076 0.730785 0.207538
0.614389 0.747845 0.333089
0.628687 0.76492 0.458656
0.643 0.781979 0.584222
0.657298 0.799054 0.709773
0.671611 0.816114 0.83534
0.685908 0.833173 0.960891
0.774868 0.755535 0
0.789166 0.772595 0.12163
0.803479 0.78967 0.247196
0.817777 0.806729 0.372747
0.83209 0.823804 0.498314
0.846387 0.840864 0.62388
0.8607 0.857939 0.749432
0.874998 0.874998 0.874998
0.889296 0.892058 1
0.978256 0.81442 0.0357519
0.992569 0.831479 0.161288
1 0.848554 0.286854
1 0.865614 0.412421
1 0.882689 0.537972
1 0.899748 0.663539
1 0.916823 0.789105
1 0.933883 0.914656
1 0.950942 1
0 0.392416 0
0 0.409476 0
0 0.426535 0
0 0.44361 0.0549172
0 0.46067 0.180468
0 0.477745 0.306035
0 0.494804 0.431601
0 0.511864 0.557153
0 0.528939 0.682719
0 0.451286 0
0 0.468345 0
0 0.48542 0
0 0.50248 0.0945754
0 0.519554 0.220127
0 0.536614 0.345693
0 0.553674 0.47126
0 0.570748 0.596811
0 0.587808 0.722377
0 0.51017 0
0 0.52723 0
0 0.544305 0.00866712
0 0.561364 0.134234
0 0.578439 0.259785
0 0.595499 0.385351
0 0.612558 0.510918
0 0.629633 0.636469
0 0.646693 0.762036
0 0.569055 0
0 0.586114 0
0 0.603189 0.0483253
0 0.620249 0.173892
0 0.637324 0.299458
0 0.654383 0.42501
0 0.671443 0.550576
0 0.688518 0.676143
0 0.705577 0.801694
0.0719921 0.627939 0
0.0862898 0.644999 0
0.100603 0.662074 0.0879835
0.1149 0.679133 0.21355
0.129213 0.696193 0.339117
0.143511 0.713268 0.464668
0.157809 0.730327 0.590234
0.172122 0.747402 0.715801
0.186419 0.764462 0.841352
0.27538 0.686824 0
0.289693 0.703883 0.00209049
0.30399 0.720958 0.127657
0.318288 0.738018 0.253208
0.332601 0.755077 0.378775
0.346899 0.772152 0.504341
0.361212 0.789212 0.629892
0.375509 0.806287 0.755459
0.389822 0.823346 0.881025
0.478782 0.745708 0
0.49308 0.762768 0.0417487
0.507378 0.779843 0.167315
0.521691 0.796902 0.292866
0.535988 0.813962 0.418433
0.550301 0.831037 0.543999
0.564599 0.848096 0.669551
0.578912 0.865171 0.795117
0.59321 0.882231 0.920684
0.68217 0.804593 0
0.696468 0.821653 0.0814069
0.710781 0.838712 0.206973
0.725078 0.855787 0.33254
0.739391 0.872847 0.458091
0.753689 0.889921 0.583658
0.768002 0.906981 0.709224
0.7823 0.924056 0.834775
0.796613 0.941115 0.960342
0.885573 0.863478 0
0.89987 0.880537 0.121065
0.914168 0.897597 0.246632
0.928481 0.914672 0.372198
0.942779 0.931731 0.497749
0.957092 0.948806 0.623316
0.971389 0.965866 0.748882
0.985702 0.98294 0.874434
1 1 1
