public/LUTS/Color Shift/ColorShift_66.cube
TITLE "Generated by Resolve"
LUT_3D_SIZE 5
0 0 0
0.17763 0.0558022 0
0.355276 0.111589 0
0.532937 0.167391 0
0.710582 0.223194 0
0 0.293751 0.236942
0 0.349538 0
0.107866 0.405341 0
0.285512 0.461143 0
0.463157 0.516945 0
0 0.587518 0.473899
0 0.64332 0.208743
0 0.699107 0
0.0380865 0.75491 0
0.215732 0.810712 0
0 0.881285 0.710872
0 0.937087 0.445716
0 0.992874 0.180529
0 1 0
0 1 0
0 1 0.947829
0 1 0.682673
0 1 0.417502
0 1 0.152331
0 1 0
0.319768 0 0.278202
0.497398 0 0.0130465
0.675044 0.0120394 0
0.852689 0.0678416 0
1 0.123629 0
0.0723583 0.194186 0.515145
0.249989 0.249989 0.249989
0.427634 0.305791 0
0.60528 0.361593 0
0.782925 0.41738 0
0 0.487968 0.752102
0.00256352 0.543755 0.486946
0.180209 0.599557 0.221775
0.357855 0.65536 0
0.5355 0.711147 0
0 0.781735 0.989059
0 0.837522 0.723903
0 0.893324 0.458732
0.11043 0.949126 0.193561
0.288075 1 0
0 1 1
0 1 0.960876
0 1 0.695689
0 1 0.430518
0.0406348 1 0.165347
0.639551 0 0.55642
0.817182 0 0.291264
0.994842 0 0.0260929
1 0 0
1 0.0240787 0
0.392142 0.0946365 0.793362
0.569772 0.150423 0.528206
0.747417 0.206226 0.263035
0.925063 0.262028 0
1 0.317815 0
0.144717 0.388403 1
0.322347 0.44419 0.765164
0.499992 0.499992 0.499992
0.677638 0.555795 0.234821
0.855283 0.611597 0
0 0.68217 1
0.0749218 0.737957 1
0.252567 0.793759 0.73695
0.430213 0.849561 0.471778
0.607858 0.905364 0.206607
0 0.975937 1
0 1 1
0.00512703 1 0.973907
0.182788 1 0.708736
0.360433 1 0.443565
0.959335 0 0.834638
1 0 0.569482
1 0 0.304311
1 0 0.0391241
1 0 0
0.711925 0 1
0.889555 0.0508583 0.806424
1 0.106661 0.541253
1 0.162463 0.276081
1 0.218265 0.0109102
0.4645 0.288838 1
0.64213 0.344625 1
0.819776 0.400427 0.77821
0.997421 0.45623 0.513039
1 0.512032 0.247868
0.21706 0.582605 1
0.394705 0.638392 1
0.572351 0.694194 1
0.749996 0.749996 0.749996
0.927642 0.805798 0.484825
0 0.876371 1
0.14728 0.932174 1
0.324926 0.987961 1
0.502571 1 0.986954
0.680217 1 0.721782
1 0 1
1 0 0.8477
1 0 0.582513
1 0 0.317342
1 0 0.0521706
1 0 1
1 0 1
1 0.00709545 0.819471
1 0.0628977 0.554299
1 0.1187 0.289113
0.784283 0.189273 1
0.961913 0.24506 1
1 0.300862 1
1 0.356664 0.791257
1 0.412467 0.526085
0.536858 0.48304 1
0.714488 0.538842 1
0.892134 0.594629 1
1 0.650431 1
1 0.706233 0.763043
0.289418 0.776806 1
0.467063 0.832609 1
0.644709 0.888395 1
0.822354 0.944198 1
1 1 1
