public/LUTS/Color Shift/ColorShift_77.cube
TITLE "Generated by Resolve"
LUT_3D_SIZE 33
0 0 0
0.0492714 0 0.013901
0.098558 0 0.0278172
0.147845 0 0.0417334
0.197131 0 0.0556497
0.246418 0 0.0695659
0.295705 0 0.0834821
0.344991 0 0.0973983
0.394278 0 0.111315
0.443565 0 0.125231
0.492851 0 0.139147
0.542138 0 0.153063
0.591424 0 0.166979
0.640711 0 0.180896
0.690013 0 0.194812
0.7393 0 0.208728
0.788586 0 0.222644
0.837873 0 0.236561
0.88716 0 0.250477
0.936446 0 0.264378
0.985733 0 0.278294
1 0 0.29221
1 0 0.306127
1 0 0.320043
1 0 0.333959
1 0 0.347875
1 0 0.361791
1 0 0.375708
1 0 0.389624
1 0 0.40354
1 0 0.417456
1 0 0.431373
1 0 0.445289
0.00451667 0.033402 0
0.0537728 0.0261997 0
0.103059 0.0189975 0.000488289
0.152346 0.0117952 0.0144045
0.201633 0.00459297 0.0283207
0.250919 0 0.042237
0.300206 0 0.0561379
0.349508 0 0.0700542
0.398795 0 0.0839704
0.448081 0 0.0978866
0.497368 0 0.111803
0.546654 0 0.125719
0.595941 0 0.139635
0.645228 0 0.153552
0.694514 0 0.167468
0.743801 0 0.181384
0.793088 0 0.1953
0.842374 0 0.209216
0.891661 0 0.223133
0.940948 0 0.237049
0.99025 0 0.250965
1 0 0.264881
1 0 0.278798
1 0 0.292714
1 0 0.306615
1 0 0.320531
1 0 0.334447
1 0 0.348363
1 0 0.36228
1 0 0.376196
1 0 0.390112
1 0 0.404028
1 0 0.417945
0.00901808 0.066804 0
0.0582895 0.059617 0
0.107576 0.0524147 0
0.156863 0.0452125 0
0.206149 0.0380102 0.000961318
0.255436 0.030808 0.0148775
0.304723 0.0236057 0.0287938
0.354009 0.0164034 0.04271
0.403296 0.00921645 0.0566262
0.452583 0.00201419 0.0705425
0.501884 0 0.0844587
0.551171 0 0.0983749
0.600458 0 0.112291
0.649744 0 0.126192
0.699031 0 0.140108
0.748318 0 0.154025
0.797604 0 0.167941
0.846891 0 0.181857
0.896178 0 0.195773
0.945464 0 0.209689
0.994751 0 0.223606
1 0 0.237522
1 0 0.251438
1 0 0.265354
1 0 0.279271
1 0 0.293187
1 0 0.307103
1 0 0.321019
1 0 0.334936
1 0 0.348852
1 0 0.362768
1 0 0.376669
1 0 0.390585
0.0135348 0.100221 0
0.0628061 0.0930343 0
0.112093 0.085832 0
0.161379 0.0786297 0
0.210666 0.0714275 0
0.259953 0.0642252 0
0.309239 0.057023 0.00143435
0.358526 0.0498207 0.0153506
0.407813 0.0426184 0.0292668
0.457099 0.0354162 0.043183
0.506386 0.0282292 0.0570993
0.555673 0.0210269 0.0710155
0.604959 0.0138247 0.0849317
0.654261 0.00662242 0.0988479
0.703548 0 0.112764
0.752834 0 0.12668
0.802121 0 0.140597
0.851408 0 0.154513
0.900694 0 0.168429
0.949981 0 0.182345
0.999268 0 0.196246
1 0 0.210163
1 0 0.224079
1 0 0.237995
1 0 0.251911
1 0 0.265827
1 0 0.279744
1 0 0.29366
1 0 0.307576
1 0 0.321492
1 0 0.335409
1 0 0.349325
1 0 0.363241
0.0180514 0.133639 0
0.0673075 0.126436 0
0.116594 0.119234 0
0.165896 0.112032 0
0.215183 0.104845 0
0.264469 0.0976425 0
0.313756 0.0904402 0
0.363043 0.083238 0
0.412329 0.0760357 0.00192264
0.461616 0.0688334 0.0158236
0.510903 0.0616312 0.0297398
0.560189 0.0544289 0.0436561
0.609476 0.0472419 0.0575723
0.658763 0.0400397 0.0714885
0.708049 0.0328374 0.0854047
0.757336 0.0256352 0.099321
0.806638 0.0184329 0.113237
0.855924 0.0112306 0.127153
0.905211 0.00402838 0.14107
0.954498 0 0.154986
1 0 0.168902
1 0 0.182818
1 0 0.196735
1 0 0.210651
1 0 0.224567
1 0 0.238483
1 0 0.252399
1 0 0.2663
1 0 0.280217
1 0 0.294133
1 0 0.308049
1 0 0.321965
1 0 0.335882
0.0225681 0.167056 0
0.0718242 0.159854 0
0.121111 0.152651 0
0.170397 0.145449 0
0.219684 0.138247 0
0.268971 0.131044 0
0.318257 0.123857 0
0.367559 0.116655 0
0.416846 0.109453 0
0.466133 0.102251 0
0.515419 0.0950484 0.00239567
0.564706 0.0878462 0.0163119
0.613993 0.0806439 0.0302281
0.663279 0.0734417 0.0441444
0.712566 0.0662547 0.0580606
0.761852 0.0590524 0.0719768
0.811139 0.0518502 0.0858778
0.860426 0.0446479 0.099794
0.909712 0.0374456 0.11371
0.958999 0.0302434 0.127626
1 0.0230411 0.141543
1 0.0158389 0.155459
1 0.00863661 0.169375
1 0.00144961 0.183291
1 0 0.197208
1 0 0.211124
1 0 0.22504
1 0 0.238956
1 0 0.252872
1 0 0.266789
1 0 0.280705
1 0 0.294621
1 0 0.308537
0.0270695 0.200458 0
0.0763409 0.193271 0
0.125628 0.186069 0
0.174914 0.178866 0
0.224201 0.171664 0
0.273487 0.164462 0
0.322774 0.157259 0
0.372061 0.150057 0
0.421347 0.14287 0
0.470634 0.135668 0
0.519936 0.128466 0
0.569223 0.121263 0
0.618509 0.114061 0.0028687
0.667796 0.106859 0.0167849
0.717083 0.0996567 0.0307012
0.766369 0.0924544 0.0446174
0.815656 0.0852674 0.0585336
0.864942 0.0780652 0.0724498
0.914229 0.0708629 0.0863661
0.963516 0.0636606 0.100282
1 0.0564584 0.114199
1 0.0492561 0.128115
1 0.0420539 0.142031
1 0.0348516 0.155932
1 0.0276493 0.169848
1 0.0204623 0.183764
1 0.0132601 0.197681
1 0.00605783 0.211597
1 0 0.225513
1 0 0.239429
1 0 0.253346
1 0 0.267262
1 0 0.281178
0.0315862 0.233875 0
0.0808576 0.226688 0
0.130144 0.219486 0
0.179431 0.212284 0
0.228717 0.205081 0
0.278004 0.197879 0
0.327291 0.190677 0
0.376577 0.183474 0
0.425864 0.176272 0
0.475151 0.16907 0
0.524437 0.161883 0
0.573724 0.154681 0
0.623011 0.147478 0
0.672312 0.140276 0
0.721599 0.133074 0.00334173
0.770886 0.125872 0.017258
0.820172 0.118669 0.0311742
0.869459 0.111467 0.0450904
0.918746 0.104265 0.0590066
0.968032 0.0970779 0.0729229
1 0.0898756 0.0868391
1 0.0826734 0.100755
1 0.0754711 0.114672
1 0.0682689 0.128588
1 0.0610666 0.142504
1 0.0538643 0.15642
1 0.0466621 0.170336
1 0.0394751 0.184253
1 0.0322728 0.198169
1 0.0250706 0.21207
1 0.0178683 0.225986
1 0.0106661 0.239902
1 0.0034638 0.253819
0.0361028 0.267292 0
0.085359 0.26009 0
0.134646 0.252888 0
0.183948 0.245686 0
0.233234 0.238499 0
0.282521 0.231296 0
0.331807 0.224094 0
0.381094 0.216892 0
0.430381 0.209689 0
0.479667 0.202487 0
0.528954 0.195285 0
0.578241 0.188083 0
0.627527 0.180896 0
0.676814 0.173693 0
0.726101 0.166491 0
0.775387 0.159289 0
0.824689 0.152087 0.00383001
0.873976 0.144884 0.0177462
0.923262 0.137682 0.0316472
0.972549 0.13048 0.0455634
1 0.123278 0.0594797
1 0.116091 0.0733959
1 0.108888 0.0873121
1 0.101686 0.101228
1 0.0944839 0.115145
1 0.0872816 0.129061
1 0.0800793 0.142977
1 0.0728771 0.156893
1 0.0656748 0.170809
1 0.0584878 0.184726
1 0.0512856 0.198642
1 0.0440833 0.212558
1 0.0368811 0.226474
0.0406195 0.30071 0
0.0898756 0.293507 0
0.139162 0.286305 0
0.188449 0.279103 0
0.237736 0.271901 0
0.287022 0.264698 0
0.336324 0.257511 0
0.385611 0.250309 0
0.434897 0.243107 0
0.484184 0.235904 0
0.533471 0.228702 0
0.582757 0.2215 0
0.632044 0.214298 0
0.681331 0.207095 0
0.730617 0.199908 0
0.779904 0.192706 0
0.82919 0.185504 0
0.878477 0.178302 0
0.927764 0.171099 0.00430304
0.977066 0.163897 0.0182193
1 0.156695 0.0321355
1 0.149493 0.0460517
1 0.14229 0.059968
1 0.135103 0.0738842
1 0.127901 0.0878004
1 0.120699 0.101701
1 0.113497 0.115618
1 0.106294 0.129534
1 0.0990921 0.14345
1 0.0918898 0.157366
1 0.0846876 0.171283
1 0.0774853 0.185199
1 0.0702983 0.199115
0.0451209 0.334112 0
0.0943923 0.326925 0
0.143679 0.319722 0
0.192966 0.31252 0
0.242252 0.305318 0
0.291539 0.298116 0
0.340826 0.290913 0
0.390112 0.283711 0
0.439399 0.276524 0
0.488685 0.269322 0
0.537987 0.262119 0
0.587274 0.254917 0
0.636561 0.247715 0
0.685847 0.240513 0
0.735134 0.23331 0
0.784421 0.226108 0
0.833707 0.218906 0
0.882994 0.211719 0
0.93228 0.204517 0
0.981567 0.197314 0
1 0.190112 0.00477607
1 0.18291 0.0186923
1 0.175708 0.0326085
1 0.168505 0.0465248
1 0.161303 0.060441
1 0.154116 0.0743572
1 0.146914 0.0882734
1 0.139712 0.10219
1 0.132509 0.116106
1 0.125307 0.130022
1 0.118105 0.143938
1 0.110903 0.157855
1 0.1037 0.171756
0.0496376 0.367529 0
0.098909 0.360327 0
0.148196 0.35314 0
0.197482 0.345937 0
0.246769 0.338735 0
0.296056 0.331533 0
0.345342 0.324331 0
0.394629 0.317128 0
0.443915 0.309926 0
0.493202 0.302724 0
0.542489 0.295537 0
0.591775 0.288334 0
0.641062 0.281132 0
0.690364 0.27393 0
0.739651 0.266728 0
0.788937 0.259525 0
0.838224 0.252323 0
0.88751 0.245121 0
0.936797 0.237919 0
0.986084 0.230732 0
1 0.223529 0
1 0.216327 0
1 0.209125 0.0052491
1 0.201923 0.0191653
1 0.19472 0.0330816
1 0.187518 0.0469978
1 0.180316 0.060914
1 0.173129 0.0748302
1 0.165927 0.0887465
1 0.158724 0.102663
1 0.151522 0.116579
1 0.14432 0.130495
1 0.137118 0.144411
0.0541543 0.400946 0
0.10341 0.393744 0
0.152697 0.386542 0
0.201999 0.379339 0
0.251286 0.372152 0
0.300572 0.36495 0
0.349859 0.357748 0
0.399145 0.350545 0
0.448432 0.343343 0
0.497719 0.336141 0
0.547005 0.328939 0
0.596292 0.321736 0
0.645579 0.314549 0
0.694865 0.307347 0
0.744152 0.300145 0
0.793439 0.292943 0
0.842741 0.28574 0
0.892027 0.278538 0
0.941314 0.271336 0
0.9906 0.264134 0
1 0.256931 0
1 0.249744 0
1 0.242542 0
1 0.23534 0
1 0.228138 0.00573739
1 0.220935 0.0196536
1 0.213733 0.0335699
1 0.206531 0.0474861
1 0.199329 0.061387
1 0.192126 0.0753033
1 0.184939 0.0892195
1 0.177737 0.103136
1 0.170535 0.117052
0.0586709 0.434363 0
0.107927 0.427161 0
0.157214 0.419959 0
0.2065 0.412757 0
0.255787 0.405554 0
0.305074 0.398352 0
0.354376 0.391165 0
0.403662 0.383963 0
0.452949 0.376761 0
0.502235 0.369558 0
0.551522 0.362356 0
0.600809 0.355154 0
0.650095 0.347951 0
0.699382 0.340749 0
0.748669 0.333547 0
0.797955 0.32636 0
0.847242 0.319158 0
0.896529 0.311955 0
0.945815 0.304753 0
0.995117 0.297551 0
1 0.290349 0
1 0.283146 0
1 0.275944 0
1 0.268757 0
1 0.261555 0
1 0.254353 0
1 0.24715 0.00621042
1 0.239948 0.0201267
1 0.232746 0.0340429
1 0.225544 0.0479591
1 0.218341 0.0618753
1 0.211139 0.0757916
1 0.203952 0.0897078
0.0631723 0.467765 0
0.112444 0.460578 0
0.16173 0.453376 0
0.211017 0.446174 0
0.260304 0.438972 0
0.30959 0.431769 0
0.358877 0.424567 0
0.408164 0.417365 0
0.45745 0.410178 0
0.506737 0.402975 0
0.556039 0.395773 0
0.605325 0.388571 0
0.654612 0.381369 0
0.703899 0.374166 0
0.753185 0.366964 0
0.802472 0.359762 0
0.851759 0.35256 0
0.901045 0.345373 0
0.950332 0.33817 0
0.999619 0.330968 0
1 0.323766 0
1 0.316564 0
1 0.309361 0
1 0.302159 0
1 0.294957 0
1 0.28777 0
1 0.280568 0
1 0.273365 0
1 0.266163 0.00668345
1 0.258961 0.0205997
1 0.251759 0.0345159
1 0.244556 0.0484321
1 0.237354 0.0623484
0.067689 0.501183 0
0.11696 0.49398 0
0.166247 0.486793 0
0.215534 0.479591 0
0.26482 0.472389 0
0.314107 0.465187 0
0.363394 0.457984 0
0.41268 0.450782 0
0.461967 0.44358 0
0.511254 0.436377 0
0.56054 0.429191 0
0.609827 0.421988 0
0.659113 0.414786 0
0.708415 0.407584 0
0.757702 0.400381 0
0.806989 0.393179 0
0.856275 0.385977 0
0.905562 0.378775 0
0.954849 0.371572 0
1 0.364385 0
1 0.357183 0
1 0.349981 0
1 0.342779 0
1 0.335576 0
1 0.328374 0
1 0.321172 0
1 0.31397 0
1 0.306783 0
1 0.29958 0
1 0.292378 0
1 0.285176 0.00717174
1 0.277974 0.0210727
1 0.270771 0.0349889
0.0722057 0.5346 0
0.121462 0.527398 0
0.170748 0.520195 0
0.22005 0.512993 0
0.269337 0.505806 0
0.318624 0.498604 0
0.36791 0.491402 0
0.417197 0.484199 0
0.466484 0.476997 0
0.51577 0.469795 0
0.565057 0.462593 0
0.614343 0.45539 0
0.66363 0.448203 0
0.712917 0.441001 0
0.762203 0.433799 0
0.81149 0.426596 0
0.860792 0.419394 0
0.910079 0.412192 0
0.959365 0.40499 0
1 0.397787 0
1 0.390585 0
1 0.383398 0
1 0.376196 0
1 0.368994 0
1 0.361791 0
1 0.354589 0
1 0.347387 0
1 0.340185 0
1 0.332982 0
1 0.32578 0
1 0.318593 0
1 0.311391 0
1 0.304189 0.00764477
0.0767224 0.568017 0
0.125978 0.560815 0
0.175265 0.553613 0
0.224552 0.54641 0
0.273838 0.539208 0
0.323125 0.532006 0
0.372427 0.524819 0
0.421714 0.517617 0
0.471 0.510414 0
0.520287 0.503212 0
0.569574 0.49601 0
0.61886 0.488807 0
0.668147 0.481605 0
0.717433 0.474403 0
0.76672 0.467201 0
0.816007 0.460014 0
0.865293 0.452811 0
0.91458 0.445609 0
0.963867 0.438407 0
1 0.431205 0
1 0.424002 0
1 0.4168 0
1 0.409598 0
1 0.402411 0
1 0.395209 0
1 0.388006 0
1 0.380804 0
1 0.373602 0
1 0.3664 0
1 0.359197 0
1 0.351995 0
1 0.344793 0
1 0.337606 0
0.0812238 0.601419 0
0.130495 0.594232 0
0.179782 0.58703 0
0.229068 0.579828 0
0.278355 0.572625 0
0.327642 0.565423 0
0.376928 0.558221 0
0.426215 0.551019 0
0.475502 0.543832 0
0.524788 0.536629 0
0.57409 0.529427 0
0.623377 0.522225 0
0.672663 0.515023 0
0.72195 0.50782 0
0.771237 0.500618 0
0.820523 0.493416 0
0.86981 0.486213 0
0.919097 0.479026 0
0.968383 0.471824 0
1 0.464622 0
1 0.45742 0
1 0.450217 0
1 0.443015 0
1 0.435813 0
1 0.428611 0
1 0.421424 0
1 0.414221 0
1 0.407019 0
1 0.399817 0
1 0.392615 0
1 0.385412 0
1 0.37821 0
1 0.371008 0
0.0857404 0.634836 0
0.135012 0.627634 0
0.184298 0.620447 0
0.233585 0.613245 0
0.282872 0.606043 0
0.332158 0.59884 0
0.381445 0.591638 0
0.430732 0.584436 0
0.480018 0.577234 0
0.529305 0.570031 0
0.578592 0.562844 0
0.627878 0.555642 0
0.677165 0.54844 0
0.726467 0.541238 0
0.775753 0.534035 0
0.82504 0.526833 0
0.874327 0.519631 0
0.923613 0.512428 0
0.9729 0.505226 0
1 0.498039 0
1 0.490837 0
1 0.483635 0
1 0.476432 0
1 0.46923 0
1 0.462028 0
1 0.454826 0
1 0.447623 0
1 0.440421 0
1 0.433234 0
1 0.426032 0
1 0.41883 0
1 0.411627 0
1 0.404425 0
0.0902571 0.668254 0
0.139513 0.661051 0
0.1888 0.653849 0
0.238102 0.646647 0
0.287388 0.63946 0
0.336675 0.632258 0
0.385962 0.625055 0
0.435248 0.617853 0
0.484535 0.610651 0
0.533822 0.603449 0
0.583108 0.596246 0
0.632395 0.589044 0
0.681682 0.581842 0
0.730968 0.574655 0
0.780255 0.567452 0
0.829541 0.56025 0
0.878843 0.553048 0
0.92813 0.545846 0
0.977417 0.538643 0
1 0.531441 0
1 0.524239 0
1 0.517052 0
1 0.50985 0
1 0.502647 0
1 0.495445 0
1 0.488243 0
1 0.481041 0
1 0.473838 0
1 0.466636 0
1 0.459434 0
1 0.452247 0
1 0.445045 0
1 0.437842 0
0.0947738 0.701671 0
0.14403 0.694469 0
0.193317 0.687266 0
0.242603 0.680064 0
0.29189 0.672862 0
0.341176 0.66566 0
0.390478 0.658473 0
0.439765 0.65127 0
0.489052 0.644068 0
0.538338 0.636866 0
0.587625 0.629664 0
0.636912 0.622461 0
0.686198 0.615259 0
0.735485 0.608057 0
0.784772 0.600855 0
0.834058 0.593668 0
0.883345 0.586465 0
0.932631 0.579263 0
0.981918 0.572061 0
1 0.564858 0
1 0.557656 0
1 0.550454 0
1 0.543252 0
1 0.536065 0
1 0.528862 0
1 0.52166 0
1 0.514458 0
1 0.507256 0
1 0.500053 0
1 0.492851 0
1 0.485649 0
1 0.478447 0
1 0.47126 0
0.0992752 0.735073 0
0.148547 0.727886 0
0.197833 0.720684 0
0.24712 0.713481 0
0.296407 0.706279 0
0.345693 0.699077 0
0.39498 0.691875 0
0.444266 0.684672 0
0.493553 0.677485 0
0.542855 0.670283 0
0.592142 0.663081 0
0.641428 0.655879 0
0.690715 0.648676 0
0.740001 0.641474 0
0.789288 0.634272 0
0.838575 0.62707 0
0.887861 0.619867 0
0.937148 0.61268 0
0.986435 0.605478 0
1 0.598276 0
1 0.591073 0
1 0.583871 0
1 0.576669 0
1 0.569467 0
1 0.562264 0
1 0.555062 0
1 0.547875 0
1 0.540673 0
1 0.533471 0
1 0.526268 0
1 0.519066 0
1 0.511864 0
1 0.504662 0
0.103792 0.76849 0
0.153063 0.761288 0
0.20235 0.754101 0
0.251637 0.746899 0
0.300923 0.739696 0
0.35021 0.732494 0
0.399496 0.725292 0
0.448783 0.71809 0
0.49807 0.710887 0
0.547356 0.703685 0
0.596643 0.696483 0
0.64593 0.689296 0
0.695216 0.682094 0
0.744518 0.674891 0
0.793805 0.667689 0
0.843091 0.660487 0
0.892378 0.653284 0
0.941665 0.646082 0
0.990951 0.63888 0
1 0.631693 0
1 0.624491 0
1 0.617288 0
1 0.610086 0
1 0.602884 0
1 0.595682 0
1 0.588479 0
1 0.581277 0
1 0.574075 0
1 0.566888 0
1 0.559686 0
1 0.552483 0
1 0.545281 0
1 0.538079 0
0.108309 0.801907 0
0.157565 0.794705 0
0.206851 0.787503 0
0.256153 0.780301 0
0.30544 0.773114 0
0.354726 0.765911 0
0.404013 0.758709 0
0.4533 0.751507 0
0.502586 0.744305 0
0.551873 0.737102 0
0.60116 0.7299 0
0.650446 0.722698 0
0.699733 0.715496 0
0.74902 0.708309 0
0.798306 0.701106 0
0.847593 0.693904 0
0.896895 0.686702 0
0.946181 0.6795 0
0.995468 0.672297 0
1 0.665095 0
1 0.657893 0
1 0.650706 0
1 0.643503 0
1 0.636301 0
1 0.629099 0
1 0.621897 0
1 0.614694 0
1 0.607492 0
1 0.60029 0
1 0.593088 0
1 0.585901 0
1 0.578698 0
1 0.571496 0
0.112825 0.835325 0
0.162081 0.828122 0
0.211368 0.82092 0
0.260655 0.813718 0
0.309941 0.806516 0
0.359228 0.799313 0
0.40853 0.792126 0
0.457816 0.784924 0
0.507103 0.777722 0
0.55639 0.77052 0
0.605676 0.763317 0
0.654963 0.756115 0
0.70425 0.748913 0
0.753536 0.741711 0
0.802823 0.734508 0
0.85211 0.727321 0
0.901396 0.720119 0
0.950683 0.712917 0
0.999969 0.705715 0
1 0.698512 0
1 0.69131 0
1 0.684108 0
1 0.676905 0
1 0.669703 0
1 0.662516 0
1 0.655314 0
1 0.648112 0
1 0.640909 0
1 0.633707 0
1 0.626505 0
1 0.619303 0
1 0.6121 0
1 0.604913 0
0.117327 0.868727 0
0.166598 0.86154 0
0.215885 0.854337 0
0.265171 0.847135 0
0.314458 0.839933 0
0.363745 0.832731 0
0.413031 0.825528 0
0.462318 0.818326 0
0.511604 0.811124 0
0.560906 0.803937 0
0.610193 0.796735 0
0.65948 0.789532 0
0.708766 0.78233 0
0.758053 0.775128 0
0.80734 0.767926 0
0.856626 0.760723 0
0.905913 0.753521 0
0.9552 0.746334 0
1 0.739132 0
1 0.731929 0
1 0.724727 0
1 0.717525 0
1 0.710323 0
1 0.70312 0
1 0.695918 0
1 0.688716 0
1 0.681529 0
1 0.674327 0
1 0.667124 0
1 0.659922 0
1 0.65272 0
1 0.645518 0
1 0.638315 0
0.121843 0.902144 0
0.171115 0.894942 0
0.220401 0.887755 0
0.269688 0.880552 0
0.318975 0.87335 0
0.368261 0.866148 0
0.417548 0.858946 0
0.466835 0.851743 0
0.516121 0.844541 0
