public/LUTS/Color Shift/ColorShift_88.cube
TITLE "Generated by Resolve"
LUT_3D_SIZE 33
0 0 0
0.0069276 0.000991836 0.0489967
0.0138552 0.00198367 0.098024
0.0207828 0.00297551 0.147051
0.0277256 0.00396735 0.196078
0.0346532 0.00495918 0.245106
0.0415808 0.00595102 0.294133
0.0485084 0.00694286 0.34316
0.0554513 0.00793469 0.392203
0.0623789 0.00892653 0.44123
0.0693065 0.00991836 0.490257
0.0762341 0.0109102 0.539284
0.0831769 0.011902 0.588312
0.0901045 0.0128939 0.637339
0.0970321 0.013901 0.686366
0.10396 0.0148928 0.735393
0.110903 0.0158846 0.784421
0.11783 0.0168765 0.833448
0.124758 0.0178683 0.882475
0.131685 0.0188602 0.931502
0.138613 0.019852 0.980529
0.145556 0.0208438 1
0.152483 0.0218357 1
0.159411 0.0228275 1
0.166339 0.0238193 1
0.173281 0.0248112 1
0.180209 0.025803 1
0.187137 0.0267948 1
0.194064 0.0277867 1
0.201007 0.0287785 1
0.207935 0.0297704 1
0.214862 0.0307622 1
0.22179 0.031754 1
0.0681468 0.0113527 0
0.0750744 0.0123445 0.0446937
0.082002 0.0133364 0.0937209
0.0889296 0.0143282 0.142748
0.0958572 0.0153201 0.191775
0.102785 0.0163119 0.240803
0.109728 0.0173037 0.28983
0.116655 0.0182956 0.338857
0.123583 0.0192874 0.387884
0.13051 0.0202792 0.436912
0.137453 0.0212711 0.485939
0.144381 0.0222629 0.534966
0.151308 0.0232548 0.583993
0.158236 0.0242466 0.633021
0.165179 0.0252384 0.682048
0.172107 0.0262303 0.731075
0.179034 0.0272221 0.780102
0.185962 0.0282139 0.829129
0.192889 0.0292058 0.878157
0.199832 0.0301976 0.927184
0.20676 0.0311894 0.976211
0.213687 0.0321813 1
0.220615 0.0331884 1
0.227558 0.0341802 1
0.234485 0.035172 1
0.241413 0.0361639 1
0.248341 0.0371557 1
0.255283 0.0381476 1
0.262211 0.0391394 1
0.269139 0.0401312 1
0.276066 0.0411231 1
0.283009 0.0421149 1
0.289937 0.0431067 1
0.136309 0.0227054 0
0.143236 0.0236973 0.0403754
0.150164 0.0246891 0.0894026
0.157107 0.0256809 0.13843
0.164034 0.0266728 0.187457
0.170962 0.0276646 0.236484
0.17789 0.0286564 0.285512
0.184833 0.0296483 0.334539
0.19176 0.0306401 0.383566
0.198688 0.031632 0.432593
0.205615 0.0326238 0.481621
0.212558 0.0336156 0.530648
0.219486 0.0346075 0.579675
0.226413 0.0355993 0.628702
0.233341 0.0365911 0.677729
0.240269 0.037583 0.726757
0.247211 0.0385748 0.775784
0.254139 0.0395666 0.824811
0.261067 0.0405585 0.873838
0.267994 0.0415503 0.922866
0.274937 0.0425574 0.971893
0.281865 0.0435492 1
0.288792 0.0445411 1
0.29572 0.0455329 1
0.302663 0.0465248 1
0.30959 0.0475166 1
0.316518 0.0485084 1
0.323445 0.0495003 1
0.330388 0.0504921 1
0.337316 0.0514839 1
0.344244 0.0524758 1
0.351171 0.0534676 1
0.358099 0.0544594 1
0.204486 0.0340581 0
0.211414 0.03505 0.0360571
0.218341 0.0360418 0.0850843
0.225269 0.0370336 0.134112
0.232212 0.0380255 0.183139
0.239139 0.0390173 0.232166
0.246067 0.0400092 0.281193
0.252995 0.041001 0.33022
0.259937 0.0419928 0.379248
0.266865 0.0429847 0.428275
0.273793 0.0439765 0.477302
0.28072 0.0449683 0.526329
0.287648 0.0459602 0.575357
0.294591 0.046952 0.624384
0.301518 0.0479438 0.673411
0.308446 0.0489357 0.722438
0.315373 0.0499275 0.771466
0.322316 0.0509194 0.820493
0.329244 0.0519265 0.86952
0.336172 0.0529183 0.918547
0.343099 0.0539101 0.967575
0.350042 0.054902 1
0.35697 0.0558938 1
0.363897 0.0568856 1
0.370825 0.0578775 1
0.377752 0.0588693 1
0.384695 0.0598611 1
0.391623 0.060853 1
0.39855 0.0618448 1
0.405478 0.0628367 1
0.412421 0.0638285 1
0.419348 0.0648203 1
0.426276 0.0658122 1
0.272663 0.0454108 0
0.279591 0.0464027 0.0317388
0.286519 0.0473945 0.080766
0.293446 0.0483864 0.129793
0.300374 0.0493782 0.17882
0.307317 0.05037 0.227848
0.314244 0.0513619 0.276875
0.321172 0.0523537 0.325902
0.328099 0.0533455 0.374929
0.335027 0.0543374 0.423957
0.34197 0.0553292 0.472984
0.348898 0.0563211 0.522011
0.355825 0.0573129 0.571038
0.362753 0.0583047 0.620066
0.369696 0.0592966 0.669093
0.376623 0.0602884 0.71812
0.383551 0.0612802 0.767147
0.390478 0.0622873 0.816175
0.397421 0.0632792 0.865202
0.404349 0.064271 0.914229
0.411276 0.0652628 0.963256
0.418204 0.0662547 1
0.425132 0.0672465 1
0.432074 0.0682383 1
0.439002 0.0692302 1
0.44593 0.070222 1
0.452857 0.0712139 1
0.4598 0.0722057 1
0.466728 0.0731975 1
0.473655 0.0741894 1
0.480583 0.0751812 1
0.487526 0.076173 1
0.494453 0.0771649 1
0.340826 0.0567636 0
0.347753 0.0577554 0.0274205
0.354681 0.0587472 0.0764477
0.361624 0.0597391 0.125475
0.368551 0.0607309 0.174502
0.375479 0.0617227 0.223529
0.382406 0.0627146 0.272557
0.389349 0.0637064 0.321584
0.396277 0.0646983 0.370611
0.403204 0.0656901 0.419638
0.410132 0.0666819 0.468666
0.417075 0.0676738 0.517693
0.424002 0.0686656 0.56672
0.43093 0.0696574 0.615747
0.437858 0.0706493 0.664775
0.4448 0.0716564 0.713802
0.451728 0.0726482 0.762829
0.458656 0.07364 0.811856
0.465583 0.0746319 0.860883
0.472511 0.0756237 0.909911
0.479454 0.0766155 0.958938
0.486381 0.0776074 1
0.493309 0.0785992 1
0.500237 0.0795911 1
0.507179 0.0805829 1
0.514107 0.0815747 1
0.521035 0.0825666 1
0.527962 0.0835584 1
0.534905 0.0845502 1
0.541833 0.0855421 1
0.54876 0.0865339 1
0.555688 0.0875257 1
0.562615 0.0885176 1
0.409003 0.0681163 0
0.41593 0.0691081 0.0230869
0.422858 0.0700999 0.0721294
0.429786 0.0710918 0.121157
0.436728 0.0720836 0.170184
0.443656 0.0730755 0.219211
0.450584 0.0740673 0.268238
0.457511 0.0750591 0.317266
0.464454 0.076051 0.366293
0.471382 0.0770428 0.41532
0.478309 0.0780346 0.464347
0.485237 0.0790265 0.513375
0.49218 0.0800183 0.562402
0.499107 0.0810101 0.611429
0.506035 0.0820172 0.660456
0.512963 0.0830091 0.709484
0.51989 0.0840009 0.758511
0.526833 0.0849928 0.807538
0.533761 0.0859846 0.856565
0.540688 0.0869764 0.905592
0.547616 0.0879683 0.95462
0.554559 0.0889601 1
0.561486 0.0899519 1
0.568414 0.0909438 1
0.575341 0.0919356 1
0.582284 0.0929274 1
0.589212 0.0939193 1
0.596139 0.0949111 1
0.603067 0.0959029 1
0.609995 0.0968948 1
0.616938 0.0978866 1
0.623865 0.0988785 1
0.630793 0.0998703 1
0.47718 0.079469 0
0.484108 0.0804608 0.0187686
0.491035 0.0814527 0.0677958
0.497963 0.0824445 0.116838
0.504891 0.0834363 0.165866
0.511833 0.0844282 0.214893
0.518761 0.08542 0.26392
0.525689 0.0864118 0.312947
0.532616 0.0874037 0.361975
0.539559 0.0883955 0.411002
0.546487 0.0893873 0.460029
0.553414 0.0903792 0.509056
0.560342 0.0913863 0.558083
0.567269 0.0923781 0.607111
0.574212 0.09337 0.656138
0.58114 0.0943618 0.705165
0.588067 0.0953536 0.754192
0.594995 0.0963455 0.80322
0.601938 0.0973373 0.852247
0.608865 0.0983291 0.901274
0.615793 0.099321 0.950301
0.622721 0.100313 0.999329
0.629664 0.101305 1
0.636591 0.102296 1
0.643519 0.103288 1
0.650446 0.10428 1
0.657374 0.105272 1
0.664317 0.106264 1
0.671244 0.107256 1
0.678172 0.108248 1
0.6851 0.109239 1
0.692042 0.110231 1
0.69897 0.111223 1
0.545342 0.0908217 0
0.55227 0.0918135 0.0144503
0.559213 0.0928054 0.0634775
0.56614 0.0937972 0.112505
0.573068 0.094789 0.161532
0.579995 0.0957809 0.210575
0.586923 0.0967727 0.259602
0.593866 0.0977646 0.308629
0.600793 0.0987564 0.357656
0.607721 0.0997482 0.406683
0.614649 0.10074 0.455711
0.621592 0.101747 0.504738
0.628519 0.102739 0.553765
0.635447 0.103731 0.602792
0.642374 0.104723 0.65182
0.649317 0.105715 0.700847
0.656245 0.106706 0.749874
0.663172 0.107698 0.798901
0.6701 0.10869 0.847929
0.677043 0.109682 0.896956
0.68397 0.110674 0.945983
0.690898 0.111666 0.99501
0.697826 0.112657 1
0.704753 0.113649 1
0.711696 0.114641 1
0.718624 0.115633 1
0.725551 0.116625 1
0.732479 0.117617 1
0.739422 0.118608 1
0.746349 0.1196 1
0.753277 0.120592 1
0.760204 0.121584 1
0.767147 0.122576 1
0.613519 0.102174 0
0.620447 0.103166 0.010132
0.627375 0.104158 0.0591592
0.634302 0.10515 0.108186
0.641245 0.106142 0.157214
0.648173 0.107134 0.206241
0.6551 0.108125 0.255283
0.662028 0.109117 0.304311
0.668971 0.110109 0.353338
0.675898 0.111116 0.402365
0.682826 0.112108 0.451392
0.689754 0.1131 0.50042
0.696696 0.114092 0.549447
0.703624 0.115084 0.598474
0.710552 0.116075 0.647501
0.717479 0.117067 0.696529
0.724422 0.118059 0.745556
0.73135 0.119051 0.794583
0.738277 0.120043 0.84361
0.745205 0.121035 0.892638
0.752132 0.122026 0.941665
0.759075 0.123018 0.990692
0.766003 0.12401 1
0.772931 0.125002 1
0.779858 0.125994 1
0.786801 0.126986 1
0.793729 0.127977 1
0.800656 0.128969 1
0.807584 0.129961 1
0.814527 0.130953 1
0.821454 0.131945 1
0.828382 0.132937 1
0.835309 0.133928 1
0.681697 0.113527 0
0.688624 0.114519 0.00581369
0.695552 0.115511 0.0548409
0.70248 0.116503 0.103868
0.709407 0.117494 0.152895
0.71635 0.118486 0.201923
0.723278 0.119478 0.25095
0.730205 0.120485 0.299992
0.737133 0.121477 0.34902
0.744076 0.122469 0.398047
0.751003 0.123461 0.447074
0.757931 0.124453 0.496101
0.764858 0.125444 0.545129
0.771786 0.126436 0.594156
0.778729 0.127428 0.643183
0.785657 0.12842 0.69221
0.792584 0.129412 0.741238
0.799512 0.130404 0.790265
0.806455 0.131395 0.839292
0.813382 0.132387 0.888319
0.82031 0.133379 0.937346
0.827237 0.134371 0.986374
0.83418 0.135363 1
0.841108 0.136355 1
0.848035 0.137346 1
0.854963 0.138338 1
0.861906 0.13933 1
0.868833 0.140322 1
0.875761 0.141314 1
0.882689 0.142306 1
0.889616 0.143297 1
0.896559 0.144289 1
0.903487 0.145281 1
0.749859 0.12488 0
0.756786 0.125872 0.00149538
0.763729 0.126864 0.0505226
0.770657 0.127855 0.0995499
0.777584 0.128847 0.148577
0.784512 0.129839 0.197604
0.791455 0.130846 0.246632
0.798383 0.131838 0.295659
0.80531 0.13283 0.344686
0.812238 0.133822 0.393729
0.819165 0.134813 0.442756
0.826108 0.135805 0.491783
0.833036 0.136797 0.54081
0.839963 0.137789 0.589837
0.846891 0.138781 0.638865
0.853834 0.139773 0.687892
0.860761 0.140764 0.736919
0.867689 0.141756 0.785946
0.874617 0.142748 0.834974
0.881559 0.14374 0.884001
0.888487 0.144732 0.933028
0.895415 0.145724 0.982055
0.902342 0.146715 1
0.909285 0.147707 1
0.916213 0.148699 1
0.92314 0.149691 1
0.930068 0.150683 1
0.936996 0.151675 1
0.943938 0.152667 1
0.950866 0.153658 1
0.957794 0.15465 1
0.964721 0.155657 1
0.971664 0.156649 1
0.818036 0.136233 0
0.824964 0.137224 0
0.831891 0.138216 0.0462043
0.838834 0.139208 0.0952316
0.845762 0.140215 0.144259
0.852689 0.141207 0.193286
0.859617 0.142199 0.242313
0.866545 0.143191 0.291341
0.873487 0.144183 0.340368
0.880415 0.145174 0.389395
0.887343 0.146166 0.438437
0.89427 0.147158 0.487465
0.901213 0.14815 0.536492
0.908141 0.149142 0.585519
0.915068 0.150134 0.634546
0.921996 0.151125 0.683574
0.928939 0.152117 0.732601
0.935866 0.153109 0.781628
0.942794 0.154101 0.830655
0.949722 0.155093 0.879683
0.956649 0.156085 0.92871
0.963592 0.157076 0.977737
0.97052 0.158068 1
0.977447 0.15906 1
0.984375 0.160052 1
0.991318 0.161044 1
0.998245 0.162036 1
1 0.163027 1
1 0.164019 1
1 0.165011 1
1 0.166018 1
1 0.16701 1
1 0.168002 1
0.886213 0.147585 0
0.893141 0.148577 0
0.900069 0.149569 0.041886
0.906996 0.150576 0.0909133
0.913924 0.151568 0.13994
0.920867 0.15256 0.188968
0.927794 0.153552 0.237995
0.934722 0.154543 0.287022
0.941649 0.155535 0.336049
0.948592 0.156527 0.385077
0.95552 0.157519 0.434104
0.962448 0.158511 0.483131
0.969375 0.159503 0.532174
0.976318 0.160494 0.581201
0.983246 0.161486 0.630228
0.990173 0.162478 0.679255
0.997101 0.16347 0.728283
1 0.164462 0.77731
1 0.165454 0.826337
1 0.166445 0.875364
1 0.167437 0.924392
1 0.168429 0.973419
1 0.169421 1
1 0.170413 1
1 0.171405 1
1 0.172396 1
1 0.173388 1
1 0.17438 1
1 0.175387 1
1 0.176379 1
1 0.177371 1
1 0.178363 1
1 0.179355 1
0.954376 0.158953 0
0.961303 0.159945 0
0.968246 0.160937 0.0375677
0.975174 0.161929 0.0865949
0.982101 0.162921 0.135622
0.989029 0.163912 0.184649
0.995972 0.164904 0.233677
1 0.165896 0.282704
1 0.166888 0.331731
1 0.16788 0.380758
1 0.168872 0.429786
1 0.169863 0.478813
1 0.170855 0.52784
1 0.171847 0.576883
1 0.172839 0.62591
1 0.173831 0.674937
1 0.174823 0.723964
1 0.175814 0.772992
1 0.176806 0.822019
1 0.177798 0.871046
1 0.17879 0.920073
1 0.179782 0.9691
1 0.180774 1
1 0.181765 1
1 0.182757 1
1 0.183749 1
1 0.184756 1
1 0.185748 1
1 0.18674 1
1 0.187732 1
1 0.188724 1
1 0.189715 1
1 0.190707 1
1 0.170306 0
1 0.171298 0
1 0.17229 0.0332494
1 0.173281 0.0822766
1 0.174273 0.131304
1 0.175265 0.180331
1 0.176257 0.229358
1 0.177249 0.278386
1 0.178241 0.327413
1 0.179232 0.37644
1 0.180224 0.425467
1 0.181216 0.474495
1 0.182208 0.523522
1 0.1832 0.572549
1 0.184192 0.621592
1 0.185183 0.670619
1 0.186175 0.719646
1 0.187167 0.768673
1 0.188159 0.8177
1 0.189151 0.866728
1 0.190143 0.915755
1 0.191135 0.964782
1 0.192126 1
1 0.193118 1
1 0.19411 1
1 0.195117 1
1 0.196109 1
1 0.197101 1
1 0.198093 1
1 0.199084 1
1 0.200076 1
1 0.201068 1
1 0.20206 1
1 0.181659 0
1 0.18265 0
1 0.183642 0.0289311
1 0.184634 0.0779583
1 0.185626 0.126986
1 0.186618 0.176013
1 0.18761 0.22504
1 0.188602 0.274067
1 0.189593 0.323095
1 0.190585 0.372122
1 0.191577 0.421149
1 0.192569 0.470176
1 0.193561 0.519203
1 0.194553 0.568231
1 0.195544 0.617258
1 0.196536 0.666285
1 0.197528 0.715328
1 0.19852 0.764355
1 0.199512 0.813382
1 0.200504 0.862409
1 0.201495 0.911437
1 0.202487 0.960464
1 0.203479 1
1 0.204486 1
1 0.205478 1
1 0.20647 1
1 0.207462 1
1 0.208453 1
1 0.209445 1
1 0.210437 1
1 0.211429 1
1 0.212421 1
1 0.213413 1
1 0.193011 0
1 0.194003 0
1 0.194995 0.0246128
1 0.195987 0.07364
1 0.196979 0.122667
1 0.197971 0.171695
1 0.198962 0.220722
1 0.199954 0.269749
1 0.200946 0.318776
1 0.201938 0.367803
1 0.20293 0.416831
1 0.203922 0.465858
1 0.204913 0.514885
1 0.205905 0.563912
1 0.206897 0.61294
1 0.207889 0.661967
1 0.208881 0.710994
1 0.209873 0.760021
1 0.210864 0.809064
1 0.211856 0.858091
1 0.212848 0.907118
1 0.21384 0.956146
1 0.214847 1
1 0.215839 1
1 0.216831 1
1 0.217823 1
1 0.218814 1
1 0.219806 1
1 0.220798 1
1 0.22179 1
1 0.222782 1
1 0.223774 1
1 0.224765 1
1 0.204364 0
1 0.205356 0
1 0.206348 0.0202945
1 0.20734 0.0693217
1 0.208331 0.118349
1 0.209323 0.167376
1 0.210315 0.216403
1 0.211307 0.265431
1 0.212299 0.314458
1 0.213291 0.363485
1 0.214282 0.412512
1 0.215274 0.46154
1 0.216266 0.510567
1 0.217258 0.559594
1 0.21825 0.608621
1 0.219242 0.657649
1 0.220233 0.706676
1 0.221225 0.755703
1 0.222217 0.80473
1 0.223209 0.853773
1 0.224216 0.9028
1 0.225208 0.951827
1 0.2262 1
1 0.227192 1
1 0.228183 1
1 0.229175 1
1 0.230167 1
1 0.231159 1
1 0.232151 1
1 0.233143 1
1 0.234134 1
1 0.235126 1
1 0.236118 1
1 0.215717 0
1 0.216709 0
1 0.2177 0.0159762
1 0.218692 0.0650034
1 0.219684 0.114031
1 0.220676 0.163058
1 0.221668 0.212085
1 0.22266 0.261112
1 0.223651 0.31014
1 0.224643 0.359167
1 0.225635 0.408194
1 0.226627 0.457221
1 0.227619 0.506249
1 0.228611 0.555276
1 0.229603 0.604303
1 0.230594 0.65333
1 0.231586 0.702358
1 0.232578 0.751385
1 0.23357 0.800412
1 0.234577 0.849439
1 0.235569 0.898466
1 0.236561 0.947509
1 0.237552 0.996536
1 0.238544 1
1 0.239536 1
1 0.240528 1
1 0.24152 1
1 0.242512 1
1 0.243503 1
1 0.244495 1
1 0.245487 1
1 0.246479 1
1 0.247471 1
1 0.22707 0
1 0.228061 0
1 0.229053 0.0116579
1 0.230045 0.0606851
1 0.231037 0.109712
1 0.232029 0.15874
1 0.233021 0.207767
1 0.234012 0.256794
1 0.235004 0.305821
1 0.235996 0.354849
1 0.236988 0.403876
1 0.23798 0.452903
1 0.238972 0.50193
1 0.239963 0.550958
1 0.240955 0.599985
1 0.241947 0.649012
1 0.242939 0.698039
1 0.243946 0.747066
1 0.244938 0.796094
1 0.24593 0.845121
1 0.246921 0.894148
1 0.247913 0.943175
1 0.248905 0.992203
1 0.249897 1
1 0.250889 1
1 0.251881 1
1 0.252872 1
1 0.253864 1
1 0.254856 1
1 0.255848 1
1 0.25684 1
1 0.257832 1
1 0.258824 1
1 0.238422 0
1 0.239414 0
1 0.240406 0.00733959
1 0.241398 0.0563668
1 0.24239 0.105394
1 0.243381 0.154421
1 0.244373 0.203449
1 0.245365 0.252476
1 0.246357 0.301503
1 0.247349 0.35053
1 0.248341 0.399558
1 0.249332 0.448585
1 0.250324 0.497612
1 0.251316 0.546639
1 0.252308 0.595666
1 0.253315 0.644694
1 0.254307 0.693721
1 0.255299 0.742748
1 0.256291 0.791775
1 0.257282 0.840803
1 0.258274 0.88983
1 0.259266 0.938857
1 0.260258 0.987884
1 0.26125 1
1 0.262242 1
1 0.263233 1
1 0.264225 1
1 0.265217 1
1 0.266209 1
1 0.267201 1
1 0.268193 1
1 0.269184 1
1 0.270176 1
1 0.249775 0
1 0.250767 0
1 0.251759 0.00302129
1 0.25275 0.0520485
1 0.253742 0.101076
1 0.254734 0.150103
1 0.255726 0.19913
1 0.256718 0.248157
1 0.25771 0.297185
1 0.258701 0.346212
1 0.259693 0.395239
1 0.260685 0.444266
1 0.261677 0.493294
1 0.262669 0.542321
1 0.263676 0.591348
1 0.264668 0.640375
1 0.26566 0.689403
1 0.266651 0.73843
1 0.267643 0.787457
1 0.268635 0.836484
1 0.269627 0.885512
1 0.270619 0.934539
1 0.271611 0.983566
1 0.272602 1
1 0.273594 1
1 0.274586 1
1 0.275578 1
1 0.27657 1
1 0.277562 1
1 0.278553 1
1 0.279545 1
1 0.280537 1
1 0.281529 1
1 0.261128 0
1 0.262119 0
1 0.263111 0
1 0.264103 0.0477302
1 0.265095 0.0967575
1 0.266087 0.145785
1 0.267079 0.194812
1 0.26807 0.243839
1 0.269062 0.292866
1 0.270054 0.341894
1 0.271046 0.390921
1 0.272038 0.439948
1 0.273045 0.488975
1 0.274037 0.538003
1 0.275029 0.58703
1 0.27602 0.636057
1 0.277012 0.685084
1 0.278004 0.734112
1 0.278996 0.783139
1 0.279988 0.832166
1 0.28098 0.881193
1 0.281971 0.93022
1 0.282963 0.979248
1 0.283955 1
1 0.284947 1
1 0.285939 1
1 0.286931 1
1 0.287922 1
1 0.288914 1
1 0.289906 1
1 0.290898 1
1 0.29189 1
1 0.292882 1
1 0.27248 0
1 0.273472 0
1 0.274464 0
1 0.275456 0.0434119
1 0.276448 0.0924392
1 0.27744 0.141466
1 0.278431 0.190494
1 0.279423 0.239521
1 0.280415 0.288548
1 0.281407 0.337575
1 0.282399 0.386603
1 0.283406 0.43563
1 0.284398 0.484657
1 0.285389 0.533684
1 0.286381 0.582712
1 0.287373 0.631739
1 0.288365 0.680766
1 0.289357 0.729793
1 0.290349 0.77882
1 0.291341 0.827848
1 0.292332 0.876875
1 0.293324 0.925902
1 0.294316 0.974929
1 0.295308 1
1 0.2963 1
1 0.297292 1
1 0.298283 1
1 0.299275 1
1 0.300267 1
1 0.301259 1
1 0.302251 1
1 0.303243 1
1 0.304234 1
1 0.283833 0
1 0.284825 0
1 0.285817 0
1 0.286809 0.0390936
1 0.2878 0.0881208
1 0.288792 0.137148
1 0.289784 0.186175
1 0.290776 0.235203
1 0.291768 0.28423
1 0.292775 0.333257
1 0.293767 0.382284
1 0.294759 0.431312
1 0.29575 0.480339
1 0.296742 0.529366
1 0.297734 0.578393
1 0.298726 0.62742
1 0.299718 0.676448
1 0.30071 0.725475
1 0.301701 0.774502
1 0.302693 0.823529
1 0.303685 0.872557
1 0.304677 0.921584
1 0.305669 0.970611
1 0.306661 1
1 0.307652 1
1 0.308644 1
1 0.309636 1
1 0.310628 1
1 0.31162 1
1 0.312612 1
1 0.313603 1
1 0.314595 1
1 0.315587 1
1 0.295186 0
1 0.296178 0
1 0.297169 0
1 0.298161 0.0347753
1 0.299153 0.0838026
1 0.300145 0.13283
1 0.301137 0.181857
1 0.302129 0.230884
1 0.303136 0.279911
1 0.304128 0.328939
1 0.305119 0.377966
1 0.306111 0.426993
1 0.307103 0.47602
1 0.308095 0.525048
1 0.309087 0.574075
1 0.310079 0.623102
1 0.31107 0.672129
1 0.312062 0.721157
1 0.313054 0.770184
1 0.314046 0.819211
1 0.315038 0.868238
1 0.31603 0.917266
1 0.317021 0.966293
1 0.318013 1
1 0.319005 1
1 0.319997 1
1 0.320989 1
1 0.321981 1
1 0.322972 1
1 0.323964 1
1 0.324956 1
1 0.325948 1
1 0.32694 1
1 0.306538 0
1 0.30753 0
1 0.308522 0
1 0.309514 0.030457
1 0.310506 0.0794842
1 0.311498 0.128511
1 0.312505 0.177539
1 0.313497 0.226566
1 0.314488 0.275593
