public/LUTS/Color Shift/ColorShift_35.cube
TITLE "Generated by Resolve"
LUT_3D_SIZE 33
0 0 0
0.0161593 0.000717174 0.029633
0.0323339 0.00141909 0.0592966
0.0484932 0.00213626 0.0889448
0.0646677 0.00285344 0.118608
0.080827 0.00355535 0.148257
0.0970016 0.00427253 0.17792
0.113161 0.0049897 0.207568
0.129335 0.00569162 0.237217
0.145495 0.00640879 0.26688
0.161669 0.00712596 0.296529
0.177844 0.00782788 0.326192
0.194003 0.00854505 0.35584
0.210178 0.00926223 0.385489
0.226337 0.00996414 0.415152
0.242512 0.0106813 0.4448
0.258671 0.0113985 0.474464
0.274846 0.0121004 0.504112
0.291005 0.0128176 0.533761
0.307179 0.0135348 0.563424
0.323339 0.0142367 0.593072
0.339513 0.0149538 0.622736
0.355688 0.015671 0.652384
0.371847 0.0163729 0.682033
0.388022 0.0170901 0.711696
0.404181 0.0178073 0.741344
0.420356 0.0185092 0.771008
0.436515 0.0192264 0.800656
0.452689 0.0199435 0.83032
0.468849 0.0206455 0.859968
0.485023 0.0213626 0.889616
0.501183 0.0220798 0.91928
0.517357 0.0227817 0.948928
0.0414435 0.019089 0
0.0576028 0.0198062 0.0274205
0.0737621 0.0205081 0.0570687
0.0899367 0.0212253 0.0867323
0.106096 0.0219425 0.116381
0.122271 0.0226444 0.146044
0.13843 0.0233616 0.175692
0.154604 0.0240787 0.205341
0.170764 0.0247807 0.235004
0.186938 0.0254978 0.264652
0.203098 0.026215 0.294316
0.219272 0.0269169 0.323964
0.235447 0.0276341 0.353613
0.251606 0.0283513 0.383276
0.267781 0.0290532 0.412924
0.28394 0.0297704 0.442588
0.300114 0.0304875 0.472236
0.316274 0.0311894 0.5019
0.332448 0.0319066 0.531548
0.348608 0.0326238 0.561196
0.364782 0.0333257 0.59086
0.380957 0.0340429 0.620508
0.397116 0.0347601 0.650172
0.413291 0.035462 0.67982
0.42945 0.0361791 0.709468
0.445624 0.0368963 0.739132
0.461784 0.0375982 0.76878
0.477958 0.0383154 0.798444
0.494118 0.0390326 0.828092
0.510292 0.0397498 0.85774
0.526452 0.0404517 0.887404
0.542626 0.0411688 0.917052
0.558801 0.041886 0.946715
0.082887 0.0381933 0
0.0990463 0.0388952 0.0251926
0.115221 0.0396124 0.0548562
0.131395 0.0403296 0.0845045
0.147555 0.0410315 0.114168
0.163729 0.0417487 0.143816
0.179889 0.0424659 0.173465
0.196063 0.0431678 0.203128
0.212222 0.0438849 0.232776
0.228397 0.0446021 0.26244
0.244556 0.045304 0.292088
0.260731 0.0460212 0.321736
0.27689 0.0467384 0.3514
0.293065 0.0474403 0.381048
0.309239 0.0481575 0.410712
0.325399 0.0488746 0.44036
0.341573 0.0495766 0.470024
0.357733 0.0502937 0.499672
0.373907 0.0510109 0.52932
0.390066 0.0517128 0.558984
0.406241 0.05243 0.588632
0.4224 0.0531472 0.618296
0.438575 0.0538491 0.647944
0.454734 0.0545663 0.677592
0.470909 0.0552834 0.707256
0.487083 0.0559854 0.736904
0.503243 0.0567025 0.766567
0.519417 0.0574197 0.796216
0.535576 0.0581216 0.825864
0.551751 0.0588388 0.855528
0.56791 0.059556 0.885176
0.584085 0.0602579 0.914839
0.600244 0.0609751 0.944488
0.124346 0.0572824 0
0.140505 0.0579995 0.0229801
0.15668 0.0587167 0.0526284
0.172839 0.0594186 0.0822919
0.189014 0.0601358 0.11194
0.205173 0.060853 0.141588
0.221347 0.0615549 0.171252
0.237522 0.0622721 0.2009
0.253681 0.0629892 0.230564
0.269856 0.0636912 0.260212
0.286015 0.0644083 0.289876
0.30219 0.0651255 0.319524
0.318349 0.0658274 0.349172
0.334524 0.0665446 0.378836
0.350683 0.0672618 0.408484
0.366857 0.0679637 0.438148
0.383017 0.0686809 0.467796
0.399191 0.069398 0.497444
0.415366 0.0700999 0.527108
0.431525 0.0708171 0.556756
0.4477 0.0715343 0.586419
0.463859 0.0722362 0.616068
0.480034 0.0729534 0.645716
0.496193 0.0736706 0.67538
0.512367 0.0743725 0.705028
0.528527 0.0750896 0.734691
0.544701 0.0758068 0.76434
0.560876 0.0765087 0.793988
0.577035 0.0772259 0.823651
0.59321 0.0779431 0.8533
0.609369 0.078645 0.882963
0.625544 0.0793622 0.912612
0.641703 0.0800793 0.942275
0.165805 0.0763867 0
0.181964 0.0771038 0.0207523
0.198138 0.0778058 0.0504158
0.214298 0.0785229 0.0800641
0.230472 0.0792401 0.109712
0.246632 0.079942 0.139376
0.262806 0.0806592 0.169024
0.278965 0.0813764 0.198688
0.29514 0.0820783 0.228336
0.311315 0.0827955 0.258
0.327474 0.0835126 0.287648
0.343648 0.0842145 0.317296
0.359808 0.0849317 0.34696
0.375982 0.0856489 0.376608
0.392142 0.0863508 0.406271
0.408316 0.087068 0.43592
0.424475 0.0877852 0.465568
0.44065 0.0884871 0.495232
0.456809 0.0892042 0.52488
0.472984 0.0899214 0.554543
0.489158 0.0906233 0.584192
0.505318 0.0913405 0.61384
0.521492 0.0920577 0.643503
0.537652 0.0927596 0.673152
0.553826 0.0934768 0.702815
0.569986 0.0941939 0.732464
0.58616 0.0948959 0.762112
0.602319 0.095613 0.791775
0.618494 0.0963302 0.821424
0.634653 0.0970321 0.851087
0.650828 0.0977493 0.880735
0.667002 0.0984665 0.910399
0.683162 0.0991684 0.940047
0.207263 0.095491 0
0.223423 0.0961929 0.0185397
0.239597 0.09691 0.048188
0.255756 0.0976272 0.0778515
0.271931 0.0983291 0.1075
0.28809 0.0990463 0.137148
0.304265 0.0997635 0.166812
0.320424 0.100465 0.19646
0.336599 0.101183 0.226123
0.352758 0.1019 0.255772
0.368933 0.102602 0.28542
0.385092 0.103319 0.315084
0.401266 0.104036 0.344732
0.417441 0.104738 0.374395
0.4336 0.105455 0.404044
0.449775 0.106172 0.433692
0.465934 0.106874 0.463355
0.482109 0.107591 0.493004
0.498268 0.108309 0.522667
0.514443 0.10901 0.552316
0.530602 0.109728 0.581964
0.546777 0.110445 0.611627
0.562936 0.111147 0.641276
0.57911 0.111864 0.670939
0.595285 0.112581 0.700587
0.611444 0.113283 0.730251
0.627619 0.114 0.759899
0.643778 0.114717 0.789548
0.659953 0.115419 0.819211
0.676112 0.116136 0.848859
0.692287 0.116854 0.878523
0.708446 0.117556 0.908171
0.72462 0.118273 0.937819
0.248722 0.11458 0
0.264881 0.115297 0.0163119
0.281041 0.116014 0.0459754
0.297215 0.116716 0.0756237
0.313375 0.117433 0.105272
0.329549 0.118151 0.134936
0.345724 0.118853 0.164584
0.361883 0.11957 0.194247
0.378058 0.120287 0.223896
0.394217 0.120989 0.253544
0.410391 0.121706 0.283207
0.426551 0.122423 0.312856
0.442725 0.123125 0.342519
0.458885 0.123842 0.372168
0.475059 0.124559 0.401816
0.491234 0.125261 0.431479
0.507393 0.125978 0.461128
0.523568 0.126696 0.490791
0.539727 0.127398 0.520439
0.555901 0.128115 0.550088
0.572061 0.128832 0.579751
0.588235 0.129534 0.6094
0.604395 0.130251 0.639063
0.620569 0.130968 0.668711
0.636728 0.13167 0.698375
0.652903 0.132387 0.728023
0.669078 0.133104 0.757671
0.685237 0.133806 0.787335
0.701411 0.134524 0.816983
0.717571 0.135241 0.846647
0.733745 0.135943 0.876295
0.749905 0.13666 0.905943
0.766079 0.137377 0.935607
0.290181 0.133684 0
0.30634 0.134401 0.0140993
0.322499 0.135103 0.0437476
0.338674 0.135821 0.0733959
0.354833 0.136538 0.103059
0.371008 0.13724 0.132708
0.387167 0.137957 0.162371
0.403342 0.138674 0.19202
0.419516 0.139376 0.221668
0.435676 0.140093 0.251331
0.45185 0.14081 0.28098
0.468009 0.141512 0.310643
0.484184 0.142229 0.340291
0.500343 0.142947 0.36994
0.516518 0.143648 0.399603
0.532677 0.144366 0.429252
0.548852 0.145083 0.458915
0.565011 0.145785 0.488563
0.581186 0.146502 0.518227
0.59736 0.147219 0.547875
0.613519 0.147921 0.577523
0.629694 0.148638 0.607187
0.645853 0.149355 0.636835
0.662028 0.150057 0.666499
0.678187 0.150774 0.696147
0.694362 0.151492 0.725795
0.710521 0.152193 0.755459
0.726696 0.152911 0.785107
0.742855 0.153628 0.814771
0.75903 0.15433 0.844419
0.775204 0.155047 0.874067
0.791363 0.155764 0.903731
0.807538 0.156466 0.933379
0.33164 0.152789 0
0.347799 0.15349 0.0118715
0.363958 0.154208 0.0415198
0.380133 0.154925 0.0711833
0.396292 0.155627 0.100832
0.412467 0.156344 0.130495
0.428626 0.157061 0.160143
0.4448 0.157763 0.189792
0.46096 0.15848 0.219455
0.477134 0.159197 0.249104
0.493294 0.159899 0.278767
0.509468 0.160616 0.308415
0.525643 0.161334 0.338064
0.541802 0.162036 0.367727
0.557977 0.162753 0.397375
0.574136 0.16347 0.427039
0.590311 0.164172 0.456687
0.60647 0.164889 0.486351
0.622644 0.165606 0.515999
0.638804 0.166308 0.545647
0.654978 0.167025 0.575311
0.671153 0.167742 0.604959
0.687312 0.168444 0.634623
0.703487 0.169162 0.664271
0.719646 0.169879 0.693919
0.735821 0.170581 0.723583
0.75198 0.171298 0.753231
0.768154 0.172015 0.782895
0.784314 0.172717 0.812543
0.800488 0.173434 0.842191
0.816648 0.174151 0.871855
0.832822 0.174853 0.901503
0.848997 0.17557 0.931167
0.373083 0.171878 0
0.389242 0.172595 0.0096437
0.405417 0.173312 0.0393072
0.421576 0.174014 0.0689555
0.437751 0.174731 0.0986191
0.453925 0.175448 0.128267
0.470085 0.17615 0.157916
0.486259 0.176867 0.187579
0.502419 0.177584 0.217227
0.518593 0.178286 0.246891
0.534752 0.179004 0.276539
0.550927 0.179721 0.306203
0.567086 0.180423 0.335851
0.583261 0.18114 0.365499
0.599435 0.181857 0.395163
0.615595 0.182559 0.424811
0.631769 0.183276 0.454475
0.647929 0.183993 0.484123
0.664103 0.184695 0.513771
0.680262 0.185412 0.543435
0.696437 0.18613 0.573083
0.712596 0.186831 0.602747
0.728771 0.187549 0.632395
0.74493 0.188266 0.662043
0.761105 0.188968 0.691707
0.777279 0.189685 0.721355
0.793439 0.190402 0.751019
0.809613 0.191104 0.780667
0.825772 0.191821 0.810315
0.841947 0.192538 0.839979
0.858106 0.19324 0.869627
0.874281 0.193957 0.89929
0.89044 0.194675 0.928939
0.414542 0.190982 0
0.430701 0.191699 0.00743114
0.446876 0.192401 0.0370794
0.463035 0.193118 0.066743
0.47921 0.193835 0.0963912
0.495369 0.194537 0.12604
0.511543 0.195254 0.155703
0.527718 0.195972 0.185351
0.543877 0.196674 0.215015
0.560052 0.197391 0.244663
0.576211 0.198108 0.274327
0.592386 0.19881 0.303975
0.608545 0.199527 0.333623
0.62472 0.200244 0.363287
0.640879 0.200946 0.392935
0.657053 0.201663 0.422599
0.673213 0.20238 0.452247
0.689387 0.203082 0.481895
0.705562 0.2038 0.511559
0.721721 0.204517 0.541207
0.737896 0.205219 0.570871
0.754055 0.205936 0.600519
0.77023 0.206653 0.630167
0.786389 0.207355 0.659831
0.802563 0.208072 0.689479
0.818723 0.208789 0.719142
0.834897 0.209491 0.748791
0.851072 0.210208 0.778439
0.867231 0.210925 0.808103
0.883406 0.211627 0.837751
0.899565 0.212345 0.867414
0.91574 0.213062 0.897063
0.931899 0.213764 0.926726
0.456001 0.210086 0
0.47216 0.210788 0.00520333
0.488334 0.211505 0.0348669
0.504494 0.212222 0.0645151
0.520668 0.212924 0.0941787
0.536828 0.213642 0.123827
0.553002 0.214359 0.153475
0.569162 0.215061 0.183139
0.585336 0.215778 0.212787
0.601495 0.216495 0.242451
0.61767 0.217197 0.272099
0.633844 0.217914 0.301747
0.650004 0.218631 0.331411
0.666178 0.219333 0.361059
0.682338 0.22005 0.390723
0.698512 0.220768 0.420371
0.714672 0.221469 0.450019
0.730846 0.222187 0.479683
0.747005 0.222904 0.509331
0.76318 0.223606 0.538994
0.779355 0.224323 0.568643
0.795514 0.22504 0.598291
0.811688 0.225742 0.627955
0.827848 0.226459 0.657603
0.844022 0.227176 0.687266
0.860182 0.227878 0.716915
0.876356 0.228595 0.746578
0.892515 0.229313 0.776226
0.90869 0.230015 0.805875
0.924849 0.230732 0.835538
0.941024 0.231449 0.865187
0.957198 0.232151 0.89485
0.973358 0.232868 0.924498
0.497459 0.229175 0
0.513619 0.229892 0.00299077
0.529793 0.230594 0.032639
0.545953 0.231312 0.0623026
0.562127 0.232029 0.0919509
0.578286 0.232731 0.121599
0.594461 0.233448 0.151263
0.61062 0.234165 0.180911
0.626795 0.234882 0.210575
0.642954 0.235584 0.240223
0.659129 0.236301 0.269871
0.675288 0.237018 0.299535
0.691463 0.23772 0.329183
0.707637 0.238437 0.358846
0.723796 0.239155 0.388495
0.739971 0.239857 0.418143
0.75613 0.240574 0.447807
0.772305 0.241291 0.477455
0.788464 0.241993 0.507118
0.804639 0.24271 0.536767
0.820798 0.243427 0.566415
0.836973 0.244129 0.596078
0.853132 0.244846 0.625727
0.869307 0.245563 0.65539
0.885481 0.246265 0.685039
0.90164 0.246983 0.714702
0.917815 0.2477 0.74435
0.933974 0.248402 0.773999
0.950149 0.249119 0.803662
0.966308 0.249836 0.83331
0.982483 0.250538 0.862974
0.998642 0.251255 0.892622
1 0.251972 0.922271
0.538918 0.24828 0
0.555077 0.248981 0.000762951
0.571237 0.249699 0.0304265
0.587411 0.250416 0.0600748
0.603571 0.251118 0.0897231
0.619745 0.251835 0.119387
0.63592 0.252552 0.149035
0.652079 0.253254 0.178698
0.668254 0.253971 0.208347
0.684413 0.254688 0.237995
0.700587 0.255406 0.267659
0.716747 0.256107 0.297307
0.732921 0.256825 0.32697
0.749081 0.257542 0.356619
0.765255 0.258244 0.386267
0.781415 0.258961 0.41593
0.797589 0.259678 0.445579
0.813764 0.26038 0.475242
0.829923 0.261097 0.504891
0.846098 0.261814 0.534554
0.862257 0.262516 0.564202
0.878431 0.263233 0.593851
0.894591 0.263951 0.623514
0.910765 0.264652 0.653162
0.926925 0.26537 0.682826
0.943099 0.266087 0.712474
0.959274 0.266789 0.742123
0.975433 0.267506 0.771786
0.991608 0.268223 0.801434
1 0.268925 0.831098
1 0.269642 0.860746
1 0.270359 0.890394
1 0.271061 0.920058
0.580377 0.267369 0
0.596536 0.268086 0
0.612696 0.268803 0.0281987
0.62887 0.269505 0.057847
0.645029 0.270222 0.0875105
0.661204 0.270939 0.117159
0.677363 0.271641 0.146822
0.693538 0.272358 0.176471
0.709712 0.273075 0.206119
0.725872 0.273777 0.235782
0.742046 0.274495 0.265431
0.758206 0.275212 0.295094
0.77438 0.275914 0.324742
0.790539 0.276631 0.354391
0.806714 0.277348 0.384054
0.822873 0.278065 0.413703
0.839048 0.278767 0.443366
0.855207 0.279484 0.473014
0.871382 0.280201 0.502678
0.887556 0.280903 0.532326
0.903716 0.281621 0.561975
0.91989 0.282338 0.591638
0.936049 0.28304 0.621286
0.952224 0.283757 0.65095
0.968383 0.284474 0.680598
0.984558 0.285176 0.710246
1 0.285893 0.73991
1 0.28661 0.769558
1 0.287312 0.799222
1 0.288029 0.82887
1 0.288746 0.858518
1 0.289448 0.888182
1 0.290166 0.91783
0.621836 0.286473 0
0.637995 0.28719 0
0.654154 0.287892 0.0259709
0.670329 0.288609 0.0556344
0.686488 0.289326 0.0852827
0.702663 0.290028 0.114946
0.718822 0.290745 0.144594
0.734997 0.291463 0.174243
0.751156 0.292165 0.203906
0.76733 0.292882 0.233555
0.78349 0.293599 0.263218
0.799664 0.294301 0.292866
0.815839 0.295018 0.32253
0.831998 0.295735 0.352178
0.848173 0.296437 0.381826
0.864332 0.297154 0.41149
0.880507 0.297871 0.441138
0.896666 0.298589 0.470802
0.91284 0.29929 0.50045
0.929 0.300008 0.530098
0.945174 0.300725 0.559762
0.961334 0.301427 0.58941
0.977508 0.302144 0.619074
0.993683 0.302861 0.648722
1 0.303563 0.67837
1 0.30428 0.708034
1 0.304997 0.737682
1 0.305699 0.767346
1 0.306416 0.796994
1 0.307134 0.826642
1 0.307836 0.856306
1 0.308553 0.885954
1 0.30927 0.915618
0.663279 0.305577 0
0.679438 0.306279 0
0.695613 0.306996 0.0237583
0.711772 0.307713 0.0534066
0.727947 0.308415 0.0830701
0.744121 0.309133 0.112718
0.760281 0.30985 0.142367
0.776455 0.310552 0.17203
0.792615 0.311269 0.201678
0.808789 0.311986 0.231342
0.824948 0.312688 0.26099
0.841123 0.313405 0.290654
0.857282 0.314122 0.320302
0.873457 0.314824 0.34995
0.889632 0.315541 0.379614
0.905791 0.316258 0.409262
0.921965 0.31696 0.438926
0.938125 0.317678 0.468574
0.954299 0.318395 0.498222
0.970459 0.319097 0.527886
0.986633 0.319814 0.557534
1 0.320531 0.587198
1 0.321248 0.616846
1 0.32195 0.646494
1 0.322667 0.676158
1 0.323384 0.705806
1 0.324086 0.73547
1 0.324804 0.765118
1 0.325521 0.794781
1 0.326223 0.82443
1 0.32694 0.854078
1 0.327657 0.883741
1 0.328359 0.91339
0.704738 0.324666 0
0.720897 0.325383 0
0.737072 0.326101 0.0215305
0.753231 0.326802 0.051194
0.769406 0.32752 0.0808423
0.785565 0.328237 0.110506
0.80174 0.328939 0.140154
0.817914 0.329656 0.169802
0.834073 0.330373 0.199466
0.850248 0.331075 0.229114
0.866407 0.331792 0.258778
0.882582 0.332509 0.288426
0.898741 0.333211 0.318074
0.914916 0.333928 0.347738
0.931075 0.334646 0.377386
0.94725 0.335348 0.40705
0.963409 0.336065 0.436698
0.979583 0.336782 0.466346
0.995758 0.337484 0.49601
1 0.338201 0.525658
1 0.338918 0.555322
1 0.33962 0.58497
1 0.340337 0.614618
1 0.341054 0.644282
1 0.341772 0.67393
1 0.342473 0.703593
1 0.343191 0.733242
1 0.343908 0.762905
1 0.34461 0.792554
1 0.345327 0.822202
1 0.346044 0.851865
1 0.346746 0.881514
1 0.347463 0.911177
0.746197 0.343771 0
0.762356 0.344488 0
0.778531 0.34519 0.0193179
0.79469 0.345907 0.0489662
0.810864 0.346624 0.0786297
0.827024 0.347326 0.108278
0.843198 0.348043 0.137926
0.859358 0.34876 0.16759
0.875532 0.349462 0.197238
0.891691 0.350179 0.226902
0.907866 0.350896 0.25655
0.924041 0.351598 0.286198
0.9402 0.352316 0.315862
0.956374 0.353033 0.34551
0.972534 0.353735 0.375174
0.988708 0.354452 0.404822
1 0.355169 0.43447
1 0.355871 0.464134
1 0.356588 0.493782
1 0.357305 0.523445
1 0.358007 0.553094
1 0.358724 0.582757
1 0.359442 0.612406
1 0.360143 0.642054
1 0.360861 0.671717
1 0.361578 0.701366
1 0.36228 0.731029
1 0.362997 0.760678
1 0.363714 0.790326
1 0.364431 0.819989
1 0.365133 0.849638
1 0.36585 0.879301
1 0.366567 0.908949
0.787655 0.362875 0
0.803815 0.363577 0
0.819974 0.364294 0.0170901
0.836149 0.365011 0.0467536
0.852323 0.365713 0.0764019
0.868482 0.36643 0.10605
0.884657 0.367147 0.135714
0.900816 0.367849 0.165362
0.916991 0.368566 0.195026
0.93315 0.369284 0.224674
0.949325 0.369985 0.254322
0.965484 0.370703 0.283986
0.981659 0.37142 0.313634
0.997833 0.372122 0.343297
1 0.372839 0.372946
1 0.373556 0.402594
1 0.374258 0.432258
1 0.374975 0.461906
1 0.375692 0.491569
1 0.376394 0.521218
1 0.377111 0.550881
1 0.377829 0.58053
1 0.378531 0.610178
1 0.379248 0.639841
1 0.379965 0.66949
1 0.380667 0.699153
1 0.381384 0.728801
1 0.382101 0.75845
1 0.382803 0.788113
1 0.38352 0.817761
1 0.384237 0.847425
1 0.384939 0.877073
1 0.385657 0.906722
0.829114 0.381964 0
0.845273 0.382681 0
0.861433 0.383398 0.0148775
0.877607 0.3841 0.0445258
0.893767 0.384817 0.0741741
0.909941 0.385534 0.103838
0.926116 0.386236 0.133486
0.942275 0.386954 0.163149
0.95845 0.387671 0.192798
0.974609 0.388373 0.222446
0.990784 0.38909 0.25211
1 0.389807 0.281758
1 0.390509 0.311421
1 0.391226 0.34107
1 0.391943 0.370718
1 0.392645 0.400381
1 0.393362 0.43003
1 0.39408 0.459693
1 0.394781 0.489342
1 0.395499 0.519005
1 0.396216 0.548653
1 0.396918 0.578302
1 0.397635 0.607965
1 0.398352 0.637613
1 0.399054 0.667277
1 0.399771 0.696925
1 0.400488 0.726574
1 0.40119 0.756237
1 0.401907 0.785885
1 0.402625 0.815549
1 0.403326 0.845197
1 0.404044 0.874846
1 0.404761 0.904509
0.870573 0.401068 0
0.886732 0.401785 0
0.902892 0.402487 0.0126497
0.919066 0.403204 0.042298
0.935225 0.403922 0.0719615
0.9514 0.404623 0.10161
0.967559 0.405341 0.131273
0.983734 0.406058 0.160922
0.999893 0.40676 0.19057
1 0.407477 0.220233
1 0.408194 0.249882
1 0.408896 0.279545
1 0.409613 0.309194
1 0.41033 0.338857
1 0.411032 0.368505
1 0.411749 0.398154
1 0.412467 0.427817
1 0.413169 0.457465
1 0.413886 0.487129
1 0.414603 0.516777
1 0.415305 0.546426
1 0.416022 0.576089
1 0.416739 0.605737
1 0.417441 0.635401
1 0.418158 0.665049
1 0.418875 0.694697
1 0.419577 0.724361
1 0.420294 0.754009
1 0.421012 0.783673
1 0.421714 0.813321
1 0.422431 0.842969
1 0.423148 0.872633
1 0.42385 0.902281
0.912016 0.420172 0
0.928191 0.420874 0
0.94435 0.421592 0.0104219
0.960525 0.422309 0.0400854
0.976684 0.423011 0.0697337
0.992859 0.423728 0.0993973
1 0.424445 0.129046
1 0.425147 0.158694
1 0.425864 0.188357
1 0.426581 0.218006
1 0.427283 0.247669
1 0.428 0.277317
1 0.428717 0.306981
1 0.429419 0.336629
1 0.430137 0.366278
1 0.430854 0.395941
1 0.431556 0.425589
1 0.432273 0.455253
1 0.43299 0.484901
1 0.433692 0.514549
1 0.434409 0.544213
1 0.435126 0.573861
1 0.435828 0.603525
1 0.436545 0.633173
1 0.437263 0.662821
1 0.437964 0.692485
1 0.438682 0.722133
1 0.439399 0.751797
1 0.440101 0.781445
1 0.440818 0.811093
1 0.441535 0.840757
1 0.442237 0.870405
1 0.442954 0.900069
0.953475 0.439261 0
0.969635 0.439979 0
0.985809 0.440696 0.00820935
1 0.441398 0.0378576
1 0.442115 0.0675212
1 0.442832 0.0971695
1 0.443534 0.126833
1 0.444251 0.156481
1 0.444968 0.18613
1 0.44567 0.215793
1 0.446387 0.245441
1 0.447105 0.275105
1 0.447807 0.304753
1 0.448524 0.334401
1 0.449241 0.364065
1 0.449943 0.393713
1 0.45066 0.423377
1 0.451377 0.453025
1 0.452079 0.482673
1 0.452796 0.512337
1 0.453513 0.541985
1 0.454215 0.571649
1 0.454932 0.601297
1 0.45565 0.630945
1 0.456352 0.660609
1 0.457069 0.690257
1 0.457786 0.719921
1 0.458488 0.749569
1 0.459205 0.779232
1 0.459922 0.808881
1 0.460624 0.838529
1 0.461341 0.868193
1 0.462058 0.897841
0.994934 0.458366 0
1 0.459083 0
1 0.459785 0.00598154
1 0.460502 0.0356451
1 0.461219 0.0652934
1 0.461921 0.0949569
1 0.462638 0.124605
1 0.463355 0.154253
1 0.464057 0.183917
1 0.464775 0.213565
1 0.465492 0.243229
1 0.466194 0.272877
1 0.466911 0.302525
1 0.467628 0.332189
1 0.46833 0.361837
1 0.469047 0.391501
1 0.469764 0.421149
1 0.470466 0.450797
1 0.471183 0.480461
1 0.471901 0.510109
1 0.472602 0.539773
1 0.47332 0.569421
1 0.474037 0.599069
1 0.474739 0.628733
1 0.475456 0.658381
1 0.476173 0.688045
1 0.476875 0.717693
1 0.477592 0.747356
1 0.478309 0.777005
1 0.479011 0.806653
1 0.479728 0.836316
1 0.480446 0.865965
1 0.481147 0.895628
1 0.47747 0
1 0.478172 0
1 0.478889 0.00376898
1 0.479606 0.0334173
1 0.480308 0.0630808
1 0.481025 0.0927291
1 0.481743 0.122377
1 0.482444 0.152041
1 0.483162 0.181689
1 0.483879 0.211353
1 0.484581 0.241001
1 0.485298 0.270649
1 0.486015 0.300313
1 0.486717 0.329961
1 0.487434 0.359625
1 0.488151 0.389273
1 0.488853 0.418921
1 0.48957 0.448585
1 0.490288 0.478233
1 0.49099 0.507897
1 0.491707 0.537545
1 0.492424 0.567208
1 0.493126 0.596857
1 0.493843 0.626505
1 0.49456 0.656168
1 0.495262 0.685817
1 0.495979 0.71548
1 0.496696 0.745129
1 0.497398 0.774777
1 0.498116 0.80444
1 0.498833 0.834089
1 0.499535 0.863752
1 0.500252 0.8934
1 0.496559 0
1 0.497276 0
1 0.497993 0.00154116
1 0.498695 0.0312047
1 0.499413 0.060853
1 0.50013 0.0905013
1 0.500832 0.120165
1 0.501549 0.149813
1 0.502266 0.179477
1 0.502968 0.209125
1 0.503685 0.238773
1 0.504402 0.268437
1 0.505104 0.298085
1 0.505821 0.327749
1 0.506539 0.357397
1 0.50724 0.387045
1 0.507958 0.416709
1 0.508675 0.446357
1 0.509377 0.47602
1 0.510094 0.505669
1 0.510811 0.535332
1 0.511513 0.564981
1 0.51223 0.594629
1 0.512947 0.624292
1 0.513649 0.653941
1 0.514366 0.683604
1 0.515084 0.713252
1 0.515785 0.742901
1 0.516503 0.772564
1 0.51722 0.802213
1 0.517922 0.831876
1 0.518639 0.861524
1 0.519356 0.891173
1 0.515663 0
1 0.516381 0
1 0.517082 0
1 0.5178 0.0289769
1 0.518517 0.0586252
1 0.519219 0.0882887
1 0.519936 0.117937
1 0.520653 0.147601
1 0.521355 0.177249
