public/LUTS/Color Shift/ColorShift_32.cube
TITLE "Generated by Resolve"
LUT_3D_SIZE 9
0 0 0
0.0968185 0 0.098085
0.193637 0 0.196185
0.290471 0 0.29427
0.387304 0 0.39237
0.484123 0 0.490471
0.580957 0 0.588571
0.677775 0 0.686656
0.774609 0 0.784756
0.124208 0.0915999 0
0.221012 0.0874342 0.0679789
0.317845 0.0832685 0.166079
0.414679 0.079118 0.264179
0.511498 0.0749523 0.36228
0.608331 0.0708019 0.460365
0.70515 0.0666361 0.558465
0.801984 0.0624704 0.656565
0.898817 0.05832 0.75465
0.248417 0.1832 0
0.345235 0.179049 0.0378882
0.442054 0.174884 0.135973
0.538888 0.170718 0.234073
0.635721 0.166567 0.332174
0.73254 0.162402 0.430274
0.829374 0.158236 0.528359
0.926192 0.154086 0.626459
1 0.14992 0.724559
0.372641 0.274815 0
0.469444 0.270649 0.0077821
0.566278 0.266484 0.105882
0.663111 0.262333 0.203983
0.75993 0.258167 0.302068
0.856764 0.254002 0.400168
0.953582 0.249851 0.498268
1 0.245686 0.596353
1 0.241535 0.694453
0.496849 0.366415 0
0.593668 0.362249 0
0.690486 0.358099 0.0757763
0.78732 0.353933 0.173877
0.884153 0.349783 0.271977
0.980972 0.345617 0.370062
1 0.341451 0.468162
1 0.337301 0.566262
1 0.333135 0.664347
0.621057 0.458015 0
0.717876 0.453864 0
0.81471 0.449699 0.0456703
0.911543 0.445548 0.143771
1 0.441382 0.241871
1 0.437217 0.339971
1 0.433066 0.438056
1 0.428901 0.536156
1 0.424735 0.634256
0.745281 0.54963 0
0.8421 0.545464 0
0.938918 0.541314 0.0155795
1 0.537148 0.113664
1 0.532982 0.211765
1 0.528832 0.309865
1 0.524666 0.407965
1 0.520516 0.50605
1 0.51635 0.60415
0.86949 0.64123 0
0.966308 0.637079 0
1 0.632914 0
1 0.628748 0.0835737
1 0.624598 0.181659
1 0.620432 0.279759
1 0.616281 0.377859
1 0.612116 0.475959
1 0.60795 0.574044
0.993713 0.732845 0
1 0.728679 0
1 0.724529 0
1 0.720363 0.0534676
1 0.716197 0.151568
1 0.712047 0.249653
1 0.707881 0.347753
1 0.703716 0.445853
1 0.699565 0.543954
0 0.0375525 0.0570077
0.00077821 0.0333867 0.155077
0.097612 0.0292363 0.253178
0.194446 0.0250706 0.351278
0.291264 0.0209049 0.449378
0.388098 0.0167544 0.547463
0.484932 0.0125887 0.645563
0.58175 0.00843824 0.743664
0.678584 0.00427253 0.841749
0.0281682 0.129152 0.0269017
0.124987 0.124987 0.124987
0.22182 0.120821 0.223087
0.318639 0.11667 0.321172
0.415473 0.112505 0.419272
0.512291 0.108339 0.517372
0.609125 0.104189 0.615473
0.705959 0.100023 0.713558
0.802777 0.0958724 0.811658
0.152392 0.220752 0
0.249195 0.216587 0.0948806
0.346029 0.212436 0.192981
0.442863 0.20827 0.291081
0.539681 0.20412 0.389166
0.636515 0.199954 0.487266
0.733349 0.195789 0.585367
0.830167 0.191638 0.683467
0.927001 0.187472 0.781552
0.2766 0.312352 0
0.373419 0.308202 0.0647898
0.470253 0.304036 0.162875
0.567071 0.299886 0.260975
0.663905 0.29572 0.359075
0.760723 0.291554 0.45716
0.857557 0.287404 0.555261
0.954391 0.283238 0.653361
1 0.279072 0.751461
0.400824 0.403967 0
0.497627 0.399802 0.0346838
0.594461 0.395651 0.132784
0.691295 0.391485 0.230869
0.788113 0.38732 0.328969
0.884947 0.383169 0.42707
0.981781 0.379004 0.525154
1 0.374853 0.623255
1 0.370687 0.721355
0.525032 0.495567 0
0.621851 0.491417 0.00457771
0.718685 0.487251 0.102678
0.815503 0.483101 0.200778
0.912337 0.478935 0.298863
1 0.474769 0.396963
1 0.470619 0.495064
1 0.466453 0.593164
1 0.462287 0.691249
0.649256 0.587182 0
0.746059 0.583017 0
0.842893 0.578866 0.0725719
0.939727 0.574701 0.170672
1 0.570535 0.268772
1 0.566384 0.366857
1 0.562219 0.464958
1 0.558053 0.563058
1 0.553903 0.661158
0.773465 0.678782 0
0.870283 0.674632 0
0.967117 0.670466 0.0424811
1 0.6663 0.140566
1 0.66215 0.238666
1 0.657984 0.336767
1 0.653819 0.434852
1 0.649668 0.532952
1 0.645502 0.631052
0.897688 0.770397 0
0.994492 0.766232 0
1 0.762066 0.0123751
1 0.757916 0.110475
1 0.75375 0.20856
1 0.749599 0.306661
1 0.745434 0.404761
1 0.741268 0.502846
1 0.737118 0.600946
0 0.0751049 0.114015
0 0.0709392 0.212085
0.00157168 0.0667887 0.310185
0.0984054 0.062623 0.408286
0.195224 0.0584726 0.506386
0.292058 0.0543069 0.604471
0.388876 0.0501411 0.702571
0.48571 0.0459907 0.800671
0.582544 0.041825 0.898756
0 0.166705 0.0839094
0.0289464 0.162539 0.181994
0.12578 0.158389 0.280095
0.222599 0.154223 0.37818
0.319432 0.150057 0.47628
0.416251 0.145907 0.57438
0.513085 0.141741 0.67248
0.609918 0.137575 0.770565
0.706737 0.133425 0.868666
0.0563516 0.258305 0.0538033
0.153155 0.254154 0.151888
0.249989 0.249989 0.249989
0.346822 0.245823 0.348089
0.443641 0.241672 0.446174
0.540475 0.237507 0.544274
0.637293 0.233341 0.642374
0.734127 0.229191 0.740475
0.830961 0.225025 0.83856
0.18056 0.34992 0.0237125
0.277378 0.345754 0.121798
0.374197 0.341588 0.219883
0.471031 0.337438 0.317983
0.567864 0.333272 0.416083
0.664683 0.329122 0.514168
0.761517 0.324956 0.612268
0.858351 0.32079 0.710369
0.955169 0.31664 0.808469
0.304784 0.44152 0
0.401587 0.437369 0.0916915
0.498421 0.433204 0.189792
0.595254 0.429038 0.287877
0.692073 0.424887 0.385977
0.788907 0.420722 0.484077
0.885725 0.416556 0.582162
0.982559 0.412406 0.680262
1 0.40824 0.778363
0.428992 0.533135 0
0.525811 0.528969 0.0615854
0.622629 0.524804 0.159686
0.719463 0.520653 0.257786
0.816297 0.516487 0.355871
0.913115 0.512322 0.453971
1 0.508171 0.552071
1 0.504005 0.650156
1 0.499855 0.748257
0.553216 0.624735 0
0.650019 0.620569 0.0314946
0.746853 0.616419 0.12958
0.843687 0.612253 0.22768
0.940505 0.608103 0.32578
1 0.603937 0.423865
1 0.599771 0.521965
1 0.595621 0.620066
1 0.591455 0.718166
0.677424 0.716335 0
0.774243 0.712184 0.00138857
0.871061 0.708019 0.0994888
0.967895 0.703868 0.197574
1 0.699702 0.295674
1 0.695537 0.393774
1 0.691386 0.491859
1 0.687221 0.58996
1 0.683055 0.68806
0.801648 0.80795 0
0.898451 0.803784 0
0.995285 0.799634 0.0693828
1 0.795468 0.167483
1 0.791302 0.265568
1 0.787152 0.363668
1 0.782986 0.461769
1 0.77882 0.559853
1 0.77467 0.657954
0 0.112657 0.171008
0 0.108507 0.269093
0 0.104341 0.367193
0.00234989 0.100175 0.465293
0.0991836 0.096025 0.563394
0.196017 0.0918593 0.661479
0.292836 0.0877089 0.759579
0.38967 0.0835431 0.857679
0.486503 0.0793774 0.955764
0 0.204257 0.140917
0 0.200092 0.239002
0.0297246 0.195941 0.337102
0.126558 0.191775 0.435187
0.223392 0.18761 0.533288
0.320211 0.183459 0.631388
0.417044 0.179294 0.729488
0.513863 0.175143 0.827573
0.610697 0.170977 0.925673
0 0.295857 0.110811
0.0571145 0.291707 0.208896
0.153948 0.287541 0.306996
0.250782 0.283391 0.405097
0.347601 0.279225 0.503182
0.444434 0.275059 0.601282
0.541253 0.270909 0.699382
0.638086 0.266743 0.797482
0.73492 0.262577 0.895567
0.0845197 0.387472 0.0807202
0.181338 0.383307 0.178805
0.278157 0.379156 0.27689
0.37499 0.37499 0.37499
0.471824 0.370825 0.473091
0.568643 0.366674 0.571176
0.665476 0.362509 0.669276
0.762295 0.358343 0.767376
0.859129 0.354192 0.865476
0.208728 0.479072 0.0506142
0.305547 0.474922 0.148699
0.40238 0.470756 0.246799
0.499199 0.46659 0.344884
0.596033 0.46244 0.442985
0.692866 0.458274 0.541085
0.789685 0.454124 0.63917
0.886519 0.449958 0.73727
0.983352 0.445792 0.83537
0.332952 0.570687 0.0205081
0.42977 0.566522 0.118593
0.526589 0.562371 0.216693
0.623423 0.558206 0.314794
0.720256 0.55404 0.412879
0.817075 0.549889 0.510979
0.913909 0.545724 0.609079
1 0.541558 0.707164
1 0.537408 0.805264
0.45716 0.662287 0
0.553979 0.658137 0.0884871
0.650813 0.653971 0.186587
0.747631 0.649805 0.284688
0.844465 0.645655 0.382788
0.941299 0.641489 0.480873
1 0.637324 0.578973
1 0.633173 0.677073
1 0.629007 0.775158
0.581384 0.753902 0
0.678203 0.749737 0.0583963
0.775021 0.745571 0.156497
0.871855 0.741421 0.254582
0.968688 0.737255 0.352682
1 0.733104 0.450782
1 0.728939 0.548867
1 0.724773 0.646967
1 0.720623 0.745068
0.705592 0.845502 0
0.802411 0.841337 0.0282902
0.899245 0.837186 0.12639
0.996063 0.833021 0.224491
1 0.82887 0.322576
1 0.824704 0.420676
1 0.820539 0.518776
1 0.816388 0.616861
1 0.812222 0.714961
0 0.15021 0.228016
0 0.146059 0.326101
0 0.141894 0.424201
0 0.137743 0.522301
0.00314336 0.133577 0.620401
0.0999771 0.129412 0.718486
0.196796 0.125261 0.816587
0.293629 0.121096 0.914687
0.390448 0.11693 1
0 0.24181 0.197925
0 0.237659 0.29601
0 0.233494 0.39411
0.030518 0.229328 0.492195
0.127352 0.225177 0.590295
0.22417 0.221012 0.688396
0.321004 0.216846 0.786496
0.417823 0.212696 0.884581
0.514656 0.20853 0.982681
0 0.333425 0.167819
0 0.329259 0.265904
0.057908 0.325093 0.364004
0.154726 0.320943 0.462104
0.25156 0.316777 0.560189
0.348394 0.312612 0.658289
0.445212 0.308461 0.75639
0.542046 0.304295 0.85449
0.638865 0.300145 0.952575
0 0.425025 0.137728
0.0852979 0.420859 0.235813
0.182116 0.416709 0.333898
0.27895 0.412543 0.431998
0.375784 0.408392 0.530098
0.472602 0.404227 0.628183
0.569436 0.400061 0.726284
0.666255 0.395911 0.824384
0.763088 0.391745 0.922484
0.112688 0.516625 0.107622
0.209506 0.512474 0.205707
0.30634 0.508309 0.303807
0.403159 0.504158 0.401892
0.499992 0.499992 0.499992
0.596826 0.495827 0.598093
0.693645 0.491676 0.696178
0.790478 0.487511 0.794278
0.887297 0.483345 0.892378
0.236912 0.60824 0.0775158
0.33373 0.604074 0.175601
0.430549 0.599924 0.273701
0.527382 0.595758 0.371801
0.624201 0.591592 0.469886
0.721035 0.587442 0.567987
0.817868 0.583276 0.666087
0.914687 0.579126 0.764172
1 0.57496 0.862272
0.36112 0.69984 0.047425
0.457938 0.695689 0.145495
0.554772 0.691524 0.243595
0.651591 0.687373 0.341695
0.748425 0.683207 0.439796
0.845258 0.679042 0.537881
0.942077 0.674891 0.635981
1 0.670726 0.734081
1 0.66656 0.832166
0.485344 0.791455 0.017319
0.582162 0.787289 0.115404
0.678981 0.783139 0.213489
0.775814 0.778973 0.311589
0.872648 0.774807 0.409689
0.969467 0.770657 0.50779
1 0.766491 0.605875
1 0.762325 0.703975
1 0.758175 0.802075
0.609552 0.883055 0
0.706371 0.878904 0.0852979
0.803204 0.874739 0.183398
0.900023 0.870573 0.281498
0.996857 0.866423 0.379583
1 0.862257 0.477684
1 0.858106 0.575784
1 0.853941 0.673869
1 0.849775 0.771969
0 0.187778 0.285023
0 0.183612 0.383108
0 0.179446 0.481209
0 0.175296 0.579309
0 0.17113 0.677409
0.00393683 0.166979 0.775494
0.100755 0.162814 0.873594
0.197589 0.158648 0.971695
0.294408 0.154498 1
0 0.279362 0.254932
0 0.275212 0.353017
0 0.271046 0.451118
0 0.26688 0.549203
0.0312963 0.26273 0.647303
0.12813 0.258564 0.745403
0.224964 0.254414 0.843488
0.321782 0.250248 0.941588
0.418616 0.246082 1
0 0.370977 0.224826
0 0.366812 0.322911
0 0.362661 0.421012
0.0586862 0.358495 0.519112
0.15552 0.35433 0.617197
0.252354 0.350179 0.715297
0.349172 0.346014 0.813397
0.446006 0.341848 0.911498
0.542824 0.337697 1
0 0.462577 0.194736
0 0.458427 0.292821
0.0860761 0.454261 0.390906
0.18291 0.450095 0.489006
0.279728 0.445945 0.587106
0.376562 0.441779 0.685191
0.473396 0.437613 0.783291
0.570214 0.433463 0.881392
0.667048 0.429297 0.979492
0.0166476 0.554192 0.16463
0.113466 0.550027 0.262715
0.2103 0.545861 0.360815
0.307118 0.541711 0.4589
0.403952 0.537545 0.557
0.500786 0.533394 0.6551
0.597604 0.529229 0.753185
0.694438 0.525063 0.851286
0.791257 0.520912 0.949386
0.140871 0.645792 0.134524
0.23769 0.641642 0.232609
0.334508 0.637476 0.330709
0.431342 0.63331 0.428809
0.528161 0.62916 0.526894
0.624994 0.624994 0.624994
0.721828 0.620829 0.723095
0.818647 0.616678 0.82118
0.91548 0.612512 0.91928
0.26508 0.737408 0.104433
0.361898 0.733242 0.202502
0.458732 0.729076 0.300603
0.55555 0.724926 0.398703
0.652384 0.72076 0.496803
0.749203 0.716594 0.594888
0.846036 0.712444 0.692988
0.94287 0.708278 0.791089
1 0.704128 0.889174
0.389303 0.829007 0.0743267
0.486122 0.824842 0.172412
0.58294 0.820691 0.270497
0.679774 0.816526 0.368597
0.776593 0.812375 0.466697
0.873426 0.808209 0.564797
0.97026 0.804044 0.662882
1 0.799893 0.760983
1 0.795727 0.859083
0.513512 0.920607 0.0442206
0.61033 0.916457 0.142306
0.707164 0.912291 0.240406
0.803983 0.908141 0.338491
0.900816 0.903975 0.436591
0.997635 0.899809 0.534691
1 0.895659 0.632792
1 0.891493 0.730877
1 0.887327 0.828977
0 0.22533 0.342031
0 0.221164 0.440116
0 0.217014 0.538216
0 0.212848 0.636316
0 0.208682 0.734417
0 0.204532 0.832502
0.00471504 0.200366 0.930602
0.101549 0.196201 1
0.198367 0.19205 1
0 0.31693 0.31194
0 0.312764 0.410025
0 0.308598 0.508125
0 0.304448 0.60621
0 0.300282 0.704311
0.0320897 0.296117 0.802411
0.128923 0.291966 0.900496
0.225742 0.2878 0.998596
0.322576 0.28365 1
0 0.40853 0.281834
0 0.404364 0.379919
0 0.400214 0.478019
0 0.396048 0.57612
0.0594797 0.391897 0.674205
0.156298 0.387732 0.772305
0.253132 0.383566 0.870405
0.349966 0.379416 0.96849
0.446784 0.37525 1
0 0.50013 0.251743
0 0.495979 0.349828
0 0.491814 0.447913
0.0868696 0.487663 0.546014
0.183688 0.483497 0.644114
0.280522 0.479332 0.742199
0.377356 0.475181 0.840299
0.474174 0.471015 0.938399
0.571008 0.46685 1
0 0.591745 0.221637
0.0174258 0.587579 0.319722
0.11426 0.583429 0.417823
0.211078 0.579263 0.515908
0.307912 0.575097 0.614008
0.40473 0.570947 0.712108
0.501564 0.566781 0.810193
0.598398 0.562615 0.908293
0.695216 0.558465 1
0.044831 0.683345 0.191531
0.141634 0.679194 0.289616
0.238468 0.675029 0.387717
0.335302 0.670863 0.485817
0.43212 0.666712 0.583902
0.528954 0.662547 0.682002
0.625772 0.658396 0.780102
0.722606 0.654231 0.878187
0.81944 0.650065 0.976287
0.169039 0.77496 0.161425
0.265858 0.770794 0.25951
0.362692 0.766644 0.35761
0.45951 0.762478 0.455711
0.556344 0.758312 0.553811
0.653162 0.754162 0.651896
0.749996 0.749996 0.749996
0.84683 0.74583 0.848096
0.943648 0.74168 0.946181
0.293263 0.86656 0.131334
0.390066 0.862409 0.229419
0.4869 0.858244 0.327504
0.583734 0.854078 0.425605
0.680552 0.849928 0.523705
0.777386 0.845762 0.621805
0.874205 0.841596 0.71989
0.971038 0.837446 0.81799
1 0.83328 0.916091
0.417472 0.958175 0.101228
0.51429 0.954009 0.199313
0.611124 0.949844 0.297414
0.707942 0.945693 0.395499
0.804776 0.941527 0.493599
0.901595 0.937377 0.591699
0.998428 0.933211 0.689799
1 0.929046 0.787884
1 0.924895 0.885985
0 0.262882 0.399039
0 0.258717 0.497124
0 0.254566 0.595224
0 0.250401 0.693324
0 0.24625 0.791409
0 0.242084 0.889509
0 0.237919 0.98761
0.00550851 0.233768 1
0.102327 0.229603 1
0 0.354482 0.368948
0 0.350317 0.467033
0 0.346166 0.565133
0 0.342 0.663218
0 0.337835 0.761318
0 0.333684 0.859419
0.0328679 0.329519 0.957504
0.129702 0.325353 1
0.226535 0.321202 1
0 0.446082 0.338842
0 0.441932 0.436927
0 0.437766 0.535027
0 0.4336 0.633127
0 0.42945 0.731212
0.0602579 0.425284 0.829313
0.157092 0.421118 0.927413
0.253925 0.416968 1
0.350744 0.412802 1
0 0.537697 0.308751
0 0.533532 0.406821
0 0.529366 0.504921
0 0.525216 0.603021
0.0876478 0.52105 0.701122
0.184482 0.516899 0.799207
0.2813 0.512734 0.897307
0.378134 0.508568 0.995407
0.474968 0.504417 1
0 0.629297 0.278645
0 0.625132 0.37673
0.018204 0.620981 0.47483
0.115038 0.616815 0.572915
0.211872 0.612665 0.671016
0.30869 0.608499 0.769116
0.405524 0.604334 0.867201
0.502358 0.600183 0.965301
0.599176 0.596017 1
0 0.720913 0.248539
0.045594 0.716747 0.346624
0.142428 0.712581 0.444724
0.239261 0.708431 0.542824
0.33608 0.704265 0.640909
0.432914 0.700099 0.73901
0.529732 0.695949 0.83711
0.626566 0.691783 0.935195
0.7234 0.687617 1
0.0729992 0.812512 0.218433
0.169818 0.808347 0.316518
0.266636 0.804196 0.414618
0.36347 0.800031 0.512718
0.460304 0.795865 0.610819
0.557122 0.791714 0.708904
0.653956 0.787549 0.807004
0.750774 0.783398 0.905104
0.847608 0.779232 1
0.197223 0.904112 0.188342
0.294026 0.899962 0.286427
0.39086 0.895796 0.384512
0.487694 0.891646 0.482612
0.584512 0.88748 0.580713
0.681346 0.883314 0.678813
0.778164 0.879164 0.776898
0.874998 0.874998 0.874998
0.971832 0.870832 0.973098
0.321431 0.995727 0.158236
0.41825 0.991562 0.256321
0.515068 0.987411 0.354421
0.611902 0.983246 0.452506
0.708736 0.97908 0.550607
0.805554 0.974929 0.648707
0.902388 0.970764 0.746807
0.999207 0.966598 0.844892
1 0.962448 0.942992
0 0.300435 0.456046
0 0.296284 0.554131
0 0.292119 0.652232
0 0.287953 0.750332
0 0.283803 0.848417
0 0.279637 0.946517
0 0.275471 1
0 0.271321 1
0.00628672 0.267155 1
0 0.392035 0.425956
0 0.387869 0.524041
0 0.383719 0.622141
0 0.379553 0.720226
0 0.375387 0.818326
0 0.371237 0.916426
0 0.367071 1
0.0336614 0.362921 1
0.130495 0.358755 1
0 0.483635 0.39585
0 0.479484 0.493935
0 0.475319 0.592035
0 0.471168 0.690135
0 0.467002 0.78822
0 0.462837 0.88632
0.0610513 0.458686 0.984421
0.15787 0.45452 1
0.254704 0.450355 1
0 0.57525 0.365759
0 0.571084 0.463828
0 0.566934 0.561929
0 0.562768 0.660029
0 0.558602 0.758129
0.0884413 0.554452 0.856214
0.18526 0.550286 0.954314
0.282094 0.54612 1
0.378927 0.54197 1
0 0.66685 0.335653
0 0.662699 0.433738
0 0.658534 0.531823
0.0189975 0.654368 0.629923
0.115831 0.650217 0.728023
0.21265 0.646052 0.826123
0.309483 0.641886 0.924208
0.406302 0.637736 1
0.503136 0.63357 1
0 0.758465 0.305547
0 0.754299 0.403632
0.0463874 0.750134 0.501732
0.143206 0.745983 0.599832
0.24004 0.741817 0.697917
0.336873 0.737667 0.796017
0.433692 0.733501 0.894118
0.530526 0.729335 0.992203
0.627344 0.725185 1
0 0.850065 0.275441
0.0737774 0.845914 0.373526
0.170596 0.841749 0.471626
0.26743 0.837583 0.569726
0.364263 0.833432 0.667826
0.461082 0.829267 0.765911
0.557916 0.825101 0.864012
0.654734 0.820951 0.962112
0.751568 0.816785 1
0.101167 0.94168 0.24535
0.197986 0.937514 0.343435
0.29482 0.933349 0.44152
0.391638 0.929198 0.53962
0.488472 0.925032 0.63772
0.585306 0.920867 0.735821
0.682124 0.916716 0.833906
0.778958 0.912551 0.932006
0.875792 0.9084 1
0.225391 1 0.215244
0.32221 1 0.313329
0.419028 1 0.411429
0.515862 1 0.509514
0.612696 1 0.607614
0.709514 1 0.705715
0.806348 1 0.803815
0.903166 1 0.9019
1 1 1
