public/LUTS/Color Shift/ColorShift_85.cube
TITLE "Generated by Resolve"
LUT_3D_SIZE 5
0 0 0
0.183124 0 0.366522
0.366247 0 0.733074
0.549371 0 1
0.732509 0 1
0.441276 0.13724 0
0.624399 0.11017 0.213825
0.807523 0.0831006 0.580377
0.990662 0.0560464 0.946929
1 0.0289769 1
0.882582 0.274479 0
1 0.24741 0.0611124
1 0.220356 0.427665
1 0.193286 0.794217
1 0.166217 1
1 0.411719 0
1 0.384665 0
1 0.357595 0.274952
1 0.330526 0.641505
1 0.303456 1
1 0.548959 0
1 0.521904 0
1 0.494835 0.12224
1 0.467765 0.488792
1 0.440711 0.855344
0 0.139818 0.0361639
0 0.112749 0.402686
0 0.0856947 0.769238
0.174975 0.0586252 1
0.358099 0.0315557 1
0.066865 0.277058 0
0.249989 0.249989 0.249989
0.433112 0.222919 0.616541
0.616251 0.195865 0.983093
0.799374 0.168795 1
0.508171 0.414298 0
0.691295 0.387228 0.0972763
0.874418 0.360174 0.463828
1 0.333104 0.830381
1 0.306035 1
0.949477 0.551537 0
1 0.524468 0
1 0.497414 0.311116
1 0.470344 0.677668
1 0.443275 1
1 0.688777 0
1 0.661723 0
1 0.634653 0.158404
1 0.607584 0.524956
1 0.58053 0.891508
0 0.279637 0.0723278
0 0.252583 0.438849
0 0.225513 0.805402
0 0.198444 1
0 0.171389 1
0 0.416876 0
0 0.389807 0.286152
0.0586862 0.362753 0.652705
0.24181 0.335683 1
0.424949 0.308614 1
0.133745 0.554116 0
0.316869 0.527062 0.13344
0.499992 0.499992 0.499992
0.683116 0.472923 0.866545
0.866255 0.445869 1
0.575051 0.691371 0
0.758175 0.664302 0
0.941299 0.637232 0.34728
1 0.610178 0.713832
1 0.583108 1
1 0.828611 0
1 0.801541 0
1 0.774472 0.194568
1 0.747417 0.56112
1 0.720348 0.927672
0 0.419471 0.108492
0 0.392401 0.475013
0 0.365347 0.841566
0 0.338277 1
0 0.311208 1
0 0.55671 0
0 0.529641 0.322316
0 0.502571 0.688869
0 0.475517 1
0.0505074 0.448447 1
0 0.69395 0
0 0.66688 0.169604
0.125566 0.639811 0.536156
0.30869 0.612757 0.902708
0.491814 0.585687 1
0.200626 0.831189 0
0.383734 0.80412 0.0168917
0.566873 0.777066 0.383444
0.749996 0.749996 0.749996
0.93312 0.722927 1
0.641932 0.968429 0
0.82504 0.941375 0
1 0.914305 0.230732
1 0.887236 0.597284
1 0.860182 0.963836
0 0.559289 0.144656
0 0.532235 0.511177
0 0.505165 0.877729
0 0.478096 1
0 0.451041 1
0 0.696529 0
0 0.669459 0.35848
0 0.642405 0.725032
0 0.615335 1
0 0.588266 1
0 0.833768 0
0 0.806714 0.205768
0 0.779644 0.57232
0 0.752575 0.938872
0.117388 0.725521 1
0 0.971008 0
0.009308 0.943954 0.0530556
0.192432 0.916884 0.419608
0.37557 0.889815 0.78616
0.558694 0.86276 1
0.267491 1 0
0.450614 1 0
0.633738 1 0.266896
0.816876 1 0.633448
1 1 1
