public/LUTS/Color Shift/ColorShift_90.cube
TITLE "Generated by Resolve"
LUT_3D_SIZE 5
0 0 0
0 0.0350958 0.382742
0 0.0702068 0.765515
0 0.105303 1
0 0.140398 1
0.58645 0.0661021 0.061799
0.555413 0.101213 0.444541
0.524376 0.136309 0.827314
0.493324 0.171405 1
0.462287 0.206516 1
1 0.132219 0.123598
1 0.167315 0.50634
1 0.202426 0.889113
1 0.237522 1
1 0.272618 1
1 0.198337 0.185397
1 0.233433 0.568154
1 0.268528 0.950927
1 0.303624 1
1 0.338735 1
1 0.264439 0.247211
1 0.299535 0.629953
1 0.334646 1
1 0.369741 1
1 0.404837 1
0 0.148775 0
0 0.183886 0.18819
0 0.218982 0.570962
0 0.254078 0.953735
0 0.289189 1
0.281025 0.214893 0
0.249989 0.249989 0.249989
0.218952 0.285084 0.632761
0.187915 0.320195 1
0.156878 0.355291 1
0.867506 0.280995 0
0.836469 0.316106 0.311788
0.805432 0.351202 0.69456
0.774395 0.386297 1
0.743358 0.421408 1
1 0.347112 0
1 0.382208 0.373587
1 0.417319 0.756359
1 0.452415 1
1 0.487511 1
1 0.41323 0.0526436
1 0.448325 0.435401
1 0.483421 0.818158
1 0.518532 1
1 0.553628 1
0 0.297566 0
0 0.332677 0
0 0.367773 0.376394
0 0.402869 0.759167
0 0.43798 1
0 0.363684 0
0 0.398779 0.0554208
0 0.433875 0.438193
0 0.468986 0.820966
0 0.504082 1
0.562066 0.429786 0
0.531029 0.464897 0.11722
0.499992 0.499992 0.499992
0.468956 0.535088 0.882765
0.437919 0.570199 1
1 0.495903 0
1 0.530999 0.179019
1 0.56611 0.561791
1 0.601205 0.944564
1 0.636301 1
1 0.56202 0
1 0.597116 0.240833
1 0.632212 0.62359
1 0.667323 1
1 0.702419 1
0 0.446372 0
0 0.481468 0
0 0.516564 0.181827
0 0.551659 0.564599
0 0.58677 0.947356
0 0.512474 0
0 0.54757 0
0 0.582666 0.243626
0 0.617777 0.626398
0 0.652873 1
0.256626 0.578576 0
0.225589 0.613687 0
0.194553 0.648783 0.305425
0.163516 0.683879 0.688197
0.132479 0.71899 1
0.843107 0.644694 0
0.81207 0.679789 0
0.781033 0.7149 0.367224
0.749996 0.749996 0.749996
0.718959 0.785092 1
1 0.710811 0
1 0.745907 0.0462654
1 0.781003 0.429023
1 0.816114 0.811795
1 0.851209 1
0 0.595163 0
0 0.630259 0
0 0.665354 0
0 0.70045 0.370031
0 0.735561 0.752789
0 0.661265 0
0 0.696361 0
0 0.731456 0.0490578
0 0.766567 0.43183
0 0.801663 0.814588
0 0.727367 0
0 0.762478 0
0 0.797574 0.110857
0 0.83267 0.493629
0 0.867781 0.876402
0.537667 0.793484 0
0.50663 0.82858 0
0.475593 0.863691 0.172656
0.444556 0.898787 0.555428
0.41352 0.933883 0.938201
1 0.859602 0
1 0.894697 0
1 0.929793 0.234455
1 0.964904 0.617227
1 1 1
