public/LUTS/Color Shift/ColorShift_94.cube
TITLE "Generated by Resolve"
LUT_3D_SIZE 9
0 0 0
0 0.0454566 0.151736
0 0.0909285 0.303502
0 0.136385 0.455253
0 0.181857 0.607004
0 0.227314 0.75877
0 0.272786 0.910521
0 0.318242 1
0 0.363714 1
0.295048 0.0191653 0.134661
0.203479 0.064622 0.286397
0.111894 0.110079 0.438148
0.0203098 0.15555 0.589899
0 0.201007 0.741665
0 0.246479 0.893416
0 0.291936 1
0 0.337407 1
0 0.382864 1
0.590127 0.0383154 0.269322
0.498558 0.0837873 0.421057
0.406973 0.129244 0.572824
0.315389 0.174716 0.724575
0.223804 0.220172 0.876326
0.132219 0.265644 1
0.04065 0.311101 1
0 0.356573 1
0 0.402029 1
0.885206 0.0574807 0.403998
0.793637 0.102937 0.555734
0.702052 0.148409 0.707485
0.610468 0.193866 0.859251
0.518883 0.239338 1
0.427314 0.28481 1
0.335729 0.330266 1
0.244144 0.375738 1
0.15256 0.421195 1
1 0.0766461 0.538659
1 0.122103 0.69041
0.997131 0.167575 0.842161
0.905547 0.213031 0.993912
0.813962 0.258503 1
0.722393 0.30396 1
0.630808 0.349432 1
0.539223 0.394888 1
0.447639 0.44036 1
1 0.0958114 0.673335
1 0.141268 0.825071
1 0.18674 0.976837
1 0.232197 1
1 0.277668 1
1 0.323125 1
0.925887 0.368597 1
0.834302 0.414054 1
0.742718 0.459525 1
1 0.114977 0.808011
1 0.160433 0.959747
1 0.20589 1
1 0.251362 1
1 0.296818 1
1 0.34229 1
1 0.387747 1
1 0.433219 1
1 0.478676 1
1 0.134142 0.942672
1 0.179599 1
1 0.225055 1
1 0.270527 1
1 0.315984 1
1 0.361456 1
1 0.406912 1
1 0.452384 1
1 0.497841 1
1 0.153292 1
1 0.198764 1
1 0.244221 1
1 0.289693 1
1 0.335149 1
1 0.380621 1
1 0.426078 1
1 0.47155 1
1 0.517006 1
0 0.0603647 0
0 0.105821 0
0 0.151293 0.142092
0 0.19675 0.293843
0 0.242222 0.445609
0 0.287678 0.59736
0 0.33315 0.749111
0 0.378607 0.900877
0 0.424079 1
0.216556 0.07953 0
0.124987 0.124987 0.124987
0.033402 0.170459 0.276738
0 0.215915 0.428504
0 0.261387 0.580255
0 0.306844 0.732021
0 0.352316 0.883772
0 0.397772 1
0 0.443244 1
0.511635 0.0986954 0.107912
0.420066 0.144152 0.259663
0.328481 0.189609 0.411414
0.236896 0.23508 0.563165
0.145327 0.280537 0.714931
0.0537423 0.326009 0.866682
0 0.371466 1
0 0.416938 1
0 0.462394 1
0.806714 0.117845 0.242588
0.715145 0.163317 0.394324
0.62356 0.208774 0.54609
0.531975 0.254246 0.697841
0.440406 0.299702 0.849592
0.348821 0.345174 1
0.257237 0.390631 1
0.165652 0.436103 1
0.0740673 0.481559 1
1 0.137011 0.377264
1 0.182467 0.529
0.918639 0.227939 0.680751
0.82707 0.273396 0.832517
0.735485 0.318868 0.984268
0.6439 0.36434 1
0.552316 0.409796 1
0.460731 0.455268 1
0.369162 0.500725 1
1 0.156176 0.511925
1 0.201633 0.663661
1 0.247105 0.815427
1 0.292561 0.967178
1 0.338033 1
0.938979 0.38349 1
0.847395 0.428962 1
0.75581 0.474418 1
0.66424 0.51989 1
1 0.175341 0.646601
1 0.220798 0.798337
1 0.26627 0.950088
1 0.311727 1
1 0.357198 1
1 0.402655 1
1 0.448127 1
1 0.493584 1
0.959319 0.539055 1
1 0.194507 0.781262
1 0.239963 0.933013
1 0.28542 1
1 0.330892 1
1 0.376349 1
1 0.42182 1
1 0.467277 1
1 0.512749 1
1 0.558221 1
1 0.213672 0.915938
1 0.259129 1
1 0.304585 1
1 0.350057 1
1 0.395514 1
1 0.440986 1
1 0.486442 1
1 0.531914 1
1 0.577371 1
0 0.120745 0
0 0.166201 0
0 0.211673 0
0 0.25713 0.132418
0 0.302602 0.284184
0 0.348058 0.435935
0 0.39353 0.587686
0 0.438987 0.739452
0 0.484459 0.891203
0.138064 0.13991 0
0.0464942 0.185367 0
0 0.230823 0.115312
0 0.276295 0.267079
0 0.321752 0.41883
0 0.367224 0.570596
0 0.41268 0.722347
0 0.458152 0.874098
0 0.503609 1
0.433143 0.15906 0
0.341573 0.204517 0.0982376
0.249989 0.249989 0.249989
0.158404 0.29546 0.40174
0.0668193 0.340917 0.553506
0 0.386389 0.705257
0 0.431846 0.857023
0 0.477317 1
0 0.522774 1
0.728222 0.178225 0.0811627
0.636652 0.223682 0.232898
0.545068 0.269154 0.384665
0.453483 0.314611 0.536416
0.361898 0.360082 0.688167
0.270329 0.405539 0.839933
0.178744 0.451011 0.991684
0.0871595 0.496468 1
0 0.541939 1
1 0.197391 0.215839
0.931731 0.242847 0.367575
0.840146 0.288319 0.519326
0.748562 0.333776 0.671092
0.656977 0.379248 0.822843
0.565408 0.424704 0.974594
0.473823 0.470176 1
0.382239 0.515633 1
0.290654 0.561105 1
1 0.216556 0.3505
1 0.262013 0.502235
1 0.307469 0.654002
1 0.352941 0.805753
0.952071 0.398398 0.957519
0.860487 0.44387 1
0.768902 0.489342 1
0.677317 0.534798 1
0.585733 0.58027 1
1 0.235721 0.485176
1 0.281178 0.636912
1 0.326635 0.788663
1 0.372107 0.940429
1 0.417563 1
1 0.463035 1
1 0.508492 1
0.972396 0.553964 1
0.880812 0.59942 1
1 0.254871 0.619837
1 0.300343 0.771588
1 0.3458 0.923339
1 0.391272 1
1 0.436728 1
1 0.4822 1
1 0.527657 1
1 0.573129 1
1 0.618585 1
1 0.274037 0.754513
1 0.319493 0.906249
1 0.364965 1
1 0.410422 1
1 0.455894 1
1 0.50135 1
1 0.546822 1
1 0.592279 1
1 0.637751 1
0 0.181125 0
0 0.226581 0
0 0.272038 0
0 0.31751 0
0 0.362966 0.122759
0 0.408438 0.27451
0 0.453895 0.426261
0 0.499367 0.578027
0 0.544823 0.729778
0.0595712 0.200275 0
0 0.245731 0
0 0.291203 0
0 0.33666 0.105653
0 0.382132 0.257404
0 0.427588 0.409171
0 0.47306 0.560922
0 0.518517 0.712673
0 0.563989 0.864439
0.35465 0.21944 0
0.263081 0.264897 0
0.171496 0.310369 0.0885634
0.0799115 0.355825 0.240314
0 0.401297 0.392081
0 0.446754 0.543832
0 0.492226 0.695598
0 0.537682 0.847349
0 0.583154 0.9991
0.649729 0.238605 0
0.55816 0.284062 0.0714733
0.466575 0.329519 0.223239
0.37499 0.37499 0.37499
0.283406 0.420462 0.526741
0.191821 0.465919 0.678508
0.100252 0.511391 0.830259
0.00866712 0.556848 0.982025
0 0.602319 1
0.944808 0.257771 0.0544137
0.853239 0.303227 0.206149
0.761654 0.348684 0.3579
0.670069 0.394156 0.509667
0.578485 0.439612 0.661418
0.4869 0.485084 0.813169
0.395331 0.530541 0.964935
0.303746 0.576013 1
0.212161 0.621469 1
1 0.276921 0.189075
1 0.322393 0.34081
1 0.367849 0.492576
0.965148 0.413321 0.644327
0.873564 0.458778 0.796094
0.781994 0.50425 0.947845
0.69041 0.549706 1
0.598825 0.595178 1
0.50724 0.640635 1
1 0.296086 0.323751
1 0.341543 0.475486
1 0.387015 0.627237
1 0.432471 0.779004
1 0.477943 0.930755
1 0.5234 1
0.985489 0.568872 1
0.893904 0.614343 1
0.802319 0.6598 1
1 0.315251 0.458412
1 0.360708 0.610162
1 0.40618 0.761913
1 0.451637 0.913664
1 0.497108 1
1 0.542565 1
1 0.588037 1
1 0.633494 1
1 0.678965 1
1 0.334417 0.593088
1 0.379873 0.744823
1 0.425345 0.89659
1 0.470802 1
1 0.516274 1
1 0.56173 1
1 0.607202 1
1 0.652659 1
1 0.698131 1
0 0.241489 0
0 0.286946 0
0 0.332418 0
0 0.377874 0
0 0.423346 0
0 0.468803 0.113085
0 0.514275 0.264836
0 0.559731 0.416602
0 0.605203 0.568353
0 0.260655 0
0 0.306111 0
0 0.351583 0
0 0.39704 0
0 0.442512 0.0959793
0 0.487968 0.247745
0 0.53344 0.399496
0 0.578897 0.551247
0 0.624369 0.703014
0.276143 0.27982 0
0.184573 0.325277 0
0.0930037 0.370733 0
0.00141909 0.416205 0.0788891
0 0.461662 0.230655
0 0.507134 0.382406
0 0.55259 0.534173
0 0.598062 0.685924
0 0.643519 0.837674
0.571221 0.29897 0
0.479652 0.344442 0
0.388083 0.389899 0.0618143
0.296498 0.43537 0.213565
0.204913 0.480827 0.365316
0.113329 0.526299 0.517082
0.0217441 0.571756 0.668833
0 0.617227 0.8206
0 0.662684 0.972351
0.8663 0.318135 0
0.774731 0.363592 0.0447242
0.683162 0.409064 0.196475
0.591577 0.45452 0.348241
0.499992 0.499992 0.499992
0.408408 0.545464 0.651743
0.316823 0.590921 0.80351
0.225254 0.636393 0.955261
0.133669 0.681849 1
1 0.337301 0.0276493
1 0.382757 0.179385
0.978241 0.428229 0.331151
0.886656 0.473686 0.482902
0.795071 0.519158 0.634668
0.703487 0.564614 0.786419
0.611902 0.610086 0.93817
0.520333 0.655543 1
0.428748 0.701015 1
1 0.356466 0.162325
1 0.401923 0.314061
1 0.447395 0.465812
1 0.492851 0.617578
1 0.538323 0.769329
0.998566 0.58378 0.921096
0.906981 0.629252 1
0.815412 0.674708 1
0.723827 0.72018 1
1 0.375631 0.296986
1 0.421088 0.448737
1 0.466545 0.600488
1 0.512016 0.752239
1 0.557473 0.904005
1 0.602945 1
1 0.648402 1
1 0.693874 1
1 0.739345 1
1 0.394797 0.431662
1 0.440253 0.583398
1 0.48571 0.735164
1 0.531182 0.886915
1 0.576638 1
1 0.62211 1
1 0.667567 1
1 0.713039 1
1 0.758495 1
0 0.301869 0
0 0.347326 0
0 0.392798 0
0 0.438254 0
0 0.483726 0
0 0.529183 0
0 0.574655 0.10341
0 0.620111 0.255177
0 0.665583 0.406928
0 0.321035 0
0 0.366491 0
0 0.411948 0
0 0.45742 0
0 0.502876 0
0 0.548348 0.0863203
0 0.593805 0.238071
0 0.639277 0.389822
0 0.684733 0.541588
0.19765 0.340185 0
0.106081 0.385641 0
0.0144961 0.431113 0
0 0.476585 0
0 0.522042 0.0692302
0 0.567514 0.220981
0 0.61297 0.372747
0 0.658442 0.524498
0 0.703899 0.676249
0.492729 0.35935 0
0.40116 0.404807 0
0.309575 0.450278 0
0.218006 0.495735 0.0521401
0.126421 0.541207 0.203891
0.0348363 0.586664 0.355657
0 0.632136 0.507408
0 0.677592 0.659175
0 0.723064 0.810925
0.787808 0.378515 0
0.696239 0.423972 0
0.604654 0.469444 0.03505
0.513085 0.5149 0.186816
0.4215 0.560372 0.338567
0.329915 0.605829 0.490318
0.238331 0.651301 0.642084
0.146746 0.696757 0.793835
0.0551766 0.742229 0.945602
1 0.397681 0
0.991318 0.443137 0.0179599
0.899733 0.488594 0.169726
0.808164 0.534066 0.321477
0.716579 0.579522 0.473243
0.624994 0.624994 0.624994
0.53341 0.670466 0.776745
0.441825 0.715923 0.928512
0.350256 0.761395 1
1 0.416846 0.000900282
1 0.462303 0.152636
1 0.507759 0.304387
1 0.553231 0.456153
1 0.598688 0.607904
0.920073 0.64416 0.75967
0.828489 0.689616 0.911421
0.736904 0.735088 1
0.645335 0.780545 1
1 0.435996 0.135561
1 0.481468 0.287312
1 0.526925 0.439063
1 0.572396 0.590814
1 0.617853 0.74258
1 0.663325 0.894331
1 0.708782 1
1 0.754253 1
0.940414 0.79971 1
1 0.455161 0.270237
1 0.500618 0.421973
1 0.54609 0.573739
1 0.591546 0.72549
1 0.637018 0.877241
1 0.682475 1
1 0.727947 1
1 0.773404 1
1 0.818875 1
0 0.362249 0
0 0.407706 0
0 0.453162 0
0 0.498634 0
0 0.544091 0
0 0.589563 0
0 0.635019 0
0 0.680491 0.0937514
0 0.725948 0.245502
0 0.381399 0
0 0.426856 0
0 0.472328 0
0 0.517784 0
0 0.563256 0
0 0.608713 0
0 0.654185 0.0766461
0 0.699641 0.228397
0 0.745113 0.380163
0.119158 0.400565 0
0.0275883 0.446021 0
0 0.491493 0
0 0.53695 0
0 0.582422 0
0 0.627878 0.059556
0 0.67335 0.211322
0 0.718807 0.363073
0 0.764279 0.514824
0.414237 0.41973 0
0.322667 0.465187 0
0.231083 0.510643 0
0.139498 0.556115 0
0.0479133 0.601587 0.0424659
0 0.647044 0.194232
0 0.692515 0.345983
0 0.737972 0.497749
0 0.783444 0.6495
0.709316 0.438895 0
0.617746 0.484352 0
0.526162 0.529809 0
0.434577 0.57528 0.025391
0.343008 0.620737 0.177142
0.251423 0.666209 0.328893
0.159838 0.711666 0.480659
0.0682536 0.757137 0.63241
0 0.802594 0.784176
1 0.458045 0
0.912825 0.503517 0
0.821241 0.548974 0.00830091
0.729656 0.594446 0.160052
0.638086 0.639902 0.311818
0.546502 0.685374 0.463569
0.454917 0.730831 0.61532
0.363333 0.776303 0.767086
0.271748 0.821759 0.918837
1 0.477211 0
1 0.522667 0
1 0.568139 0.142962
1 0.613596 0.294728
0.933165 0.659068 0.446479
0.841581 0.704524 0.598245
0.749996 0.749996 0.749996
0.658412 0.795468 0.901747
0.566827 0.840925 1
1 0.496376 0
1 0.541833 0.125887
1 0.587304 0.277638
1 0.632761 0.429389
1 0.678233 0.581155
1 0.72369 0.732906
1 0.769162 0.884672
0.95349 0.814618 1
0.861906 0.86009 1
1 0.515541 0.108812
1 0.560998 0.260548
1 0.60647 0.412314
1 0.651926 0.564065
1 0.697398 0.715816
1 0.742855 0.867582
1 0.788327 1
1 0.833783 1
1 0.879255 1
0 0.422614 0
0 0.468071 0
0 0.513542 0
0 0.558999 0
0 0.604471 0
0 0.649927 0
0 0.695399 0
0 0.740856 0
0 0.786328 0.0840772
0 0.441779 0
0 0.487236 0
0 0.532708 0
0 0.578164 0
0 0.623636 0
0 0.669093 0
0 0.714565 0
0 0.760021 0.0669718
0 0.805493 0.218738
0.0406653 0.460945 0
0 0.506401 0
0 0.551858 0
0 0.59733 0
0 0.642786 0
0 0.688258 0
0 0.733715 0.049897
0 0.779187 0.201648
0 0.824643 0.353399
0.335744 0.480095 0
0.244175 0.525567 0
0.15259 0.571023 0
0.0610056 0.616495 0
0 0.661952 0
0 0.707424 0.0328069
0 0.75288 0.184558
0 0.798352 0.336324
0 0.843809 0.488075
0.630823 0.49926 0
0.539254 0.544717 0
0.447669 0.590188 0
0.356085 0.635645 0
0.2645 0.681117 0.0157168
0.172915 0.726589 0.167468
0.0813458 0.772045 0.319234
0 0.817517 0.470985
0 0.862974 0.622751
0.925902 0.518425 0
0.834333 0.563882 0
0.742748 0.609354 0
0.651164 0.65481 0
0.559579 0.700282 0.150393
0.468009 0.745739 0.302144
0.376425 0.791211 0.453895
0.28484 0.836667 0.605661
0.193256 0.882139 0.757412
1 0.537591 0
1 0.583047 0
1 0.628519 0
0.946242 0.673976 0.133303
0.854658 0.719448 0.285054
0.763088 0.764904 0.43682
0.671504 0.810376 0.588571
0.579919 0.855833 0.740322
0.488334 0.901305 0.892088
1 0.556756 0
1 0.602213 0
1 0.647669 0.116213
1 0.693141 0.267964
1 0.738598 0.41973
1 0.78407 0.571481
0.966583 0.829526 0.723247
0.874998 0.874998 0.874998
0.783413 0.92047 1
1 0.575921 0
1 0.621378 0.0991226
1 0.666835 0.250889
1 0.712306 0.40264
1 0.757763 0.554391
1 0.803235 0.706157
1 0.848692 0.857908
1 0.894163 1
1 0.93962 1
0 0.482994 0
0 0.52845 0
0 0.573922 0
0 0.619379 0
0 0.664851 0
0 0.710307 0
0 0.755779 0
0 0.801236 0
0 0.846708 0
0 0.502159 0
0 0.547616 0
0 0.593072 0
0 0.638544 0
0 0.684001 0
0 0.729473 0
0 0.774929 0
0 0.820401 0
0 0.865858 0.0573129
0 0.521309 0
0 0.566781 0
0 0.612238 0
0 0.65771 0
0 0.703166 0
0 0.748638 0
0 0.794095 0
0 0.839567 0.0402228
0 0.885023 0.191974
0.257237 0.540475 0
0.165667 0.585931 0
0.0740978 0.631403 0
0 0.67686 0
0 0.722332 0
0 0.767788 0
0 0.81326 0.0231327
0 0.858717 0.174899
0 0.904189 0.32665
0.552331 0.55964 0
0.460746 0.605097 0
0.369177 0.650568 0
0.277592 0.696025 0
0.186007 0.741497 0
0.0944228 0.786954 0.00604257
0.00283818 0.832425 0.157809
0 0.877882 0.30956
0 0.923354 0.461326
0.84741 0.578805 0
0.755825 0.624262 0
0.664256 0.669718 0
0.572671 0.71519 0
0.481086 0.760647 0
0.389502 0.806119 0.140719
0.297917 0.851591 0.29247
0.206348 0.897047 0.444236
0.114763 0.942519 0.595987
1 0.597971 0
1 0.643427 0
0.959335 0.688884 0
0.86775 0.734356 0
0.776165 0.779812 0.123629
0.684581 0.825284 0.275395
0.593011 0.870741 0.427146
0.501427 0.916213 0.578897
0.409842 0.961669 0.730663
1 0.617121 0
1 0.662593 0
1 0.708049 0
1 0.753521 0.106538
1 0.798978 0.258305
0.97966 0.84445 0.410056
0.88809 0.889906 0.561822
0.796506 0.935378 0.713573
0.704921 0.980835 0.865324
1 0.636286 0
1 0.681743 0
1 0.727214 0.0894636
1 0.772671 0.241215
1 0.818143 0.392966
1 0.8636 0.544732
1 0.909072 0.696483
1 0.954528 0.848249
1 1 1
