public/LUTS/Color Shift/ColorShift_48.cube
TITLE "Generated by Resolve"
LUT_3D_SIZE 9
0 0 0
0 0.0511635 0.0585031
0 0.102342 0.117006
0 0.153521 0.175509
0 0.2047 0.234012
0 0.255879 0.292515
0 0.307057 0.351019
0 0.358236 0.409522
0 0.4094 0.468025
0.180453 0.049073 0.169406
0.109804 0.100237 0.227893
0.0391546 0.151415 0.286397
0 0.202594 0.3449
0 0.253773 0.403403
0 0.304952 0.461906
0 0.356115 0.520409
0 0.407294 0.578912
0 0.458473 0.637415
0.360937 0.098146 0.338827
0.290288 0.14931 0.39733
0.219638 0.200488 0.455833
0.148974 0.251667 0.514336
0.0783246 0.302846 0.572839
0.00766003 0.354025 0.631342
0 0.405203 0.689845
0 0.456367 0.748348
0 0.507546 0.806851
0.541421 0.147219 0.508247
0.470771 0.198383 0.566751
0.400107 0.249561 0.625254
0.329458 0.30074 0.683757
0.258793 0.351919 0.74226
0.188144 0.403098 0.800763
0.117479 0.454276 0.859266
0.0468299 0.505455 0.917769
0 0.556619 0.976272
0.721904 0.196292 0.677668
0.651255 0.247456 0.736171
0.580591 0.298634 0.794675
0.509941 0.349813 0.853178
0.439277 0.400992 0.911681
0.368627 0.452171 0.970184
0.297963 0.503349 1
0.227298 0.554528 1
0.156649 0.605692 1
0.902388 0.245365 0.847105
0.831739 0.296529 0.905592
0.761074 0.347707 0.964096
0.690425 0.398886 1
0.61976 0.450065 1
0.549096 0.501244 1
0.478447 0.552422 1
0.407782 0.603601 1
0.337133 0.65478 1
1 0.294438 1
1 0.345617 1
0.941558 0.39678 1
0.870893 0.447959 1
0.800244 0.499138 1
0.72958 0.550317 1
0.65893 0.601495 1
0.588266 0.652674 1
0.517617 0.703853 1
1 0.343511 1
1 0.39469 1
1 0.445869 1
1 0.497032 1
0.980728 0.548211 1
0.910063 0.59939 1
0.839414 0.650568 1
0.76875 0.701747 1
0.698085 0.752926 1
1 0.392584 1
1 0.443763 1
1 0.494942 1
1 0.546105 1
1 0.597284 1
1 0.648463 1
1 0.699641 1
0.949233 0.75082 1
0.878569 0.801999 1
0.0151827 0.0247501 0
0 0.0759136 0
0 0.127092 0.0140841
0 0.178271 0.0725872
0 0.22945 0.13109
0 0.280629 0.189593
0 0.331807 0.248096
0 0.382971 0.3066
0 0.43415 0.365103
0.195636 0.0738231 0.0664836
0.124987 0.124987 0.124987
0.0543221 0.176165 0.18349
0 0.227344 0.241993
0 0.278523 0.300496
0 0.329686 0.358999
0 0.380865 0.417502
0 0.432044 0.476005
0 0.483223 0.534508
0.37612 0.122896 0.23592
0.30547 0.17406 0.294408
0.234806 0.225238 0.352911
0.164157 0.276417 0.411414
0.093492 0.327596 0.469917
0.0228428 0.378775 0.52842
0 0.429938 0.586923
0 0.481117 0.645426
0 0.532296 0.703929
0.556603 0.171969 0.405341
0.485954 0.223133 0.463828
0.41529 0.274311 0.522332
0.34464 0.32549 0.580835
0.273976 0.376669 0.639338
0.203311 0.427848 0.697841
0.132662 0.479011 0.756344
0.0619974 0.53019 0.814847
0 0.581369 0.87335
0.737087 0.221042 0.574762
0.666438 0.272206 0.633265
0.595773 0.323384 0.691768
0.525109 0.374563 0.750271
0.454459 0.425742 0.808774
0.383795 0.476921 0.867277
0.313146 0.528099 0.92578
0.242481 0.579263 0.984283
0.171832 0.630442 1
0.917556 0.270115 0.744183
0.846906 0.321279 0.802686
0.776257 0.372457 0.861189
0.705592 0.423636 0.919692
0.634943 0.474815 0.978195
0.564279 0.525994 1
0.493614 0.577173 1
0.422965 0.628351 1
0.3523 0.679515 1
1 0.319188 0.913619
1 0.370352 0.972107
0.956741 0.42153 1
0.886076 0.472709 1
0.815412 0.523888 1
0.744762 0.575067 1
0.674098 0.626245 1
0.603449 0.677424 1
0.532784 0.728588 1
1 0.368261 1
1 0.41944 1
1 0.470603 1
1 0.521782 1
0.995895 0.572961 1
0.925246 0.62414 1
0.854582 0.675319 1
0.783932 0.726497 1
0.713268 0.777676 1
1 0.417334 1
1 0.468513 1
1 0.519677 1
1 0.570855 1
1 0.622034 1
1 0.673213 1
1 0.724392 1
0.964401 0.77557 1
0.893751 0.826749 1
0.0303502 0.0495003 0
0 0.100664 0
0 0.151843 0
0 0.203021 0
0 0.2542 0.0281682
0 0.305379 0.0866712
0 0.356558 0.145174
0 0.407736 0.203677
0 0.4589 0.262181
0.210819 0.0985733 0
0.140169 0.149737 0.0220645
0.0695048 0.200916 0.0805676
0 0.252094 0.139071
0 0.303273 0.197574
0 0.354452 0.256077
0 0.405615 0.31458
0 0.456794 0.373083
0 0.507973 0.431586
0.391302 0.147646 0.132982
0.320653 0.19881 0.191485
0.249989 0.249989 0.249989
0.179324 0.301167 0.308492
0.108675 0.352346 0.366995
0.0380102 0.403525 0.425498
0 0.454688 0.484001
0 0.505867 0.542504
0 0.557046 0.601007
0.571771 0.196719 0.302419
0.501122 0.247883 0.360906
0.430472 0.299062 0.419409
0.359808 0.35024 0.477913
0.289158 0.401419 0.536416
0.218494 0.452598 0.594919
0.147845 0.503777 0.653422
0.0771801 0.55494 0.711925
0.0065156 0.606119 0.770428
0.752255 0.245792 0.471839
0.681605 0.296956 0.530327
0.610956 0.348135 0.58883
0.540291 0.399313 0.647334
0.469642 0.450492 0.705837
0.398978 0.501671 0.76434
0.328313 0.55285 0.822843
0.257664 0.604013 0.881346
0.186999 0.655192 0.939849
0.932738 0.294865 0.64126
0.862089 0.346029 0.699763
0.79144 0.397208 0.758267
0.720775 0.448386 0.81677
0.650111 0.499565 0.875273
0.579461 0.550744 0.933776
0.508797 0.601923 0.992279
0.438148 0.653101 1
0.367483 0.704265 1
1 0.343938 0.810681
1 0.395102 0.869184
0.971908 0.446281 0.927687
0.901259 0.497459 0.986191
0.830594 0.548638 1
0.759945 0.599817 1
0.689281 0.650996 1
0.618631 0.702174 1
0.547967 0.753353 1
1 0.393011 0.980117
1 0.44419 1
1 0.495354 1
1 0.546532 1
1 0.597711 1
0.940414 0.64889 1
0.869764 0.700069 1
0.7991 0.751247 1
0.72845 0.802426 1
1 0.442084 1
1 0.493263 1
1 0.544442 1
1 0.595605 1
1 0.646784 1
1 0.697963 1
1 0.749142 1
0.979583 0.80032 1
0.908934 0.851499 1
0.0455329 0.0742504 0
0 0.125414 0
0 0.176593 0
0 0.227771 0
0 0.27895 0
0 0.330129 0
0 0.381308 0.0422522
0 0.432486 0.100755
0 0.48365 0.159258
0.225986 0.123323 0
0.155337 0.174487 0
0.0846876 0.225666 0
0.014023 0.276844 0.0361486
0 0.328023 0.0946517
0 0.379202 0.153155
0 0.430365 0.211658
0 0.481544 0.270161
0 0.532723 0.328664
0.40647 0.172396 0.0300603
0.335821 0.22356 0.0885634
0.265171 0.274739 0.147066
0.194507 0.325917 0.20557
0.123857 0.377096 0.264073
0.053193 0.428275 0.322576
0 0.479454 0.381079
0 0.530617 0.439582
0 0.581796 0.498085
0.586954 0.221469 0.199481
0.516304 0.272633 0.257984
0.445655 0.323812 0.316487
0.37499 0.37499 0.37499
0.304326 0.426169 0.433494
0.233677 0.477348 0.491997
0.163012 0.528527 0.5505
0.0923629 0.57969 0.609003
0.0216983 0.630869 0.667506
0.767437 0.270542 0.368917
0.696788 0.321706 0.427405
0.626123 0.372885 0.485908
0.555474 0.424063 0.544411
0.48481 0.475242 0.602914
0.41416 0.526421 0.661418
0.343496 0.5776 0.719921
0.272847 0.628779 0.778424
0.202182 0.679942 0.836927
0.947921 0.319615 0.538338
0.877272 0.370779 0.596826
0.806607 0.421958 0.655329
0.735958 0.473136 0.713832
0.665293 0.524315 0.772335
0.594644 0.575494 0.830839
0.52398 0.626673 0.889342
0.453315 0.677852 0.947845
0.382666 0.729015 1
1 0.368688 0.707759
1 0.419867 0.766262
0.987091 0.471031 0.824765
0.916442 0.52221 0.883268
0.845777 0.573388 0.941772
0.775113 0.624567 1
0.704463 0.675746 1
0.633799 0.726925 1
0.563149 0.778103 1
1 0.417762 0.87718
1 0.46894 0.935683
1 0.520104 0.994186
1 0.571283 1
1 0.622461 1
0.955596 0.67364 1
0.884947 0.724819 1
0.814282 0.775998 1
0.743633 0.827176 1
1 0.466835 1
1 0.518013 1
1 0.569192 1
1 0.620356 1
1 0.671534 1
1 0.722713 1
1 0.773892 1
0.994766 0.825071 1
0.924102 0.876249 1
0.0607156 0.0990005 0
0 0.150164 0
0 0.201343 0
0 0.252522 0
0 0.3037 0
0 0.354879 0
0 0.406058 0
0 0.457237 0
0 0.5084 0.0563363
0.241169 0.148074 0
0.17052 0.199237 0
0.0998703 0.250416 0
0.0292058 0.301595 0
0 0.352773 0
0 0.403952 0.0502174
0 0.455116 0.108721
0 0.506294 0.167224
0 0.557473 0.225727
0.421653 0.197147 0
0.351003 0.24831 0
0.280339 0.299489 0.0441444
0.209689 0.350668 0.102647
0.139025 0.401846 0.161151
0.0683757 0.453025 0.219654
0 0.504204 0.278157
0 0.555367 0.33666
0 0.606546 0.395163
0.602136 0.24622 0.0965591
0.531487 0.297383 0.155062
0.460822 0.348562 0.213565
0.390173 0.399741 0.272068
0.319509 0.450919 0.330571
0.248859 0.502098 0.389075
0.178195 0.553277 0.447578
0.10753 0.604456 0.506081
0.0368811 0.655619 0.564584
0.78262 0.295293 0.26598
0.711971 0.346456 0.324483
0.641306 0.397635 0.382986
0.570657 0.448814 0.441489
0.499992 0.499992 0.499992
0.429328 0.551171 0.558495
0.358679 0.60235 0.616999
0.288014 0.653529 0.675502
0.217365 0.704692 0.734005
0.963104 0.344366 0.435416
0.892454 0.395529 0.493904
0.82179 0.446708 0.552407
0.751125 0.497887 0.61091
0.680476 0.549065 0.669413
0.609812 0.600244 0.727916
0.539162 0.651423 0.786419
0.468498 0.702602 0.844923
0.397848 0.75378 0.903426
1 0.393439 0.604837
1 0.444617 0.663325
1 0.495781 0.721828
0.931609 0.54696 0.780331
0.86096 0.598138 0.838834
0.790295 0.649317 0.897337
0.719646 0.700496 0.95584
0.648981 0.751675 1
0.578317 0.802853 1
1 0.442512 0.774258
1 0.49369 0.832761
1 0.544869 0.891264
1 0.596033 0.949767
1 0.647211 1
0.970779 0.69839 1
0.900114 0.749569 1
0.829465 0.800748 1
0.758801 0.851926 1
1 0.491585 0.943679
1 0.542763 1
1 0.593942 1
1 0.645106 1
1 0.696284 1
1 0.747463 1
1 0.798642 1
1 0.849821 1
0.939284 0.900999 1
0.0758984 0.123751 0
0.0052491 0.174929 0
0 0.226093 0
0 0.277272 0
0 0.32845 0
0 0.379629 0
0 0.430808 0
0 0.481987 0
0 0.533165 0
0.256352 0.172824 0
0.185702 0.223987 0
0.115038 0.275166 0
0.0443885 0.326345 0
0 0.377523 0
0 0.428702 0
0 0.479881 0.00579843
0 0.531044 0.0643015
0 0.582223 0.122805
0.436835 0.221897 0
0.366186 0.27306 0
0.295521 0.324239 0
0.224872 0.375418 0
0.154208 0.426596 0.0582132
0.0835431 0.477775 0.116716
0.0128939 0.528954 0.175219
0 0.580118 0.233722
0 0.631296 0.292226
0.617319 0.27097 0
0.54667 0.322133 0.0521401
0.476005 0.373312 0.110643
0.405341 0.424491 0.169146
0.334691 0.47567 0.227649
0.264027 0.526848 0.286152
0.193378 0.578027 0.344656
0.122713 0.629206 0.403159
0.0520638 0.680369 0.461662
0.797787 0.320043 0.163058
0.727138 0.371206 0.221561
0.656489 0.422385 0.280064
0.585824 0.473564 0.338567
0.515175 0.524742 0.39707
0.444511 0.575921 0.455573
0.373861 0.6271 0.514076
0.303197 0.678279 0.57258
0.232532 0.729458 0.631083
0.978271 0.369116 0.332479
0.907622 0.420294 0.390982
0.836973 0.471458 0.449485
0.766308 0.522637 0.507988
0.695659 0.573816 0.566491
0.624994 0.624994 0.624994
0.55433 0.676173 0.683497
0.48368 0.727352 0.742
0.413016 0.778531 0.800504
1 0.418189 0.501915
1 0.469368 0.560403
1 0.520531 0.618906
0.946792 0.57171 0.677409
0.876127 0.622889 0.735912
0.805478 0.674067 0.794415
0.734813 0.725246 0.852918
0.664164 0.776425 0.911421
0.5935 0.827604 0.969924
1 0.467262 0.671336
1 0.518441 0.729824
1 0.569619 0.788327
1 0.620783 0.84683
1 0.671962 0.905333
0.985962 0.72314 0.963836
0.915297 0.774319 1
0.844648 0.825498 1
0.773983 0.876677 1
1 0.516335 0.840757
1 0.567514 0.89926
1 0.618692 0.957763
1 0.669871 1
1 0.721035 1
1 0.772213 1
1 0.823392 1
1 0.874571 1
0.954467 0.92575 1
0.0910658 0.148501 0
0.0204166 0.19968 0
0 0.250843 0
0 0.302022 0
0 0.353201 0
0 0.404379 0
0 0.455558 0
0 0.506737 0
0 0.557916 0
0.271534 0.197574 0
0.200885 0.248737 0
0.13022 0.299916 0
0.0595712 0.351095 0
0 0.402274 0
0 0.453452 0
0 0.504631 0
0 0.555795 0
0 0.606973 0.0198825
0.452018 0.246647 0
0.381369 0.29781 0
0.310704 0.348989 0
0.24004 0.400168 0
0.16939 0.451347 0
0.0987259 0.502525 0.0137942
0.0280766 0.553704 0.0722972
0 0.604883 0.1308
0 0.656046 0.189303
0.632486 0.29572 0
0.561837 0.346883 0
0.491188 0.398062 0.00770581
0.420523 0.449241 0.0662089
0.349874 0.50042 0.124712
0.27921 0.551598 0.183215
0.208545 0.602777 0.241718
0.137896 0.653956 0.300221
0.0672313 0.705119 0.358724
0.81297 0.344793 0.0601358
0.742321 0.395972 0.118639
0.671672 0.447135 0.177142
0.601007 0.498314 0.235645
0.530343 0.549493 0.294148
0.459693 0.600671 0.352651
0.389029 0.65185 0.411154
0.318379 0.703029 0.469657
0.247715 0.754208 0.528161
0.993454 0.393866 0.229557
0.922805 0.445045 0.28806
0.85214 0.496208 0.346563
0.781491 0.547387 0.405066
0.710826 0.598566 0.463569
0.640177 0.649744 0.522072
0.569512 0.700923 0.580575
0.498863 0.752102 0.639078
0.428199 0.803281 0.697581
1 0.442939 0.398978
1 0.494118 0.457481
1 0.545296 0.515984
0.961975 0.59646 0.574487
0.89131 0.647639 0.63299
0.820661 0.698817 0.691493
0.749996 0.749996 0.749996
0.679332 0.801175 0.808499
0.608682 0.852354 0.867002
1 0.492012 0.568414
1 0.543191 0.626902
1 0.594369 0.685405
1 0.645533 0.743908
1 0.696712 0.802411
1 0.74789 0.860914
0.93048 0.799069 0.919417
0.859815 0.850248 0.97792
0.789166 0.901427 1
1 0.541085 0.737835
1 0.592264 0.796323
1 0.643442 0.854826
1 0.694621 0.913329
1 0.745785 0.971832
1 0.796963 1
1 0.848142 1
1 0.899321 1
0.96965 0.9505 1
0.106249 0.173251 0
0.0355993 0.22443 0
0 0.275593 0
0 0.326772 0
0 0.377951 0
0 0.429129 0
0 0.480308 0
0 0.531487 0
0 0.582666 0
0.286702 0.222324 0
0.216052 0.273487 0
0.145403 0.324666 0
0.0747387 0.375845 0
0.00408942 0.427024 0
0 0.478202 0
0 0.529381 0
0 0.580545 0
0 0.631724 0
0.467185 0.271397 0
0.396536 0.32256 0
0.325887 0.373739 0
0.255222 0.424918 0
0.184573 0.476097 0
0.113909 0.527276 0
0.0432441 0.578454 0
0 0.629633 0.0278782
0 0.680797 0.0863813
0.647669 0.32047 0
0.57702 0.371633 0
0.506355 0.422812 0
0.435706 0.473991 0
0.365042 0.52517 0.0217899
0.294392 0.576349 0.080293
0.223728 0.627527 0.138796
0.153079 0.678706 0.197299
0.082414 0.729885 0.255802
0.828153 0.369543 0
0.757504 0.420722 0.0157015
0.686839 0.471885 0.0742046
0.61619 0.523064 0.132708
0.545525 0.574243 0.191211
0.474876 0.625422 0.249714
0.404211 0.6766 0.308217
0.333547 0.727779 0.36672
0.262898 0.778958 0.425223
1 0.418616 0.126635
0.937987 0.469795 0.185138
0.867323 0.520974 0.243641
0.796674 0.572137 0.302144
0.726009 0.623316 0.360647
0.655344 0.674495 0.41915
0.584695 0.725673 0.477653
0.514031 0.776852 0.536156
0.443381 0.828031 0.594659
1 0.467689 0.296056
1 0.518868 0.354559
1 0.570047 0.413062
0.977142 0.62121 0.471565
0.906493 0.672389 0.530068
0.835828 0.723568 0.588571
0.765179 0.774746 0.647074
0.694514 0.825925 0.705577
0.623865 0.877104 0.76408
1 0.516762 0.465476
1 0.567941 0.52398
1 0.61912 0.582483
1 0.670298 0.640986
1 0.721462 0.699489
1 0.772641 0.757992
0.945663 0.823819 0.816495
0.874998 0.874998 0.874998
0.804334 0.926177 0.933501
1 0.565835 0.634913
1 0.617014 0.693401
1 0.668193 0.751904
1 0.719371 0.810407
1 0.770535 0.86891
1 0.821714 0.927413
1 0.872892 0.985916
1 0.924071 1
0.984817 0.97525 1
0.121431 0.198001 0
0.050782 0.24918 0
0 0.300359 0
0 0.351522 0
0 0.402701 0
0 0.45388 0
0 0.505058 0
0 0.556237 0
0 0.607416 0
0.301885 0.247074 0
0.231235 0.298238 0
0.160586 0.349416 0
0.0899214 0.400595 0
0.0192569 0.451774 0
0 0.502953 0
0 0.554131 0
0 0.60531 0
0 0.656474 0
0.482368 0.296147 0
0.411719 0.347311 0
0.341054 0.398489 0
0.270405 0.449668 0
0.199741 0.500847 0
0.129091 0.552026 0
0.0584268 0.603204 0
0 0.654383 0
0 0.705547 0
0.662852 0.34522 0
0.592203 0.396399 0
0.521538 0.447562 0
0.450889 0.498741 0
0.380224 0.54992 0
0.309575 0.601099 0
0.238911 0.652277 0.035874
0.168246 0.703456 0.094377
0.0975967 0.754635 0.15288
0.843336 0.394293 0
0.772686 0.445472 0
0.702022 0.496635 0
0.631357 0.547814 0.0297856
0.560708 0.598993 0.0882887
0.490043 0.650172 0.146792
0.419394 0.70135 0.205295
0.34873 0.752529 0.263798
0.27808 0.803708 0.322301
1 0.443366 0.0237125
0.953155 0.494545 0.0822003
0.882506 0.545724 0.140703
0.811841 0.596887 0.199207
0.741192 0.648066 0.25771
0.670527 0.699245 0.316213
0.599878 0.750423 0.374716
0.529213 0.801602 0.433219
0.458549 0.852781 0.491722
1 0.492439 0.193133
1 0.543618 0.251637
1 0.594797 0.31014
0.992325 0.645975 0.368643
0.921675 0.697139 0.427146
0.851011 0.748318 0.485649
0.780346 0.799496 0.544152
0.709697 0.850675 0.602655
0.639033 0.901854 0.661158
1 0.541512 0.362554
1 0.592691 0.421057
1 0.64387 0.479561
1 0.695048 0.538064
1 0.746212 0.596567
1 0.797391 0.65507
0.96083 0.848569 0.713573
0.890181 0.899748 0.772076
0.819516 0.950927 0.830579
1 0.5906 0.531975
1 0.641764 0.590478
1 0.692943 0.648981
1 0.744121 0.707485
1 0.7953 0.765988
1 0.846464 0.824491
1 0.897642 0.882994
1 0.948821 0.941497
1 1 1
