public/LUTS/Color Shift/ColorShift_25.cube
TITLE "Generated by Resolve"
LUT_3D_SIZE 5
0 0 0
0.256321 0 0.0370642
0.512673 0 0.0741283
0.769009 0 0.111192
1 0 0.148257
0.03682 0.242695 0
0.293156 0.236027 0.00788891
0.549493 0.229358 0.0449531
0.805844 0.22269 0.0820172
1 0.216022 0.119081
0.0736553 0.48539 0
0.329976 0.478721 0
0.586328 0.472053 0.0157931
0.842664 0.465385 0.0528573
1 0.458717 0.0899214
0.110491 0.728099 0
0.366812 0.721431 0
0.623148 0.714763 0
0.879499 0.708095 0.023682
1 0.701427 0.0607462
0.147311 0.97081 0
0.403647 0.964141 0
0.659983 0.957473 0
0.916335 0.950805 0
1 0.944137 0.0315862
0 0.013962 0.2421
0.213169 0.00729381 0.279149
0.469505 0.00062562 0.316213
0.725841 0 0.353277
0.982193 0 0.390341
0 0.256657 0.212924
0.249989 0.249989 0.249989
0.506325 0.24332 0.287053
0.762676 0.236652 0.324117
1 0.229984 0.361181
0.0304875 0.499367 0.183764
0.286824 0.492699 0.220829
0.54316 0.48603 0.257877
0.799496 0.479362 0.294942
1 0.472694 0.332006
0.0673228 0.742061 0.154589
0.323644 0.735393 0.191653
0.579995 0.728725 0.228717
0.836332 0.722057 0.265782
1 0.715389 0.302846
0.104143 0.984771 0.125429
0.360479 0.978103 0.162493
0.616815 0.971435 0.199557
0.873167 0.964767 0.236622
1 0.958099 0.273671
0 0.0279393 0.484199
0.170001 0.0212711 0.521263
0.426337 0.0146029 0.558328
0.682673 0.00793469 0.595392
0.939025 0.0012665 0.632456
0 0.270619 0.455039
0.206821 0.263951 0.492103
0.463157 0.257282 0.529152
0.719509 0.250614 0.566217
0.975845 0.243946 0.603281
0 0.513329 0.425864
0.243656 0.506661 0.462928
0.499992 0.499992 0.499992
0.756329 0.493324 0.537057
1 0.486656 0.574121
0.024155 0.756039 0.396704
0.280476 0.749371 0.433768
0.536828 0.742702 0.470832
0.793164 0.736034 0.507881
1 0.729366 0.544945
0.0609751 0.998734 0.367529
0.317311 0.992065 0.404593
0.573648 0.985397 0.441657
0.829999 0.978729 0.478721
1 0.972061 0.515785
0 0.0419013 0.726314
0.126818 0.0352331 0.763363
0.383169 0.0285649 0.800427
0.639506 0.0218967 0.837491
0.895857 0.0152285 0.874556
0 0.284596 0.697139
0.163653 0.277928 0.734203
0.419989 0.27126 0.771267
0.676341 0.264591 0.808331
0.932677 0.257923 0.845396
0 0.527291 0.667979
0.200488 0.520623 0.705043
0.456825 0.513954 0.742107
0.713161 0.507286 0.779156
0.969512 0.500618 0.81622
0 0.770001 0.638804
0.237308 0.763333 0.675868
0.49366 0.756664 0.712932
0.749996 0.749996 0.749996
1 0.743328 0.78706
0.0178073 1 0.609644
0.274144 1 0.646708
0.53048 0.999374 0.683772
0.786831 0.992706 0.720836
1 0.986038 0.7579
0 0.0558633 0.968414
0.08365 0.0491951 1
0.340002 0.0425269 1
0.596338 0.0358587 1
0.852689 0.0291905 1
0 0.298558 0.939254
0.120485 0.29189 0.976318
0.376822 0.285222 1
0.633173 0.278553 1
0.889509 0.271885 1
0 0.541268 0.910079
0.157305 0.5346 0.947143
0.413657 0.527932 0.984207
0.669993 0.521263 1
0.926345 0.514595 1
0 0.783963 0.880919
0.194141 0.777295 0.917983
0.450492 0.770626 0.955047
0.706828 0.763958 0.992111
0.963165 0.75729 1
0 1 0.851743
0.230976 1 0.888808
0.487312 1 0.925872
0.743664 1 0.962936
1 1 1
