public/LUTS/Color Shift/ColorShift_15.cube
TITLE "Generated by Resolve"
LUT_3D_SIZE 9
0 0 0
0.0253758 0.039353 0
0.0507668 0.078706 0
0.0761425 0.118059 0
0.101534 0.157427 0
0.126909 0.19678 0
0.1523 0.236133 0
0.177676 0.275486 0
0.203067 0.314855 0
0 0.112245 0.149111
0.00395209 0.151598 0.0754559
0.0293278 0.190951 0.00178531
0.0547189 0.230304 0
0.0800946 0.269673 0
0.105486 0.309026 0
0.130861 0.348379 0
0.156252 0.387732 0
0.181628 0.4271 0
0 0.224506 0.298253
0 0.263859 0.224598
0.00790417 0.303212 0.150927
0.0332799 0.342565 0.0772564
0.0586709 0.381918 0.00358587
0.0840467 0.421286 0
0.109438 0.460639 0
0.134813 0.499992 0
0.160204 0.539345 0
0 0.336767 0.447379
0 0.37612 0.373724
0 0.415473 0.300053
0.0118563 0.454826 0.226398
0.037232 0.494179 0.152728
0.062623 0.533547 0.079057
0.0879988 0.5729 0.00538643
0.11339 0.612253 0
0.138766 0.651606 0
0 0.449012 0.596521
0 0.488365 0.522866
0 0.527733 0.449195
0 0.567086 0.375525
0.0157931 0.606439 0.301854
0.0411841 0.645792 0.228199
0.0665599 0.685161 0.154528
0.0919509 0.724514 0.0808576
0.117327 0.763867 0.007187
0 0.561273 0.745647
0 0.600626 0.671992
0 0.639979 0.598321
0 0.679347 0.524666
0 0.7187 0.450996
0.0197452 0.758053 0.377325
0.0451362 0.797406 0.303655
0.0705119 0.836774 0.229999
0.0959029 0.876127 0.156329
0 0.673533 0.894789
0 0.712886 0.821134
0 0.752239 0.747463
0 0.791608 0.673793
0 0.830961 0.600122
0 0.870314 0.526467
0.0236973 0.909667 0.452796
0.0490883 0.949035 0.379126
0.074464 0.988388 0.305455
0 0.785794 1
0 0.825147 0.97026
0 0.8645 0.89659
0 0.903853 0.822934
0 0.943221 0.749264
0 0.982574 0.675593
0.00227359 1 0.601923
0.0276493 1 0.528267
0.0530404 1 0.454597
0 0.898054 1
0 0.937407 1
0 0.976761 1
0 1 0.972061
0 1 0.89839
0 1 0.824735
0 1 0.751064
0.00621042 1 0.677394
0.0316014 1 0.603723
0.121035 0 0.0495308
0.14641 0.0127413 0
0.171801 0.0520943 0
0.197177 0.0914626 0
0.222568 0.130816 0
0.247944 0.170169 0
0.273335 0.209522 0
0.298711 0.248875 0
0.324102 0.288243 0
0.0996109 0.0856336 0.198642
0.124987 0.124987 0.124987
0.150362 0.16434 0.0513161
0.175753 0.203693 0
0.201129 0.243061 0
0.22652 0.282414 0
0.251896 0.321767 0
0.277287 0.36112 0
0.302663 0.400488 0
0.078172 0.197894 0.347784
0.103548 0.237247 0.274113
0.128939 0.2766 0.200458
0.154314 0.315953 0.126787
0.179706 0.355322 0.0531167
0.205081 0.394675 0
0.230472 0.434028 0
0.255848 0.473381 0
0.281239 0.512749 0
0.056733 0.310155 0.49691
0.0821241 0.349508 0.423255
0.1075 0.388861 0.349584
0.132891 0.428214 0.275914
0.158267 0.467567 0.202258
0.183658 0.506935 0.128588
0.209033 0.546288 0.0549172
0.234424 0.585641 0
0.2598 0.624994 0
0.0353094 0.422415 0.646052
0.0606851 0.461769 0.572381
0.0860761 0.501122 0.498726
0.111452 0.540475 0.425055
0.136843 0.579828 0.351385
0.162219 0.619181 0.277714
0.18761 0.658549 0.204059
0.212985 0.697902 0.130388
0.238376 0.737255 0.0567178
0.0138705 0.534661 0.795178
0.0392615 0.574014 0.721523
0.0646372 0.613382 0.647852
0.090013 0.652735 0.574182
0.115404 0.692088 0.500526
0.14078 0.731441 0.426856
0.166171 0.770809 0.353185
0.191546 0.810162 0.279515
0.216938 0.849515 0.205859
0 0.646922 0.94432
0.0178225 0.686275 0.870649
0.0431983 0.725628 0.796994
0.0685893 0.764996 0.723323
0.0939651 0.804349 0.649653
0.119356 0.843702 0.575982
0.144732 0.883055 0.502327
0.170123 0.922423 0.428656
0.195499 0.961776 0.354986
0 0.759182 1
0 0.798535 1
0.0217746 0.837888 0.94612
0.0471504 0.877256 0.87245
0.0725414 0.916609 0.798795
0.0979171 0.955962 0.725124
0.123308 0.995315 0.651453
0.148684 1 0.577783
0.174075 1 0.504128
0 0.871443 1
0 0.910796 1
0.000335698 0.950149 1
0.0257267 0.989502 1
0.0511025 1 0.947921
0.0764935 1 0.87425
0.101869 1 0.800595
0.12726 1 0.726925
0.152636 1 0.653254
0.242084 0 0.0990616
0.267475 0 0.0254063
0.292851 0.0254826 0
0.318242 0.0648356 0
0.343618 0.104204 0
0.369009 0.143557 0
0.394385 0.18291 0
0.419776 0.222263 0
0.445151 0.261631 0
0.220661 0.0590219 0.248173
0.246036 0.0983749 0.174517
0.271427 0.137728 0.100862
0.296803 0.177081 0.0271916
0.322194 0.216449 0
0.34757 0.255802 0
0.372961 0.295155 0
0.398337 0.334508 0
0.423728 0.373877 0
0.199222 0.171283 0.397314
0.224613 0.210636 0.323659
0.249989 0.249989 0.249989
0.275364 0.289342 0.176318
0.300755 0.328695 0.102663
0.326131 0.368063 0.0289921
0.351522 0.407416 0
0.376898 0.446769 0
0.402289 0.486122 0
0.177798 0.283543 0.546441
0.203174 0.322896 0.472786
0.22855 0.362249 0.399115
0.253941 0.401602 0.32546
0.279316 0.440955 0.251789
0.304707 0.480323 0.178119
0.330083 0.519677 0.104448
0.355474 0.55903 0.0307927
0.38085 0.598383 0
0.156359 0.395804 0.695583
0.181735 0.435142 0.621927
0.207126 0.47451 0.548257
0.232502 0.513863 0.474586
0.257893 0.553216 0.400916
0.283268 0.592569 0.32726
0.308659 0.631937 0.25359
0.334035 0.67129 0.179919
0.359426 0.710643 0.106249
0.13492 0.508049 0.844709
0.160311 0.547402 0.771054
0.185687 0.58677 0.697383
0.211078 0.626123 0.623728
0.236454 0.665476 0.550057
0.261845 0.704829 0.476387
0.287221 0.744183 0.402716
0.312612 0.783551 0.329061
0.337987 0.822904 0.25539
0.113497 0.62031 0.993851
0.138872 0.659663 0.920195
0.164263 0.699016 0.846525
0.189639 0.738384 0.772854
0.215015 0.777737 0.699184
0.240406 0.81709 0.625528
0.265782 0.856443 0.551858
0.291173 0.895811 0.478187
0.316548 0.935164 0.404517
0.0920577 0.73257 1
0.117433 0.771923 1
0.142824 0.811276 0.995651
0.1682 0.850629 0.921996
0.193591 0.889998 0.848325
0.218967 0.929351 0.774655
0.244358 0.968704 0.700984
0.269734 1 0.627329
0.295125 1 0.553658
0.0706188 0.844831 1
0.0960098 0.884184 1
0.121386 0.923537 1
0.146777 0.96289 1
0.172152 1 0.997452
0.197543 1 0.923796
0.222919 1 0.850126
0.24831 1 0.776455
0.273686 1 0.702785
0.363134 0 0.148592
0.388525 0 0.0749371
0.413901 0 0.0012665
0.439292 0.0382239 0
0.464668 0.0775921 0
0.490059 0.116945 0
0.515435 0.156298 0
0.540825 0.195651 0
0.566201 0.235019 0
0.341711 0.0324102 0.297719
0.367086 0.0717632 0.224063
0.392477 0.111116 0.150393
0.417853 0.150469 0.0767224
0.443244 0.189837 0.0030518
0.46862 0.229191 0
0.494011 0.268544 0
0.519387 0.307897 0
0.544778 0.347265 0
0.320272 0.144671 0.446845
0.345663 0.184024 0.37319
0.371038 0.223377 0.299519
0.396429 0.26273 0.225864
0.421805 0.302083 0.152193
0.447196 0.341451 0.0785229
0.472572 0.380804 0.00485237
0.497963 0.420157 0
0.523339 0.45951 0
0.298848 0.256931 0.595987
0.324224 0.296284 0.522332
0.349615 0.335637 0.448661
0.37499 0.37499 0.37499
0.400366 0.414343 0.30132
0.425757 0.453696 0.227665
0.451133 0.493065 0.153994
0.476524 0.532418 0.0803235
0.5019 0.571771 0.00665293
0.277409 0.369177 0.745113
0.302785 0.40853 0.671458
0.328176 0.447898 0.597787
0.353552 0.487251 0.524117
0.378943 0.526604 0.450462
0.404318 0.565957 0.376791
0.429709 0.605325 0.30312
0.455085 0.644678 0.22945
0.480476 0.684031 0.155795
0.25597 0.481437 0.894255
0.281361 0.52079 0.820584
0.306737 0.560143 0.746929
0.332128 0.599512 0.673259
0.357504 0.638865 0.599588
0.382895 0.678218 0.525917
0.40827 0.717571 0.452262
0.433661 0.756939 0.378592
0.459037 0.796292 0.304921
0.234546 0.593698 1
0.259922 0.633051 0.969726
0.285313 0.672404 0.896056
0.310689 0.711772 0.822385
0.33608 0.751125 0.74873
0.361456 0.790478 0.675059
0.386847 0.829831 0.601389
0.412222 0.869184 0.527718
0.437613 0.908553 0.454063
0.213107 0.705959 1
0.238499 0.745312 1
0.263874 0.784665 1
0.289265 0.824018 0.971527
0.314641 0.863386 0.897856
0.340017 0.902739 0.824186
0.365408 0.942092 0.75053
0.390784 0.981445 0.67686
0.416175 1 0.603189
0.191684 0.818219 1
0.21706 0.857572 1
0.242435 0.896925 1
0.267826 0.936278 1
0.293202 0.975631 1
0.318593 1 0.973327
0.343969 1 0.899657
0.36936 1 0.825986
0.394736 1 0.752331
0.484199 0 0.198138
0.509575 0 0.124468
0.534951 0 0.0508125
0.560342 0.0116121 0
0.585718 0.0509804 0
0.611109 0.0903334 0
0.636484 0.129686 0
0.661875 0.169039 0
0.687251 0.208392 0
0.46276 0.00579843 0.34725
0.488136 0.0451514 0.273594
0.513527 0.0845045 0.199924
0.538903 0.123857 0.126253
0.564294 0.16321 0.0525978
0.58967 0.202579 0
0.615061 0.241932 0
0.640436 0.281285 0
0.665827 0.320638 0
0.441321 0.118059 0.496376
0.466712 0.157412 0.422721
0.492088 0.196765 0.349065
0.517479 0.236118 0.275395
0.542855 0.275471 0.201724
0.568246 0.314839 0.128054
0.593622 0.354192 0.0543984
0.619013 0.393545 0
0.644388 0.432898 0
0.419898 0.23032 0.645518
0.445274 0.269657 0.571862
0.470665 0.309026 0.498192
0.49604 0.348379 0.424521
0.521431 0.387732 0.350866
0.546807 0.427085 0.277195
0.572198 0.466453 0.203525
0.597574 0.505806 0.129854
0.622965 0.545159 0.056199
0.398459 0.342565 0.794644
0.42385 0.381918 0.720989
0.449226 0.421286 0.647318
0.474617 0.460639 0.573663
0.499992 0.499992 0.499992
0.525368 0.539345 0.426322
0.550759 0.578698 0.352651
0.576135 0.618067 0.278996
0.601526 0.65742 0.205325
0.377035 0.454826 0.943786
0.402411 0.494179 0.87013
0.427787 0.533532 0.79646
0.453178 0.5729 0.722789
0.478553 0.612253 0.649119
0.503944 0.651606 0.575463
0.52932 0.690959 0.501793
0.554711 0.730327 0.428122
0.580087 0.76968 0.354452
0.355596 0.567086 1
0.380972 0.606439 1
0.406363 0.645792 0.945586
0.431739 0.685145 0.871931
0.45713 0.724514 0.79826
0.482506 0.763867 0.72459
0.507897 0.80322 0.650919
0.533272 0.842573 0.577264
0.558663 0.881941 0.503594
0.334157 0.679347 1
0.359548 0.7187 1
0.384924 0.758053 1
0.410315 0.797406 1
0.435691 0.836774 0.947387
0.461082 0.876127 0.873732
0.486458 0.91548 0.800061
0.511849 0.954833 0.72639
0.537224 0.994186 0.65272
0.312734 0.791608 1
0.338109 0.830961 1
0.3635 0.870314 1
0.388876 0.909667 1
0.414267 0.94902 1
0.439643 0.988388 1
0.465019 1 0.949187
0.49041 1 0.875532
0.515785 1 0.801862
0.605249 0 0.247669
0.630625 0 0.174014
0.656001 0 0.100343
0.681392 0 0.0266728
0.706767 0.0243534 0
0.732158 0.0637217 0
0.757534 0.103075 0
0.782925 0.142428 0
0.808301 0.181781 0
0.58381 0 0.39678
0.609201 0.0185397 0.323125
0.634577 0.0578927 0.249454
0.659968 0.0972457 0.175799
0.685344 0.136599 0.102129
0.710719 0.175967 0.0284581
0.73611 0.21532 0
0.761486 0.254673 0
0.786877 0.294026 0
0.562387 0.0914473 0.545922
0.587762 0.1308 0.472267
0.613138 0.170153 0.398596
0.638529 0.209506 0.324926
0.663905 0.248859 0.251255
0.689296 0.288212 0.1776
0.714672 0.327581 0.103929
0.740063 0.366934 0.0302586
0.765438 0.406287 0
0.540948 0.203693 0.695048
0.566323 0.243046 0.621393
0.591714 0.282414 0.547723
0.61709 0.321767 0.474067
0.642481 0.36112 0.400397
0.667857 0.400473 0.326726
0.693248 0.439841 0.253056
0.718624 0.479194 0.1794
0.744015 0.518547 0.10573
0.519509 0.315953 0.84419
0.5449 0.355306 0.770535
0.570275 0.394659 0.696864
0.595666 0.434028 0.623194
0.621042 0.473381 0.549523
0.646433 0.512734 0.475868
0.671809 0.552087 0.402197
0.6972 0.591455 0.328527
0.722576 0.630808 0.254856
0.498085 0.428214 0.993317
0.523461 0.467567 0.919661
0.548852 0.50692 0.845991
0.574228 0.546288 0.77232
0.599619 0.585641 0.698665
0.624994 0.624994 0.624994
0.65037 0.664347 0.551324
0.675761 0.7037 0.477668
0.701137 0.743069 0.403998
0.476646 0.540475 1
0.502022 0.579828 1
0.527413 0.619181 0.995132
0.552789 0.658534 0.921462
0.57818 0.697902 0.847791
0.603555 0.737255 0.774121
0.628946 0.776608 0.700465
0.654322 0.815961 0.626795
0.679713 0.855329 0.553124
0.455222 0.652735 1
0.480598 0.692088 1
0.505974 0.731441 1
0.531365 0.770794 1
0.556741 0.810147 0.996933
0.582132 0.849515 0.923262
0.607507 0.888869 0.849592
0.632898 0.928222 0.775921
0.658274 0.967575 0.702266
0.433783 0.764996 1
0.459159 0.804349 1
0.48455 0.843702 1
0.509926 0.883055 1
0.535317 0.922408 1
0.560693 0.961776 1
0.586084 1 0.998734
0.61146 1 0.925063
0.636851 1 0.851392
0.726299 0 0.2972
0.751675 0 0.223545
0.777066 0 0.149874
0.802441 0 0.0762036
0.827832 0 0.00254826
0.853208 0.0371099 0
0.878599 0.076463 0
0.903975 0.115816 0
0.929366 0.155169 0
0.70486 0 0.446311
0.730251 0 0.372656
0.755627 0.031281 0.299001
0.781018 0.070634 0.22533
0.806394 0.109987 0.151659
0.831785 0.149355 0.0779889
0.85716 0.188708 0.00433356
0.882551 0.228061 0
0.907927 0.267414 0
0.683436 0.0648356 0.595453
0.708812 0.104173 0.521798
0.734203 0.143542 0.448127
0.759579 0.182895 0.374456
0.78497 0.222248 0.300801
0.810346 0.261601 0.227131
0.835721 0.300969 0.15346
0.861112 0.340322 0.0797894
0.886488 0.379675 0.00613413
0.661997 0.177081 0.744579
0.687373 0.216434 0.670924
0.712764 0.255802 0.597269
0.73814 0.295155 0.523598
0.763531 0.334508 0.449928
0.788907 0.373861 0.376257
0.814298 0.413214 0.302602
0.839673 0.452583 0.228931
0.865064 0.491936 0.155261
0.640574 0.289342 0.893721
0.665949 0.328695 0.820066
0.691325 0.368048 0.746395
0.716716 0.407416 0.672724
0.742092 0.446769 0.599069
0.767483 0.486122 0.525399
0.792859 0.525475 0.451728
0.81825 0.564843 0.378058
0.843626 0.604196 0.304402
0.619135 0.401602 1
0.644511 0.440955 0.969192
0.669902 0.480308 0.895537
0.695277 0.519661 0.821866
0.720668 0.55903 0.748196
0.746044 0.598383 0.674525
0.771435 0.637736 0.60087
0.796811 0.677089 0.527199
0.822202 0.716457 0.453529
0.597696 0.513863 1
0.623087 0.553216 1
0.648463 0.592569 1
0.673854 0.631922 0.970993
0.699229 0.67129 0.897322
0.72462 0.710643 0.823667
0.749996 0.749996 0.749996
0.775372 0.789349 0.676326
0.800763 0.828702 0.60267
0.576272 0.626123 1
0.601648 0.665476 1
0.627024 0.704829 1
0.652415 0.744183 1
0.677791 0.783536 1
0.703182 0.822904 0.972793
0.728557 0.862257 0.899123
0.753948 0.90161 0.825467
0.779324 0.940963 0.751797
0.554833 0.738384 1
0.580209 0.777722 1
0.6056 0.81709 1
0.630976 0.856443 1
0.656367 0.895796 1
0.681743 0.935149 1
0.707134 0.974517 1
0.732509 1 0.974594
0.7579 1 0.900923
0.847349 0 0.346731
0.872724 0 0.273075
0.898116 0 0.19942
0.923491 0 0.12575
0.948882 0 0.052079
0.974258 0.0104982 0
0.999649 0.0498512 0
1 0.0892042 0
1 0.128557 0
0.825925 0 0.495857
0.851301 0 0.422202
0.876677 0.00466926 0.348531
0.902068 0.0440223 0.274861
0.927443 0.0833753 0.20119
0.952834 0.122728 0.127535
0.97821 0.162097 0.0538643
1 0.20145 0
1 0.240803 0
0.804486 0.0382086 0.644984
0.829862 0.0775616 0.571328
0.855253 0.11693 0.497658
0.880629 0.156283 0.424002
0.90602 0.195636 0.350332
0.931395 0.234989 0.276661
0.956786 0.274357 0.202991
0.982162 0.31371 0.129335
1 0.353063 0.0556649
0.783047 0.150469 0.794125
0.808438 0.189822 0.72047
0.833814 0.229175 0.646799
0.859205 0.268544 0.573129
0.884581 0.307897 0.499458
0.909972 0.34725 0.425803
0.935347 0.386603 0.352132
0.960723 0.425971 0.278462
0.986114 0.465324 0.204791
0.761624 0.26273 0.943252
0.786999 0.302083 0.869596
0.812375 0.341436 0.795926
0.837766 0.380804 0.722271
0.863142 0.420157 0.6486
0.888533 0.45951 0.574929
0.913909 0.498863 0.501259
0.9393 0.538216 0.427604
0.964675 0.577585 0.353933
0.740185 0.37499 1
0.76556 0.414343 1
0.790951 0.453696 0.945068
0.816327 0.49305 0.871397
0.841718 0.532418 0.797726
0.867094 0.571771 0.724071
0.892485 0.611124 0.650401
0.917861 0.650477 0.57673
0.943252 0.689845 0.503059
0.718746 0.487251 1
0.744137 0.526604 1
0.769512 0.565957 1
0.794903 0.60531 1
0.820279 0.644663 0.946868
0.84567 0.684031 0.873198
0.871046 0.723384 0.799527
0.896437 0.762737 0.725872
0.921813 0.80209 0.652201
0.697322 0.599512 1
0.722698 0.638865 1
0.748089 0.678218 1
0.773465 0.717571 1
0.798856 0.756924 1
0.824231 0.796292 1
0.849622 0.835645 0.948669
0.874998 0.874998 0.874998
0.900374 0.914351 0.801328
0.675883 0.711757 1
0.701259 0.75111 1
0.72665 0.790478 1
0.752026 0.829831 1
0.777417 0.869184 1
0.802792 0.908537 1
0.828183 0.947906 1
0.853559 0.987259 1
0.87895 1 0.950469
0.968399 0 0.396277
0.993774 0 0.322621
1 0 0.248951
1 0 0.17528
1 0 0.10161
1 0 0.0279545
1 0.0232395 0
1 0.0625925 0
1 0.101946 0
0.946975 0 0.545388
0.972351 0 0.471733
0.997726 0 0.398062
1 0.0174105 0.324392
1 0.0567636 0.250736
1 0.0961166 0.177066
1 0.135485 0.103395
1 0.174838 0.0297246
1 0.214191 0
0.925536 0.0115969 0.694514
0.950912 0.0509499 0.620859
0.976303 0.0903182 0.547204
1 0.129671 0.473533
1 0.169024 0.399863
1 0.208377 0.326192
1 0.24773 0.252537
1 0.287098 0.178866
1 0.326452 0.105196
0.904097 0.123857 0.843656
0.929488 0.16321 0.770001
0.954864 0.202564 0.69633
0.980255 0.241932 0.62266
1 0.281285 0.549004
1 0.320638 0.475334
1 0.359991 0.401663
1 0.399359 0.327993
1 0.438712 0.254337
0.882673 0.236118 0.992782
0.908049 0.275471 0.919127
0.93344 0.314824 0.845472
0.958816 0.354177 0.771801
0.984207 0.393545 0.698131
1 0.432898 0.62446
1 0.472251 0.550805
1 0.511604 0.477134
1 0.550973 0.403464
0.861234 0.348379 1
0.88661 0.387732 1
0.912001 0.427085 0.994598
0.937377 0.466438 0.920928
0.962768 0.505806 0.847272
0.988144 0.545159 0.773602
1 0.584512 0.699931
1 0.623865 0.626261
1 0.663218 0.552605
0.839811 0.460639 1
0.865187 0.499992 1
0.890562 0.539345 1
0.915953 0.578698 1
0.941329 0.618051 0.996399
0.96672 0.65742 0.922728
0.992096 0.696773 0.849073
1 0.736126 0.775402
1 0.775479 0.701732
0.818372 0.5729 1
0.843748 0.612238 1
0.869139 0.651606 1
0.894514 0.690959 1
0.919905 0.730312 1
0.945281 0.769665 1
0.970672 0.809033 0.998199
0.996048 0.848386 0.924529
1 0.887739 0.850874
0.796933 0.685145 1
0.822324 0.724498 1
0.8477 0.763867 1
0.873091 0.80322 1
0.898466 0.842573 1
0.923858 0.881926 1
0.949233 0.921294 1
0.974624 0.960647 1
1 1 1
