public/LUTS/Color Shift/ColorShift_10.cube
TITLE "Generated by Resolve"
LUT_3D_SIZE 5
0 0 0
0 0.109514 0
0 0.219043 0
0 0.328573 0
0 0.438087 0
0.0720531 0.177005 0.399512
0.00303655 0.286519 0.292042
0 0.396048 0.184573
0 0.505577 0.0771191
0 0.615091 0
0.144121 0.354025 0.799039
0.0751049 0.463539 0.691569
0.00608835 0.573068 0.584115
0 0.682597 0.476646
0 0.792111 0.369177
0.21619 0.531044 1
0.147173 0.640558 1
0.0781567 0.750088 0.983642
0.0091249 0.859602 0.876173
0 0.969131 0.768704
0.288243 0.708064 1
0.219226 0.817578 1
0.15021 0.927108 1
0.0811933 1 1
0.0121767 1 1
0.246952 0 0
0.177935 0.0729839 0
0.108904 0.182498 0
0.0398871 0.292027 0
0 0.401556 0
0.319005 0.140475 0.357443
0.249989 0.249989 0.249989
0.180972 0.359518 0.142519
0.111955 0.469032 0.03505
0.0429389 0.578561 0
0.391073 0.317494 0.756985
0.322057 0.427008 0.649516
0.25304 0.536538 0.542046
0.184009 0.646052 0.434592
0.114992 0.755581 0.327123
0.463127 0.494514 1
0.39411 0.604028 1
0.325093 0.713542 0.941588
0.256077 0.823072 0.834119
0.18706 0.932601 0.72665
0.535195 0.671519 1
0.466178 0.781048 1
0.397162 0.890562 1
0.328145 1 1
0.259129 1 1
0.493904 0 0
0.424887 0.0364385 0
0.355871 0.145968 0
0.286854 0.255497 0
0.217838 0.365011 0
0.565957 0.103929 0.315389
0.496941 0.213443 0.207935
0.427924 0.322972 0.100465
0.358907 0.432502 0
0.289891 0.542016 0
0.638025 0.280949 0.714916
0.569009 0.390463 0.607462
0.499992 0.499992 0.499992
0.430976 0.609522 0.392523
0.361959 0.719036 0.285054
0.710094 0.457969 1
0.641077 0.567483 1
0.572061 0.677012 0.899519
0.503029 0.786542 0.79205
0.434012 0.896056 0.684596
0.782147 0.634989 1
0.71313 0.744503 1
0.644114 0.854032 1
0.575097 0.963546 1
0.506081 1 1
0.740871 0 0
0.671855 0 0
0.602823 0.109422 0
0.533806 0.218952 0
0.46479 0.328481 0
0.812924 0.0673991 0.273335
0.743908 0.176913 0.165866
0.674891 0.286442 0.0583963
0.605875 0.395956 0
0.536858 0.505486 0
0.884993 0.244419 0.672862
0.815976 0.353933 0.565393
0.74696 0.463447 0.457938
0.677928 0.572976 0.350469
0.608911 0.682506 0.243
0.957046 0.421424 1
0.888029 0.530953 0.964935
0.819013 0.640467 0.857466
0.749996 0.749996 0.749996
0.68098 0.859525 0.642527
1 0.598444 1
0.960098 0.707973 1
0.891081 0.817487 1
0.822065 0.927016 1
0.753048 1 1
0.987823 0 0
0.918807 0 0
0.84979 0.0728923 0
0.780774 0.182422 0
0.711757 0.291936 0
1 0.0308537 0.231266
0.99086 0.140368 0.123812
0.921843 0.249897 0.0163424
0.852827 0.359426 0
0.78381 0.46894 0
1 0.207874 0.630808
1 0.317388 0.523339
0.993912 0.426917 0.415869
0.924895 0.536446 0.3084
0.855879 0.64596 0.200946
1 0.384894 1
1 0.494408 0.922866
1 0.603937 0.815396
0.996948 0.713451 0.707942
0.927932 0.82298 0.600473
1 0.561913 1
1 0.671427 1
1 0.780957 1
1 0.890471 1
1 1 1
