public/LUTS/Color Shift/ColorShift_70.cube
TITLE "Generated by Resolve"
LUT_3D_SIZE 33
0 0 0
0.039765 0.000137331 0
0.0795605 0.000274662 0
0.119341 0.000411994 0
0.159136 0.000549325 0
0.198917 0.000686656 0
0.238712 0.000808728 0
0.278492 0.000946059 0
0.318288 0.00108339 0
0.358068 0.00122072 0
0.397848 0.00135805 0
0.437644 0.00149538 0
0.477424 0.00163272 0
0.51722 0.00177005 0
0.557 0.00190738 0
0.596796 0.00204471 0
0.636576 0.00218204 0
0.676371 0.00231937 0
0.716152 0.00244144 0
0.755947 0.00257877 0
0.795727 0.00271611 0
0.835523 0.00285344 0
0.875303 0.00299077 0
0.915099 0.0031281 0
0.954879 0.00326543 0
0.994675 0.00340276 0
1 0.00354009 0
1 0.00367742 0
1 0.00381476 0
1 0.00393683 0
1 0.00407416 0
1 0.00421149 0
1 0.00434882 0
0 0.0391546 0.0037995
0.0117189 0.039292 0
0.0515145 0.0394293 0
0.0912947 0.0395666 0
0.13109 0.039704 0
0.170871 0.0398413 0
0.210666 0.0399786 0
0.250446 0.040116 0
0.290242 0.0402533 0
0.330022 0.0403906 0
0.369802 0.0405127 0
0.409598 0.04065 0
0.449378 0.0407874 0
0.489174 0.0409247 0
0.528954 0.041062 0
0.56875 0.0411994 0
0.60853 0.0413367 0
0.648325 0.041474 0
0.688106 0.0416114 0
0.727901 0.0417487 0
0.767681 0.041886 0
0.807477 0.0420233 0
0.847257 0.0421454 0
0.887053 0.0422827 0
0.926833 0.0424201 0
0.966628 0.0425574 0
1 0.0426947 0
1 0.0428321 0
1 0.0429694 0
1 0.0431067 0
1 0.0432441 0
1 0.0433814 0
1 0.0435187 0
0 0.0783398 0.00761425
0 0.0784772 0
0.0234531 0.0786145 0
0.0632334 0.0787518 0
0.103029 0.0788891 0
0.142809 0.0790265 0
0.182605 0.0791485 0
0.222385 0.0792859 0
0.262181 0.0794232 0
0.301961 0.0795605 0
0.341756 0.0796979 0
0.381537 0.0798352 0
0.421332 0.0799725 0
0.461112 0.0801099 0
0.500893 0.0802472 0
0.540688 0.0803845 0
0.580468 0.0805219 0
0.620264 0.0806439 0
0.660044 0.0807813 0
0.69984 0.0809186 0
0.73962 0.0810559 0
0.779416 0.0811933 0
0.819196 0.0813306 0
0.858991 0.0814679 0
0.898772 0.0816052 0
0.938567 0.0817426 0
0.978347 0.0818799 0
1 0.0820172 0
1 0.0821546 0
1 0.0822766 0
1 0.082414 0
1 0.0825513 0
1 0.0826886 0
0 0.117525 0.0114137
0 0.117647 0
0 0.117784 0
0.035172 0.117922 0
0.0749676 0.118059 0
0.114748 0.118196 0
0.154543 0.118334 0
0.194324 0.118471 0
0.234119 0.118608 0
0.273899 0.118746 0
0.313695 0.118883 0
0.353475 0.11902 0
0.393271 0.119158 0
0.433051 0.11928 0
0.472847 0.119417 0
0.512627 0.119554 0
0.552407 0.119692 0
0.592203 0.119829 0
0.631983 0.119966 0
0.671778 0.120104 0
0.711559 0.120241 0
0.751354 0.120378 0
0.791135 0.120516 0
0.83093 0.120653 0
0.87071 0.120775 0
0.910506 0.120912 0
0.950286 0.12105 0
0.990082 0.121187 0
1 0.121324 0
1 0.121462 0
1 0.121599 0
1 0.121736 0
1 0.121874 0
0 0.156695 0.0152285
0 0.156832 0
0 0.15697 0
0.0071107 0.157107 0
0.0469062 0.157244 0
0.0866865 0.157382 0
0.126482 0.157519 0
0.166262 0.157656 0
0.206058 0.157778 0
0.245838 0.157916 0
0.285634 0.158053 0
0.325414 0.15819 0
0.365209 0.158328 0
0.40499 0.158465 0
0.444785 0.158602 0
0.484565 0.15874 0
0.524361 0.158877 0
0.564141 0.159014 0
0.603937 0.159152 0
0.643717 0.159289 0
0.683497 0.159411 0
0.723293 0.159548 0
0.763073 0.159686 0
0.802869 0.159823 0
0.842649 0.15996 0
0.882445 0.160098 0
0.922225 0.160235 0
0.96202 0.160372 0
1 0.16051 0
1 0.160647 0
1 0.160784 0
1 0.160906 0
1 0.161044 0
0 0.19588 0.019028
0 0.196017 0
0 0.196155 0
0 0.196292 0
0.0188449 0.196414 0
0.0586404 0.196551 0
0.0984207 0.196689 0
0.138201 0.196826 0
0.177996 0.196963 0
0.217777 0.197101 0
0.257572 0.197238 0
0.297353 0.197375 0
0.337148 0.197513 0
0.376928 0.19765 0
0.416724 0.197787 0
0.456504 0.19791 0
0.4963 0.198047 0
0.53608 0.198184 0
0.575875 0.198322 0
0.615656 0.198459 0
0.655451 0.198596 0
0.695232 0.198734 0
0.735027 0.198871 0
0.774807 0.199008 0
0.814588 0.199145 0
0.854383 0.199283 0
0.894163 0.19942 0
0.933959 0.199542 0
0.973739 0.19968 0
1 0.199817 0
1 0.199954 0
1 0.200092 0
1 0.200229 0
0 0.23505 0.0228428
0 0.235187 0.0018616
0 0.235325 0
0 0.235462 0
0 0.235599 0
0.0305791 0.235737 0
0.0703593 0.235874 0
0.110155 0.236011 0
0.149935 0.236149 0
0.189731 0.236286 0
0.229511 0.236423 0
0.269291 0.236545 0
0.309087 0.236683 0
0.348867 0.23682 0
0.388663 0.236957 0
0.428443 0.237095 0
0.468238 0.237232 0
0.508019 0.237369 0
0.547814 0.237507 0
0.587594 0.237644 0
0.62739 0.237781 0
0.66717 0.237919 0
0.706966 0.238041 0
0.746746 0.238178 0
0.786542 0.238315 0
0.826322 0.238453 0
0.866117 0.23859 0
0.905898 0.238727 0
0.945678 0.238865 0
0.985473 0.239002 0
1 0.239139 0
1 0.239277 0
1 0.239414 0
0 0.274235 0.0266423
0 0.274372 0.00567636
0 0.27451 0
0 0.274647 0
0 0.274784 0
0.00251774 0.274922 0
0.042298 0.275044 0
0.0820935 0.275181 0
0.121874 0.275319 0
0.161669 0.275456 0
0.20145 0.275593 0
0.241245 0.275731 0
0.281025 0.275868 0
0.320806 0.276005 0
0.360601 0.276143 0
0.400381 0.27628 0
0.440177 0.276417 0
0.479957 0.276555 0
0.519753 0.276677 0
0.559533 0.276814 0
0.599329 0.276951 0
0.639109 0.277089 0
0.678904 0.277226 0
0.718685 0.277363 0
0.75848 0.277501 0
0.79826 0.277638 0
0.838056 0.277775 0
0.877836 0.277913 0
0.917632 0.27805 0
0.957412 0.278172 0
0.997208 0.278309 0
1 0.278447 0
1 0.278584 0
0 0.31342 0.030457
0 0.313558 0.00947585
0 0.31368 0
0 0.313817 0
0 0.313954 0
0 0.314092 0
0.0142367 0.314229 0
0.0540322 0.314366 0
0.0938125 0.314504 0
0.133608 0.314641 0
0.173388 0.314778 0
0.213184 0.314916 0
0.252964 0.315053 0
0.29276 0.315175 0
0.33254 0.315312 0
0.372335 0.31545 0
0.412116 0.315587 0
0.451896 0.315724 0
0.491691 0.315862 0
0.531472 0.315999 0
0.571267 0.316136 0
0.611048 0.316274 0
0.650843 0.316411 0
0.690623 0.316548 0
0.730419 0.316686 0
0.770199 0.316808 0
0.809995 0.316945 0
0.849775 0.317082 0
0.88957 0.31722 0
0.929351 0.317357 0
0.969146 0.317494 0
1 0.317632 0
1 0.317769 0
0 0.35259 0.0342565
0 0.352728 0.0132906
0 0.352865 0
0 0.353002 0
0 0.35314 0
0 0.353277 0
0 0.353414 0
0.0259709 0.353552 0
0.0657511 0.353674 0
0.105547 0.353811 0
0.145327 0.353948 0
0.185122 0.354086 0
0.224903 0.354223 0
0.264698 0.35436 0
0.304479 0.354498 0
0.344274 0.354635 0
0.384054 0.354772 0
0.42385 0.35491 0
0.46363 0.355047 0
0.503426 0.355184 0
0.543206 0.355306 0
0.582986 0.355444 0
0.622782 0.355581 0
0.662562 0.355718 0
0.702358 0.355856 0
0.742138 0.355993 0
0.781933 0.35613 0
0.821714 0.356268 0
0.861509 0.356405 0
0.901289 0.356542 0
0.941085 0.35668 0
0.980865 0.356817 0
1 0.356939 0
0 0.391775 0.038056
0 0.391913 0.0170901
0 0.39205 0
0 0.392187 0
0 0.392309 0
0 0.392447 0
0 0.392584 0
0 0.392721 0
0.0376898 0.392859 0
0.0774853 0.392996 0
0.117266 0.393133 0
0.157061 0.393271 0
0.196841 0.393408 0
0.236637 0.393545 0
0.276417 0.393683 0
0.316213 0.39382 0
0.355993 0.393942 0
0.395789 0.39408 0
0.435569 0.394217 0
0.475364 0.394354 0
0.515145 0.394491 0
0.55494 0.394629 0
0.59472 0.394766 0
0.634516 0.394903 0
0.674296 0.395041 0
0.714076 0.395178 0
0.753872 0.395315 0
0.793652 0.395438 0
0.833448 0.395575 0
0.873228 0.395712 0
0.913024 0.39585 0
0.952804 0.395987 0
0.992599 0.396124 0
0 0.430945 0.0418708
0 0.431083 0.0209049
0 0.43122 0
0 0.431357 0
0 0.431495 0
0 0.431632 0
0 0.431769 0
0 0.431907 0
0.0096437 0.432044 0
0.049424 0.432181 0
0.0892042 0.432319 0
0.129 0.432441 0
0.16878 0.432578 0
0.208576 0.432715 0
0.248356 0.432853 0
0.288151 0.43299 0
0.327932 0.433127 0
0.367727 0.433265 0
0.407507 0.433402 0
0.447303 0.433539 0
0.487083 0.433677 0
0.526879 0.433814 0
0.566659 0.433936 0
0.606455 0.434073 0
0.646235 0.434211 0
0.68603 0.434348 0
0.725811 0.434485 0
0.765606 0.434623 0
0.805386 0.43476 0
0.845167 0.434897 0
0.884962 0.435035 0
0.924743 0.435172 0
0.964538 0.435309 0
0 0.47013 0.0456703
0 0.470268 0.0247044
0 0.470405 0.0037232
0 0.470542 0
0 0.47068 0
0 0.470817 0
0 0.470939 0
0 0.471077 0
0 0.471214 0
0.0213626 0.471351 0
0.0611582 0.471489 0
0.100938 0.471626 0
0.140734 0.471763 0
0.180514 0.471901 0
0.220295 0.472038 0
0.26009 0.472175 0
0.29987 0.472313 0
0.339666 0.47245 0
0.379446 0.472572 0
0.419242 0.472709 0
0.459022 0.472847 0
0.498817 0.472984 0
0.538598 0.473121 0
0.578393 0.473259 0
0.618173 0.473396 0
0.657969 0.473533 0
0.697749 0.473671 0
0.737545 0.473808 0
0.777325 0.473945 0
0.817121 0.474067 0
0.856901 0.474205 0
0.896696 0.474342 0
0.936477 0.474479 0
0 0.509316 0.049485
0 0.509453 0.0285191
0 0.509575 0.00753796
0 0.509712 0
0 0.50985 0
0 0.509987 0
0 0.510124 0
0 0.510262 0
0 0.510399 0
0 0.510536 0
0.0330968 0.510674 0
0.0728771 0.510811 0
0.112673 0.510948 0
0.152453 0.51107 0
0.192248 0.511208 0
0.232029 0.511345 0
0.271824 0.511482 0
0.311604 0.51162 0
0.351385 0.511757 0
0.39118 0.511894 0
0.430961 0.512032 0
0.470756 0.512169 0
0.510536 0.512306 0
0.550332 0.512444 0
0.590112 0.512581 0
0.629908 0.512703 0
0.669688 0.51284 0
0.709484 0.512978 0
0.749264 0.513115 0
0.789059 0.513252 0
0.82884 0.51339 0
0.868635 0.513527 0
0.908415 0.513664 0
0 0.548486 0.0532845
0 0.548623 0.0323186
0 0.54876 0.0113375
0 0.548898 0
0 0.549035 0
0 0.549172 0
0 0.54931 0
0 0.549447 0
0 0.549584 0
0 0.549706 0
0.00503548 0.549844 0
0.0448157 0.549981 0
0.0846113 0.550118 0
0.124392 0.550256 0
0.164187 0.550393 0
0.203967 0.55053 0
0.243763 0.550668 0
0.283543 0.550805 0
0.323339 0.550942 0
0.363119 0.55108 0
0.402914 0.551202 0
0.442695 0.551339 0
0.482475 0.551476 0
0.522271 0.551614 0
0.562051 0.551751 0
0.601846 0.551888 0
0.641627 0.552026 0
0.681422 0.552163 0
0.721202 0.5523 0
0.760998 0.552438 0
0.800778 0.552575 0
0.840574 0.552712 0
0.880354 0.552834 0
0 0.587671 0.0570993
0 0.587808 0.0361334
0 0.587945 0.0151522
0 0.588083 0
0 0.588205 0
0 0.588342 0
0 0.588479 0
0 0.588617 0
0 0.588754 0
0 0.588891 0
0 0.589029 0
0.0167544 0.589166 0
0.0565499 0.589303 0
0.0963302 0.589441 0
0.136126 0.589578 0
0.175906 0.589715 0
0.215702 0.589837 0
0.255482 0.589975 0
0.295277 0.590112 0
0.335058 0.590249 0
0.374853 0.590387 0
0.414633 0.590524 0
0.454429 0.590661 0
0.494209 0.590799 0
0.534005 0.590936 0
0.573785 0.591073 0
0.613565 0.591211 0
0.653361 0.591333 0
0.693141 0.59147 0
0.732937 0.591608 0
0.772717 0.591745 0
0.812512 0.591882 0
0.852293 0.59202 0
0 0.626841 0.0608988
0 0.626978 0.0399329
0 0.627115 0.0189517
0 0.627253 0
0 0.62739 0
0 0.627527 0
0 0.627665 0
0 0.627802 0
0 0.627939 0
0 0.628077 0
0 0.628214 0
0 0.628336 0
0.0284886 0.628473 0
0.0682689 0.628611 0
0.108064 0.628748 0
0.147845 0.628885 0
0.18764 0.629023 0
0.22742 0.62916 0
0.267216 0.629297 0
0.306996 0.629435 0
0.346792 0.629572 0
0.386572 0.629709 0
0.426368 0.629847 0
0.466148 0.629969 0
0.505943 0.630106 0
0.545724 0.630243 0
0.585519 0.630381 0
0.625299 0.630518 0
0.665095 0.630655 0
0.704875 0.630793 0
0.744656 0.63093 0
0.784451 0.631067 0
0.824231 0.631205 0
0 0.666026 0.0647135
0 0.666163 0.0437324
0 0.6663 0.0227665
0 0.666438 0.00178531
0 0.666575 0
0 0.666712 0
0 0.66685 0
0 0.666972 0
0 0.667109 0
0 0.667247 0
0 0.667384 0
0 0.667521 0
0.000427253 0.667659 0
0.0402228 0.667796 0
0.0800031 0.667933 0
0.119783 0.66807 0
0.159579 0.668208 0
0.199359 0.668345 0
0.239155 0.668467 0
0.278935 0.668605 0
0.31873 0.668742 0
0.358511 0.668879 0
0.398306 0.669017 0
0.438087 0.669154 0
0.477882 0.669291 0
0.517662 0.669429 0
0.557458 0.669566 0
0.597238 0.669703 0
0.637034 0.669841 0
0.676814 0.669978 0
0.716609 0.6701 0
0.75639 0.670237 0
0.796185 0.670375 0
0 0.705211 0.068513
0 0.705348 0.0475471
0 0.70547 0.026566
0 0.705608 0.0055848
0 0.705745 0
0 0.705882 0
0 0.70602 0
0 0.706157 0
0 0.706294 0
0 0.706432 0
0 0.706569 0
0 0.706706 0
0 0.706844 0
0.0121614 0.706981 0
0.0519417 0.707103 0
0.0917372 0.70724 0
0.131518 0.707378 0
0.171313 0.707515 0
0.211093 0.707652 0
0.250874 0.70779 0
0.290669 0.707927 0
0.330449 0.708064 0
0.370245 0.708202 0
0.410025 0.708339 0
0.449821 0.708476 0
0.489601 0.708598 0
0.529397 0.708736 0
0.569177 0.708873 0
0.608972 0.70901 0
0.648753 0.709148 0
0.688548 0.709285 0
0.728328 0.709422 0
0.768124 0.70956 0
0 0.744381 0.0723278
0 0.744518 0.0513466
0 0.744656 0.0303655
0 0.744793 0.00939956
0 0.74493 0
0 0.745068 0
0 0.745205 0
0 0.745342 0
0 0.74548 0
0 0.745602 0
0 0.745739 0
0 0.745876 0
0 0.746014 0
0 0.746151 0
0.0238804 0.746288 0
0.0636759 0.746426 0
0.103456 0.746563 0
0.143252 0.7467 0
0.183032 0.746838 0
0.222827 0.746975 0
0.262608 0.747112 0
0.302403 0.747234 0
0.342184 0.747372 0
0.381964 0.747509 0
0.421759 0.747646 0
0.46154 0.747784 0
0.501335 0.747921 0
0.541115 0.748058 0
0.580911 0.748196 0
0.620691 0.748333 0
0.660487 0.74847 0
0.700267 0.748608 0
0.740063 0.74873 0
0 0.783566 0.0761273
0 0.783703 0.0551614
0 0.783841 0.0341802
0 0.783978 0.0131991
0 0.784115 0
0 0.784237 0
0 0.784375 0
0 0.784512 0
0 0.784649 0
0 0.784787 0
0 0.784924 0
0 0.785061 0
0 0.785199 0
0 0.785336 0
0 0.785473 0
0.0356146 0.785611 0
0.0753948 0.785733 0
0.11519 0.78587 0
0.154971 0.786007 0
0.194766 0.786145 0
0.234546 0.786282 0
0.274342 0.786419 0
0.314122 0.786557 0
0.353918 0.786694 0
0.393698 0.786831 0
0.433494 0.786969 0
0.473274 0.787106 0
0.513054 0.787243 0
0.55285 0.787366 0
0.59263 0.787503 0
0.632425 0.78764 0
0.672206 0.787778 0
0.712001 0.787915 0
0 0.822736 0.0799268
0 0.822873 0.0589609
0 0.823011 0.0379797
0 0.823148 0.0169985
0 0.823285 0
0 0.823423 0
0 0.82356 0
0 0.823697 0
0 0.823835 0
0 0.823972 0
0 0.824109 0
0 0.824247 0
0 0.824369 0
0 0.824506 0
0 0.824643 0
0.00755322 0.824781 0
0.0473335 0.824918 0
0.087129 0.825055 0
0.126909 0.825193 0
0.166705 0.82533 0
0.206485 0.825467 0
0.246281 0.825605 0
0.286061 0.825742 0
0.325856 0.825864 0
0.365637 0.826001 0
0.405432 0.826139 0
0.445212 0.826276 0
0.485008 0.826413 0
0.524788 0.826551 0
0.564584 0.826688 0
0.604364 0.826825 0
0.644144 0.826963 0
0.68394 0.8271 0
0 0.861921 0.0837415
0 0.862058 0.0627756
0 0.862196 0.0417945
0 0.862333 0.0208133
0 0.86247 0
0 0.862608 0
0 0.862745 0
0 0.862867 0
0 0.863005 0
0 0.863142 0
0 0.863279 0
0 0.863416 0
0 0.863554 0
0 0.863691 0
0 0.863828 0
0 0.863966 0
0.0192721 0.864103 0
0.0590677 0.86424 0
0.0988479 0.864363 0
0.138643 0.8645 0
0.178424 0.864637 0
0.218219 0.864775 0
0.258 0.864912 0
0.297795 0.865049 0
0.337575 0.865187 0
0.377371 0.865324 0
0.417151 0.865461 0
0.456947 0.865599 0
0.496727 0.865736 0
0.536522 0.865873 0
0.576303 0.865995 0
0.616098 0.866133 0
0.655879 0.86627 0
0 0.901106 0.087541
0 0.901244 0.0665751
0 0.901366 0.045594
0 0.901503 0.0246128
0 0.90164 0.00363165
0 0.901778 0
0 0.901915 0
0 0.902052 0
0 0.90219 0
0 0.902327 0
0 0.902464 0
0 0.902602 0
0 0.902739 0
0 0.902876 0
0 0.902998 0
0 0.903136 0
0 0.903273 0
0.0310063 0.90341 0
0.0708019 0.903548 0
0.110582 0.903685 0
0.150362 0.903822 0
0.190158 0.90396 0
0.229938 0.904097 0
0.269734 0.904234 0
0.309514 0.904372 0
0.34931 0.904509 0
0.38909 0.904631 0
0.428885 0.904768 0
0.468666 0.904906 0
0.508461 0.905043 0
0.548241 0.90518 0
0.588037 0.905318 0
0.627817 0.905455 0
0 0.940276 0.0913558
0 0.940414 0.0703899
0 0.940551 0.0494087
0 0.940688 0.0284276
0 0.940826 0.0074464
0 0.940963 0
0 0.9411 0
0 0.941238 0
0 0.941375 0
0 0.941497 0
0 0.941634 0
0 0.941772 0
0 0.941909 0
0 0.942046 0
0 0.942184 0
0 0.942321 0
0 0.942458 0
0.00294499 0.942596 0
0.0427405 0.942733 0
0.0825208 0.94287 0
0.122316 0.943008 0
0.162097 0.94313 0
0.201892 0.943267 0
0.241672 0.943404 0
0.281453 0.943542 0
0.321248 0.943679 0
0.361028 0.943816 0
0.400824 0.943954 0
0.440604 0.944091 0
0.4804 0.944228 0
0.52018 0.944366 0
0.559976 0.944503 0
0.599756 0.94464 0
0 0.979461 0.0951553
0 0.979599 0.0741894
0 0.979736 0.0532082
0 0.979873 0.0322271
0 0.980011 0.0112459
0 0.980133 0
0 0.98027 0
0 0.980407 0
0 0.980545 0
0 0.980682 0
0 0.980819 0
0 0.980957 0
0 0.981094 0
0 0.981231 0
0 0.981369 0
0 0.981506 0
0 0.981628 0
0 0.981765 0
0.0146792 0.981903 0
0.0544594 0.98204 0
0.094255 0.982177 0
0.134035 0.982315 0
0.173831 0.982452 0
0.213611 0.982589 0
0.253407 0.982727 0
0.293187 0.982864 0
0.332982 0.983001 0
0.372763 0.983139 0
0.412543 0.983261 0
0.452338 0.983398 0
0.492119 0.983536 0
0.531914 0.983673 0
0.571694 0.98381 0
0 1 0.09897
0 1 0.0780041
0 1 0.057023
0 1 0.0360418
0 1 0.0150607
0 1 0
0 1 0
0 1 0
0 1 0
0 1 0
0 1 0
0 1 0
0 1 0
0 1 0
0 1 0
0 1 0
0 1 0
0 1 0
0 1 0
0.0263981 1 0
0.0661936 1 0
0.105974 1 0
0.145769 1 0
0.18555 1 0
0.225345 1 0
0.265126 1 0
0.304921 1 0
0.344701 1 0
0.384497 1 0
0.424277 1 0
0.464073 1 0
0.503853 1 0
0.543633 1 0
0 1 0.10277
0 1 0.0818036
0 1 0.0608225
0 1 0.0398413
0 1 0.0188602
0 1 0
0 1 0
0 1 0
0 1 0
