public/LUTS/Color Shift/ColorShift_20.cube
TITLE "Generated by Resolve"
LUT_3D_SIZE 5
0 0 0
0.171206 0.0378882 0
0.342412 0.0757763 0
0.513634 0.113664 0
0.68484 0.151553 0
0 0.253086 0.14992
0.0966354 0.290974 0.0390478
0.267842 0.328862 0
0.439063 0.366751 0
0.610269 0.404639 0
0 0.506188 0.29984
0.0220493 0.544076 0.188968
0.193271 0.581964 0.0780957
0.364477 0.619852 0
0.535698 0.657755 0
0 0.759289 0.44976
0 0.797177 0.338888
0.118685 0.835065 0.228031
0.289906 0.872953 0.117159
0.461112 0.910857 0.00628672
0 1 0.59968
0 1 0.488823
0.0441138 1 0.377951
0.21532 1 0.267079
0.386542 1 0.156207
0.153353 0 0.210941
0.324559 0 0.100069
0.495781 0.0347906 0
0.666987 0.0726787 0
0.838209 0.110567 0
0.0787823 0.2121 0.360845
0.249989 0.249989 0.249989
0.42121 0.287877 0.139116
0.592416 0.325765 0.0282444
0.763638 0.363653 0
0.00421149 0.465202 0.510781
0.175418 0.50309 0.399908
0.346624 0.540978 0.289036
0.517845 0.578866 0.178164
0.689052 0.61677 0.0673075
0 0.718303 0.6607
0.100832 0.756191 0.549828
0.272053 0.794079 0.438956
0.443259 0.831968 0.328099
0.614481 0.869871 0.217227
0 0.971405 0.81062
0.0262608 1 0.699763
0.197467 1 0.588891
0.368688 1 0.478019
0.539895 1 0.367147
0.306722 0 0.421897
0.477928 0 0.311025
0.649149 0 0.200153
0.820356 0.031693 0.0892805
0.991577 0.0695811 0
0.232151 0.171115 0.571801
0.403357 0.209003 0.460945
0.574563 0.246891 0.350072
0.745785 0.284779 0.2392
0.916991 0.322667 0.128328
0.15758 0.424216 0.721721
0.328771 0.462104 0.610864
0.499992 0.499992 0.499992
0.671214 0.537881 0.38912
0.84242 0.575769 0.278248
0.0829938 0.677317 0.871641
0.2542 0.715206 0.760784
0.425422 0.753094 0.649912
0.596628 0.790982 0.53904
0.767849 0.82887 0.428168
0.00842298 0.930419 1
0.179629 0.968307 0.910704
0.350835 1 0.799832
0.522057 1 0.68896
0.693263 1 0.578103
0.46009 0 0.632837
0.631296 0 0.521981
0.802502 0 0.411109
0.973724 0 0.300237
1 0.0285954 0.189364
0.385519 0.130129 0.782757
0.556725 0.168017 0.671885
0.727932 0.205905 0.561028
0.899153 0.243793 0.450156
1 0.281682 0.339284
0.310948 0.38323 0.932677
0.482139 0.421118 0.82182
0.653361 0.459007 0.710948
0.824567 0.496895 0.600076
0.995789 0.534783 0.489204
0.236362 0.636332 1
0.407568 0.67422 0.97174
0.578775 0.712108 0.860868
0.749996 0.749996 0.749996
0.921218 0.787884 0.639124
0.161791 0.889433 1
0.332998 0.927321 1
0.504204 0.965209 1
0.675425 1 0.899916
0.846632 1 0.789044
0.613458 0 0.843793
0.784665 0 0.732937
0.955871 0 0.622065
1 0 0.511193
1 0 0.40032
0.538888 0.089128 0.993713
0.710094 0.127016 0.882841
0.8813 0.16492 0.771969
1 0.202808 0.661097
1 0.240696 0.550225
0.464302 0.342229 1
0.635508 0.380118 1
0.806729 0.418021 0.921889
0.977935 0.455909 0.811032
1 0.493797 0.70016
0.389731 0.595331 1
0.560937 0.633219 1
0.732143 0.671122 1
0.903365 0.70901 0.960952
1 0.746899 0.85008
0.31516 0.848447 1
0.486351 0.886336 1
0.657572 0.924224 1
0.828779 0.962112 1
1 1 1
