public/LUTS/Color Shift/ColorShift_01.cube
TITLE "Generated by Resolve"
LUT_3D_SIZE 33
0 0 0
0 0.0134279 0.0115969
0 0.0268559 0.0231937
0 0.0402838 0.0347906
0 0.0537118 0.0463874
0 0.0671397 0.0579843
0 0.0805829 0.0695811
0 0.0940108 0.081178
0 0.107439 0.0927901
0 0.120867 0.104387
0 0.134295 0.115984
0 0.147723 0.127581
0 0.161166 0.139178
0 0.174594 0.150774
0 0.188022 0.162371
0 0.20145 0.173968
0 0.214878 0.18558
0 0.228321 0.197177
0 0.241749 0.208774
0 0.255177 0.220371
0 0.268605 0.231968
0 0.282032 0.243565
0 0.29546 0.255161
0 0.308904 0.266758
0 0.322332 0.27837
0 0.33576 0.289967
0 0.349187 0.301564
0 0.362615 0.313161
0 0.376043 0.324758
0 0.389487 0.336355
0 0.402914 0.347951
0 0.416342 0.359548
0 0.42977 0.37116
0.0422675 0.0127565 0.0450446
0.0237888 0.0261845 0.0566262
0.00531014 0.0396124 0.0682231
0 0.0530404 0.0798352
0 0.0664836 0.0914321
0 0.0799115 0.103029
0 0.0933394 0.114626
0 0.106767 0.126223
0 0.120195 0.137819
0 0.133639 0.149416
0 0.147066 0.161013
0 0.160494 0.17261
0 0.173922 0.184222
0 0.18735 0.195819
0 0.200778 0.207416
0 0.214221 0.219013
0 0.227649 0.23061
0 0.241077 0.242206
0 0.254505 0.253803
0 0.267933 0.2654
0 0.281361 0.277012
0 0.294804 0.288609
0 0.308232 0.300206
0 0.32166 0.311803
0 0.335088 0.3234
0 0.348516 0.334997
0 0.361944 0.346593
0 0.375387 0.35819
0 0.388815 0.369802
0 0.402243 0.381399
0 0.415671 0.392996
0 0.429099 0.404593
0 0.442542 0.41619
0.0845655 0.0255283 0.0900893
0.0660868 0.0389563 0.101686
0.0475929 0.0523842 0.113283
0.0291142 0.0658122 0.12488
0.0106203 0.0792401 0.136492
0 0.0926833 0.148089
0 0.106111 0.159686
0 0.119539 0.171283
0 0.132967 0.182879
0 0.146395 0.194476
0 0.159838 0.206073
0 0.173266 0.21767
0 0.186694 0.229282
0 0.200122 0.240879
0 0.21355 0.252476
0 0.226978 0.264073
0 0.240421 0.275669
0 0.253849 0.287266
0 0.267277 0.298863
0 0.280705 0.31046
0 0.294133 0.322072
0 0.307561 0.333669
0 0.321004 0.345266
0 0.334432 0.356863
0 0.34786 0.36846
0 0.361288 0.380056
0 0.374716 0.391653
0 0.388144 0.40325
0 0.401587 0.414862
0 0.415015 0.426459
0 0.428443 0.438056
0 0.441871 0.449653
0 0.455299 0.46125
0.126864 0.0383001 0.135149
0.108385 0.0517281 0.146746
0.0898909 0.065156 0.158343
0.0714122 0.078584 0.16994
0.0529183 0.0920119 0.181552
0.0344244 0.10544 0.193149
0.0159457 0.118883 0.204746
0 0.132311 0.216342
0 0.145739 0.227939
0 0.159167 0.239536
0 0.172595 0.251133
0 0.186023 0.26273
0 0.199466 0.274342
0 0.212894 0.285939
0 0.226322 0.297536
0 0.23975 0.309133
0 0.253178 0.320729
0 0.266621 0.332326
0 0.280049 0.343923
0 0.293477 0.35552
0 0.306905 0.367132
0 0.320333 0.378729
0 0.333761 0.390326
0 0.347204 0.401923
0 0.360632 0.41352
0 0.37406 0.425116
0 0.387488 0.436713
0 0.400916 0.44831
0 0.414343 0.459907
0 0.427787 0.471519
0 0.441215 0.483116
0 0.454643 0.494713
0 0.468071 0.50631
0.169162 0.0510719 0.180209
0.150683 0.0644999 0.191806
0.132189 0.0779278 0.203403
0.113695 0.0913558 0.215
0.0952163 0.104784 0.226596
0.0767224 0.118212 0.238209
0.0582284 0.13164 0.249805
0.0397498 0.145083 0.261402
0.0212558 0.158511 0.272999
0.00276188 0.171939 0.284596
0 0.185367 0.296193
0 0.198795 0.30779
0 0.212222 0.319387
0 0.225666 0.330999
0 0.239094 0.342596
0 0.252522 0.354192
0 0.265949 0.365789
0 0.279377 0.377386
0 0.292805 0.388983
0 0.306249 0.40058
0 0.319677 0.412177
0 0.333104 0.423789
0 0.346532 0.435386
0 0.35996 0.446983
0 0.373404 0.458579
0 0.386831 0.470176
0 0.400259 0.481773
0 0.413687 0.49337
0 0.427115 0.504967
0 0.440543 0.516579
0 0.453986 0.528176
0 0.467414 0.539773
0 0.480842 0.551369
0.21146 0.0638437 0.225269
0.192966 0.0772564 0.236866
0.174487 0.0906996 0.248463
0.155993 0.104128 0.26006
0.137514 0.117556 0.271656
0.11902 0.130983 0.283268
0.100526 0.144411 0.294865
0.0820478 0.157839 0.306462
0.0635538 0.171283 0.318059
0.0450599 0.18471 0.329656
0.0265812 0.198138 0.341253
0.00808728 0.211566 0.35285
0 0.224994 0.364446
0 0.238422 0.376059
0 0.251865 0.387655
0 0.265293 0.399252
0 0.278721 0.410849
0 0.292149 0.422446
0 0.305577 0.434043
0 0.319005 0.44564
0 0.332448 0.457237
0 0.345876 0.468849
0 0.359304 0.480446
0 0.372732 0.492042
0 0.38616 0.503639
0 0.399603 0.515236
0 0.413031 0.526833
0 0.426459 0.53843
0 0.439887 0.550027
0 0.453315 0.561639
0 0.466743 0.573236
0 0.480186 0.584833
0 0.493614 0.596429
0.253742 0.0766003 0.270329
0.235264 0.0900282 0.281926
0.216785 0.103456 0.293523
0.198291 0.116884 0.305119
0.179797 0.130327 0.316716
0.161318 0.143755 0.328328
0.142824 0.157183 0.339925
0.124331 0.170611 0.351522
0.105852 0.184039 0.363119
0.0873579 0.197482 0.374716
0.068864 0.21091 0.386313
0.0503853 0.224338 0.39791
0.0318914 0.237766 0.409506
0.0133974 0.251194 0.421103
0 0.264622 0.432715
0 0.278065 0.444312
0 0.291493 0.455909
0 0.304921 0.467506
0 0.318349 0.479103
0 0.331777 0.4907
0 0.345205 0.502297
0 0.358648 0.513893
0 0.372076 0.525505
0 0.385504 0.537102
0 0.398932 0.548699
0 0.41236 0.560296
0 0.425788 0.571893
0 0.439231 0.58349
0 0.452659 0.595087
0 0.466087 0.606683
0 0.479515 0.618296
0 0.492943 0.629892
0 0.506386 0.641489
0.29604 0.0893721 0.315389
0.277562 0.1028 0.326986
0.259068 0.116228 0.338582
0.240589 0.129656 0.350179
0.222095 0.143084 0.361776
0.203601 0.156527 0.373373
0.185122 0.169955 0.384985
0.166629 0.183383 0.396582
0.14815 0.196811 0.408179
0.129656 0.210239 0.419776
0.111162 0.223682 0.431373
0.0926833 0.23711 0.442969
0.0741894 0.250538 0.454566
0.0556954 0.263966 0.466163
0.0372168 0.277394 0.477775
0.0187228 0.290822 0.489372
0.000228885 0.304265 0.500969
0 0.317693 0.512566
0 0.331121 0.524163
0 0.344549 0.53576
0 0.357977 0.547356
0 0.371405 0.558953
0 0.384848 0.570565
0 0.398276 0.582162
0 0.411704 0.593759
0 0.425132 0.605356
0 0.43856 0.616953
0 0.451987 0.62855
0 0.465431 0.640146
0 0.478859 0.651743
0 0.492287 0.663355
0 0.505714 0.674952
0 0.519142 0.686549
0.338338 0.102144 0.360449
0.31986 0.115572 0.372045
0.301366 0.129 0.383642
0.282887 0.142428 0.395239
0.264393 0.155856 0.406836
0.245899 0.169284 0.418433
0.22742 0.182727 0.430045
0.208927 0.196155 0.441642
0.190433 0.209583 0.453239
0.171954 0.223011 0.464836
0.15346 0.236439 0.476432
0.134966 0.249866 0.488029
0.116487 0.26331 0.499626
0.0979934 0.276738 0.511223
0.0794995 0.290166 0.522835
0.0610208 0.303593 0.534432
0.0425269 0.317021 0.546029
0.024033 0.330465 0.557626
0.00555428 0.343893 0.569223
0 0.357321 0.580819
0 0.370748 0.592416
0 0.384176 0.604013
0 0.397604 0.61561
0 0.411048 0.627222
0 0.424475 0.638819
0 0.437903 0.650416
0 0.451331 0.662013
0 0.464759 0.673609
0 0.478187 0.685206
0 0.49163 0.696803
0 0.505058 0.7084
0 0.518486 0.720012
0 0.531914 0.731609
0.380636 0.114916 0.405509
0.362158 0.128344 0.417105
0.343664 0.141772 0.428702
0.32517 0.1552 0.440299
0.306691 0.168627 0.451896
0.288197 0.182055 0.463493
0.269703 0.195483 0.47509
0.251225 0.208927 0.486702
0.232731 0.222354 0.498299
0.214237 0.235782 0.509896
0.195758 0.24921 0.521492
0.177264 0.262638 0.533089
0.15877 0.276066 0.544686
0.140291 0.289509 0.556283
0.121798 0.302937 0.56788
0.103304 0.316365 0.579492
0.0848249 0.329793 0.591089
0.066331 0.343221 0.602686
0.0478523 0.356664 0.614282
0.0293584 0.370092 0.625879
0.0108644 0.38352 0.637476
0 0.396948 0.649073
0 0.410376 0.66067
0 0.423804 0.672282
0 0.437247 0.683879
0 0.450675 0.695476
0 0.464103 0.707073
0 0.477531 0.718669
0 0.490959 0.730266
0 0.504387 0.741863
0 0.51783 0.75346
0 0.531258 0.765072
0 0.544686 0.776669
0.422919 0.127687 0.450568
0.40444 0.1411 0.462165
0.385962 0.154543 0.473762
0.367468 0.167971 0.485359
0.348974 0.181399 0.496956
0.330495 0.194827 0.508553
0.312001 0.208255 0.52015
0.293507 0.221683 0.531762
0.275029 0.235126 0.543359
0.256535 0.248554 0.554955
0.238056 0.261982 0.566552
0.219562 0.27541 0.578149
0.201068 0.288838 0.589746
0.182589 0.302266 0.601343
0.164096 0.315709 0.61294
0.145602 0.329137 0.624552
0.127123 0.342565 0.636149
0.108629 0.355993 0.647745
0.090135 0.369421 0.659342
0.0716564 0.382849 0.670939
0.0531624 0.396292 0.682536
0.0346685 0.40972 0.694133
0.0161898 0.423148 0.70573
0 0.436576 0.717342
0 0.450004 0.728939
0 0.463447 0.740536
0 0.476875 0.752132
0 0.490303 0.763729
0 0.503731 0.775326
0 0.517159 0.786923
0 0.530587 0.79852
0 0.54403 0.810132
0 0.557458 0.821729
0.465217 0.140444 0.495628
0.446738 0.153872 0.507225
0.42826 0.1673 0.518822
0.409766 0.180728 0.530419
0.391272 0.194171 0.542016
0.372793 0.207599 0.553613
0.354299 0.221027 0.565209
0.335805 0.234455 0.576806
0.317327 0.247883 0.588418
0.298833 0.261326 0.600015
0.280339 0.274754 0.611612
0.26186 0.288182 0.623209
0.243366 0.30161 0.634806
0.224872 0.315038 0.646403
0.206394 0.328466 0.658
0.1879 0.341909 0.669596
0.169406 0.355337 0.681208
0.150927 0.368765 0.692805
0.132433 0.382193 0.704402
0.113939 0.395621 0.715999
0.0954604 0.409049 0.727596
0.0769665 0.422492 0.739193
0.0584726 0.43592 0.75079
0.0399939 0.449348 0.762387
0.0215 0.462776 0.773999
0.00302129 0.476204 0.785595
0 0.489632 0.797192
0 0.503075 0.808789
0 0.516503 0.820386
0 0.529931 0.831983
0 0.543359 0.84358
0 0.556786 0.855177
0 0.57023 0.866789
0.507515 0.153216 0.540688
0.489036 0.166644 0.552285
0.470542 0.180072 0.563882
0.452064 0.1935 0.575479
0.43357 0.206928 0.587076
0.415076 0.220371 0.598672
0.396597 0.233799 0.610269
0.378103 0.247227 0.621866
0.359609 0.260655 0.633478
0.341131 0.274083 0.645075
0.322637 0.287526 0.656672
0.304143 0.300954 0.668269
0.285664 0.314382 0.679866
0.26717 0.32781 0.691463
0.248692 0.341238 0.703059
0.230198 0.354665 0.714656
0.211704 0.368109 0.726268
0.193225 0.381537 0.737865
0.174731 0.394965 0.749462
0.156237 0.408392 0.761059
0.137758 0.42182 0.772656
0.119265 0.435248 0.784253
0.100771 0.448692 0.79585
0.0822919 0.462119 0.807446
0.063798 0.475547 0.819059
0.045304 0.488975 0.830655
0.0268254 0.502403 0.842252
0.00833143 0.515831 0.853849
0 0.529274 0.865446
0 0.542702 0.877043
0 0.55613 0.88864
0 0.569558 0.900236
0 0.582986 0.911849
0.549813 0.165988 0.585748
0.531334 0.179416 0.597345
0.51284 0.192844 0.608942
0.494347 0.206271 0.620539
0.475868 0.219699 0.632136
0.457374 0.233127 0.643732
0.438895 0.246571 0.655329
0.420401 0.259998 0.666926
0.401907 0.273426 0.678538
0.383429 0.286854 0.690135
0.364935 0.300282 0.701732
0.346441 0.31371 0.713329
0.327962 0.327153 0.724926
0.309468 0.340581 0.736522
0.290974 0.354009 0.748119
0.272496 0.367437 0.759716
0.254002 0.380865 0.771328
0.235508 0.394308 0.782925
0.217029 0.407736 0.794522
0.198535 0.421164 0.806119
0.180041 0.434592 0.817716
0.161563 0.44802 0.829313
0.143069 0.461448 0.840909
0.124575 0.474891 0.852506
0.106096 0.488319 0.864103
0.087602 0.501747 0.875715
0.0691081 0.515175 0.887312
0.0506294 0.528603 0.898909
0.0321355 0.542031 0.910506
0.0136416 0.555474 0.922103
0 0.568902 0.9337
0 0.58233 0.945296
0 0.595758 0.956893
0.592111 0.178759 0.630808
0.573632 0.192187 0.642405
0.555138 0.205615 0.654002
0.536645 0.219043 0.665599
0.518166 0.232471 0.677195
0.499672 0.245899 0.688792
0.481178 0.259327 0.700389
0.462699 0.27277 0.711986
0.444205 0.286198 0.723583
0.425711 0.299626 0.735195
0.407233 0.313054 0.746792
0.388739 0.326482 0.758389
0.370245 0.33991 0.769985
0.351766 0.353353 0.781582
0.333272 0.366781 0.793179
0.314778 0.380209 0.804776
0.2963 0.393637 0.816373
0.277806 0.407065 0.827985
0.259312 0.420508 0.839582
0.240833 0.433936 0.851179
0.222339 0.447364 0.862776
0.203845 0.460792 0.874372
0.185367 0.47422 0.885969
0.166873 0.487648 0.897566
0.148394 0.501091 0.909163
0.1299 0.514519 0.920775
0.111406 0.527947 0.932372
0.0929274 0.541375 0.943969
0.0744335 0.554803 0.955566
0.0559396 0.568231 0.967163
0.0374609 0.581674 0.978759
0.018967 0.595102 0.990356
0.00047303 0.60853 1
0.634394 0.191531 0.675868
0.615915 0.204944 0.687465
0.597436 0.218387 0.699062
0.578943 0.231815 0.710658
0.560449 0.245243 0.722255
0.54197 0.258671 0.733852
0.523476 0.272099 0.745449
0.504982 0.285527 0.757046
0.486503 0.29897 0.768643
0.468009 0.312398 0.780255
0.449516 0.325826 0.791852
0.431037 0.339254 0.803449
0.412543 0.352682 0.815045
0.394064 0.36611 0.826642
0.37557 0.379553 0.838239
0.357076 0.392981 0.849836
0.338598 0.406409 0.861433
0.320104 0.419837 0.873045
0.30161 0.433265 0.884642
0.283131 0.446693 0.896239
0.264637 0.460136 0.907835
0.246143 0.473564 0.919432
0.227665 0.486992 0.931029
0.209171 0.50042 0.942626
0.190677 0.513848 0.954223
0.172198 0.527291 0.965835
0.153704 0.540719 0.977432
0.13521 0.554147 0.989029
0.116732 0.567575 1
0.0982376 0.581003 1
0.0797436 0.59443 1
0.061265 0.607874 1
0.042771 0.621302 1
0.676692 0.204288 0.720928
0.658213 0.217716 0.732509
0.639719 0.231144 0.744121
0.621241 0.244572 0.755718
0.602747 0.258015 0.767315
0.584253 0.271443 0.778912
0.565774 0.284871 0.790509
0.54728 0.298299 0.802106
0.528801 0.311727 0.813703
0.510307 0.32517 0.825299
0.491814 0.338598 0.836912
0.473335 0.352026 0.848508
0.454841 0.365454 0.860105
0.436347 0.378882 0.871702
0.417868 0.392309 0.883299
0.399374 0.405753 0.894896
0.38088 0.419181 0.906493
0.362402 0.432609 0.91809
0.343908 0.446036 0.929702
0.325414 0.459464 0.941299
0.306935 0.472892 0.952895
0.288441 0.486336 0.964492
0.269947 0.499763 0.976089
0.251469 0.513191 0.987686
0.232975 0.526619 0.999283
0.214481 0.540047 1
0.196002 0.553475 1
0.177508 0.566918 1
0.159014 0.580346 1
0.140536 0.593774 1
0.122042 0.607202 1
0.103563 0.62063 1
0.085069 0.634073 1
0.71899 0.21706 0.765988
0.700511 0.230488 0.777569
0.682017 0.243915 0.789181
0.663539 0.257343 0.800778
0.645045 0.270771 0.812375
0.626551 0.284215 0.823972
0.608072 0.297642 0.835569
0.589578 0.31107 0.847166
0.571084 0.324498 0.858763
0.552605 0.337926 0.870359
0.534112 0.35137 0.881971
0.515618 0.364797 0.893568
0.497139 0.378225 0.905165
0.478645 0.391653 0.916762
0.460151 0.405081 0.928359
0.441672 0.418509 0.939956
0.423178 0.431952 0.951553
0.404685 0.44538 0.963149
0.386206 0.458808 0.974762
0.367712 0.472236 0.986358
0.349218 0.485664 0.997955
0.330739 0.499092 1
0.312245 0.512535 1
0.293767 0.525963 1
0.275273 0.539391 1
0.256779 0.552819 1
0.2383 0.566247 1
0.219806 0.579675 1
0.201312 0.593118 1
0.182834 0.606546 1
0.16434 0.619974 1
0.145846 0.633402 1
0.127367 0.64683 1
0.761288 0.229831 0.811048
0.742809 0.243259 0.822629
0.724315 0.256687 0.834241
0.705821 0.270115 0.845838
0.687343 0.283543 0.857435
0.668849 0.296971 0.869032
0.650355 0.310414 0.880629
0.631876 0.323842 0.892226
0.613382 0.33727 0.903822
0.594888 0.350698 0.915419
0.57641 0.364126 0.927031
0.557916 0.377554 0.938628
0.539422 0.390997 0.950225
0.520943 0.404425 0.961822
0.502449 0.417853 0.973419
0.48397 0.431281 0.985016
0.465476 0.444709 0.996612
0.446983 0.458152 1
0.428504 0.47158 1
0.41001 0.485008 1
0.391516 0.498436 1
0.373037 0.511864 1
0.354543 0.525292 1
0.336049 0.538735 1
0.317571 0.552163 1
0.299077 0.565591 1
0.280583 0.579019 1
0.262104 0.592447 1
0.24361 0.605875 1
0.225116 0.619318 1
0.206638 0.632746 1
0.188144 0.646174 1
0.16965 0.659602 1
0.803586 0.242603 0.856107
0.785092 0.256031 0.867689
0.766613 0.269459 0.879286
0.748119 0.282887 0.890898
0.729641 0.296315 0.902495
0.711147 0.309743 0.914092
0.692653 0.323171 0.925689
0.674174 0.336614 0.937285
0.65568 0.350042 0.948882
0.637186 0.36347 0.960479
0.618708 0.376898 0.972076
0.600214 0.390326 0.983688
0.58172 0.403754 0.995285
0.563241 0.417197 1
0.544747 0.430625 1
0.526253 0.444053 1
0.507774 0.457481 1
0.489281 0.470909 1
0.470787 0.484352 1
0.452308 0.49778 1
0.433814 0.511208 1
0.41532 0.524636 1
0.396841 0.538064 1
0.378347 0.551492 1
0.359854 0.564935 1
0.341375 0.578363 1
0.322881 0.591791 1
0.304387 0.605219 1
0.285908 0.618647 1
0.267414 0.632074 1
0.248936 0.645518 1
0.230442 0.658946 1
0.211948 0.672374 1
0.845869 0.255375 0.901167
0.82739 0.268788 0.912749
0.808911 0.282231 0.924346
0.790417 0.295659 0.935958
0.771923 0.309087 0.947555
0.753445 0.322515 0.959152
0.734951 0.335943 0.970748
0.716457 0.349371 0.982345
0.697978 0.362814 0.993942
0.679484 0.376242 1
0.66099 0.38967 1
0.642512 0.403098 1
0.624018 0.416526 1
0.605524 0.429953 1
0.587045 0.443397 1
0.568551 0.456825 1
0.550057 0.470253 1
0.531579 0.48368 1
0.513085 0.497108 1
0.494606 0.510536 1
0.476112 0.52398 1
0.457618 0.537408 1
0.439139 0.550835 1
0.420645 0.564263 1
0.402152 0.577691 1
0.383673 0.591134 1
0.365179 0.604562 1
0.346685 0.61799 1
0.328206 0.631418 1
0.309712 0.644846 1
0.291218 0.658274 1
0.27274 0.671717 1
0.254246 0.685145 1
0.888167 0.268132 0.946212
0.869688 0.281559 0.957809
0.851194 0.294987 0.969406
0.832715 0.308415 0.981003
0.814221 0.321859 0.992615
0.795727 0.335286 1
0.777249 0.348714 1
0.758755 0.362142 1
0.740261 0.37557 1
0.721782 0.389013 1
0.703288 0.402441 1
0.68481 0.415869 1
0.666316 0.429297 1
0.647822 0.442725 1
0.629343 0.456153 1
0.610849 0.469596 1
0.592355 0.483024 1
0.573877 0.496452 1
0.555383 0.50988 1
0.536889 0.523308 1
0.51841 0.536736 1
0.499916 0.550179 1
0.481422 0.563607 1
0.462943 0.577035 1
0.44445 0.590463 1
0.425956 0.603891 1
0.407477 0.617319 1
0.388983 0.630762 1
0.370489 0.64419 1
0.35201 0.657618 1
0.333516 0.671046 1
0.315022 0.684474 1
0.296544 0.697917 1
0.930465 0.280903 0.991272
0.911986 0.294331 1
0.893492 0.307759 1
0.875013 0.321187 1
0.856519 0.334615 1
0.838026 0.348058 1
0.819547 0.361486 1
0.801053 0.374914 1
0.782559 0.388342 1
0.76408 0.40177 1
0.745586 0.415213 1
0.727092 0.428641 1
0.708614 0.442069 1
0.69012 0.455497 1
0.671626 0.468925 1
0.653147 0.482353 1
0.634653 0.495796 1
0.616159 0.509224 1
0.597681 0.522652 1
0.579187 0.53608 1
0.560693 0.549508 1
0.542214 0.562936 1
0.52372 0.576379 1
0.505226 0.589807 1
0.486748 0.603235 1
0.468254 0.616663 1
0.44976 0.630091 1
0.431281 0.643519 1
0.412787 0.656962 1
0.394308 0.67039 1
0.375814 0.683818 1
0.357321 0.697246 1
0.338842 0.710674 1
0.972763 0.293675 1
0.954284 0.307103 1
0.93579 0.320531 1
0.917296 0.333959 1
0.898817 0.347387 1
0.880323 0.360815 1
0.86183 0.374258 1
0.843351 0.387686 1
0.824857 0.401114 1
0.806363 0.414542 1
0.787884 0.42797 1
0.76939 0.441398 1
0.750896 0.454841 1
0.732418 0.468269 1
0.713924 0.481697 1
0.69543 0.495125 1
0.676951 0.508553 1
0.658457 0.521996 1
0.639979 0.535424 1
0.621485 0.548852 1
0.602991 0.56228 1
0.584512 0.575708 1
0.566018 0.589136 1
0.547524 0.602579 1
0.529046 0.616007 1
0.510552 0.629435 1
0.492058 0.642863 1
0.473579 0.656291 1
0.455085 0.669718 1
0.436591 0.683162 1
0.418112 0.69659 1
0.399619 0.710018 1
0.381125 0.723445 1
1 0.306447 1
0.996567 0.319875 1
0.978088 0.333303 1
0.959594 0.346731 1
0.9411 0.360159 1
0.922621 0.373587 1
0.904128 0.387015 1
0.885634 0.400458 1
0.867155 0.413886 1
0.848661 0.427314 1
0.830182 0.440742 1
0.811688 0.45417 1
0.793194 0.467597 1
0.774716 0.481041 1
0.756222 0.494469 1
0.737728 0.507897 1
0.719249 0.521324 1
0.700755 0.534752 1
0.682261 0.548196 1
0.663783 0.561624 1
0.645289 0.575051 1
0.626795 0.588479 1
0.608316 0.601907 1
0.589822 0.615335 1
0.571328 0.628779 1
0.55285 0.642206 1
0.534356 0.655634 1
0.515862 0.669062 1
0.497383 0.68249 1
0.478889 0.695918 1
0.460395 0.709361 1
0.441917 0.722789 1
0.423423 0.736217 1
1 0.319219 1
1 0.332631 1
1 0.346075 1
1 0.359503 1
0.983398 0.37293 1
0.96492 0.386358 1
0.946426 0.399786 1
0.927932 0.413214 1
0.909453 0.426657 1
0.890959 0.440085 1
0.872465 0.453513 1
0.853986 0.466941 1
0.835492 0.480369 1
0.816999 0.493797 1
0.79852 0.50724 1
0.780026 0.520668 1
0.761532 0.534096 1
0.743053 0.547524 1
0.724559 0.560952 1
0.706065 0.57438 1
0.687587 0.587823 1
0.669093 0.601251 1
0.650599 0.614679 1
0.63212 0.628107 1
0.613626 0.641535 1
0.595132 0.654978 1
0.576654 0.668406 1
0.55816 0.681834 1
0.539681 0.695262 1
0.521187 0.70869 1
0.502693 0.722118 1
0.484215 0.735561 1
0.465721 0.748989 1
1 0.331975 1
1 0.345403 1
1 0.358831 1
1 0.372259 1
1 0.385702 1
1 0.39913 1
0.988724 0.412558 1
0.97023 0.425986 1
0.951736 0.439414 1
0.933257 0.452857 1
0.914763 0.466285 1
0.896269 0.479713 1
0.877791 0.493141 1
0.859297 0.506569 1
0.840803 0.519997 1
0.822324 0.53344 1
0.80383 0.546868 1
0.785336 0.560296 1
0.766857 0.573724 1
0.748363 0.587152 1
0.729885 0.60058 1
0.711391 0.614023 1
0.692897 0.627451 1
0.674418 0.640879 1
0.655924 0.654307 1
0.63743 0.667735 1
0.618952 0.681178 1
0.600458 0.694606 1
0.581964 0.708034 1
0.563485 0.721462 1
0.544991 0.73489 1
0.526497 0.748318 1
0.508019 0.761761 1
1 0.344747 1
1 0.358175 1
1 0.371603 1
1 0.385031 1
1 0.398459 1
1 0.411902 1
1 0.42533 1
1 0.438758 1
0.994034 0.452186 1
