public/LUTS/Color Shift/ColorShift_23.cube
TITLE "Generated by Resolve"
LUT_3D_SIZE 33
0 0 0
0.0280003 0.00189212 0
0.0560159 0.00376898 0
0.0840314 0.0056611 0
0.112047 0.00755322 0
0.140063 0.00943008 0
0.168078 0.0113222 0
0.196078 0.0132143 0
0.224094 0.0150912 0
0.25211 0.0169833 0
0.280125 0.0188754 0
0.308141 0.0207523 0
0.336156 0.0226444 0
0.364172 0.0245365 0
0.392187 0.0264134 0
0.420203 0.0283055 0
0.448218 0.0301976 0
0.476234 0.0320745 0
0.50425 0.0339666 0
0.53225 0.0358587 0
0.560265 0.0377356 0
0.588281 0.0396277 0
0.616297 0.0415198 0
0.644312 0.0433967 0
0.672328 0.0452888 0
0.700343 0.0471809 0
0.728359 0.0490578 0
0.756374 0.0509499 0
0.78439 0.052842 0
0.812406 0.0547189 0
0.840406 0.056611 0
0.868421 0.0585031 0
0.896437 0.0603799 0
0 0.0320134 0.00772107
0.0221256 0.0338903 0.000595102
0.0501411 0.0357824 0
0.0781567 0.0376745 0
0.106157 0.0395514 0
0.134173 0.0414435 0
0.162188 0.0433356 0
0.190204 0.0452125 0
0.218219 0.0471046 0
0.246235 0.0489967 0
0.27425 0.0508736 0
0.302266 0.0527657 0
0.330282 0.0546578 0
0.358297 0.0565347 0
0.386313 0.0584268 0
0.414313 0.0603189 0
0.442329 0.0621958 0
0.470344 0.0640879 0
0.49836 0.06598 0
0.526375 0.0678569 0
0.554391 0.069749 0
0.582406 0.0716411 0
0.610422 0.073518 0
0.638437 0.0754101 0
0.666453 0.0773022 0
0.694469 0.0791791 0
0.722469 0.0810712 0
0.750484 0.0829633 0
0.7785 0.0848402 0
0.806516 0.0867323 0
0.834531 0.0886244 0
0.862547 0.0905013 0
0.890562 0.0923934 0
0 0.0640269 0.0154421
0.0162356 0.065919 0.00831617
0.0442512 0.0677958 0.0011902
0.0722667 0.069688 0
0.100282 0.0715801 0
0.128298 0.0734569 0
0.156313 0.075349 0
0.184329 0.0772412 0
0.212345 0.079118 0
0.240345 0.0810101 0
0.26836 0.0829023 0
0.296376 0.0847791 0
0.324392 0.0866712 0
0.352407 0.0885634 0
0.380423 0.0904555 0
0.408438 0.0923323 0
0.436454 0.0942245 0
0.464469 0.0961166 0
0.492485 0.0979934 0
0.5205 0.0998856 0
0.548516 0.101778 0
0.576516 0.103655 0
0.604532 0.105547 0
0.632547 0.107439 0
0.660563 0.109316 0
0.688579 0.111208 0
0.716594 0.1131 0
0.74461 0.114977 0
0.772625 0.116869 0
0.800641 0.118761 0
0.828656 0.120638 0
0.856672 0.12253 0
0.884672 0.124422 0
0 0.0960555 0.0231632
0.0103609 0.0979324 0.0160372
0.0383764 0.0998245 0.00891127
0.066392 0.101717 0.00178531
0.0943923 0.103593 0
0.122408 0.105486 0
0.150423 0.107378 0
0.178439 0.109255 0
0.206455 0.111147 0
0.23447 0.113039 0
0.262486 0.114916 0
0.290501 0.116808 0
0.318517 0.1187 0
0.346532 0.120577 0
0.374548 0.122469 0
0.402548 0.124361 0
0.430564 0.126238 0
0.458579 0.12813 0
0.486595 0.130022 0
0.514611 0.131899 0
0.542626 0.133791 0
0.570642 0.135683 0
0.598657 0.13756 0
0.626673 0.139452 0
0.654688 0.141344 0
0.682704 0.143236 0
0.710704 0.145113 0
0.73872 0.147005 0
0.766735 0.148898 0
0.794751 0.150774 0
0.822766 0.152667 0
0.850782 0.154559 0
0.878798 0.156435 0
0 0.128069 0.0308843
0.00447089 0.129961 0.0237583
0.0324865 0.131853 0.0166323
0.060502 0.13373 0.00950637
0.0885176 0.135622 0.00238041
0.116533 0.137514 0
0.144549 0.139391 0
0.172564 0.141283 0
0.20058 0.143175 0
0.22858 0.145052 0
0.256596 0.146944 0
0.284611 0.148836 0
0.312627 0.150713 0
0.340642 0.152605 0
0.368658 0.154498 0
0.396674 0.156374 0
0.424689 0.158267 0
0.452705 0.160159 0
0.48072 0.162036 0
0.508736 0.163928 0
0.536751 0.16582 0
0.564752 0.167697 0
0.592767 0.169589 0
0.620783 0.171481 0
0.648798 0.173358 0
0.676814 0.17525 0
0.704829 0.177142 0
0.732845 0.179019 0
0.760861 0.180911 0
0.788876 0.182803 0
0.816892 0.18468 0
0.844907 0.186572 0
0.872908 0.188464 0
0 0.160098 0.0386053
0 0.16199 0.0314794
0.0266117 0.163867 0.0243534
0.0546273 0.165759 0.0172274
0.0826276 0.167651 0.0101015
0.110643 0.169528 0.00297551
0.138659 0.17142 0
0.166674 0.173312 0
0.19469 0.175189 0
0.222705 0.177081 0
0.250721 0.178973 0
0.278737 0.18085 0
0.306752 0.182742 0
0.334768 0.184634 0
0.362783 0.186511 0
0.390784 0.188403 0
0.418799 0.190295 0
0.446815 0.192172 0
0.47483 0.194064 0
0.502846 0.195956 0
0.530861 0.197833 0
0.558877 0.199725 0
0.586892 0.201617 0
0.614908 0.203494 0
0.642924 0.205386 0
0.670939 0.207279 0
0.69894 0.209155 0
0.726955 0.211048 0
0.754971 0.21294 0
0.782986 0.214817 0
0.811002 0.216709 0
0.839017 0.218601 0
0.867033 0.220478 0
0 0.192126 0.0463264
0 0.194003 0.0392004
0.0207218 0.195895 0.0320745
0.0487373 0.197772 0.0249485
0.0767529 0.199664 0.0178225
0.104768 0.201556 0.0106966
0.132784 0.203433 0.00357061
0.1608 0.205325 0
0.188815 0.207218 0
0.216831 0.20911 0
0.244831 0.210986 0
0.272847 0.212879 0
0.300862 0.214771 0
0.328878 0.216648 0
0.356893 0.21854 0
0.384909 0.220432 0
0.412924 0.222309 0
0.44094 0.224201 0
0.468956 0.226093 0
0.496971 0.22797 0
0.524987 0.229862 0
0.552987 0.231754 0
0.581003 0.233631 0
0.609018 0.235523 0
0.637034 0.237415 0
0.665049 0.239292 0
0.693065 0.241184 0
0.72108 0.243076 0
0.749096 0.244953 0
0.777111 0.246845 0
0.805127 0.248737 0
0.833143 0.250614 0
0.861143 0.252506 0
0 0.22414 0.0540475
0 0.226032 0.0469215
0.014847 0.227909 0.0397955
0.0428626 0.229801 0.0326696
0.0708629 0.231693 0.0255436
0.0988785 0.23357 0.0184176
0.126894 0.235462 0.0112917
0.15491 0.237354 0.00416571
0.182925 0.239231 0
0.210941 0.241123 0
0.238956 0.243015 0
0.266972 0.244892 0
0.294987 0.246784 0
0.323003 0.248676 0
0.351019 0.250553 0
0.379019 0.252445 0
0.407034 0.254337 0
0.43505 0.256214 0
0.463066 0.258106 0
0.491081 0.259998 0
0.519097 0.261875 0
0.547112 0.263767 0
0.575128 0.26566 0
0.603143 0.267552 0
0.631159 0.269429 0
0.659175 0.271321 0
0.687175 0.273213 0
0.71519 0.27509 0
0.743206 0.276982 0
0.771221 0.278874 0
0.799237 0.280751 0
0.827253 0.282643 0
0.855268 0.284535 0
0 0.256168 0.0617685
0 0.258045 0.0546426
0.00895705 0.259937 0.0475166
0.0369726 0.26183 0.0403906
0.0649882 0.263706 0.0332647
0.0930037 0.265599 0.0261387
0.121019 0.267491 0.0190127
0.149035 0.269368 0.0118868
0.17705 0.27126 0.00476081
0.205066 0.273152 0
0.233066 0.275029 0
0.261082 0.276921 0
0.289097 0.278813 0
0.317113 0.28069 0
0.345129 0.282582 0
0.373144 0.284474 0
0.40116 0.286351 0
0.429175 0.288243 0
0.457191 0.290135 0
0.485206 0.292012 0
0.513222 0.293904 0
0.541222 0.295796 0
0.569238 0.297673 0
0.597253 0.299565 0
0.625269 0.301457 0
0.653284 0.303334 0
0.6813 0.305226 0
0.709316 0.307118 0
0.737331 0.308995 0
0.765347 0.310887 0
0.793362 0.312779 0
0.821378 0.314656 0
0.849378 0.316548 0
0 0.288182 0.0694896
0 0.290074 0.0623636
0.00308232 0.291966 0.0552377
0.0310979 0.293843 0.0481117
0.0590982 0.295735 0.0409857
0.0871138 0.297627 0.0338598
0.115129 0.299504 0.0267338
0.143145 0.301396 0.0196078
0.17116 0.303288 0.0124819
0.199176 0.305165 0.00535592
0.227192 0.307057 0
0.255207 0.308949 0
0.283223 0.310826 0
0.311238 0.312718 0
0.339254 0.314611 0
0.367254 0.316487 0
0.39527 0.318379 0
0.423285 0.320272 0
0.451301 0.322148 0
0.479316 0.324041 0
0.507332 0.325933 0
0.535348 0.32781 0
0.563363 0.329702 0
0.591379 0.331594 0
0.619394 0.333471 0
0.64741 0.335363 0
0.67541 0.337255 0
0.703426 0.339132 0
0.731441 0.341024 0
0.759457 0.342916 0
0.787472 0.344793 0
0.815488 0.346685 0
0.843503 0.348577 0
0 0.320211 0.0772106
0 0.322087 0.0700999
0 0.32398 0.0629587
0.0252079 0.325872 0.0558328
0.0532235 0.327749 0.0487068
0.081239 0.329641 0.0415808
0.109255 0.331533 0.0344549
0.13727 0.333425 0.0273289
0.165286 0.335302 0.0202029
0.193301 0.337194 0.013077
0.221302 0.339086 0.00595102
0.249317 0.340963 0
0.277333 0.342855 0
0.305348 0.344747 0
0.333364 0.346624 0
0.361379 0.348516 0
0.389395 0.350408 0
0.417411 0.352285 0
0.445426 0.354177 0
0.473442 0.356069 0
0.501457 0.357946 0
0.529458 0.359838 0
0.557473 0.36173 0
0.585489 0.363607 0
0.613504 0.365499 0
0.64152 0.367391 0
0.669535 0.369268 0
0.697551 0.37116 0
0.725567 0.373053 0
0.753582 0.374929 0
0.781598 0.376822 0
0.809613 0.378714 0
0.837613 0.380591 0
0 0.352224 0.0849317
0 0.354116 0.077821
0 0.356008 0.0706798
0.0193332 0.357885 0.0635538
0.0473335 0.359777 0.0564279
0.075349 0.361669 0.0493019
0.103365 0.363546 0.0421759
0.13138 0.365438 0.03505
0.159396 0.36733 0.027924
0.187411 0.369207 0.020798
0.215427 0.371099 0.0136721
0.243442 0.372992 0.00654612
0.271458 0.374868 0
0.299474 0.376761 0
0.327489 0.378653 0
0.355489 0.380529 0
0.383505 0.382422 0
0.411521 0.384314 0
0.439536 0.386206 0
0.467552 0.388083 0
0.495567 0.389975 0
0.523583 0.391867 0
0.551598 0.393744 0
0.579614 0.395636 0
0.60763 0.397528 0
0.635645 0.399405 0
0.663661 0.401297 0
0.691661 0.403189 0
0.719676 0.405066 0
0.747692 0.406958 0
0.775708 0.40885 0
0.803723 0.410727 0
0.831739 0.412619 0
0 0.384253 0.092668
0 0.386145 0.0855421
0 0.388022 0.0784161
0.0134432 0.389914 0.0712749
0.0414588 0.391806 0.0641489
0.0694743 0.393683 0.057023
0.0974899 0.395575 0.049897
0.125505 0.397467 0.042771
0.153521 0.399344 0.0356451
0.181537 0.401236 0.0285191
0.209537 0.403128 0.0213931
0.237552 0.405005 0.0142672
0.265568 0.406897 0.00714122
0.293584 0.408789 0
0.321599 0.410666 0
0.349615 0.412558 0
0.37763 0.41445 0
0.405646 0.416327 0
0.433661 0.418219 0
0.461677 0.420111 0
0.489693 0.421988 0
0.517693 0.42388 0
0.545708 0.425772 0
0.573724 0.427649 0
0.60174 0.429541 0
0.629755 0.431434 0
0.657771 0.43331 0
0.685786 0.435203 0
0.713802 0.437095 0
0.741817 0.438972 0
0.769833 0.440864 0
0.797848 0.442756 0
0.825849 0.444648 0
0 0.416281 0.100389
0 0.418158 0.0932631
0 0.42005 0.0861372
0.00756847 0.421942 0.0790112
0.0355688 0.423819 0.07187
0.0635843 0.425711 0.064744
0.0915999 0.427604 0.0576181
0.119615 0.42948 0.0504921
0.147631 0.431373 0.0433661
0.175647 0.433265 0.0362402
0.203662 0.435142 0.0291142
0.231678 0.437034 0.0219883
0.259693 0.438926 0.0148623
0.287709 0.440803 0.00772107
0.315724 0.442695 0.000595102
0.343725 0.444587 0
0.37174 0.446464 0
0.399756 0.448356 0
0.427771 0.450248 0
0.455787 0.452125 0
0.483803 0.454017 0
0.511818 0.455909 0
0.539834 0.457786 0
0.567849 0.459678 0
0.595865 0.46157 0
0.62388 0.463447 0
0.651896 0.465339 0
0.679896 0.467231 0
0.707912 0.469108 0
0.735927 0.471 0
0.763943 0.472892 0
0.791959 0.474769 0
0.819974 0.476661 0
0 0.448295 0.10811
0 0.450187 0.100984
0 0.452079 0.0938582
0.00167849 0.453956 0.0867323
0.0296941 0.455848 0.0795911
0.0577096 0.45774 0.0724651
0.0857252 0.459617 0.0653391
0.113741 0.461509 0.0582132
0.141756 0.463401 0.0510872
0.169772 0.465278 0.0439612
0.197772 0.46717 0.0368353
0.225788 0.469062 0.0297093
0.253803 0.470939 0.0225834
0.281819 0.472831 0.0154574
0.309834 0.474723 0.00831617
0.33785 0.4766 0.0011902
0.365866 0.478492 0
0.393881 0.480385 0
0.421897 0.482261 0
0.449912 0.484154 0
0.477928 0.486046 0
0.505928 0.487922 0
0.533944 0.489815 0
0.561959 0.491707 0
0.589975 0.493584 0
0.61799 0.495476 0
0.646006 0.497368 0
0.674022 0.499245 0
0.702037 0.501137 0
0.730053 0.503029 0
0.758068 0.504906 0
0.786084 0.506798 0
0.814084 0.50869 0
0 0.480323 0.115831
0 0.4822 0.108705
0 0.484092 0.101579
0 0.485985 0.0944533
0.0238041 0.487861 0.0873274
0.0518196 0.489754 0.0801862
0.0798352 0.491646 0.0730602
0.107851 0.493523 0.0659342
0.135866 0.495415 0.0588083
0.163882 0.497307 0.0516823
0.191897 0.499184 0.0445563
0.219913 0.501076 0.0374304
0.247929 0.502968 0.0303044
0.275944 0.504845 0.0231785
0.30396 0.506737 0.0160525
0.33196 0.508629 0.00891127
0.359976 0.510521 0.00178531
0.387991 0.512398 0
0.416007 0.51429 0
0.444022 0.516182 0
0.472038 0.518059 0
0.500053 0.519951 0
0.528069 0.521843 0
0.556085 0.52372 0
0.5841 0.525612 0
0.612116 0.527504 0
0.640131 0.529381 0
0.668132 0.531273 0
0.696147 0.533165 0
0.724163 0.535042 0
0.752178 0.536934 0
0.780194 0.538827 0
0.808209 0.540703 0
0 0.512337 0.123552
0 0.514229 0.116426
0 0.516121 0.1093
0 0.517998 0.102174
0.0179294 0.51989 0.0950484
0.0459449 0.521782 0.0879072
0.0739605 0.523659 0.0807813
0.101976 0.525551 0.0736553
0.129992 0.527443 0.0665293
0.158007 0.52932 0.0594034
0.186007 0.531212 0.0522774
0.214023 0.533104 0.0451514
0.242039 0.534981 0.0380255
0.270054 0.536873 0.0308995
0.29807 0.538766 0.0237736
0.326085 0.540642 0.0166323
0.354101 0.542535 0.00950637
0.382116 0.544427 0.00238041
0.410132 0.546304 0
0.438148 0.548196 0
0.466163 0.550088 0
0.494163 0.551965 0
0.522179 0.553857 0
0.550195 0.555749 0
0.57821 0.557626 0
0.606226 0.559518 0
0.634241 0.56141 0
0.662257 0.563302 0
0.690272 0.565179 0
0.718288 0.567071 0
0.746303 0.568963 0
0.774319 0.57084 0
0.802319 0.572732 0
0 0.544366 0.131273
0 0.546258 0.124147
0 0.548135 0.117021
0 0.550027 0.109895
0.0120394 0.551919 0.10277
0.0400549 0.553796 0.0956436
0.0680705 0.555688 0.0885023
0.0960861 0.55758 0.0813764
0.124102 0.559457 0.0742504
0.152117 0.561349 0.0671244
0.180133 0.563241 0.0599985
0.208148 0.565118 0.0528725
0.236164 0.56701 0.0457465
0.264179 0.568902 0.0386206
0.292195 0.570779 0.0314946
0.320195 0.572671 0.0243687
0.348211 0.574563 0.0172274
0.376226 0.57644 0.0101015
0.404242 0.578332 0.00297551
0.432258 0.580224 0
0.460273 0.582101 0
0.488289 0.583993 0
0.516304 0.585885 0
0.54432 0.587762 0
0.572335 0.589654 0
0.600351 0.591546 0
0.628367 0.593423 0
0.656367 0.595315 0
0.684382 0.597208 0
0.712398 0.599084 0
0.740414 0.600977 0
0.768429 0.602869 0
0.796445 0.604746 0
0 0.576394 0.138994
0 0.578271 0.131868
0 0.580163 0.124743
0 0.582055 0.117617
0.00616464 0.583932 0.110491
0.0341802 0.585824 0.103365
0.0621958 0.587716 0.0962387
0.0902113 0.589593 0.0890974
0.118227 0.591485 0.0819715
0.146242 0.593378 0.0748455
0.174243 0.595254 0.0677195
0.202258 0.597147 0.0605936
0.230274 0.599039 0.0534676
0.258289 0.600916 0.0463417
0.286305 0.602808 0.0392157
0.314321 0.6047 0.0320897
0.342336 0.606577 0.0249485
0.370352 0.608469 0.0178225
0.398367 0.610361 0.0106966
0.426383 0.612238 0.00357061
0.454398 0.61413 0
0.482399 0.616022 0
0.510414 0.617899 0
0.53843 0.619791 0
0.566445 0.621683 0
0.594461 0.62356 0
0.622477 0.625452 0
0.650492 0.627344 0
0.678508 0.629221 0
0.706523 0.631113 0
0.734539 0.633005 0
0.762554 0.634882 0
0.790555 0.636774 0
0 0.608408 0.146715
0 0.6103 0.13959
0 0.612177 0.132464
0 0.614069 0.125338
0.000274662 0.615961 0.118212
0.0282902 0.617838 0.111086
0.0563058 0.61973 0.10396
0.0843214 0.621622 0.0968185
0.112337 0.623499 0.0896925
0.140352 0.625391 0.0825666
0.168368 0.627283 0.0754406
0.196384 0.629175 0.0683146
0.224399 0.631052 0.0611887
0.252415 0.632944 0.0540627
0.28043 0.634836 0.0469368
0.308431 0.636713 0.0398108
0.336446 0.638605 0.0326848
0.364462 0.640497 0.0255436
0.392477 0.642374 0.0184176
0.420493 0.644266 0.0112917
0.448508 0.646159 0.00416571
0.476524 0.648035 0
0.50454 0.649927 0
0.532555 0.65182 0
0.560571 0.653696 0
0.588586 0.655589 0
0.616602 0.657481 0
0.644602 0.659358 0
0.672618 0.66125 0
0.700633 0.663142 0
0.728649 0.665019 0
0.756664 0.666911 0
0.78468 0.668803 0
0 0.640436 0.154437
0 0.642313 0.147311
0 0.644205 0.140185
0 0.646097 0.133059
0 0.647974 0.125933
0.0224155 0.649866 0.118807
0.0504311 0.651759 0.111681
0.0784466 0.653635 0.104555
0.106462 0.655528 0.0974136
0.134478 0.65742 0.0902876
0.162478 0.659297 0.0831617
0.190494 0.661189 0.0760357
0.218509 0.663081 0.0689097
0.246525 0.664958 0.0617838
0.27454 0.66685 0.0546578
0.302556 0.668742 0.0475319
0.330571 0.670619 0.0404059
0.358587 0.672511 0.0332799
0.386603 0.674403 0.0261387
0.414618 0.67628 0.0190127
0.442634 0.678172 0.0118868
0.470634 0.680064 0.00476081
0.49865 0.681941 0
0.526665 0.683833 0
0.554681 0.685725 0
0.582696 0.687617 0
0.610712 0.689494 0
0.638727 0.691386 0
0.666743 0.693278 0
0.694759 0.695155 0
0.722774 0.697047 0
0.75079 0.69894 0
0.77879 0.700816 0
0 0.67245 0.162158
0 0.674342 0.155032
0 0.676234 0.147906
0 0.678111 0.14078
0 0.680003 0.133654
0.0165255 0.681895 0.126528
0.0445411 0.683772 0.119402
0.0725567 0.685664 0.112276
0.100572 0.687556 0.10515
0.128588 0.689433 0.0980087
0.156603 0.691325 0.0908827
0.184619 0.693217 0.0837568
0.212634 0.695094 0.0766308
0.24065 0.696986 0.0695048
0.268666 0.698878 0.0623789
0.296666 0.700755 0.0552529
0.324681 0.702647 0.048127
0.352697 0.70454 0.041001
0.380713 0.706416 0.0338598
0.408728 0.708309 0.0267338
0.436744 0.710201 0.0196078
0.464759 0.712077 0.0124819
0.492775 0.71397 0.00535592
0.52079 0.715862 0
0.548806 0.717739 0
0.576822 0.719631 0
0.604837 0.721523 0
0.632837 0.7234 0
0.660853 0.725292 0
0.688869 0.727184 0
0.716884 0.729061 0
0.7449 0.730953 0
0.772915 0.732845 0
0 0.704479 0.169879
0 0.706371 0.162753
0 0.708247 0.155627
0 0.71014 0.148501
0 0.712032 0.141375
0.0106508 0.713909 0.134249
0.0386664 0.715801 0.127123
0.0666819 0.717693 0.119997
0.0946975 0.71957 0.112871
0.122713 0.721462 0.10573
0.150713 0.723354 0.0986038
0.178729 0.725231 0.0914778
0.206744 0.727123 0.0843519
0.23476 0.729015 0.0772259
0.262776 0.730892 0.0700999
0.290791 0.732784 0.062974
0.318807 0.734676 0.055848
0.346822 0.736553 0.0487221
0.374838 0.738445 0.0415961
0.402853 0.740337 0.0344549
0.430869 0.742214 0.0273289
0.458869 0.744106 0.0202029
0.486885 0.745998 0.013077
0.5149 0.747875 0.00595102
0.542916 0.749767 0
0.570932 0.751659 0
0.598947 0.753536 0
0.626963 0.755428 0
0.654978 0.757321 0
0.682994 0.759197 0
0.711009 0.76109 0
0.739025 0.762982 0
0.767025 0.764858 0
0 0.736507 0.1776
0 0.738384 0.170474
0 0.740276 0.163348
0 0.742153 0.156222
0 0.744045 0.149096
0.00476081 0.745937 0.14197
0.0327764 0.747814 0.134844
0.0607919 0.749706 0.127718
0.0888075 0.751598 0.120592
0.116823 0.753491 0.113466
0.144839 0.755367 0.106325
0.172854 0.757259 0.0991989
0.20087 0.759152 0.0920729
0.228885 0.761028 0.084947
0.256901 0.762921 0.077821
0.284901 0.764813 0.0706951
0.312917 0.76669 0.0635691
0.340932 0.768582 0.0564431
0.368948 0.770474 0.0493172
0.396963 0.772351 0.0421912
0.424979 0.774243 0.03505
0.452995 0.776135 0.027924
0.48101 0.778012 0.020798
0.509026 0.779904 0.0136721
0.537041 0.781796 0.00654612
0.565057 0.783673 0
0.593072 0.785565 0
0.621073 0.787457 0
0.649088 0.789334 0
0.677104 0.791226 0
0.705119 0.793118 0
0.733135 0.794995 0
0.761151 0.796887 0
0 0.768521 0.185321
0 0.770413 0.178195
0 0.77229 0.171069
0 0.774182 0.163943
0 0.776074 0.156817
0 0.777951 0.149691
0.0269017 0.779843 0.142565
0.0549172 0.781735 0.135439
0.0829328 0.783612 0.128313
0.110948 0.785504 0.121187
0.138949 0.787396 0.114046
0.166964 0.789273 0.10692
0.19498 0.791165 0.099794
0.222995 0.793057 0.092668
0.251011 0.794934 0.0855421
0.279026 0.796826 0.0784161
0.307042 0.798718 0.0712902
0.335058 0.800595 0.0641642
0.363073 0.802487 0.0570382
0.391089 0.804379 0.0499123
0.419104 0.806271 0.042771
0.447105 0.808148 0.0356451
0.47512 0.81004 0.0285191
0.503136 0.811933 0.0213931
0.531151 0.813809 0.0142672
0.559167 0.815702 0.00714122
0.587182 0.817594 1.5259e-05
0.615198 0.819471 0
0.643214 0.821363 0
0.671229 0.823255 0
0.699245 0.825132 0
0.72726 0.827024 0
0.755261 0.828916 0
0 0.800549 0.193042
0 0.802426 0.185916
0 0.804318 0.17879
0 0.80621 0.171664
0 0.808087 0.164538
0 0.809979 0.157412
0.0210117 0.811872 0.150286
0.0490272 0.813748 0.14316
0.0770428 0.815641 0.136034
0.105058 0.817533 0.128908
0.133074 0.819409 0.121782
0.161089 0.821302 0.114641
0.189105 0.823194 0.107515
0.217121 0.825071 0.100389
0.245136 0.826963 0.0932631
0.273136 0.828855 0.0861372
0.301152 0.830732 0.0790112
0.329168 0.832624 0.0718853
0.357183 0.834516 0.0647593
0.385199 0.836393 0.0576333
0.413214 0.838285 0.0505074
0.44123 0.840177 0.0433661
0.469245 0.842054 0.0362402
0.497261 0.843946 0.0291142
0.525277 0.845838 0.0219883
0.553292 0.847715 0.0148623
0.581308 0.849607 0.00773632
0.609308 0.851499 0.000610361
0.637324 0.853376 0
0.665339 0.855268 0
0.693355 0.85716 0
0.72137 0.859037 0
0.749386 0.860929 0
0 0.832563 0.200763
0 0.834455 0.193652
0 0.836347 0.186511
0 0.838224 0.179385
0 0.840116 0.172259
0 0.842008 0.165133
0.0151369 0.843885 0.158007
0.0431525 0.845777 0.150881
0.0711681 0.847669 0.143755
0.0991836 0.849546 0.136629
0.127184 0.851438 0.129503
0.1552 0.85333 0.122377
0.183215 0.855207 0.115236
0.211231 0.857099 0.10811
0.239246 0.858991 0.100984
0.267262 0.860868 0.0938582
0.295277 0.86276 0.0867323
0.323293 0.864652 0.0796063
0.351308 0.866529 0.0724804
0.379324 0.868421 0.0653544
0.40734 0.870314 0.0582284
0.43534 0.87219 0.0510872
0.463355 0.874083 0.0439612
0.491371 0.875975 0.0368353
0.519387 0.877852 0.0297093
0.547402 0.879744 0.0225834
0.575418 0.881636 0.0154574
0.603433 0.883513 0.00833143
0.631449 0.885405 0.00120546
0.659464 0.887297 0
0.68748 0.889174 0
0.715496 0.891066 0
0.743496 0.892958 0
0 0.864591 0.208484
0 0.866468 0.201373
0 0.86836 0.194247
0 0.870253 0.187106
0 0.872145 0.17998
0 0.874022 0.172854
0.00924697 0.875914 0.165728
0.0372625 0.877806 0.158602
0.0652781 0.879683 0.151476
