public/LUTS/Color Shift/ColorShift_12.cube
TITLE "Generated by Resolve"
LUT_3D_SIZE 33
0 0 0
0 0.0124056 0
0 0.0248264 0
0 0.037232 0
0 0.0496529 0
0 0.0620584 0
0 0.0744793 0
0 0.0868849 0
0 0.0993057 0
0 0.111711 0
0 0.124117 0
0 0.136538 0
0 0.148943 0
0 0.161364 0
0 0.17377 0
0 0.186191 0
0 0.198596 0
0 0.211017 0
0 0.223423 0
0 0.235843 0
0 0.248249 0
0 0.26067 0
0 0.273075 0
0 0.285496 0
0 0.297902 0
0 0.310323 0
0 0.322728 0
0 0.335149 0
0 0.347555 0
0 0.359976 0
0 0.372381 0
0 0.384802 0
0 0.397208 0
0.00228885 0.0246433 0.0459449
0 0.0370489 0.0294347
0 0.0494545 0.0128939
0 0.0618753 0
0 0.0742809 0
0 0.0867018 0
0 0.0991073 0
0 0.111528 0
0 0.123934 0
0 0.136355 0
0 0.14876 0
0 0.161181 0
0 0.173587 0
0 0.186007 0
0 0.198413 0
0 0.210834 0
0 0.223239 0
0 0.23566 0
0 0.248066 0
0 0.260487 0
0 0.272892 0
0 0.285313 0
0 0.297719 0
0 0.31014 0
0 0.322545 0
0 0.334966 0
0 0.347372 0
0 0.359792 0
0 0.372198 0
0 0.384619 0
0 0.397024 0
0 0.40943 0
0 0.421851 0
0.00459297 0.0492866 0.0919203
0.00154116 0.0616922 0.0753948
0 0.0741131 0.0588693
0 0.0865187 0.0423438
0 0.0989395 0.0258183
0 0.111345 0.00927749
0 0.123766 0
0 0.136172 0
0 0.148592 0
0 0.160998 0
0 0.173419 0
0 0.185824 0
0 0.198245 0
0 0.210651 0
0 0.223072 0
0 0.235477 0
0 0.247898 0
0 0.260304 0
0 0.272725 0
0 0.28513 0
0 0.297551 0
0 0.309957 0
0 0.322377 0
0 0.334783 0
0 0.347204 0
0 0.359609 0
0 0.37203 0
0 0.384436 0
0 0.396857 0
0 0.409262 0
0 0.421683 0
0 0.434089 0
0 0.44651 0
0.00688182 0.0739452 0.137896
0.00384527 0.0863508 0.12137
0.000793469 0.0987564 0.104845
0 0.111177 0.0883192
0 0.123583 0.0717784
0 0.136004 0.0552529
0 0.148409 0.0387274
0 0.16083 0.0222019
0 0.173236 0.0056611
0 0.185657 0
0 0.198062 0
0 0.210483 0
0 0.222889 0
0 0.235309 0
0 0.247715 0
0 0.260136 0
0 0.272541 0
0 0.284962 0
0 0.297368 0
0 0.309789 0
0 0.322194 0
0 0.334615 0
0 0.347021 0
0 0.359442 0
0 0.371847 0
0 0.384268 0
0 0.396674 0
0 0.409094 0
0 0.4215 0
0 0.433921 0
0 0.446326 0
0 0.458747 0
0 0.471153 0
0.00917067 0.0985885 0.183871
0.00613413 0.111009 0.167346
0.00309758 0.123415 0.15082
4.57771e-05 0.135821 0.134279
0 0.148241 0.117754
0 0.160647 0.101228
0 0.173068 0.0847028
0 0.185473 0.0681621
0 0.197894 0.0516365
0 0.2103 0.035111
0 0.222721 0.0185855
0 0.235126 0.00204471
0 0.247547 0
0 0.259953 0
0 0.272374 0
0 0.284779 0
0 0.2972 0
0 0.309606 0
0 0.322026 0
0 0.334432 0
0 0.346853 0
0 0.359258 0
0 0.371679 0
0 0.384085 0
0 0.396506 0
0 0.408911 0
0 0.421332 0
0 0.433738 0
0 0.446159 0
0 0.458564 0
0 0.470985 0
0 0.483391 0
0 0.495811 0
0.0114748 0.123247 0.229831
0.00842298 0.135653 0.213321
0.00538643 0.148074 0.19678
0.00234989 0.160479 0.180255
0 0.1729 0.163729
0 0.185306 0.147204
0 0.197726 0.130663
0 0.210132 0.114137
0 0.222538 0.097612
0 0.234958 0.0810864
0 0.247364 0.0645457
0 0.259785 0.0480201
0 0.27219 0.0314946
0 0.284611 0.0149691
0 0.297017 0
0 0.309438 0
0 0.321843 0
0 0.334264 0
0 0.34667 0
0 0.359091 0
0 0.371496 0
0 0.383917 0
0 0.396323 0
0 0.408743 0
0 0.421149 0
0 0.43357 0
0 0.445975 0
0 0.458396 0
0 0.470802 0
0 0.483223 0
0 0.495628 0
0 0.508049 0
0 0.520455 0
0.0137636 0.147906 0.275807
0.0107271 0.160311 0.259281
0.00767529 0.172717 0.242756
0.00463874 0.185138 0.22623
0.0016022 0.197543 0.209705
0 0.209964 0.193164
0 0.22237 0.176638
0 0.234791 0.160113
0 0.247196 0.143587
0 0.259617 0.127047
0 0.272023 0.110521
0 0.284428 0.0939956
0 0.296849 0.0774701
0 0.309255 0.0609293
0 0.321675 0.0444038
0 0.334081 0.0278782
0 0.346502 0.0113527
0 0.358907 0
0 0.371328 0
0 0.383734 0
0 0.396155 0
0 0.40856 0
0 0.420981 0
0 0.433387 0
0 0.445808 0
0 0.458213 0
0 0.470634 0
0 0.48304 0
0 0.49546 0
0 0.507866 0
0 0.520287 0
0 0.532692 0
0 0.545113 0
0.0160525 0.172549 0.321782
0.0130159 0.184955 0.305257
0.0099794 0.197375 0.288731
0.0069276 0.209781 0.272206
0.00389105 0.222202 0.255665
0.000854505 0.234607 0.239139
0 0.247028 0.222614
0 0.259434 0.206088
0 0.271855 0.189548
0 0.28426 0.173022
0 0.296681 0.156497
0 0.309087 0.139971
0 0.321508 0.12343
0 0.333913 0.106905
0 0.346334 0.0903792
0 0.35874 0.0738537
0 0.371145 0.0573129
0 0.383566 0.0407874
0 0.395972 0.0242618
0 0.408392 0.00773632
0 0.420798 0
0 0.433219 0
0 0.445624 0
0 0.458045 0
0 0.470451 0
0 0.482872 0
0 0.495277 0
0 0.507698 0
0 0.520104 0
0 0.532525 0
0 0.54493 0
0 0.557351 0
0 0.569757 0
0.0183566 0.197208 0.367758
0.0153048 0.209613 0.351232
0.0122683 0.222019 0.334707
0.00923171 0.23444 0.318166
0.0061799 0.246845 0.30164
0.00314336 0.259266 0.285115
9.15541e-05 0.271672 0.268589
0 0.284092 0.252049
0 0.296498 0.235523
0 0.308919 0.218997
0 0.321324 0.202472
0 0.333745 0.185931
0 0.346151 0.169406
0 0.358572 0.15288
0 0.370977 0.136355
0 0.383398 0.119814
0 0.395804 0.103288
0 0.408225 0.0867628
0 0.42063 0.0702373
0 0.433051 0.0536965
0 0.445457 0.037171
0 0.457862 0.0206455
0 0.470283 0.00411994
0 0.482689 0
0 0.495109 0
0 0.507515 0
0 0.519936 0
0 0.532341 0
0 0.544762 0
0 0.557168 0
0 0.569589 0
0 0.581994 0
0 0.594415 0
0.0206455 0.221851 0.413718
0.0176089 0.234257 0.397208
0.0145571 0.246677 0.380667
0.0115206 0.259083 0.364141
0.00848402 0.271504 0.347616
0.00543221 0.283909 0.33109
0.00239567 0.29633 0.314549
0 0.308736 0.298024
0 0.321157 0.281498
0 0.333562 0.264973
0 0.345983 0.248432
0 0.358389 0.231907
0 0.370809 0.215381
0 0.383215 0.198856
0 0.395636 0.182315
0 0.408042 0.165789
0 0.420462 0.149264
0 0.432868 0.132738
0 0.445289 0.116197
0 0.457694 0.0996719
0 0.470115 0.0831464
0 0.482521 0.0666209
0 0.494942 0.0500801
0 0.507347 0.0335546
0 0.519768 0.0170291
0 0.532174 0.000503548
0 0.544579 0
0 0.557 0
0 0.569406 0
0 0.581827 0
0 0.594232 0
0 0.606653 0
0 0.619058 0
0.0229343 0.246509 0.459693
0.0198978 0.258915 0.443168
0.0168612 0.271321 0.426642
0.0138094 0.283742 0.410117
0.0107729 0.296147 0.393591
0.00773632 0.308568 0.37705
0.00468452 0.320974 0.360525
0.00164797 0.333394 0.343999
0 0.3458 0.327474
0 0.358221 0.310933
0 0.370626 0.294408
0 0.383047 0.277882
0 0.395453 0.261357
0 0.407874 0.244831
0 0.420279 0.22829
0 0.4327 0.211765
0 0.445106 0.195239
0 0.457527 0.178714
0 0.469932 0.162173
0 0.482353 0.145647
0 0.494759 0.129122
0 0.507179 0.112596
0 0.519585 0.0960555
0 0.532006 0.07953
0 0.544411 0.0630045
0 0.556832 0.046479
0 0.569238 0.0299382
0 0.581659 0.0134127
0 0.594064 0
0 0.60647 0
0 0.618891 0
0 0.631296 0
0 0.643717 0
0.0252384 0.271153 0.505669
0.0221866 0.283558 0.489143
0.0191501 0.295979 0.472618
0.0161135 0.308385 0.456092
0.0130617 0.320806 0.439567
0.0100252 0.333211 0.423026
0.00697337 0.345632 0.4065
0.00393683 0.358038 0.389975
0.000900282 0.370459 0.373449
0 0.382864 0.356909
0 0.395285 0.340383
0 0.407691 0.323857
0 0.420111 0.307332
0 0.432517 0.290791
0 0.444938 0.274266
0 0.457343 0.25774
0 0.469764 0.241215
0 0.48217 0.224674
0 0.494591 0.208148
0 0.506996 0.191623
0 0.519417 0.175097
0 0.531823 0.158556
0 0.544244 0.142031
0 0.556649 0.125505
0 0.56907 0.10898
0 0.581476 0.0924392
0 0.593896 0.0759136
0 0.606302 0.0593881
0 0.618723 0.0428626
0 0.631128 0.0263218
0 0.643549 0.00979629
0 0.655955 0
0 0.668376 0
0.0275273 0.295811 0.551644
0.0244907 0.308217 0.535119
0.0214389 0.320623 0.518593
0.0184024 0.333043 0.502068
0.0153658 0.345449 0.485527
0.012314 0.35787 0.469001
0.00927749 0.370275 0.452476
0.00622568 0.382696 0.43595
0.00318914 0.395102 0.419409
0.00015259 0.407523 0.402884
0 0.419928 0.386358
0 0.432349 0.369833
0 0.444755 0.353292
0 0.457176 0.336767
0 0.469581 0.320241
0 0.482002 0.303716
0 0.494408 0.287175
0 0.506828 0.270649
0 0.519234 0.254124
0 0.531655 0.237598
0 0.54406 0.221057
0 0.556481 0.204532
0 0.568887 0.188006
0 0.581308 0.171481
0 0.593713 0.15494
0 0.606134 0.138415
0 0.61854 0.121889
0 0.630961 0.105364
0 0.643366 0.0888228
0 0.655787 0.0722972
0 0.668193 0.0557717
0 0.680613 0.0392462
0 0.693019 0.0227054
0.0298161 0.320455 0.59762
0.0267796 0.33286 0.581094
0.023743 0.345281 0.564569
0.0206912 0.357687 0.548028
0.0176547 0.370108 0.531502
0.0146181 0.382513 0.514977
0.0115663 0.394934 0.498451
0.00852979 0.40734 0.48191
0.00547799 0.41976 0.465385
0.00244144 0.432166 0.448859
0 0.444587 0.432334
0 0.456992 0.415793
0 0.469413 0.399268
0 0.481819 0.382742
0 0.49424 0.366217
0 0.506645 0.349676
0 0.519066 0.33315
0 0.531472 0.316625
0 0.543893 0.300099
0 0.556298 0.283558
0 0.568719 0.267033
0 0.581125 0.250507
0 0.593545 0.233982
0 0.605951 0.217441
0 0.618372 0.200916
0 0.630777 0.18439
0 0.643198 0.167865
0 0.655604 0.151324
0 0.668025 0.134798
0 0.68043 0.118273
0 0.692851 0.101747
0 0.705257 0.0852064
0 0.717678 0.0686809
0.0321202 0.345113 0.64358
0.0290684 0.357519 0.62707
0.0260319 0.36994 0.610529
0.0229953 0.382345 0.594003
0.0199435 0.394766 0.577478
0.016907 0.407172 0.560952
0.0138705 0.419577 0.544411
0.0108186 0.431998 0.527886
0.0077821 0.444404 0.51136
0.0047303 0.456825 0.494835
0.00169375 0.46923 0.478294
0 0.481651 0.461769
0 0.494057 0.445243
0 0.506477 0.428717
0 0.518883 0.412177
0 0.531304 0.395651
0 0.543709 0.379126
0 0.55613 0.3626
0 0.568536 0.346059
0 0.580957 0.329534
0 0.593362 0.313008
0 0.605783 0.296483
0 0.618189 0.279942
0 0.63061 0.263416
0 0.643015 0.246891
0 0.655436 0.230365
0 0.667842 0.213825
0 0.680262 0.197299
0 0.692668 0.180774
0 0.705089 0.164248
0 0.717494 0.147707
0 0.729915 0.131182
0 0.742321 0.114656
0.0344091 0.369772 0.689555
0.0313726 0.382177 0.67303
0.0283207 0.394583 0.656504
0.0252842 0.407004 0.639979
0.0222477 0.419409 0.623453
0.0191958 0.43183 0.606912
0.0161593 0.444236 0.590387
0.0131075 0.456657 0.573861
0.010071 0.469062 0.557336
0.00703441 0.481468 0.540795
0.0039826 0.493889 0.524269
0.000946059 0.506294 0.507744
0 0.518715 0.491218
0 0.531121 0.474678
0 0.543542 0.458152
0 0.555947 0.441627
0 0.568368 0.425101
0 0.580774 0.40856
0 0.593194 0.392035
0 0.6056 0.375509
0 0.618021 0.358984
0 0.630426 0.342443
0 0.642847 0.325917
0 0.655253 0.309392
0 0.667674 0.292866
0 0.680079 0.276326
0 0.6925 0.2598
0 0.704906 0.243275
0 0.717327 0.226749
0 0.729732 0.210208
0 0.742153 0.193683
0 0.754559 0.177157
0 0.766979 0.160632
0.0366979 0.394415 0.735531
0.0336614 0.406821 0.719005
0.0306249 0.419242 0.70248
0.0275731 0.431647 0.685954
0.0245365 0.444068 0.669413
0.0215 0.456474 0.652888
0.0184482 0.468894 0.636362
0.0154116 0.4813 0.619837
0.0123598 0.493721 0.603296
0.00932326 0.506127 0.58677
0.00628672 0.518547 0.570245
0.00323491 0.530953 0.553719
0.000198367 0.543374 0.537179
0 0.555779 0.520653
0 0.568185 0.504128
0 0.580606 0.487602
0 0.593011 0.471061
0 0.605432 0.454536
0 0.617838 0.43801
0 0.630259 0.421485
0 0.642664 0.404944
0 0.655085 0.388418
0 0.667491 0.371893
0 0.679911 0.355367
0 0.692317 0.338827
0 0.704738 0.322301
0 0.717144 0.305776
0 0.729564 0.28925
0 0.74197 0.272709
0 0.754391 0.256184
0 0.766796 0.239658
0 0.779217 0.223133
0 0.791623 0.206592
0.0390021 0.419074 0.781506
0.0359655 0.431479 0.764981
0.0329137 0.443885 0.748455
0.0298772 0.456306 0.731914
0.0268254 0.468711 0.715389
0.0237888 0.481132 0.698863
0.0207523 0.493538 0.682338
0.0177005 0.505959 0.665797
0.0146639 0.518364 0.649271
0.0116121 0.530785 0.632746
0.00857557 0.543191 0.61622
0.00553903 0.555611 0.59968
0.00248722 0.568017 0.583154
0 0.580438 0.566629
0 0.592844 0.550103
0 0.605264 0.533562
0 0.61767 0.517037
0 0.630091 0.500511
0 0.642496 0.483986
0 0.654902 0.467445
0 0.667323 0.450919
0 0.679728 0.434394
0 0.692149 0.417868
0 0.704555 0.401328
0 0.716976 0.384802
0 0.729381 0.368277
0 0.741802 0.351751
0 0.754208 0.33521
0 0.766629 0.318685
0 0.779034 0.302159
0 0.791455 0.285634
0 0.803861 0.269093
0 0.816281 0.252567
0.0412909 0.443717 0.827466
0.0382544 0.456123 0.810956
0.0352026 0.468544 0.794415
0.032166 0.480949 0.77789
0.0291295 0.49337 0.761364
0.0260777 0.505776 0.744839
0.0230411 0.518196 0.728298
0.0200046 0.530602 0.711772
0.0169528 0.543023 0.695247
0.0139162 0.555428 0.678721
0.0108644 0.567849 0.662181
0.00782788 0.580255 0.645655
0.00479133 0.592676 0.629129
0.00173953 0.605081 0.612604
0 0.617502 0.596063
0 0.629908 0.579538
0 0.642329 0.563012
0 0.654734 0.546487
0 0.667155 0.529946
0 0.679561 0.51342
0 0.691981 0.496895
0 0.704387 0.480369
0 0.716793 0.463828
0 0.729213 0.447303
0 0.741619 0.430777
0 0.75404 0.414252
0 0.766445 0.397711
0 0.778866 0.381186
0 0.791272 0.36466
0 0.803693 0.348135
0 0.816098 0.331594
0 0.828519 0.315068
0 0.840925 0.298543
0.0435798 0.468376 0.873442
0.0405432 0.480781 0.856916
0.0375067 0.493187 0.840391
0.0344549 0.505608 0.823865
0.0314183 0.518013 0.80734
0.0283818 0.530434 0.790799
0.02533 0.54284 0.774273
0.0222934 0.555261 0.757748
0.0192416 0.567666 0.741222
0.0162051 0.580087 0.724681
0.0131685 0.592493 0.708156
0.0101167 0.604913 0.69163
0.00708019 0.617319 0.675105
0.00404364 0.62974 0.658564
0.000991836 0.642145 0.642039
0 0.654566 0.625513
0 0.666972 0.608988
0 0.679393 0.592447
0 0.691798 0.575921
0 0.704219 0.559396
0 0.716625 0.54287
0 0.729046 0.526329
0 0.741451 0.509804
0 0.753872 0.493278
0 0.766278 0.476753
0 0.778698 0.460212
0 0.791104 0.443687
0 0.80351 0.427161
0 0.81593 0.410636
0 0.828336 0.394095
0 0.840757 0.377569
0 0.853162 0.361044
0 0.865583 0.344518
0.0458839 0.493019 0.919417
0.0428473 0.505425 0.902892
0.0397955 0.517845 0.886366
0.036759 0.530251 0.869841
0.0337072 0.542672 0.8533
0.0306706 0.555077 0.836774
0.0276341 0.567498 0.820249
0.0245823 0.579904 0.803723
0.0215457 0.592325 0.787182
0.0184939 0.60473 0.770657
0.0154574 0.617151 0.754131
0.0124208 0.629557 0.737606
0.00936904 0.641978 0.721065
0.00633249 0.654383 0.70454
0.00329595 0.666804 0.688014
0.000244144 0.67921 0.671489
0 0.69163 0.654948
0 0.704036 0.638422
0 0.716457 0.621897
0 0.728862 0.605371
0 0.741283 0.58883
0 0.753689 0.572305
0 0.76611 0.555779
0 0.778515 0.539254
0 0.790936 0.522713
0 0.803342 0.506188
0 0.815763 0.489662
0 0.828168 0.473136
0 0.840589 0.456596
0 0.852995 0.44007
0 0.865415 0.423545
0 0.877821 0.407019
0 0.890227 0.390478
0.0481727 0.517678 0.965393
0.0451362 0.530083 0.948867
0.0420844 0.542489 0.932342
0.0390478 0.55491 0.915801
0.0360113 0.567315 0.899275
0.0329595 0.579736 0.88275
0.0299229 0.592142 0.866224
0.0268864 0.604562 0.849683
0.0238346 0.616968 0.833158
0.020798 0.629389 0.816632
0.0177462 0.641794 0.800107
0.0147097 0.654215 0.783566
0.0116732 0.666621 0.76704
0.00862135 0.679042 0.750515
0.0055848 0.691447 0.733989
0.002533 0.703868 0.717449
0 0.716274 0.700923
0 0.728695 0.684398
0 0.7411 0.667872
0 0.753521 0.651331
0 0.765927 0.634806
0 0.778347 0.61828
0 0.790753 0.601755
0 0.803174 0.585214
0 0.815579 0.568689
0 0.828 0.552163
0 0.840406 0.535637
0 0.852827 0.519097
0 0.865232 0.502571
0 0.877653 0.486046
0 0.890059 0.46952
0 0.90248 0.452979
0 0.914885 0.436454
0.0504768 0.542321 1
0.047425 0.554726 0.994842
0.0443885 0.567147 0.978302
0.0413367 0.579553 0.961776
0.0383001 0.591974 0.945251
0.0352636 0.604379 0.928725
0.0322118 0.6168 0.912184
0.0291752 0.629206 0.895659
0.0261387 0.641627 0.879133
0.0230869 0.654032 0.862608
0.0200504 0.666453 0.846067
0.0169985 0.678859 0.829541
0.013962 0.691279 0.813016
0.0109255 0.703685 0.79649
0.00787366 0.716106 0.77995
0.00483711 0.728511 0.763424
0.00178531 0.740932 0.746899
0 0.753338 0.730373
0 0.765759 0.713832
0 0.778164 0.697307
0 0.790585 0.680781
0 0.802991 0.664256
0 0.815412 0.647715
0 0.827817 0.631189
0 0.840238 0.614664
0 0.852644 0.598138
0 0.865064 0.581598
0 0.87747 0.565072
0 0.889891 0.548547
0 0.902296 0.532021
0 0.914717 0.51548
0 0.927123 0.498955
0 0.939544 0.482429
0.0527657 0.566979 1
0.0497292 0.579385 1
0.0466773 0.591806 1
0.0436408 0.604212 1
0.040589 0.616617 0.991226
0.0375525 0.629038 0.974685
0.0345159 0.641443 0.95816
0.0314641 0.653864 0.941634
0.0284276 0.66627 0.925109
0.0253758 0.678691 0.908568
0.0223392 0.691096 0.892042
0.0193027 0.703517 0.875517
0.0162509 0.715923 0.858991
0.0132143 0.728344 0.842451
0.0101778 0.740749 0.825925
0.00712596 0.75317 0.8094
0.00408942 0.765576 0.792874
0.00103761 0.777996 0.776333
0 0.790402 0.759808
0 0.802823 0.743282
0 0.815229 0.726757
0 0.827649 0.710216
0 0.840055 0.69369
0 0.852476 0.677165
0 0.864881 0.660639
0 0.877302 0.644099
0 0.889708 0.627573
0 0.902129 0.611048
0 0.914534 0.594522
0 0.926955 0.577996
0 0.939361 0.561456
0 0.951782 0.54493
0 0.964187 0.528405
0.0550546 0.591623 1
0.052018 0.604044 1
0.0489815 0.616449 1
0.0459297 0.62887 1
0.0428931 0.641276 1
0.0398413 0.653696 1
0.0368048 0.666102 1
0.0337682 0.678508 0.98761
0.0307164 0.690929 0.971069
0.0276799 0.703334 0.954543
0.0246281 0.715755 0.938018
0.0215915 0.728161 0.921492
0.018555 0.740581 0.904967
0.0155032 0.752987 0.888426
0.0124666 0.765408 0.8719
0.00941482 0.777813 0.855375
0.00637827 0.790234 0.838849
0.00334173 0.80264 0.822309
0.000289921 0.815061 0.805783
0 0.827466 0.789258
0 0.839887 0.772732
0 0.852293 0.756191
0 0.864713 0.739666
0 0.877119 0.72314
0 0.88954 0.706615
0 0.901946 0.690074
0 0.914366 0.673548
0 0.926772 0.657023
0 0.939193 0.640497
0 0.951598 0.623957
0 0.964019 0.607431
0 0.976425 0.590906
0 0.988846 0.57438
0.0573587 0.616281 1
0.0543069 0.628687 1
0.0512703 0.641108 1
0.0482185 0.653513 1
0.045182 0.665934 1
0.0421454 0.67834 1
0.0390936 0.690761 1
0.0360571 0.703166 1
0.0330205 0.715587 1
0.0299687 0.727993 1
0.0269322 0.740414 0.983993
0.0238804 0.752819 0.967468
0.0208438 0.765225 0.950927
0.0178073 0.777646 0.934401
0.0147555 0.790051 0.917876
0.0117189 0.802472 0.90135
0.00866712 0.814878 0.88481
0.00563058 0.827298 0.868284
0.00259403 0.839704 0.851759
0 0.852125 0.835233
0 0.86453 0.818692
0 0.876951 0.802167
0 0.889357 0.785641
0 0.901778 0.769116
0 0.914183 0.752575
0 0.926604 0.736049
0 0.93901 0.719524
0 0.951431 0.702998
0 0.963836 0.686458
0 0.976257 0.669932
0 0.988663 0.653407
0 1 0.636881
0 1 0.62034
0.0596475 0.64094 1
0.056611 0.653346 1
0.0535592 0.665751 1
0.0505226 0.678172 1
0.0474708 0.690578 1
0.0444343 0.702998 1
0.0413977 0.715404 1
0.0383459 0.727825 1
0.0353094 0.74023 1
0.0322728 0.752651 1
0.029221 0.765057 1
0.0261845 0.777478 1
0.0231327 0.789883 0.996902
0.0200961 0.802304 0.980377
0.0170596 0.81471 0.963851
0.0140078 0.827131 0.947311
0.0109712 0.839536 0.930785
0.00791943 0.851942 0.91426
0.00488289 0.864363 0.897734
0.00184634 0.876768 0.881193
0 0.889189 0.864668
0 0.901595 0.848142
0 0.914015 0.831617
0 0.926421 0.815076
0 0.938842 0.79855
0 0.951247 0.782025
0 0.963668 0.765499
0 0.976074 0.748959
0 0.988495 0.732433
0 1 0.715908
0 1 0.699382
0 1 0.682841
0 1 0.666316
0.0619364 0.665583 1
0.0588998 0.677989 1
0.0558633 0.69041 1
0.0528115 0.702815 1
0.0497749 0.715236 1
0.0467231 0.727642 1
0.0436866 0.740063 1
0.04065 0.752468 1
0.0375982 0.764889 1
