public/LUTS/Color Shift/ColorShift_50.cube
TITLE "Generated by Resolve"
LUT_3D_SIZE 33
0 0 0
0 0.0191196 0.00984207
0 0.0382696 0.0196841
0 0.0574044 0.0295262
0 0.0765393 0.0393683
0 0.0956741 0.0492103
0 0.114809 0.0590524
0 0.133944 0.0688945
0 0.153079 0.0787366
0 0.172213 0.0885786
0 0.191348 0.0984207
0 0.210483 0.108263
0 0.229618 0.118105
0 0.248753 0.127947
0 0.267887 0.137804
0 0.287037 0.147646
0 0.306172 0.157488
0 0.325307 0.16733
0 0.344442 0.177172
0 0.363577 0.187015
0 0.382712 0.196857
0 0.401846 0.206699
0 0.420981 0.216541
0 0.440116 0.226383
0 0.459251 0.236225
0 0.478386 0.246067
0 0.49752 0.255909
0 0.516655 0.265751
0 0.535805 0.275593
0 0.55494 0.285435
0 0.574075 0.295293
0 0.59321 0.305135
0 0.612345 0.314977
0.0512093 0.00749218 0.0652323
0.0144808 0.0266117 0.0750744
0 0.0457465 0.0849165
0 0.0648814 0.0947585
0 0.0840162 0.104601
0 0.103151 0.114443
0 0.122286 0.124285
0 0.141421 0.134127
0 0.160571 0.143969
0 0.179706 0.153811
0 0.19884 0.163653
0 0.217975 0.173495
0 0.23711 0.183337
0 0.256245 0.193179
0 0.27538 0.203021
0 0.294514 0.212863
0 0.313649 0.222705
0 0.332784 0.232563
0 0.351919 0.242405
0 0.371054 0.252247
0 0.390188 0.262089
0 0.409339 0.271931
0 0.428473 0.281773
0 0.447608 0.291615
0 0.466743 0.301457
0 0.485878 0.311299
0 0.505013 0.321141
0 0.524147 0.330983
0 0.543282 0.340826
0 0.562417 0.350668
0 0.581552 0.36051
0 0.600687 0.370352
0 0.619821 0.380194
0.102449 0.0149691 0.130495
0.0657206 0.0341039 0.140322
0.0289616 0.0532387 0.150179
0 0.0723735 0.160021
0 0.0915084 0.169863
0 0.110643 0.179706
0 0.129778 0.189548
0 0.148913 0.19939
0 0.168048 0.209232
0 0.187182 0.219074
0 0.206317 0.228916
0 0.225467 0.238758
0 0.244602 0.2486
0 0.263737 0.258442
0 0.282872 0.268284
0 0.302007 0.278126
0 0.321141 0.287968
0 0.340276 0.29781
0 0.359411 0.307668
0 0.378546 0.31751
0 0.397681 0.327352
0 0.416815 0.337194
0 0.43595 0.347036
0 0.455085 0.356878
0 0.474235 0.36672
0 0.49337 0.376562
0 0.512505 0.386404
0 0.53164 0.396246
0 0.550774 0.406088
0 0.569909 0.41593
0 0.589044 0.425772
0 0.608179 0.435615
0 0.627314 0.445457
0.153689 0.0224613 0.195758
0.116945 0.0415961 0.205585
0.0802014 0.0607309 0.215427
0.0434424 0.0798657 0.225284
0.00668345 0.0990005 0.235126
0 0.118135 0.244968
0 0.13727 0.25481
0 0.156405 0.264652
0 0.17554 0.274495
0 0.194675 0.284337
0 0.213809 0.294179
0 0.232944 0.304021
0 0.252079 0.313863
0 0.271214 0.323705
0 0.290364 0.333547
0 0.309499 0.343389
0 0.328634 0.353231
0 0.347768 0.363073
0 0.366903 0.372915
0 0.386038 0.382757
0 0.405173 0.392615
0 0.424308 0.402457
0 0.443442 0.412299
0 0.462577 0.422141
0 0.481712 0.431983
0 0.500847 0.441825
0 0.519982 0.451667
0 0.539132 0.461509
0 0.558267 0.471351
0 0.577401 0.481193
0 0.596536 0.491035
0 0.615671 0.500877
0 0.634806 0.510719
0.204929 0.0299535 0.261021
0.168185 0.049073 0.270848
0.131441 0.0682078 0.28069
0.0946822 0.0873426 0.290532
0.0579232 0.106493 0.300374
0.0211795 0.125628 0.310231
0 0.144762 0.320073
0 0.163897 0.329915
0 0.183032 0.339757
0 0.202167 0.349599
0 0.221302 0.359442
0 0.240436 0.369284
0 0.259571 0.379126
0 0.278706 0.388968
0 0.297841 0.39881
0 0.316976 0.408652
0 0.33611 0.418494
0 0.355261 0.428336
0 0.374395 0.438178
0 0.39353 0.44802
0 0.412665 0.457862
0 0.4318 0.46772
0 0.450935 0.477562
0 0.470069 0.487404
0 0.489204 0.497246
0 0.508339 0.507088
0 0.527474 0.51693
0 0.546609 0.526772
0 0.565744 0.536614
0 0.584878 0.546456
0 0.604028 0.556298
0 0.623163 0.56614
0 0.642298 0.575982
0.256168 0.0374456 0.326268
0.219425 0.0565652 0.33611
0.182666 0.0757 0.345953
0.145922 0.0948348 0.355795
0.109163 0.11397 0.365637
0.0724041 0.133104 0.375479
0.0356603 0.152239 0.385336
0 0.171389 0.395178
0 0.190524 0.40502
0 0.209659 0.414862
0 0.228794 0.424704
0 0.247929 0.434546
0 0.267063 0.444389
0 0.286198 0.454231
0 0.305333 0.464073
0 0.324468 0.473915
0 0.343603 0.483757
0 0.362737 0.493599
0 0.381872 0.503441
0 0.401007 0.513283
0 0.420157 0.523125
0 0.439292 0.532967
0 0.458427 0.542809
0 0.477562 0.552666
0 0.496696 0.562509
0 0.515831 0.572351
0 0.534966 0.582193
0 0.554101 0.592035
0 0.573236 0.601877
0 0.592371 0.611719
0 0.611505 0.621561
0 0.63064 0.631403
0 0.649775 0.641245
0.307393 0.0449226 0.391531
0.270665 0.0640574 0.401373
0.233906 0.0831922 0.411215
0.197162 0.102327 0.421057
0.160403 0.121462 0.4309
0.123644 0.140597 0.440742
0.0869001 0.159731 0.450584
0.0501411 0.178866 0.460426
0.0133822 0.198001 0.470283
0 0.217136 0.480125
0 0.236286 0.489967
0 0.255421 0.499809
0 0.274556 0.509651
0 0.29369 0.519493
0 0.312825 0.529335
0 0.33196 0.539178
0 0.351095 0.54902
0 0.37023 0.558862
0 0.389364 0.568704
0 0.408499 0.578546
0 0.427634 0.588388
0 0.446769 0.59823
0 0.465904 0.608072
0 0.485054 0.617914
0 0.504189 0.627771
0 0.523323 0.637613
0 0.542458 0.647456
0 0.561593 0.657298
0 0.580728 0.66714
0 0.599863 0.676982
0 0.618997 0.686824
0 0.638132 0.696666
0 0.657267 0.706508
0.358633 0.0524147 0.456794
0.321904 0.0715496 0.466636
0.285145 0.0906844 0.476478
0.248386 0.109819 0.48632
0.211643 0.128954 0.496162
0.174884 0.148089 0.506004
0.138125 0.167224 0.515846
0.101381 0.186358 0.525689
0.064622 0.205493 0.535531
0.027863 0.224628 0.545388
0 0.243763 0.55523
0 0.262898 0.565072
0 0.282032 0.574914
0 0.301183 0.584756
0 0.320317 0.594598
0 0.339452 0.60444
0 0.358587 0.614282
0 0.377722 0.624125
0 0.396857 0.633967
0 0.415991 0.643809
0 0.435126 0.653651
0 0.454261 0.663493
0 0.473396 0.673335
0 0.492531 0.683177
0 0.511666 0.693019
0 0.5308 0.702861
0 0.54995 0.712718
0 0.569085 0.72256
0 0.58822 0.732403
0 0.607355 0.742245
0 0.62649 0.752087
0 0.645624 0.761929
0 0.664759 0.771771
0.409873 0.0599069 0.522057
0.373144 0.0790265 0.531899
0.336385 0.0981613 0.541741
0.299626 0.117296 0.551583
0.262882 0.136446 0.561425
0.226123 0.155581 0.571267
0.189364 0.174716 0.581109
0.152621 0.193851 0.590951
0.115862 0.212985 0.600793
0.0791028 0.23212 0.610636
0.042359 0.251255 0.620478
0.00560006 0.27039 0.630335
0 0.289525 0.640177
0 0.308659 0.650019
0 0.327794 0.659861
0 0.346929 0.669703
0 0.366064 0.679545
0 0.385214 0.689387
0 0.404349 0.699229
0 0.423484 0.709072
0 0.442618 0.718914
0 0.461753 0.728756
0 0.480888 0.738598
0 0.500023 0.74844
0 0.519158 0.758282
0 0.538293 0.768124
0 0.557427 0.777966
0 0.576562 0.787823
0 0.595697 0.797665
0 0.614847 0.807507
0 0.633982 0.817349
0 0.653117 0.827192
0 0.672251 0.837034
0.461112 0.0673991 0.58732
0.424369 0.0865187 0.597162
0.387625 0.105653 0.607004
0.350866 0.124788 0.616846
0.314107 0.143923 0.626688
0.277363 0.163058 0.63653
0.240604 0.182193 0.646372
0.203845 0.201343 0.656214
0.167102 0.220478 0.666056
0.130343 0.239612 0.675898
0.0935836 0.258747 0.68574
0.0568399 0.277882 0.695583
0.0200809 0.297017 0.70544
0 0.316152 0.715282
0 0.335286 0.725124
0 0.354421 0.734966
0 0.373556 0.744808
0 0.392691 0.75465
0 0.411826 0.764492
0 0.430961 0.774334
0 0.450111 0.784176
0 0.469245 0.794018
0 0.48838 0.803861
0 0.507515 0.813703
0 0.52665 0.823545
0 0.545785 0.833387
0 0.56492 0.843229
0 0.584054 0.853071
0 0.603189 0.862913
0 0.622324 0.87277
0 0.641459 0.882612
0 0.660594 0.892454
0 0.679728 0.902296
0.512352 0.074876 0.652583
0.475608 0.0940108 0.662425
0.438865 0.113146 0.672267
0.402106 0.13228 0.682109
0.365347 0.151415 0.691951
0.328603 0.17055 0.701793
0.291844 0.189685 0.711635
0.255085 0.20882 0.721477
0.218341 0.227955 0.731319
0.181582 0.247089 0.741161
0.144823 0.266239 0.751003
0.10808 0.285374 0.760845
0.0713207 0.304509 0.770687
0.0345617 0.323644 0.780529
0 0.342779 0.790387
0 0.361913 0.800229
0 0.381048 0.810071
0 0.400183 0.819913
0 0.419318 0.829755
0 0.438453 0.839597
0 0.457588 0.849439
0 0.476722 0.859281
0 0.495857 0.869123
0 0.515007 0.878965
0 0.534142 0.888808
0 0.553277 0.89865
0 0.572412 0.908492
0 0.591546 0.918334
0 0.610681 0.928176
0 0.629816 0.938018
0 0.648951 0.947875
0 0.668086 0.957717
0 0.687221 0.967559
0.563592 0.0823682 0.717845
0.526848 0.101503 0.727687
0.490089 0.120638 0.73753
0.453346 0.139773 0.747372
0.416587 0.158907 0.757214
0.379828 0.178042 0.767056
0.343084 0.197177 0.776898
0.306325 0.216312 0.78674
0.269566 0.235447 0.796582
0.232822 0.254582 0.806424
0.196063 0.273716 0.816266
0.159304 0.292851 0.826108
0.12256 0.311986 0.83595
0.0858015 0.331136 0.845792
0.0490425 0.350271 0.855634
0.0122988 0.369406 0.865492
0 0.38854 0.875334
0 0.407675 0.885176
0 0.42681 0.895018
0 0.445945 0.90486
0 0.46508 0.914702
0 0.484215 0.924544
0 0.503349 0.934386
0 0.522484 0.944228
0 0.541619 0.95407
0 0.560754 0.963912
0 0.579904 0.973754
0 0.599039 0.983597
0 0.618173 0.993439
0 0.637308 1
0 0.656443 1
0 0.675578 1
0 0.694713 1
0.614816 0.0898604 0.783108
0.578088 0.10898 0.79295
0.541329 0.128115 0.802792
0.504585 0.147265 0.812634
0.467826 0.1664 0.822477
0.431067 0.185534 0.832319
0.394324 0.204669 0.842161
0.357565 0.223804 0.852003
0.320806 0.242939 0.861845
0.284062 0.262074 0.871687
0.247303 0.281209 0.881529
0.210544 0.300343 0.891371
0.1738 0.319478 0.901213
0.137041 0.338613 0.911055
0.100282 0.357748 0.920897
0.0635386 0.376883 0.930739
0.0267796 0.396033 0.940581
0 0.415167 0.950439
0 0.434302 0.960281
0 0.453437 0.970123
0 0.472572 0.979965
0 0.491707 0.989807
0 0.510842 0.999649
0 0.529976 1
0 0.549111 1
0 0.568246 1
0 0.587381 1
0 0.606516 1
0 0.62565 1
0 0.6448 1
0 0.663935 1
0 0.68307 1
0 0.702205 1
0.666056 0.0973526 0.848371
0.629328 0.116472 0.858198
0.592569 0.135607 0.868055
0.55581 0.154742 0.877897
0.519066 0.173877 0.887739
0.482307 0.193011 0.897581
0.445548 0.212161 0.907423
0.408804 0.231296 0.917266
0.372045 0.250431 0.927108
0.335286 0.269566 0.93695
0.298543 0.288701 0.946792
0.261784 0.307836 0.956634
0.225025 0.32697 0.966476
0.188281 0.346105 0.976318
0.151522 0.36524 0.98616
0.114763 0.384375 0.996002
0.0780194 0.40351 1
0.0412604 0.422644 1
0.00450141 0.441779 1
0 0.460929 1
0 0.480064 1
0 0.499199 1
0 0.518334 1
0 0.537469 1
0 0.556603 1
0 0.575738 1
0 0.594873 1
0 0.614008 1
0 0.633143 1
0 0.652277 1
0 0.671412 1
0 0.690547 1
0 0.709697 1
0.717296 0.104829 0.913634
0.680568 0.123964 0.923461
0.643809 0.143099 0.933303
0.60705 0.162234 0.943145
0.570306 0.181369 0.953002
0.533547 0.200504 0.962844
0.496788 0.219638 0.972686
0.460044 0.238773 0.982528
0.423285 0.257908 0.99237
0.386526 0.277058 1
0.349783 0.296193 1
0.313024 0.315328 1
0.276265 0.334462 1
0.239521 0.353597 1
0.202762 0.372732 1
0.166003 0.391867 1
0.129259 0.411002 1
0.0925002 0.430137 1
0.0557412 0.449271 1
0.0189975 0.468406 1
0 0.487541 1
0 0.506676 1
0 0.525826 1
0 0.544961 1
0 0.564095 1
0 0.58323 1
0 0.602365 1
0 0.6215 1
0 0.640635 1
0 0.65977 1
0 0.678904 1
0 0.698039 1
0 0.717174 1
0.768536 0.112322 0.978897
0.731792 0.131456 0.988724
0.695048 0.150591 0.998566
0.658289 0.169726 1
0.62153 0.188861 1
0.584787 0.207996 1
0.548028 0.227131 1
0.511269 0.246265 1
0.474525 0.2654 1
0.437766 0.284535 1
0.401007 0.30367 1
0.364263 0.322805 1
0.327504 0.341955 1
0.290745 0.361089 1
0.254002 0.380224 1
0.217243 0.399359 1
0.180484 0.418494 1
0.14374 0.437629 1
0.106981 0.456764 1
0.070222 0.475898 1
0.0334783 0.495033 1
0 0.514168 1
0 0.533303 1
0 0.552438 1
0 0.571572 1
0 0.590723 1
0 0.609857 1
0 0.628992 1
0 0.648127 1
0 0.667262 1
0 0.686397 1
0 0.705531 1
0 0.724666 1
0.819776 0.119814 1
0.783032 0.138933 1
0.746288 0.158083 1
0.709529 0.177218 1
0.67277 0.196353 1
0.636027 0.215488 1
0.599268 0.234623 1
0.562509 0.253758 1
0.525765 0.272892 1
0.489006 0.292027 1
0.452247 0.311162 1
0.415503 0.330297 1
0.378744 0.349432 1
0.341985 0.368566 1
0.305241 0.387701 1
0.268482 0.406851 1
0.231724 0.425986 1
0.19498 0.445121 1
0.158221 0.464256 1
0.121462 0.483391 1
0.0847181 0.502525 1
0.0479591 0.52166 1
0.0112001 0.540795 1
0 0.55993 1
0 0.579065 1
0 0.598199 1
0 0.617334 1
0 0.636469 1
0 0.655619 1
0 0.674754 1
0 0.693889 1
0 0.713024 1
0 0.732158 1
0.871015 0.127306 1
0.834272 0.146426 1
0.797513 0.16556 1
0.760769 0.184695 1
0.72401 0.20383 1
0.687251 0.22298 1
0.650507 0.242115 1
0.613748 0.26125 1
0.576989 0.280385 1
0.540246 0.299519 1
0.503487 0.318654 1
0.466728 0.337789 1
0.429984 0.356924 1
0.393225 0.376059 1
0.356466 0.395193 1
0.319722 0.414328 1
0.282963 0.433463 1
0.246204 0.452598 1
0.209461 0.471748 1
0.172702 0.490883 1
0.135943 0.510018 1
0.0991989 0.529152 1
0.0624399 0.548287 1
0.0256809 0.567422 1
0 0.586557 1
0 0.605692 1
0 0.624826 1
0 0.643961 1
0 0.663096 1
0 0.682231 1
0 0.701366 1
0 0.720516 1
0 0.739651 1
0.92224 0.134798 1
0.885512 0.153918 1
0.848753 0.173053 1
0.812009 0.192187 1
0.77525 0.211322 1
0.738491 0.230457 1
0.701747 0.249592 1
0.664988 0.268727 1
0.628229 0.287877 1
0.591485 0.307012 1
0.554726 0.326146 1
0.517968 0.345281 1
0.481224 0.364416 1
0.444465 0.383551 1
0.407706 0.402686 1
0.370962 0.42182 1
0.334203 0.440955 1
0.297444 0.46009 1
0.2607 0.479225 1
0.223941 0.49836 1
0.187182 0.517494 1
0.150439 0.536645 1
0.11368 0.555779 1
0.0769207 0.574914 1
0.040177 0.594049 1
0.00341802 0.613184 1
0 0.632319 1
0 0.651453 1
0 0.670588 1
0 0.689723 1
0 0.708858 1
0 0.727993 1
0 0.747127 1
0.97348 0.142275 1
0.936751 0.16141 1
0.899992 0.180545 1
0.863233 0.19968 1
0.82649 0.218814 1
0.789731 0.237949 1
0.752972 0.257084 1
0.716228 0.276219 1
0.679469 0.295354 1
0.64271 0.314488 1
0.605966 0.333623 1
0.569207 0.352773 1
0.532448 0.371908 1
0.495705 0.391043 1
0.458946 0.410178 1
0.422187 0.429313 1
0.385443 0.448447 1
0.348684 0.467582 1
0.311925 0.486717 1
0.275181 0.505852 1
0.238422 0.524987 1
0.201663 0.544121 1
0.16492 0.563256 1
0.128161 0.582391 1
0.0914015 0.601541 1
0.0546578 0.620676 1
0.0178988 0.639811 1
0 0.658946 1
0 0.67808 1
0 0.697215 1
0 0.71635 1
0 0.735485 1
0 0.75462 1
1 0.149767 1
0.987991 0.168902 1
0.951232 0.188037 1
0.914473 0.207172 1
0.877729 0.226307 1
0.84097 0.245441 1
0.804211 0.264576 1
0.767468 0.283711 1
0.730709 0.302846 1
0.69395 0.321981 1
0.657206 0.341115 1
0.620447 0.36025 1
0.583688 0.379385 1
0.546944 0.39852 1
0.510185 0.41767 1
0.473426 0.436805 1
0.436683 0.45594 1
0.399924 0.475074 1
0.363165 0.494209 1
0.326421 0.513344 1
0.289662 0.532479 1
0.252903 0.551614 1
0.216159 0.570748 1
0.1794 0.589883 1
0.142641 0.609018 1
0.105898 0.628153 1
0.0691386 0.647288 1
0.0323796 0.666438 1
0 0.685573 1
0 0.704707 1
0 0.723842 1
0 0.742977 1
0 0.762112 1
1 0.157259 1
1 0.176379 1
1 0.195514 1
0.965713 0.214649 1
0.928954 0.233799 1
0.89221 0.252934 1
0.855451 0.272068 1
0.818692 0.291203 1
0.781949 0.310338 1
0.74519 0.329473 1
0.708431 0.348608 1
0.671687 0.367742 1
0.634928 0.386877 1
0.598169 0.406012 1
0.561425 0.425147 1
0.524666 0.444282 1
0.487907 0.463416 1
0.451164 0.482567 1
0.414405 0.501701 1
0.377646 0.520836 1
0.340902 0.539971 1
0.304143 0.559106 1
0.267384 0.578241 1
0.23064 0.597375 1
0.193881 0.61651 1
0.157122 0.635645 1
0.120378 0.65478 1
0.0836194 0.673915 1
0.0468605 0.693049 1
0.0101167 0.712184 1
0 0.731334 1
0 0.750469 1
0 0.769604 1
1 0.164752 1
1 0.183871 1
1 0.203006 1
1 0.222141 1
0.980194 0.241276 1
0.94345 0.26041 1
0.906691 0.279545 1
0.869932 0.298695 1
0.833188 0.31783 1
0.796429 0.336965 1
0.75967 0.3561 1
0.722927 0.375235 1
0.686168 0.394369 1
0.649409 0.413504 1
0.612665 0.432639 1
0.575906 0.451774 1
0.539147 0.470909 1
0.502403 0.490043 1
0.465644 0.509178 1
0.428885 0.528313 1
0.392142 0.547463 1
0.355383 0.566598 1
0.318624 0.585733 1
0.28188 0.604868 1
0.245121 0.624002 1
0.208362 0.643137 1
0.171618 0.662272 1
0.134859 0.681407 1
0.0981003 0.700542 1
0.0613565 0.719676 1
0.0245975 0.738811 1
0 0.757946 1
0 0.777081 1
1 0.172229 1
1 0.191363 1
1 0.210498 1
1 0.229633 1
1 0.248768 1
0.994675 0.267903 1
0.957931 0.287037 1
0.921172 0.306172 1
0.884413 0.325307 1
0.847669 0.344442 1
0.81091 0.363592 1
0.774151 0.382727 1
0.737408 0.401862 1
0.700648 0.420996 1
0.66389 0.440131 1
0.627146 0.459266 1
0.590387 0.478401 1
0.553628 0.497536 1
0.516884 0.51667 1
0.480125 0.535805 1
0.443366 0.55494 1
0.406622 0.574075 1
0.369863 0.59321 1
0.333104 0.61236 1
0.296361 0.631495 1
0.259602 0.650629 1
0.222843 0.669764 1
0.186099 0.688899 1
0.14934 0.708034 1
0.112581 0.727169 1
0.0758373 0.746303 1
0.0390784 0.765438 1
0.00231937 0.784573 1
1 0.179721 1
1 0.198856 1
1 0.21799 1
1 0.237125 1
1 0.25626 1
1 0.275395 1
1 0.29453 1
0.972412 0.313664 1
0.935653 0.332799 1
0.898909 0.351934 1
0.86215 0.371069 1
0.825391 0.390204 1
0.788647 0.409339 1
0.751888 0.428489 1
0.715129 0.447623 1
0.678386 0.466758 1
0.641627 0.485893 1
0.604868 0.505028 1
0.568124 0.524163 1
0.531365 0.543297 1
0.494606 0.562432 1
0.457862 0.581567 1
0.421103 0.600702 1
0.384344 0.619837 1
0.347601 0.638972 1
0.310842 0.658106 1
0.274083 0.677256 1
0.237339 0.696391 1
0.20058 0.715526 1
0.163821 0.734661 1
0.127077 0.753796 1
0.0903182 0.772931 1
0.0535592 0.792065 1
1 0.187213 1
1 0.206332 1
1 0.225467 1
1 0.244602 1
1 0.263752 1
1 0.282887 1
1 0.302022 1
1 0.321157 1
0.986893 0.340291 1
0.950134 0.359426 1
0.91339 0.378561 1
0.876631 0.397696 1
0.839872 0.416831 1
0.803128 0.435966 1
0.766369 0.4551 1
0.72961 0.474235 1
0.692866 0.49337 1
0.656107 0.51252 1
0.619348 0.531655 1
0.582605 0.55079 1
0.545846 0.569924 1
0.509087 0.589059 1
0.472343 0.608194 1
0.435584 0.627329 1
0.398825 0.646464 1
0.362081 0.665599 1
0.325322 0.684733 1
0.288563 0.703868 1
0.25182 0.723003 1
0.215061 0.742138 1
0.178302 0.761288 1
0.141558 0.780423 1
0.104799 0.799558 1
1 0.194705 1
1 0.213825 1
1 0.232959 1
1 0.252094 1
1 0.271229 1
1 0.290364 1
1 0.309499 1
1 0.328649 1
1 0.347784 1
1 0.366918 1
0.96463 0.386053 1
0.927871 0.405188 1
0.891112 0.424323 1
0.854368 0.443458 1
0.817609 0.462593 1
0.78085 0.481727 1
0.744106 0.500862 1
0.707347 0.519997 1
0.670588 0.539132 1
0.633844 0.558267 1
0.597086 0.577417 1
0.560327 0.596551 1
0.523583 0.615686 1
0.486824 0.634821 1
0.450065 0.653956 1
0.413321 0.673091 1
0.376562 0.692226 1
0.339803 0.71136 1
0.303059 0.730495 1
0.2663 0.74963 1
0.229541 0.768765 1
0.192798 0.7879 1
0.156039 0.807034 1
1 0.202182 1
1 0.221317 1
1 0.240452 1
1 0.259586 1
1 0.278721 1
1 0.297856 1
1 0.316991 1
1 0.336126 1
1 0.355261 1
