public/LUTS/Color Shift/ColorShift_15.cube
TITLE "Generated by Resolve"
LUT_3D_SIZE 33
0 0 0
0.00634775 0.00982681 0
0.0126955 0.0196689 0
0.019028 0.0295109 0
0.0253758 0.039353 0
0.0317235 0.0491951 0
0.0380713 0.0590372 0
0.044419 0.068864 0
0.0507668 0.078706 0
0.0571145 0.0885481 0
0.0634623 0.0983902 0
0.0697948 0.108232 0
0.0761425 0.118059 0
0.0824903 0.127901 0
0.088838 0.137743 0
0.0951858 0.147585 0
0.101534 0.157427 0
0.107881 0.167254 0
0.114214 0.177096 0
0.120562 0.186938 0
0.126909 0.19678 0
0.133257 0.206622 0
0.139605 0.216449 0
0.145953 0.226291 0
0.1523 0.236133 0
0.158648 0.245975 0
0.164981 0.255818 0
0.171328 0.26566 0
0.177676 0.275486 0
0.184024 0.285328 0
0.190372 0.295171 0
0.196719 0.305013 0
0.203067 0.314855 0
0 0.0280461 0.0372625
0.000991836 0.0378882 0.0188602
0.00733959 0.0477302 0.000442512
0.0136721 0.057557 0
0.0200198 0.0673991 0
0.0263676 0.0772412 0
0.0327153 0.0870832 0
0.0390631 0.0969253 0
0.0454108 0.106752 0
0.0517586 0.116594 0
0.0581064 0.126436 0
0.0644388 0.136278 0
0.0707866 0.14612 0
0.0771344 0.155962 0
0.0834821 0.165789 0
0.0898299 0.175631 0
0.0961776 0.185473 0
0.102525 0.195315 0
0.108873 0.205158 0
0.115206 0.214984 0
0.121553 0.224826 0
0.127901 0.234668 0
0.134249 0.244511 0
0.140597 0.254353 0
0.146944 0.264179 0
0.153292 0.274022 0
0.159625 0.283864 0
0.165972 0.293706 0
0.17232 0.303548 0
0.178668 0.313375 0
0.185016 0.323217 0
0.191363 0.333059 0
0.197711 0.342901 0
0 0.0561227 0.0745556
0 0.0659495 0.0561379
0.00196841 0.0757916 0.0377203
0.00831617 0.0856336 0.0193027
0.0146639 0.0954604 0.000885023
0.0210117 0.105303 0
0.0273594 0.115145 0
0.0337072 0.124987 0
0.0400549 0.134829 0
0.0464027 0.144656 0
0.0527352 0.154498 0
0.0590829 0.16434 0
0.0654307 0.174182 0
0.0717784 0.184024 0
0.0781262 0.193866 0
0.0844739 0.203693 0
0.0908217 0.213535 0
0.0971542 0.223377 0
0.103502 0.233219 0
0.10985 0.243061 0
0.116197 0.252888 0
0.122545 0.26273 0
0.128893 0.272572 0
0.135241 0.282414 0
0.141588 0.292256 0
0.147921 0.302083 0
0.154269 0.311925 0
0.160616 0.321767 0
0.166964 0.331609 0
0.173312 0.341451 0
0.17966 0.351278 0
0.186007 0.36112 0
0.192355 0.370962 0
0 0.084184 0.111833
0 0.0940108 0.093431
0 0.103853 0.0750134
0.00296025 0.113695 0.0565957
0.009308 0.123537 0.0381781
0.0156558 0.133364 0.0197604
0.0220035 0.143206 0.00134279
0.0283513 0.153048 0
0.0346838 0.16289 0
0.0410315 0.172732 0
0.0473793 0.182574 0
0.053727 0.192401 0
0.0600748 0.202243 0
0.0664225 0.212085 0
0.0727703 0.221927 0
0.079118 0.231769 0
0.0854505 0.241596 0
0.0917983 0.251438 0
0.098146 0.26128 0
0.104494 0.271122 0
0.110842 0.280964 0
0.117189 0.290791 0
0.123537 0.300633 0
0.129885 0.310475 0
0.136217 0.320317 0
0.142565 0.330159 0
0.148913 0.339986 0
0.155261 0.349828 0
0.161608 0.35967 0
0.167956 0.369512 0
0.174304 0.379355 0
0.180652 0.389197 0
0.186984 0.399023 0
0 0.112245 0.149111
0 0.122072 0.130709
0 0.131914 0.112291
0 0.141756 0.0938735
0.00395209 0.151598 0.0754559
0.0102998 0.16144 0.0570382
0.0166476 0.171267 0.0386206
0.0229801 0.181109 0.0202029
0.0293278 0.190951 0.00178531
0.0356756 0.200793 0
0.0420233 0.210636 0
0.0483711 0.220478 0
0.0547189 0.230304 0
0.0610666 0.240146 0
0.0674144 0.249989 0
0.0737469 0.259831 0
0.0800946 0.269673 0
0.0864424 0.2795 0
0.0927901 0.289342 0
0.0991379 0.299184 0
0.105486 0.309026 0
0.111833 0.318868 0
0.118181 0.328695 0
0.124514 0.338537 0
0.130861 0.348379 0
0.137209 0.358221 0
0.143557 0.368063 0
0.149905 0.37789 0
0.156252 0.387732 0
0.1626 0.397574 0
0.168948 0.407416 0
0.17528 0.417258 0
0.181628 0.4271 0
0 0.140307 0.186404
0 0.150149 0.167987
0 0.159976 0.149569
0 0.169818 0.131151
0 0.17966 0.112749
0.00494392 0.189502 0.0943313
0.0112764 0.199344 0.0759136
0.0176242 0.209186 0.057496
0.0239719 0.219013 0.0390784
0.0303197 0.228855 0.0206607
0.0366674 0.238697 0.00224308
0.0430152 0.248539 0
0.0493629 0.258381 0
0.0557107 0.268208 0
0.0620432 0.27805 0
0.0683909 0.287892 0
0.0747387 0.297734 0
0.0810864 0.307576 0
0.0874342 0.317403 0
0.0937819 0.327245 0
0.10013 0.337087 0
0.106477 0.346929 0
0.11281 0.356771 0
0.119158 0.366598 0
0.125505 0.37644 0
0.131853 0.386282 0
0.138201 0.396124 0
0.144549 0.405966 0
0.150896 0.415808 0
0.157229 0.425635 0
0.163577 0.435477 0
0.169924 0.445319 0
0.176272 0.455161 0
0 0.168368 0.223682
0 0.17821 0.20528
0 0.188052 0.186862
0 0.197879 0.168444
0 0.207721 0.150027
0 0.217563 0.131609
0.0059205 0.227405 0.113191
0.0122683 0.237247 0.0947738
0.018616 0.247089 0.0763561
0.0249638 0.256916 0.0579385
0.0313115 0.266758 0.0395209
0.0376593 0.2766 0.0211032
0.0439918 0.286442 0.00268559
0.0503395 0.296284 0
0.0566873 0.306111 0
0.063035 0.315953 0
0.0693828 0.325795 0
0.0757305 0.335637 0
0.0820783 0.34548 0
0.088426 0.355306 0
0.0947585 0.365148 0
0.101106 0.37499 0
0.107454 0.384833 0
0.113802 0.394675 0
0.12015 0.404501 0
0.126497 0.414343 0
0.132845 0.424186 0
0.139193 0.434028 0
0.145525 0.44387 0
0.151873 0.453712 0
0.158221 0.463539 0
0.164569 0.473381 0
0.170916 0.483223 0
0 0.196445 0.26096
0 0.206271 0.242557
0 0.216114 0.22414
0 0.225956 0.205722
0 0.235798 0.187304
0 0.245624 0.168887
0.000564584 0.255467 0.150469
0.00691234 0.265309 0.132052
0.0132601 0.275151 0.113649
0.0196078 0.284993 0.0952316
0.0259556 0.29482 0.0768139
0.0322881 0.304662 0.0583963
0.0386358 0.314504 0.0399786
0.0449836 0.324346 0.021561
0.0513313 0.334188 0.00314336
0.0576791 0.344015 0
0.0640269 0.353857 0
0.0703746 0.363699 0
0.0767224 0.373541 0
0.0830549 0.383383 0
0.0894026 0.39321 0
0.0957504 0.403052 0
0.102098 0.412894 0
0.108446 0.422736 0
0.114794 0.432578 0
0.121141 0.44242 0
0.127489 0.452247 0
0.133822 0.462089 0
0.140169 0.471931 0
0.146517 0.481773 0
0.152865 0.491615 0
0.159213 0.501442 0
0.16556 0.511284 0
0 0.224506 0.298253
0 0.234333 0.279835
0 0.244175 0.261433
0 0.254017 0.243015
0 0.263859 0.224598
0 0.273701 0.20618
0 0.283528 0.187762
0.00155642 0.29337 0.169345
0.00790417 0.303212 0.150927
0.0142519 0.313054 0.132509
0.0205844 0.322896 0.114092
0.0269322 0.332723 0.0956741
0.0332799 0.342565 0.0772564
0.0396277 0.352407 0.0588388
0.0459754 0.362249 0.0404212
0.0523232 0.372091 0.0220035
0.0586709 0.381918 0.00358587
0.0650187 0.39176 0
0.0713512 0.401602 0
0.0776989 0.411444 0
0.0840467 0.421286 0
0.0903944 0.431113 0
0.0967422 0.440955 0
0.10309 0.450797 0
0.109438 0.460639 0
0.115785 0.470481 0
0.122118 0.480323 0
0.128466 0.49015 0
0.134813 0.499992 0
0.141161 0.509834 0
0.147509 0.519677 0
0.153857 0.529519 0
0.160204 0.539345 0
0 0.252567 0.335531
0 0.262394 0.317128
0 0.272236 0.298711
0 0.282078 0.280293
0 0.29192 0.261875
0 0.301762 0.243458
0 0.311604 0.22504
0 0.321431 0.206622
0.00254826 0.331273 0.188205
0.00888075 0.341115 0.169787
0.0152285 0.350958 0.151369
0.0215763 0.3608 0.132952
0.027924 0.370626 0.114549
0.0342718 0.380468 0.0961318
0.0406195 0.390311 0.0777142
0.0469673 0.400153 0.0592966
0.053315 0.409995 0.0408789
0.0596475 0.419821 0.0224613
0.0659953 0.429664 0.00404364
0.072343 0.439506 0
0.0786908 0.449348 0
0.0850385 0.45919 0
0.0913863 0.469017 0
0.097734 0.478859 0
0.104067 0.488701 0
0.110414 0.498543 0
0.116762 0.508385 0
0.12311 0.518227 0
0.129458 0.528054 0
0.135805 0.537896 0
0.142153 0.547738 0
0.148501 0.55758 0
0.154833 0.567422 0
0 0.280629 0.372824
0 0.290471 0.354406
0 0.300313 0.335988
0 0.31014 0.317571
0 0.319982 0.299153
0 0.329824 0.280735
0 0.339666 0.262333
0 0.349508 0.243915
0 0.359335 0.225498
0.00352483 0.369177 0.20708
0.00987259 0.379019 0.188663
0.0162203 0.388861 0.170245
0.0225681 0.398703 0.151827
0.0289158 0.40853 0.13341
0.0352636 0.418372 0.114992
0.0415961 0.428214 0.0965744
0.0479438 0.438056 0.0781567
0.0542916 0.447898 0.0597391
0.0606394 0.457725 0.0413214
0.0669871 0.467567 0.0229038
0.0733349 0.477409 0.00448615
0.0796826 0.487251 0
0.0860304 0.497093 0
0.0923629 0.506935 0
0.0987106 0.516762 0
0.105058 0.526604 0
0.111406 0.536446 0
0.117754 0.546288 0
0.124102 0.55613 0
0.130449 0.565957 0
0.136797 0.575799 0
0.14313 0.585641 0
0.149477 0.595483 0
0 0.30869 0.410101
0 0.318532 0.391699
0 0.328374 0.373281
0 0.338216 0.354864
0 0.348043 0.336446
0 0.357885 0.318029
0 0.367727 0.299611
0 0.377569 0.281193
0 0.387411 0.262776
0 0.397238 0.244358
0.00451667 0.40708 0.22594
0.0108644 0.416922 0.207523
0.0172122 0.426764 0.189105
0.0235599 0.436606 0.170687
0.0298924 0.446433 0.15227
0.0362402 0.456275 0.133852
0.0425879 0.466117 0.115434
0.0489357 0.475959 0.0970321
0.0552834 0.485801 0.0786145
0.0616312 0.495628 0.0601968
0.0679789 0.50547 0.0417792
0.0743267 0.515312 0.0233616
0.0806592 0.525154 0.00494392
0.0870069 0.534997 0
0.0933547 0.544839 0
0.0997024 0.554665 0
0.10605 0.564508 0
0.112398 0.57435 0
0.118746 0.584192 0
0.125093 0.594034 0
0.131426 0.603861 0
0.137774 0.613703 0
0.144121 0.623545 0
0 0.336767 0.447379
0 0.346593 0.428977
0 0.356435 0.410559
0 0.366278 0.392142
0 0.37612 0.373724
0 0.385946 0.355306
0 0.395789 0.336889
0 0.405631 0.318471
0 0.415473 0.300053
0 0.425315 0.281636
0 0.435142 0.263218
0.00550851 0.444984 0.244816
0.0118563 0.454826 0.226398
0.0181888 0.464668 0.20798
0.0245365 0.47451 0.189563
0.0308843 0.484337 0.171145
0.037232 0.494179 0.152728
0.0435798 0.504021 0.13431
0.0499275 0.513863 0.115892
0.0562753 0.523705 0.0974746
0.062623 0.533547 0.079057
0.0689555 0.543374 0.0606394
0.0753033 0.553216 0.0422217
0.081651 0.563058 0.0238041
0.0879988 0.5729 0.00538643
0.0943465 0.582742 0
0.100694 0.592569 0
0.107042 0.602411 0
0.11339 0.612253 0
0.119722 0.622095 0
0.12607 0.631937 0
0.132418 0.641764 0
0.138766 0.651606 0
0 0.364828 0.484672
0 0.374655 0.466255
0 0.384497 0.447837
0 0.394339 0.429419
0 0.404181 0.411002
0 0.414023 0.392599
0 0.42385 0.374182
0 0.433692 0.355764
0 0.443534 0.337346
0 0.453376 0.318929
0 0.463218 0.300511
0.00015259 0.473045 0.282094
0.00648508 0.482887 0.263676
0.0128328 0.492729 0.245258
0.0191806 0.502571 0.226841
0.0255283 0.512413 0.208423
0.0318761 0.52224 0.190005
0.0382239 0.532082 0.171588
0.0445716 0.541924 0.15317
0.0509194 0.551766 0.134752
0.0572519 0.561608 0.116335
0.0635996 0.57145 0.0979324
0.0699474 0.581277 0.0795148
0.0762951 0.591119 0.0610971
0.0826429 0.600961 0.0426795
0.0889906 0.610803 0.0242618
0.0953384 0.620645 0.00584421
0.101671 0.630472 0
0.108019 0.640314 0
0.114366 0.650156 0
0.120714 0.659998 0
0.127062 0.669841 0
0.13341 0.679667 0
0 0.392889 0.52195
0 0.402731 0.503548
0 0.412558 0.48513
0 0.4224 0.466712
0 0.432242 0.448295
0 0.442084 0.429877
0 0.451926 0.41146
0 0.461753 0.393042
0 0.471595 0.374624
0 0.481437 0.356207
0 0.491279 0.337789
0 0.501122 0.319371
0.00112917 0.510948 0.300954
0.00747692 0.52079 0.282536
0.0138247 0.530632 0.264118
0.0201724 0.540475 0.245716
0.0265202 0.550317 0.227298
0.0328679 0.560159 0.208881
0.0392004 0.569986 0.190463
0.0455482 0.579828 0.172045
0.0518959 0.58967 0.153628
0.0582437 0.599512 0.13521
0.0645914 0.609354 0.116793
0.0709392 0.619181 0.0983749
0.0772869 0.629023 0.0799573
0.0836347 0.638865 0.0615396
0.0899672 0.648707 0.043122
0.0963149 0.658549 0.0247044
0.102663 0.668376 0.00628672
0.10901 0.678218 0
0.115358 0.68806 0
0.121706 0.697902 0
0.128054 0.707744 0
0 0.420951 0.559228
0 0.430793 0.540825
0 0.440635 0.522408
0 0.450462 0.50399
0 0.460304 0.485573
0 0.470146 0.467155
0 0.479988 0.448737
0 0.48983 0.43032
0 0.499657 0.411902
0 0.509499 0.3935
0 0.519341 0.375082
0 0.529183 0.356664
0 0.539025 0.338247
0.002121 0.548852 0.319829
0.00846876 0.558694 0.301411
0.0148165 0.568536 0.282994
0.0211643 0.578378 0.264576
0.0274968 0.58822 0.246159
0.0338445 0.598062 0.227741
0.0401923 0.607889 0.209323
0.04654 0.617731 0.190906
0.0528878 0.627573 0.172488
0.0592355 0.637415 0.15407
0.0655833 0.647257 0.135653
0.071931 0.657084 0.117235
0.0782635 0.666926 0.0988327
0.0846113 0.676768 0.080415
0.090959 0.68661 0.0619974
0.0973068 0.696452 0.0435798
0.103655 0.706279 0.0251621
0.110002 0.716121 0.00674449
0.11635 0.725963 0
0.122698 0.735805 0
0 0.449012 0.596521
0 0.458854 0.578103
0 0.468696 0.559686
0 0.478538 0.541283
0 0.488365 0.522866
0 0.498207 0.504448
0 0.508049 0.48603
0 0.517891 0.467613
0 0.527733 0.449195
0 0.53756 0.430777
0 0.547402 0.41236
0 0.557244 0.393942
0 0.567086 0.375525
0 0.576928 0.357107
0.00311284 0.586755 0.338689
0.00946059 0.596597 0.320272
0.0157931 0.606439 0.301854
0.0221408 0.616281 0.283436
0.0284886 0.626123 0.265019
0.0348363 0.635966 0.246616
0.0411841 0.645792 0.228199
0.0475319 0.655634 0.209781
0.0538796 0.665476 0.191363
0.0602274 0.675319 0.172946
0.0665599 0.685161 0.154528
0.0729076 0.694987 0.13611
0.0792554 0.704829 0.117693
0.0856031 0.714672 0.0992752
0.0919509 0.724514 0.0808576
0.0982986 0.734356 0.0624399
0.104646 0.744183 0.0440223
0.110994 0.754025 0.0256046
0.117327 0.763867 0.007187
0 0.477089 0.633799
0 0.486915 0.615396
0 0.496757 0.596979
0 0.5066 0.578561
0 0.516442 0.560143
0 0.526268 0.541726
0 0.53611 0.523308
0 0.545953 0.504891
0 0.555795 0.486473
0 0.565637 0.468055
0 0.575463 0.449638
0 0.585306 0.43122
0 0.595148 0.412802
0 0.60499 0.3944
0 0.614832 0.375982
0.00408942 0.624674 0.357565
0.0104372 0.634501 0.339147
0.0167849 0.644343 0.320729
0.0231327 0.654185 0.302312
0.0294804 0.664027 0.283894
0.0358282 0.673869 0.265476
0.0421759 0.683696 0.247059
0.0485237 0.693538 0.228641
0.0548562 0.70338 0.210224
0.0612039 0.713222 0.191806
0.0675517 0.723064 0.173388
0.0738994 0.732891 0.154971
0.0802472 0.742733 0.136553
0.0865949 0.752575 0.118135
0.0929427 0.762417 0.099733
0.0992752 0.772259 0.0813153
0.105623 0.782086 0.0628977
0.111971 0.791928 0.04448
0 0.50515 0.671092
0 0.514977 0.652674
0 0.524819 0.634256
0 0.534661 0.615839
0 0.544503 0.597421
0 0.554345 0.579004
0 0.564172 0.560586
0 0.574014 0.542184
0 0.583856 0.523766
0 0.593698 0.505348
0 0.60354 0.486931
0 0.613367 0.468513
0 0.623209 0.450095
0 0.633051 0.431678
0 0.642893 0.41326
0 0.652735 0.394842
0.00508125 0.662577 0.376425
0.011429 0.672404 0.358007
0.0177768 0.682246 0.33959
0.0241245 0.692088 0.321172
0.0304723 0.70193 0.302754
0.0368048 0.711772 0.284337
0.0431525 0.721599 0.265919
0.0495003 0.731441 0.247517
0.055848 0.741283 0.229099
0.0621958 0.751125 0.210681
0.0685435 0.760967 0.192264
0.0748913 0.770794 0.173846
0.081239 0.780636 0.155428
0.0875715 0.790478 0.137011
0.0939193 0.80032 0.118593
0.100267 0.810162 0.100175
0.106615 0.819989 0.0817578
0 0.533211 0.70837
0 0.543053 0.689967
0 0.55288 0.67155
0 0.562722 0.653132
0 0.572564 0.634714
0 0.582406 0.616297
0 0.592248 0.597879
0 0.602075 0.579461
0 0.611917 0.561044
0 0.621759 0.542626
0 0.631601 0.524208
0 0.641443 0.505791
0 0.651286 0.487373
0 0.661112 0.468956
0 0.670954 0.450538
0 0.680797 0.43212
0 0.690639 0.413703
0.00607309 0.700481 0.3953
0.0124208 0.710307 0.376883
0.0187686 0.72015 0.358465
0.0251011 0.729992 0.340047
0.0314488 0.739834 0.32163
0.0377966 0.749676 0.303212
0.0441444 0.759503 0.284794
0.0504921 0.769345 0.266377
0.0568399 0.779187 0.247959
0.0631876 0.789029 0.229541
0.0695354 0.798871 0.211124
0.0758679 0.808698 0.192706
0.0822156 0.81854 0.174289
0.0885634 0.828382 0.155871
0.0949111 0.838224 0.137453
0.101259 0.848066 0.119036
0 0.561273 0.745647
0 0.571115 0.727245
0 0.580957 0.708827
0 0.590784 0.69041
0 0.600626 0.671992
0 0.610468 0.653574
0 0.62031 0.635157
0 0.630152 0.616739
0 0.639979 0.598321
0 0.649821 0.579904
0 0.659663 0.561486
0 0.669505 0.543084
0 0.679347 0.524666
0 0.689189 0.506249
0 0.699016 0.487831
0 0.708858 0.469413
0 0.7187 0.450996
0.000717174 0.728542 0.432578
0.00706493 0.738384 0.41416
0.0133974 0.748211 0.395743
0.0197452 0.758053 0.377325
0.0260929 0.767895 0.358907
0.0324407 0.777737 0.34049
0.0387884 0.787579 0.322072
0.0451362 0.797406 0.303655
0.0514839 0.807248 0.285237
0.0578317 0.81709 0.266819
0.0641642 0.826932 0.248417
0.0705119 0.836774 0.229999
0.0768597 0.846601 0.211582
0.0832074 0.856443 0.193164
0.0895552 0.866285 0.174746
0.0959029 0.876127 0.156329
0 0.589349 0.78294
0 0.599176 0.764523
0 0.609018 0.746105
0 0.61886 0.727687
0 0.628687 0.70927
0 0.638529 0.690867
0 0.648371 0.67245
0 0.658213 0.654032
0 0.668055 0.635615
0 0.677897 0.617197
0 0.687724 0.598779
0 0.697566 0.580362
0 0.707408 0.561944
0 0.71725 0.543526
0 0.727092 0.525109
0 0.736919 0.506691
0 0.746761 0.488273
0 0.756603 0.469856
0.00169375 0.766445 0.451438
0.0080415 0.776287 0.433021
0.0143893 0.786114 0.414603
0.020737 0.795956 0.396201
0.0270848 0.805798 0.377783
0.0334325 0.815641 0.359365
0.0397803 0.825483 0.340948
0.0461128 0.835309 0.32253
0.0524605 0.845151 0.304112
0.0588083 0.854994 0.285695
0.065156 0.864836 0.267277
0.0715038 0.874678 0.248859
0.0778515 0.88452 0.230442
0.0841993 0.894347 0.212024
0.090547 0.904189 0.193606
0 0.617411 0.820218
0 0.627237 0.801816
0 0.637079 0.783398
0 0.646922 0.764981
0 0.656764 0.746563
0 0.66659 0.728145
0 0.676432 0.709728
0 0.686275 0.69131
0 0.696117 0.672892
0 0.705959 0.654475
0 0.715801 0.636057
0 0.725628 0.617639
0 0.73547 0.599222
0 0.745312 0.580804
0 0.755154 0.562387
0 0.764996 0.543984
0 0.774823 0.525567
0 0.784665 0.507149
0 0.794507 0.488731
0.00268559 0.804349 0.470314
0.00903334 0.814191 0.451896
0.0153811 0.824018 0.433478
0.0217288 0.83386 0.415061
0.0280766 0.843702 0.396643
0.0344091 0.853544 0.378225
0.0407568 0.863386 0.359808
0.0471046 0.873213 0.34139
0.0534524 0.883055 0.322972
0.0598001 0.892897 0.304555
0.0661479 0.902739 0.286137
0.0724956 0.912581 0.26772
0.0788434 0.922423 0.249317
0.0851759 0.93225 0.2309
0 0.645472 0.857496
0 0.655299 0.839094
0 0.665141 0.820676
0 0.674983 0.802258
0 0.684825 0.783841
0 0.694667 0.765423
0 0.704494 0.747005
0 0.714336 0.728588
0 0.724178 0.71017
0 0.73402 0.691768
0 0.743862 0.67335
0 0.753704 0.654932
0 0.763531 0.636515
0 0.773373 0.618097
0 0.783215 0.59968
0 0.793057 0.581262
0 0.802899 0.562844
0 0.812726 0.544427
0 0.822568 0.526009
0 0.83241 0.507591
0.00367742 0.842252 0.489174
0.0100252 0.852094 0.470756
0.0163729 0.861921 0.452338
0.0227054 0.871763 0.433921
0.0290532 0.881605 0.415503
0.0354009 0.891447 0.397101
0.0417487 0.901289 0.378683
0.0480964 0.911116 0.360265
0.0544442 0.920958 0.341848
0.0607919 0.9308 0.32343
0.0671397 0.940642 0.305013
0.0734722 0.950484 0.286595
0.0798199 0.960327 0.268177
0 0.673533 0.894789
0 0.683375 0.876371
0 0.693202 0.857954
0 0.703044 0.839551
0 0.712886 0.821134
0 0.722728 0.802716
0 0.73257 0.784298
0 0.742412 0.765881
0 0.752239 0.747463
0 0.762081 0.729046
0 0.771923 0.710628
0 0.781765 0.69221
0 0.791608 0.673793
0 0.801434 0.655375
0 0.811276 0.636957
0 0.821118 0.61854
0 0.830961 0.600122
0 0.840803 0.581704
0 0.850629 0.563287
0 0.860471 0.544884
0 0.870314 0.526467
0.00466926 0.880156 0.508049
0.0110018 0.889998 0.489632
0.0173495 0.899825 0.471214
0.0236973 0.909667 0.452796
0.030045 0.919509 0.434379
0.0363928 0.929351 0.415961
0.0427405 0.939193 0.397543
0.0490883 0.949035 0.379126
0.055436 0.958862 0.360708
0.0617685 0.968704 0.34229
0.0681163 0.978546 0.323873
0.074464 0.988388 0.305455
0 0.701595 0.932067
0 0.711437 0.913664
0 0.721279 0.895247
0 0.731106 0.876829
0 0.740948 0.858412
0 0.75079 0.839994
0 0.760632 0.821576
0 0.770474 0.803159
0 0.780316 0.784741
0 0.790143 0.766323
0 0.799985 0.747906
0 0.809827 0.729488
0 0.819669 0.71107
0 0.829511 0.692668
0 0.839338 0.67425
0 0.84918 0.655833
0 0.859022 0.637415
0 0.868864 0.618997
0 0.878706 0.60058
0 0.888533 0.582162
0 0.898375 0.563745
0 0.908217 0.545327
0.00564584 0.918059 0.526909
0.0119936 0.927901 0.508492
0.0183413 0.937728 0.490074
0.0246891 0.94757 0.471656
0.0310369 0.957412 0.453239
0.0373846 0.967254 0.434821
0.0437171 0.977096 0.416403
0.0500649 0.986938 0.398001
0.0564126 0.996765 0.379583
0.0627604 1 0.361166
0.0691081 1 0.342748
0 0.729671 0.969345
0 0.739498 0.950942
0 0.74934 0.932525
0 0.759182 0.914107
0 0.769024 0.895689
0 0.778851 0.877272
0 0.788693 0.858854
0 0.798535 0.840452
0 0.808377 0.822034
0 0.818219 0.803616
0 0.828046 0.785199
0 0.837888 0.766781
0 0.84773 0.748363
0 0.857572 0.729946
0 0.867414 0.711528
0 0.877241 0.693111
0 0.887083 0.674693
0 0.896925 0.656275
0 0.906767 0.637858
0 0.916609 0.61944
0 0.926436 0.601022
0 0.936278 0.582605
0.000289921 0.94612 0.564187
0.00663767 0.955962 0.545785
0.0129854 0.965805 0.527367
0.0193332 0.975647 0.508949
0.0256809 0.985473 0.490532
0.0320134 0.995315 0.472114
0.0383612 1 0.453696
0.0447089 1 0.435279
0.0510567 1 0.416861
0.0574044 1 0.398444
0.0637522 1 0.380026
0 0.757733 1
0 0.767559 0.988235
0 0.777401 0.969818
0 0.787243 0.9514
0 0.797086 0.932982
0 0.806928 0.914565
0 0.816754 0.896147
0 0.826596 0.877729
0 0.836439 0.859312
