public/LUTS/Color Shift/ColorShift_58.cube
TITLE "Generated by Resolve"
LUT_3D_SIZE 33
0 0 0
0 0.018677 0
0 0.0373541 0
0 0.0560311 0
0 0.0747082 0
0 0.0933852 0
0 0.112078 0
0 0.130755 0
0 0.149432 0
0 0.168109 0
0 0.186786 0
0 0.205478 0
0 0.224155 0
0 0.242832 0
0 0.261509 0
0 0.280186 0
0 0.298878 0
0 0.317556 0
0 0.336233 0
0 0.35491 0
0 0.373587 0
0 0.392264 0
0 0.410956 0
0 0.429633 0
0 0.44831 0
0 0.466987 0
0 0.485664 0
0 0.504356 0
0 0.523033 0
0 0.541711 0
0 0.560388 0
0 0.579065 0
0 0.597757 0
0 0.0222934 0.0695506
0 0.0409705 0.0421302
0 0.0596475 0.0147097
0 0.0783246 0
0 0.0970016 0
0 0.115679 0
0 0.134371 0
0 0.153048 0
0 0.171725 0
0 0.190402 0
0 0.209079 0
0 0.227756 0
0 0.246448 0
0 0.265126 0
0 0.283803 0
0 0.30248 0
0 0.321157 0
0 0.339849 0
0 0.358526 0
0 0.377203 0
0 0.39588 0
0 0.414557 0
0 0.433249 0
0 0.451926 0
0 0.470603 0
0 0.489281 0
0 0.507958 0
0 0.52665 0
0 0.545327 0
0 0.564004 0
0 0.582681 0
0 0.601358 0
0 0.62005 0
0 0.0446021 0.139147
0 0.0632639 0.111727
0 0.0819409 0.0842908
0 0.100633 0.0568551
0 0.11931 0.0294347
0 0.137987 0.00199893
0 0.156664 0
0 0.175341 0
0 0.194034 0
0 0.212711 0
0 0.231388 0
0 0.250065 0
0 0.268742 0
0 0.287434 0
0 0.306111 0
0 0.324788 0
0 0.343465 0
0 0.362142 0
0 0.380835 0
0 0.399512 0
0 0.418189 0
0 0.436866 0
0 0.455543 0
0 0.47422 0
0 0.492912 0
0 0.511589 0
0 0.530266 0
0 0.548943 0
0 0.56762 0
0 0.586313 0
0 0.60499 0
0 0.623667 0
0 0.642344 0
0 0.0668956 0.208728
0 0.0855726 0.181308
0 0.10425 0.153887
0 0.122927 0.126452
0 0.141604 0.0990158
0 0.160296 0.0715953
0 0.178973 0.0441596
0 0.19765 0.0167239
0 0.216327 0
0 0.235004 0
0 0.253697 0
0 0.272374 0
0 0.291051 0
0 0.309728 0
0 0.328405 0
0 0.347097 0
0 0.365774 0
0 0.384451 0
0 0.403128 0
0 0.421805 0
0 0.440497 0
0 0.459174 0
0 0.477852 0
0 0.496529 0
0 0.515206 0
0 0.533898 0
0 0.552575 0
0 0.571252 0
0 0.589929 0
0 0.608606 0
0 0.627298 0
0 0.645975 0
0 0.664652 0
0 0.0892042 0.278309
0 0.107881 0.250904
0 0.126558 0.223468
0 0.145235 0.196033
0 0.163912 0.168612
0 0.182589 0.141176
0 0.201282 0.113741
0 0.219959 0.0863203
0 0.238636 0.0588846
0 0.257313 0.0314488
0 0.27599 0.00402838
0 0.294667 0
0 0.313359 0
0 0.332036 0
0 0.350713 0
0 0.36939 0
0 0.388067 0
0 0.40676 0
0 0.425437 0
0 0.444114 0
0 0.462791 0
0 0.481468 0
0 0.50016 0
0 0.518837 0
0 0.537514 0
0 0.556191 0
0 0.574868 0
0 0.593561 0
0 0.612238 0
0 0.630915 0
0 0.649592 0
0 0.668269 0
0 0.686961 0
0 0.111513 0.347906
0 0.130175 0.320485
0 0.148852 0.29305
0 0.167544 0.265629
0 0.186221 0.238193
0 0.204898 0.210758
0 0.223575 0.183337
0 0.242252 0.155901
0 0.260945 0.128466
0 0.279622 0.101045
0 0.298299 0.0736095
0 0.316976 0.0461738
0 0.335653 0.0187533
0 0.354345 0
0 0.373022 0
0 0.391699 0
0 0.410376 0
0 0.429053 0
0 0.447745 0
0 0.466423 0
0 0.4851 0
0 0.503777 0
0 0.522454 0
0 0.541131 0
0 0.559823 0
0 0.5785 0
0 0.597177 0
0 0.615854 0
0 0.634531 0
0 0.653223 0
0 0.671901 0
0 0.690578 0
0 0.709255 0
0 0.133806 0.417487
0 0.152483 0.390066
0 0.17116 0.362646
0 0.189837 0.33521
0 0.208515 0.307774
0 0.227207 0.280354
0 0.245884 0.252918
0 0.264561 0.225483
0 0.283238 0.198062
0 0.301915 0.170626
0 0.320607 0.143206
0 0.339284 0.11577
0 0.357961 0.0883345
0 0.376638 0.060914
0 0.395315 0.0334783
0 0.414008 0.00604257
0 0.432685 0
0 0.451362 0
0 0.470039 0
0 0.488716 0
0 0.507408 0
0 0.526085 0
0 0.544762 0
0 0.563439 0
0 0.582116 0
0 0.600809 0
0 0.619486 0
0 0.638163 0
0 0.65684 0
0 0.675517 0
0 0.694209 0
0 0.712886 0
0 0.731563 0
0 0.156115 0.487083
0 0.174792 0.459663
0 0.193469 0.432227
0 0.212146 0.404807
0 0.230823 0.377371
0 0.2495 0.349935
0 0.268193 0.322515
0 0.28687 0.295079
0 0.305547 0.267643
0 0.324224 0.240223
0 0.342901 0.212787
0 0.361578 0.185351
0 0.38027 0.157931
0 0.398947 0.130495
0 0.417624 0.103059
0 0.436301 0.075639
0 0.454978 0.0482032
0 0.473671 0.0207675
0 0.492348 0
0 0.511025 0
0 0.529702 0
0 0.548379 0
0 0.567071 0
0 0.585748 0
0 0.604425 0
0 0.623102 0
0 0.641779 0
0 0.660471 0
0 0.679149 0
0 0.697826 0
0 0.716503 0
0 0.73518 0
0 0.753872 0
0 0.178424 0.556664
0 0.197086 0.529244
0 0.215763 0.501823
0 0.234455 0.474388
0 0.253132 0.446952
0 0.271809 0.419532
0 0.290486 0.392096
0 0.309163 0.36466
0 0.327855 0.33724
0 0.346532 0.309804
0 0.365209 0.282368
0 0.383886 0.254948
0 0.402564 0.227512
0 0.421256 0.200076
0 0.439933 0.172656
0 0.45861 0.14522
0 0.477287 0.117784
0 0.495964 0.0903639
0 0.514656 0.0629282
0 0.533333 0.0354925
0 0.55201 0.00807202
0 0.570687 0
0 0.589364 0
0 0.608042 0
0 0.626734 0
0 0.645411 0
0 0.664088 0
0 0.682765 0
0 0.701442 0
0 0.720134 0
0 0.738811 0
0 0.757488 0
0 0.776165 0
0 0.200717 0.626245
0 0.219394 0.59884
0 0.238071 0.571405
0 0.256748 0.543969
0 0.275425 0.516548
0 0.294118 0.489113
0 0.312795 0.461677
0 0.331472 0.434256
0 0.350149 0.406821
0 0.368826 0.379385
0 0.387518 0.351965
0 0.406195 0.324529
0 0.424872 0.297093
0 0.443549 0.269673
0 0.462226 0.242237
0 0.480919 0.214801
0 0.499596 0.187381
0 0.518273 0.159945
0 0.53695 0.132509
0 0.555627 0.105089
0 0.574319 0.0776532
0 0.592996 0.0502327
0 0.611673 0.022797
0 0.63035 0
0 0.649027 0
0 0.66772 0
0 0.686397 0
0 0.705074 0
0 0.723751 0
0 0.742428 0
0 0.76112 0
0 0.779797 0
0 0.798474 0
0 0.223026 0.695842
0 0.241703 0.668421
0 0.26038 0.640986
0 0.279057 0.613565
0 0.297734 0.58613
0 0.316411 0.558694
0 0.335103 0.531273
0 0.35378 0.503838
0 0.372457 0.476402
0 0.391135 0.448981
0 0.409812 0.421546
0 0.428489 0.394125
0 0.447181 0.36669
0 0.465858 0.339254
0 0.484535 0.311833
0 0.503212 0.284398
0 0.521889 0.256962
0 0.540581 0.229541
0 0.559258 0.202106
0 0.577935 0.17467
0 0.596613 0.14725
0 0.61529 0.119814
0 0.633982 0.0923781
0 0.652659 0.0649577
0 0.671336 0.0375219
0 0.690013 0.0100862
0 0.70869 0
0 0.727382 0
0 0.746059 0
0 0.764736 0
0 0.783413 0
0 0.80209 0
0 0.820783 0
0 0.245335 0.765423
0 0.263996 0.738003
0 0.282673 0.710582
0 0.301366 0.683146
0 0.320043 0.655726
0 0.33872 0.62829
0 0.357397 0.600855
0 0.376074 0.573434
0 0.394766 0.545998
0 0.413443 0.518563
0 0.43212 0.491142
0 0.450797 0.463706
0 0.469474 0.436271
0 0.488167 0.40885
0 0.506844 0.381415
0 0.525521 0.353979
0 0.544198 0.326558
0 0.562875 0.299123
0 0.581567 0.271687
0 0.600244 0.244266
0 0.618921 0.216831
0 0.637598 0.189395
0 0.656275 0.161975
0 0.674952 0.134539
0 0.693645 0.107103
0 0.712322 0.0796826
0 0.730999 0.0522469
0 0.749676 0.0248112
0 0.768353 0
0 0.787045 0
0 0.805722 0
0 0.824399 0
0 0.843076 0
1.5259e-05 0.267628 0.835019
0 0.286305 0.807599
0 0.304982 0.780163
0 0.323659 0.752743
0 0.342336 0.725307
0 0.361028 0.697871
0 0.379705 0.670451
0 0.398383 0.643015
0 0.41706 0.615579
0 0.435737 0.588159
0 0.454429 0.560723
0 0.473106 0.533288
0 0.491783 0.505867
0 0.51046 0.478431
0 0.529137 0.450996
0 0.547829 0.423575
0 0.566506 0.396139
0 0.585184 0.368704
0 0.603861 0.341283
0 0.622538 0.313848
0 0.64123 0.286412
0 0.659907 0.258991
0 0.678584 0.231556
0 0.697261 0.20412
0 0.715938 0.176699
0 0.73463 0.149264
0 0.753307 0.121828
0 0.771984 0.0944076
0 0.790661 0.0669718
0 0.809339 0.0395361
0 0.828031 0.0121157
0 0.846708 0
0 0.865385 0
1.5259e-05 0.289937 0.904601
0 0.308614 0.87718
0 0.327291 0.84976
0 0.345968 0.822324
0 0.364645 0.794888
0 0.383322 0.767468
0 0.402014 0.740032
0 0.420691 0.712596
0 0.439368 0.685176
0 0.458045 0.65774
0 0.476722 0.630304
0 0.495399 0.602884
0 0.514092 0.575448
0 0.532769 0.548012
0 0.551446 0.520592
0 0.570123 0.493156
0 0.5888 0.465721
0 0.607492 0.4383
0 0.626169 0.410864
0 0.644846 0.383429
0 0.663523 0.356008
0 0.6822 0.328573
0 0.700893 0.301137
0 0.71957 0.273716
0 0.738247 0.246281
0 0.756924 0.21886
0 0.775601 0.191424
0 0.794293 0.163989
0 0.81297 0.136568
0 0.831647 0.109133
0 0.850324 0.0816968
0 0.869001 0.0542763
0 0.887694 0.0268406
1.5259e-05 0.312245 0.974197
0 0.330907 0.946777
0 0.349584 0.919341
0 0.368277 0.891905
0 0.386954 0.864485
0 0.405631 0.837049
0 0.424308 0.809613
0 0.442985 0.782193
0 0.461677 0.754757
0 0.480354 0.727321
0 0.499031 0.699901
0 0.517708 0.672465
0 0.536385 0.645029
0 0.555077 0.617609
0 0.573754 0.590173
0 0.592432 0.562753
0 0.611109 0.535317
0 0.629786 0.507881
0 0.648478 0.480461
0 0.667155 0.453025
0 0.685832 0.425589
0 0.704509 0.398169
0 0.723186 0.370733
0 0.741863 0.343297
0 0.760555 0.315877
0 0.779232 0.288441
0 0.797909 0.261006
0 0.816587 0.233585
0 0.835264 0.206149
0 0.853956 0.178714
0 0.872633 0.151293
0 0.89131 0.123857
0 0.909987 0.0964218
1.5259e-05 0.334539 1
0 0.353216 1
0 0.371893 0.988922
0 0.39057 0.961501
0 0.409247 0.934066
0 0.427939 0.90663
0 0.446616 0.87921
0 0.465293 0.851774
0 0.48397 0.824353
0 0.502647 0.796918
0 0.52134 0.769482
0 0.540017 0.742061
0 0.558694 0.714626
0 0.577371 0.68719
0 0.596048 0.65977
0 0.61474 0.632334
0 0.633417 0.604898
0 0.652094 0.577478
0 0.670771 0.550042
0 0.689448 0.522606
0 0.708141 0.495186
0 0.726818 0.46775
0 0.745495 0.440314
0 0.764172 0.412894
0 0.782849 0.385458
0 0.801541 0.358022
0 0.820218 0.330602
0 0.838895 0.303166
0 0.857572 0.275731
0 0.876249 0.24831
0 0.894942 0.220874
0 0.913619 0.193439
0 0.932296 0.166018
1.5259e-05 0.356847 1
0 0.375525 1
0 0.394202 1
0 0.412879 1
0 0.431556 1
0 0.450233 0.976226
0 0.468925 0.948791
0 0.487602 0.92137
0 0.506279 0.893935
0 0.524956 0.866499
0 0.543633 0.839078
0 0.56231 0.811643
0 0.581003 0.784207
0 0.59968 0.756786
0 0.618357 0.729351
0 0.637034 0.701915
0 0.655711 0.674495
0 0.674403 0.647059
0 0.69308 0.619623
0 0.711757 0.592203
0 0.730434 0.564767
0 0.749111 0.537331
0 0.767803 0.509911
0 0.78648 0.482475
0 0.805158 0.455039
0 0.823835 0.427619
0 0.842512 0.400183
0 0.861204 0.372747
0 0.879881 0.345327
0 0.898558 0.317891
0 0.917235 0.290455
0 0.935912 0.263035
0 0.954604 0.235599
1.5259e-05 0.379156 1
0 0.397818 1
0 0.416495 1
0 0.435187 1
0 0.453864 1
0 0.472541 1
0 0.491218 1
0 0.509896 0.990951
0 0.528588 0.963516
0 0.547265 0.936095
0 0.565942 0.90866
0 0.584619 0.881224
0 0.603296 0.853803
0 0.621988 0.826368
0 0.640665 0.798932
0 0.659342 0.771511
0 0.678019 0.744076
0 0.696696 0.71664
0 0.715389 0.689219
0 0.734066 0.661784
0 0.752743 0.634348
0 0.77142 0.606928
0 0.790097 0.579492
0 0.808789 0.552056
0 0.827466 0.524636
0 0.846143 0.4972
0 0.86482 0.469764
0 0.883497 0.442344
0 0.902174 0.414908
0 0.920867 0.387488
0 0.939544 0.360052
0 0.958221 0.332616
0 0.976898 0.305196
1.5259e-05 0.40145 1
0 0.420127 1
0 0.438804 1
0 0.457481 1
0 0.476158 1
0 0.49485 1
0 0.513527 1
0 0.532204 1
0 0.550881 1
0 0.569558 1
0 0.588251 0.978241
0 0.606928 0.95082
0 0.625605 0.923384
0 0.644282 0.895949
0 0.662959 0.868528
0 0.681651 0.841093
0 0.700328 0.813657
0 0.719005 0.786236
0 0.737682 0.758801
0 0.756359 0.73138
0 0.775051 0.703944
0 0.793729 0.676509
0 0.812406 0.649088
0 0.831083 0.621653
0 0.84976 0.594217
0 0.868452 0.566796
0 0.887129 0.539361
0 0.905806 0.511925
0 0.924483 0.484504
0 0.94316 0.457069
0 0.961852 0.429633
0 0.980529 0.402213
0 0.999207 0.374777
1.5259e-05 0.423758 1
0 0.442435 1
0 0.461112 1
0 0.479789 1
0 0.498466 1
0 0.517143 1
0 0.535836 1
0 0.554513 1
0 0.57319 1
0 0.591867 1
0 0.610544 1
0 0.629221 1
0 0.647913 0.992981
0 0.66659 0.965545
0 0.685267 0.938109
0 0.703944 0.910689
0 0.722622 0.883253
0 0.741314 0.855817
0 0.759991 0.828397
0 0.778668 0.800961
0 0.797345 0.773526
0 0.816022 0.746105
0 0.834714 0.718669
0 0.853391 0.691234
0 0.872068 0.663813
0 0.890745 0.636378
0 0.909422 0.608942
0 0.928115 0.581521
0 0.946792 0.554086
0 0.965469 0.52665
0 0.984146 0.499229
0 1 0.471794
0 1 0.444358
1.5259e-05 0.446067 1
0 0.464729 1
0 0.483406 1
0 0.502098 1
0 0.520775 1
0 0.539452 1
0 0.558129 1
0 0.576806 1
0 0.595499 1
0 0.614176 1
0 0.632853 1
0 0.65153 1
0 0.670207 1
0 0.688899 1
0 0.707576 1
0 0.726253 0.98027
0 0.74493 0.952834
0 0.763607 0.925414
0 0.7823 0.897978
0 0.800977 0.870542
0 0.819654 0.843122
0 0.838331 0.815686
0 0.857008 0.788251
0 0.875685 0.76083
0 0.894377 0.733394
0 0.913054 0.705959
0 0.931731 0.678538
0 0.950408 0.651102
0 0.969085 0.623667
0 0.987778 0.596246
0 1 0.568811
0 1 0.541375
0 1 0.513954
1.5259e-05 0.46836 1
0 0.487037 1
0 0.505714 1
0 0.524392 1
0 0.543069 1
0 0.561761 1
0 0.580438 1
0 0.599115 1
0 0.617792 1
0 0.636469 1
0 0.655161 1
0 0.673838 1
0 0.692515 1
0 0.711192 1
0 0.72987 1
0 0.748562 1
0 0.767239 1
0 0.785916 0.994995
0 0.804593 0.967559
0 0.82327 0.940139
0 0.841962 0.912703
0 0.860639 0.885267
0 0.879316 0.857847
0 0.897993 0.830411
0 0.916671 0.802976
0 0.935363 0.775555
0 0.95404 0.748119
0 0.972717 0.720684
0 0.991394 0.693263
0 1 0.665827
0 1 0.638392
0 1 0.610971
0 1 0.583535
1.5259e-05 0.490669 1
0 0.509346 1
0 0.528023 1
0 0.5467 1
0 0.565377 1
0 0.584054 1
0 0.602747 1
0 0.621424 1
0 0.640101 1
0 0.658778 1
0 0.677455 1
0 0.696132 1
0 0.714824 1
0 0.733501 1
0 0.752178 1
0 0.770855 1
0 0.789532 1
0 0.808225 1
0 0.826902 1
0 0.845579 1
0 0.864256 0.982284
0 0.882933 0.954864
0 0.901625 0.927428
0 0.920302 0.900008
0 0.938979 0.872572
0 0.957656 0.845136
0 0.976333 0.817716
0 0.995026 0.79028
0 1 0.762844
0 1 0.735424
0 1 0.707988
0 1 0.680552
0 1 0.653132
1.5259e-05 0.512978 1
0 0.53164 1
0 0.550317 1
0 0.569009 1
0 0.587686 1
0 0.606363 1
0 0.62504 1
0 0.643717 1
0 0.662409 1
0 0.681086 1
0 0.699763 1
0 0.718441 1
0 0.737118 1
0 0.75581 1
0 0.774487 1
0 0.793164 1
0 0.811841 1
0 0.830518 1
0 0.84921 1
0 0.867887 1
0 0.886564 1
0 0.905241 1
0 0.923919 0.997024
0 0.942596 0.969589
0 0.961288 0.942153
0 0.979965 0.914733
0 0.998642 0.887297
0 1 0.859861
0 1 0.832441
0 1 0.805005
0 1 0.777569
0 1 0.750149
0 1 0.722713
1.5259e-05 0.535271 1
0 0.553948 1
0 0.572625 1
0 0.591302 1
0 0.609979 1
0 0.628672 1
0 0.647349 1
0 0.666026 1
0 0.684703 1
0 0.70338 1
0 0.722072 1
0 0.740749 1
0 0.759426 1
0 0.778103 1
0 0.79678 1
0 0.815473 1
0 0.83415 1
0 0.852827 1
0 0.871504 1
0 0.890181 1
0 0.908873 1
0 0.92755 1
0 0.946227 1
0 0.964904 1
0 0.983581 1
0 1 0.984314
0 1 0.956878
0 1 0.929458
0 1 0.902022
0 1 0.874586
0 1 0.847166
0 1 0.81973
0 1 0.792294
1.5259e-05 0.55758 1
0 0.576257 1
0 0.594934 1
0 0.613611 1
0 0.632288 1
0 0.650965 1
0 0.669657 1
0 0.688334 1
0 0.707012 1
0 0.725689 1
0 0.744366 1
0 0.763058 1
0 0.781735 1
0 0.800412 1
0 0.819089 1
0 0.837766 1
0 0.856443 1
0 0.875135 1
0 0.893812 1
0 0.91249 1
0 0.931167 1
0 0.949844 1
0 0.968536 1
0 0.987213 1
0 1 1
0 1 1
0 1 1
0 1 0.999039
0 1 0.971603
0 1 0.944183
0 1 0.916747
0 1 0.889311
0 1 0.861891
1.5259e-05 0.579889 1
0 0.59855 1
0 0.617227 1
0 0.63592 1
0 0.654597 1
0 0.673274 1
0 0.691951 1
0 0.710628 1
0 0.72932 1
0 0.747997 1
0 0.766674 1
0 0.785351 1
0 0.804028 1
0 0.822721 1
0 0.841398 1
0 0.860075 1
0 0.878752 1
0 0.897429 1
0 0.916121 1
0 0.934798 1
0 0.953475 1
0 0.972152 1
0 0.990829 1
0 1 1
0 1 1
0 1 1
0 1 1
0 1 1
0 1 1
0 1 1
0 1 0.986343
0 1 0.958907
0 1 0.931472
1.5259e-05 0.602182 1
0 0.620859 1
0 0.639536 1
0 0.658213 1
0 0.67689 1
0 0.695583 1
0 0.71426 1
0 0.732937 1
0 0.751614 1
