public/LUTS/Color Shift/ColorShift_47.cube
TITLE "Generated by Resolve"
LUT_3D_SIZE 33
0 0 0
0 0.0120546 0.0175174
0 0.0241093 0.03505
0 0.0361791 0.0525673
0 0.0482338 0.0700999
0 0.0602884 0.0876173
0 0.0723583 0.10515
0 0.0844129 0.122667
0 0.0964675 0.1402
0 0.108522 0.157717
0 0.120592 0.17525
0 0.132647 0.192767
0 0.144701 0.2103
0 0.156771 0.227832
0 0.168826 0.24535
0 0.18088 0.262882
0 0.19295 0.2804
0 0.205005 0.297932
0 0.21706 0.31545
0 0.229129 0.332982
0 0.241184 0.3505
0 0.253239 0.368032
0 0.265309 0.38555
0 0.277363 0.403082
0 0.289418 0.420615
0 0.301488 0.438132
0 0.313542 0.455665
0 0.325597 0.473182
0 0.337652 0.490715
0 0.349722 0.508232
0 0.361776 0.525765
0 0.373831 0.543282
0 0.385901 0.560815
0.0475624 0.0119173 0.0393072
0.0311131 0.0239719 0.0568246
0.0146487 0.0360266 0.0743572
0 0.0480812 0.0918746
0 0.0601511 0.109407
0 0.0722057 0.126925
0 0.0842603 0.144457
0 0.0963302 0.16199
0 0.108385 0.179507
0 0.120439 0.19704
0 0.132509 0.214557
0 0.144564 0.23209
0 0.156619 0.249607
0 0.168688 0.26714
0 0.180743 0.284657
0 0.192798 0.30219
0 0.204852 0.319707
0 0.216922 0.33724
0 0.228977 0.354772
0 0.241032 0.37229
0 0.253101 0.389822
0 0.265156 0.40734
0 0.277211 0.424872
0 0.289281 0.44239
0 0.301335 0.459922
0 0.31339 0.47744
0 0.32546 0.494972
0 0.337514 0.512489
0 0.349569 0.530022
0 0.361639 0.547555
0 0.373693 0.565072
0 0.385748 0.582605
0 0.397818 0.600122
0.09514 0.0238346 0.078645
0.0786908 0.0358892 0.0961624
0.0622263 0.0479438 0.11368
0.0457618 0.0600137 0.131212
0.0293126 0.0720684 0.14873
0.0128481 0.084123 0.166262
0 0.0961776 0.18378
0 0.108248 0.201312
0 0.120302 0.218845
0 0.132357 0.236362
0 0.144427 0.253895
0 0.156481 0.271412
0 0.168536 0.288945
0 0.180606 0.306462
0 0.19266 0.323995
0 0.204715 0.341512
0 0.216785 0.359045
0 0.22884 0.376562
0 0.240894 0.394095
0 0.252964 0.411627
0 0.265019 0.429145
0 0.277073 0.446677
0 0.289143 0.464195
0 0.301198 0.481727
0 0.313252 0.499245
0 0.325322 0.516777
0 0.337377 0.534295
0 0.349432 0.551827
0 0.361486 0.569345
0 0.373556 0.586877
0 0.385611 0.60441
0 0.397665 0.621927
0 0.409735 0.63946
0.142718 0.0357519 0.117968
0.126268 0.0478065 0.135485
0.109804 0.0598611 0.153017
0.0933547 0.071931 0.170535
0.0768902 0.0839857 0.188067
0.0604257 0.0960403 0.205585
0.0439765 0.10811 0.223117
0.027512 0.120165 0.240635
0.0110628 0.132219 0.258167
0 0.144289 0.2757
0 0.156344 0.293217
0 0.168399 0.31075
0 0.180468 0.328267
0 0.192523 0.3458
0 0.204578 0.363317
0 0.216648 0.38085
0 0.228702 0.398367
0 0.240757 0.4159
0 0.252811 0.433433
0 0.264881 0.45095
0 0.276936 0.468482
0 0.288991 0.486
0 0.30106 0.503532
0 0.313115 0.52105
0 0.32517 0.538582
0 0.33724 0.5561
0 0.349294 0.573632
0 0.361349 0.59115
0 0.373419 0.608682
0 0.385473 0.626215
0 0.397528 0.643732
0 0.409598 0.661265
0 0.421653 0.678782
0.190295 0.0476692 0.157305
0.173846 0.0597238 0.174823
0.157382 0.0717937 0.19234
0.140932 0.0838483 0.209873
0.124468 0.0959029 0.22739
0.108003 0.107973 0.244923
0.0915541 0.120027 0.26244
0.0750896 0.132082 0.279973
0.0586404 0.144137 0.297505
0.0421759 0.156207 0.315022
0.0257267 0.168261 0.332555
0.00926223 0.180316 0.350072
0 0.192386 0.367605
0 0.20444 0.385122
0 0.216495 0.402655
0 0.228565 0.420172
0 0.24062 0.437705
0 0.252674 0.455222
0 0.264744 0.472755
0 0.276799 0.490288
0 0.288853 0.507805
0 0.300923 0.525338
0 0.312978 0.542855
0 0.325032 0.560388
0 0.337102 0.577905
0 0.349157 0.595438
0 0.361212 0.612955
0 0.373266 0.630488
0 0.385336 0.648005
0 0.397391 0.665537
0 0.409445 0.68307
0 0.421515 0.700587
0 0.43357 0.71812
0.237873 0.0595865 0.196628
0.221424 0.0716411 0.214145
0.204959 0.083711 0.231678
0.18851 0.0957656 0.249195
0.172045 0.10782 0.266728
0.155596 0.11989 0.284245
0.139132 0.131945 0.301778
0.122667 0.143999 0.319295
0.106218 0.156069 0.336828
0.0897536 0.168124 0.35436
0.0733043 0.180179 0.371878
0.0568399 0.192248 0.38941
0.0403754 0.204303 0.406928
0.0239261 0.216358 0.42446
0.00746166 0.228428 0.441978
0 0.240482 0.45951
0 0.252537 0.477028
0 0.264591 0.49456
0 0.276661 0.512078
0 0.288716 0.52961
0 0.300771 0.547143
0 0.31284 0.56466
0 0.324895 0.582193
0 0.33695 0.59971
0 0.34902 0.617243
0 0.361074 0.63476
0 0.373129 0.652293
0 0.385199 0.66981
0 0.397253 0.687343
0 0.409308 0.704875
0 0.421378 0.722393
0 0.433433 0.739925
0 0.445487 0.757443
0.285451 0.071519 0.235966
0.269001 0.0835737 0.253483
0.252537 0.0956283 0.271
0.236088 0.107683 0.288533
0.219623 0.119753 0.30605
0.203174 0.131807 0.323583
0.186709 0.143862 0.3411
0.17026 0.155917 0.358633
0.153796 0.167987 0.37615
0.137331 0.180041 0.393683
0.120882 0.192096 0.411215
0.104417 0.204166 0.428733
0.0879683 0.21622 0.446265
0.0715038 0.228275 0.463783
0.0550393 0.240345 0.481315
0.0385901 0.252399 0.498833
0.0221256 0.264454 0.516365
0.00567636 0.276524 0.533883
0 0.288579 0.551415
0 0.300633 0.568948
0 0.312703 0.586465
0 0.324758 0.603998
0 0.336812 0.621515
0 0.348882 0.639048
0 0.360937 0.656565
0 0.372992 0.674098
0 0.385061 0.691615
0 0.397116 0.709148
0 0.409171 0.726665
0 0.421225 0.744198
0 0.433295 0.76173
0 0.44535 0.779248
0 0.457404 0.79678
0.333028 0.0834363 0.275288
0.316579 0.095491 0.292805
0.30013 0.107546 0.310338
0.283665 0.1196 0.327855
0.267201 0.13167 0.345388
0.250751 0.143725 0.362905
0.234287 0.155779 0.380438
0.217838 0.167849 0.397955
0.201373 0.179904 0.415488
0.184909 0.191959 0.433021
0.16846 0.204028 0.450538
0.151995 0.216083 0.468071
0.135546 0.228138 0.485588
0.119081 0.240208 0.50312
0.102617 0.252262 0.520638
0.0861677 0.264317 0.53817
0.0697032 0.276387 0.555688
0.053254 0.288441 0.57322
0.0367895 0.300496 0.590738
0.0203403 0.312551 0.60827
0.00387579 0.32462 0.625803
0 0.336675 0.64332
0 0.34873 0.660853
0 0.3608 0.67837
0 0.372854 0.695903
0 0.384909 0.71342
0 0.396979 0.730953
0 0.409033 0.74847
0 0.421088 0.766003
0 0.433158 0.78352
0 0.445212 0.801053
0 0.457267 0.818586
0 0.469337 0.836103
0.380606 0.0953536 0.314626
0.364157 0.107408 0.332143
0.347707 0.119463 0.34966
0.331243 0.131533 0.367193
0.314794 0.143587 0.38471
0.298329 0.155642 0.402243
0.281865 0.167712 0.41976
0.265415 0.179767 0.437293
0.248951 0.191821 0.45481
0.232502 0.203876 0.472343
0.216037 0.215946 0.489876
0.199573 0.228 0.507393
0.183124 0.240055 0.524926
0.166659 0.252125 0.542443
0.15021 0.264179 0.559976
0.133745 0.276234 0.577493
0.117281 0.288304 0.595026
0.100832 0.300359 0.612543
0.0843671 0.312413 0.630076
0.0679179 0.324483 0.647608
0.0514534 0.336538 0.665125
0.0349889 0.348592 0.682658
0.0185397 0.360662 0.700175
0.00207523 0.372717 0.717708
0 0.384771 0.735225
0 0.396841 0.752758
0 0.408896 0.770275
0 0.420951 0.787808
0 0.433005 0.805325
0 0.445075 0.822858
0 0.45713 0.840391
0 0.469184 0.857908
0 0.481254 0.875441
0.428183 0.107271 0.353948
0.411734 0.119326 0.371466
0.395285 0.13138 0.388998
0.37882 0.14345 0.406516
0.362371 0.155505 0.424048
0.345907 0.167559 0.441566
0.329442 0.179629 0.459098
0.312993 0.191684 0.476616
0.296529 0.203738 0.494148
0.280079 0.215808 0.511681
0.263615 0.227863 0.529198
0.24715 0.239918 0.546731
0.230701 0.251987 0.564248
0.214237 0.264042 0.581781
0.197787 0.276097 0.599298
0.181323 0.288167 0.616831
0.164874 0.300221 0.634348
0.148409 0.312276 0.651881
0.131945 0.324331 0.669398
0.115496 0.3364 0.686931
0.0990311 0.348455 0.704463
0.0825818 0.36051 0.721981
0.0661173 0.37258 0.739513
0.0496529 0.384634 0.757031
0.0332036 0.396689 0.774563
0.0167391 0.408759 0.792081
0.000289921 0.420813 0.809613
0 0.432868 0.827131
0 0.444938 0.844663
0 0.456992 0.862181
0 0.469047 0.879713
0 0.481117 0.897246
0 0.493172 0.914763
0.475776 0.119188 0.393286
0.459327 0.131243 0.410803
0.442863 0.143313 0.428321
0.426398 0.155367 0.445853
0.409949 0.167422 0.463371
0.393484 0.179492 0.480903
0.377035 0.191546 0.498421
0.360571 0.203601 0.515953
0.344106 0.215656 0.533471
0.327657 0.227726 0.551003
0.311192 0.23978 0.568536
0.294743 0.251835 0.586053
0.278279 0.263905 0.603586
0.261814 0.275959 0.621103
0.245365 0.288014 0.638636
0.228901 0.300084 0.656153
0.212451 0.312139 0.673686
0.195987 0.324193 0.691203
0.179522 0.336263 0.708736
0.163073 0.348318 0.726253
0.146609 0.360372 0.743786
0.130159 0.372442 0.761318
0.113695 0.384497 0.778836
0.0972305 0.396551 0.796368
0.0807813 0.408621 0.813886
0.0643168 0.420676 0.831418
0.0478676 0.432731 0.848936
0.0314031 0.4448 0.866468
0.0149538 0.456855 0.883986
0 0.46891 0.901518
0 0.480964 0.919051
0 0.493034 0.936568
0 0.505089 0.954101
0.523354 0.131121 0.432609
0.506905 0.14316 0.450126
0.49044 0.15523 0.467658
0.473976 0.167285 0.485176
0.457527 0.179339 0.502708
0.441062 0.191409 0.520226
0.424613 0.203464 0.537758
0.408148 0.215518 0.555276
0.391684 0.227588 0.572808
0.375235 0.239643 0.590326
0.35877 0.251698 0.607858
0.342321 0.263767 0.625391
0.325856 0.275822 0.642908
0.309407 0.287877 0.660441
0.292943 0.299947 0.677958
0.276478 0.312001 0.695491
0.260029 0.324056 0.713008
0.243565 0.336126 0.730541
0.227115 0.34818 0.748058
0.210651 0.360235 0.765591
0.194186 0.37229 0.783123
0.177737 0.38436 0.800641
0.161273 0.396414 0.818173
0.144823 0.408469 0.835691
0.128359 0.420539 0.853223
0.111894 0.432593 0.870741
0.0954452 0.444648 0.888273
0.0789807 0.456718 0.905791
0.0625315 0.468772 0.923323
0.046067 0.480827 0.940841
0.0296025 0.492897 0.958373
0.0131533 0.504952 0.975906
0 0.517006 0.993423
0.570932 0.143038 0.471946
0.554482 0.155093 0.489464
0.538018 0.167147 0.506981
0.521569 0.179202 0.524514
0.505104 0.191272 0.542031
0.48864 0.203326 0.559564
0.47219 0.215381 0.577081
0.455726 0.227451 0.594614
0.439277 0.239506 0.612131
0.422812 0.25156 0.629664
0.406348 0.263615 0.647196
0.389899 0.275685 0.664714
0.373434 0.287739 0.682246
0.356985 0.299794 0.699763
0.34052 0.311864 0.717296
0.324056 0.323919 0.734813
0.307607 0.335973 0.752346
0.291142 0.348043 0.769863
0.274693 0.360098 0.787396
0.258228 0.372152 0.804913
0.241764 0.384222 0.822446
0.225315 0.396277 0.839979
0.20885 0.408331 0.857496
0.192401 0.420401 0.875029
0.175937 0.432456 0.892546
0.159487 0.444511 0.910079
0.143023 0.45658 0.927596
0.126558 0.468635 0.945129
0.110109 0.48069 0.962646
0.0936446 0.492744 0.980179
0.0771954 0.504814 0.997696
0.0607309 0.516869 1
0.0442664 0.528923 1
0.618509 0.154955 0.511269
0.60206 0.16701 0.528786
0.585595 0.179065 0.546319
0.569146 0.191119 0.563836
0.552682 0.203189 0.581369
0.536217 0.215244 0.598886
0.519768 0.227298 0.616419
0.503304 0.239368 0.633936
0.486854 0.251423 0.651469
0.47039 0.263478 0.668986
0.453941 0.275547 0.686519
0.437476 0.287602 0.704051
0.421012 0.299657 0.721569
0.404562 0.311727 0.739101
0.388098 0.323781 0.756619
0.371649 0.335836 0.774151
0.355184 0.347906 0.791669
0.33872 0.35996 0.809201
0.322271 0.372015 0.826719
0.305806 0.38407 0.844251
0.289357 0.396139 0.861769
0.272892 0.408194 0.879301
0.256428 0.420249 0.896834
0.239979 0.432319 0.914351
0.223514 0.444373 0.931884
0.207065 0.456428 0.949401
0.1906 0.468498 0.966934
0.174136 0.480552 0.984451
0.157687 0.492607 1
0.141222 0.504677 1
0.124773 0.516732 1
0.108309 0.528786 1
0.0918441 0.540856 1
0.666087 0.166873 0.550607
0.649638 0.178927 0.568124
0.633173 0.190982 0.585641
0.616724 0.203052 0.603174
0.600259 0.215106 0.620691
0.58381 0.227161 0.638224
0.567346 0.239231 0.655741
0.550881 0.251286 0.673274
0.534432 0.26334 0.690791
0.517968 0.275395 0.708324
0.501518 0.287465 0.725856
0.485054 0.299519 0.743374
0.468589 0.311574 0.760906
0.45214 0.323644 0.778424
0.435676 0.335698 0.795956
0.419226 0.347753 0.813474
0.402762 0.359823 0.831006
0.386297 0.371878 0.848524
0.369848 0.383932 0.866056
0.353384 0.396002 0.883574
0.336934 0.408057 0.901106
0.32047 0.420111 0.918639
0.304021 0.432181 0.936156
0.287556 0.444236 0.953689
0.271092 0.456291 0.971206
0.254643 0.46836 0.988739
0.238178 0.480415 1
0.221729 0.49247 1
0.205264 0.50454 1
0.1888 0.516594 1
0.172351 0.528649 1
0.155886 0.540703 1
0.139437 0.552773 1
0.713664 0.17879 0.589929
0.697215 0.190845 0.607446
0.680751 0.202899 0.624979
0.664302 0.214969 0.642496
0.647837 0.227024 0.660029
0.631388 0.239078 0.677546
0.614923 0.251148 0.695079
0.598474 0.263203 0.712596
0.58201 0.275257 0.730129
0.565545 0.287327 0.747646
0.549096 0.299382 0.765179
0.532631 0.311437 0.782712
0.516182 0.323507 0.800229
0.499718 0.335561 0.817761
0.483253 0.347616 0.835279
0.466804 0.359686 0.852811
0.45034 0.37174 0.870329
0.43389 0.383795 0.887861
0.417426 0.395865 0.905379
0.400961 0.407919 0.922911
0.384512 0.419974 0.940429
0.368048 0.432029 0.957961
0.351598 0.444099 0.975494
0.335134 0.456153 0.993011
0.318669 0.468208 1
0.30222 0.480278 1
0.285756 0.492332 1
0.269306 0.504387 1
0.252842 0.516457 1
0.236378 0.528511 1
0.219928 0.540566 1
0.203464 0.552636 1
0.187015 0.564691 1
0.761242 0.190707 0.629267
0.744793 0.202762 0.646784
0.728344 0.214832 0.664302
0.711879 0.226886 0.681834
0.695415 0.238941 0.699351
0.678965 0.251011 0.716884
0.662501 0.263066 0.734401
0.646052 0.27512 0.751934
0.629587 0.28719 0.769451
0.613123 0.299245 0.786984
0.596674 0.311299 0.804501
0.580209 0.323354 0.822034
0.56376 0.335424 0.839567
0.547295 0.347478 0.857084
0.530831 0.359533 0.874617
0.514382 0.371603 0.892134
0.497917 0.383658 0.909667
0.481468 0.395712 0.927184
0.465003 0.407782 0.944717
0.448554 0.419837 0.962234
0.43209 0.431891 0.979767
0.415625 0.443961 0.997299
0.399176 0.456016 1
0.382712 0.468071 1
0.366262 0.48014 1
0.349798 0.492195 1
0.333333 0.50425 1
0.316884 0.51632 1
0.30042 0.528374 1
0.28397 0.540429 1
0.267506 0.552499 1
0.251041 0.564553 1
0.234592 0.576608 1
0.80882 0.20264 0.668589
0.79237 0.214679 0.686107
0.775921 0.226749 0.703639
0.759457 0.238804 0.721157
0.743008 0.250858 0.738689
0.726543 0.262928 0.756207
0.710079 0.274983 0.773739
0.693629 0.287037 0.791257
0.677165 0.299107 0.808789
0.660716 0.311162 0.826307
0.644251 0.323217 0.843839
0.627787 0.335286 0.861372
0.611337 0.347341 0.878889
0.594873 0.359396 0.896422
0.578424 0.371466 0.913939
0.561959 0.38352 0.931472
0.545495 0.395575 0.948989
0.529046 0.407645 0.966522
0.512581 0.419699 0.984039
0.496132 0.431754 1
0.479667 0.443824 1
0.463203 0.455879 1
0.446754 0.467933 1
0.430289 0.479988 1
0.41384 0.492058 1
0.397375 0.504112 1
0.380911 0.516167 1
0.364462 0.528237 1
0.347997 0.540291 1
0.331548 0.552346 1
0.315084 0.564416 1
0.298634 0.576471 1
0.28217 0.588525 1
0.856397 0.214557 0.707927
0.839948 0.226612 0.725444
0.823499 0.238666 0.742962
0.807034 0.250721 0.760494
0.790585 0.262791 0.778012
0.774121 0.274846 0.795544
0.757656 0.2869 0.813062
0.741207 0.29897 0.830594
0.724743 0.311025 0.848112
0.708293 0.323079 0.865644
0.691829 0.335149 0.883162
0.675364 0.347204 0.900694
0.658915 0.359258 0.918227
0.642451 0.371313 0.935744
0.626001 0.383383 0.953277
0.609537 0.395438 0.970794
0.593088 0.407492 0.988327
0.576623 0.419562 1
0.560159 0.431617 1
0.543709 0.443671 1
0.527245 0.455741 1
0.510796 0.467796 1
0.494331 0.47985 1
0.477867 0.49192 1
0.461418 0.503975 1
0.444953 0.51603 1
0.428504 0.528099 1
0.412039 0.540154 1
0.395575 0.552209 1
0.379126 0.564279 1
0.362661 0.576333 1
0.346212 0.588388 1
0.329747 0.600443 1
0.90399 0.226474 0.74725
0.887541 0.238529 0.764767
0.871077 0.250584 0.7823
0.854612 0.262638 0.799817
0.838163 0.274708 0.817349
0.821698 0.286763 0.834867
0.805249 0.298817 0.852399
0.788785 0.310887 0.869917
0.77232 0.322942 0.887449
0.755871 0.334997 0.904967
0.739406 0.347066 0.922499
0.722957 0.359121 0.940032
0.706493 0.371176 0.957549
0.690028 0.383246 0.975082
0.673579 0.3953 0.992599
0.657115 0.407355 1
0.640665 0.419425 1
0.624201 0.431479 1
0.607736 0.443534 1
0.591287 0.455604 1
0.574823 0.467658 1
0.558373 0.479713 1
0.541909 0.491768 1
0.525444 0.503838 1
0.508995 0.515892 1
0.492531 0.527947 1
0.476081 0.540017 1
0.459617 0.552071 1
0.443168 0.564126 1
0.426703 0.576196 1
0.410239 0.588251 1
0.39379 0.600305 1
0.377325 0.612375 1
0.951568 0.238392 0.786587
0.935119 0.250446 0.804105
0.918654 0.262501 0.821622
0.90219 0.274571 0.839155
0.88574 0.286625 0.856672
0.869276 0.29868 0.874205
0.852827 0.31075 0.891722
0.836362 0.322805 0.909255
0.819898 0.334859 0.926772
0.803449 0.346929 0.944305
0.786984 0.358984 0.961822
0.770535 0.371038 0.979355
0.75407 0.383093 0.996887
0.737621 0.395163 1
0.721157 0.407218 1
0.704692 0.419272 1
0.688243 0.431342 1
0.671778 0.443397 1
0.655329 0.455451 1
0.638865 0.467521 1
0.6224 0.479576 1
0.605951 0.49163 1
0.589487 0.5037 1
0.573037 0.515755 1
0.556573 0.52781 1
0.540108 0.539879 1
0.523659 0.551934 1
0.507195 0.563989 1
0.490745 0.576059 1
0.474281 0.588113 1
0.457816 0.600168 1
0.441367 0.612238 1
0.424903 0.624292 1
0.999146 0.250309 0.82591
0.982696 0.262364 0.843427
0.966232 0.274418 0.86096
0.949783 0.286488 0.878477
0.933318 0.298543 0.89601
0.916854 0.310597 0.913527
0.900404 0.322667 0.93106
0.88394 0.334722 0.948577
0.867491 0.346777 0.96611
0.851026 0.358846 0.983627
0.834562 0.370901 1
0.818112 0.382956 1
0.801648 0.395026 1
0.785199 0.40708 1
0.768734 0.419135 1
0.75227 0.431205 1
0.735821 0.443259 1
0.719356 0.455314 1
0.702907 0.467384 1
0.686442 0.479438 1
0.669978 0.491493 1
0.653529 0.503563 1
0.637064 0.515618 1
0.620615 0.527672 1
0.60415 0.539727 1
0.587701 0.551797 1
0.571237 0.563851 1
0.554772 0.575906 1
0.538323 0.587976 1
0.521859 0.600031 1
0.505409 0.612085 1
0.488945 0.624155 1
0.47248 0.63621 1
1 0.262226 0.865248
1 0.274281 0.88275
1 0.286351 0.900282
0.99736 0.298405 0.917815
0.980896 0.31046 0.935332
0.964431 0.32253 0.952865
0.947982 0.334585 0.970382
0.931517 0.346639 0.987915
0.915068 0.358709 1
0.898604 0.370764 1
0.882155 0.382818 1
0.86569 0.394888 1
0.849226 0.406943 1
0.832776 0.418997 1
0.816312 0.431052 1
0.799863 0.443122 1
0.783398 0.455177 1
0.766934 0.467231 1
0.750484 0.479301 1
0.73402 0.491356 1
0.717571 0.50341 1
0.701106 0.51548 1
0.684642 0.527535 1
0.668193 0.53959 1
0.651728 0.551659 1
0.635279 0.563714 1
0.618814 0.575769 1
0.60235 0.587839 1
0.585901 0.599893 1
0.569436 0.611948 1
0.552987 0.624018 1
0.536522 0.636072 1
0.520058 0.648127 1
1 0.274159 0.90457
1 0.286213 0.922087
1 0.298268 0.93962
1 0.310323 0.957137
1 0.322377 0.97467
1 0.334447 0.992187
0.99556 0.346502 1
0.979095 0.358557 1
0.962646 0.370626 1
0.946181 0.382681 1
0.929732 0.394736 1
0.913268 0.406806 1
0.896803 0.41886 1
0.880354 0.430915 1
0.86389 0.442985 1
0.84744 0.455039 1
0.830976 0.467094 1
0.814511 0.479164 1
0.798062 0.491218 1
0.781598 0.503273 1
0.765148 0.515343 1
0.748684 0.527398 1
0.732235 0.539452 1
0.71577 0.551507 1
0.699306 0.563577 1
0.682857 0.575631 1
0.666392 0.587686 1
0.649943 0.599756 1
0.633478 0.611811 1
0.617014 0.623865 1
0.600565 0.635935 1
0.5841 0.64799 1
0.567651 0.660044 1
1 0.286076 0.943893
1 0.298131 0.96141
1 0.310185 0.978943
1 0.32224 0.996475
1 0.33431 1
1 0.346365 1
1 0.358419 1
1 0.370489 1
1 0.382544 1
0.993759 0.394598 1
0.97731 0.406668 1
0.960845 0.418723 1
0.944396 0.430777 1
0.927932 0.442832 1
0.911467 0.454902 1
0.895018 0.466957 1
0.878553 0.479011 1
0.862104 0.491081 1
0.84564 0.503136 1
0.829175 0.51519 1
0.812726 0.52726 1
0.796262 0.539315 1
0.779812 0.551369 1
0.763348 0.563439 1
0.746883 0.575494 1
0.730434 0.587549 1
0.71397 0.599619 1
0.69752 0.611673 1
0.681056 0.623728 1
0.664591 0.635798 1
0.648142 0.647852 1
0.631678 0.659907 1
0.615228 0.671977 1
1 0.297993 0.98323
1 0.310048 1
1 0.322103 1
1 0.334157 1
1 0.346227 1
1 0.358282 1
1 0.370336 1
1 0.382406 1
1 0.394461 1
1 0.406516 1
1 0.418585 1
1 0.43064 1
0.991974 0.442695 1
0.975509 0.454765 1
0.959045 0.466819 1
0.942596 0.478874 1
0.926131 0.490944 1
0.909682 0.502998 1
0.893217 0.515053 1
0.876768 0.527123 1
0.860304 0.539178 1
0.843839 0.551232 1
0.82739 0.563302 1
0.810925 0.575357 1
0.794476 0.587411 1
0.778012 0.599466 1
0.761547 0.611536 1
0.745098 0.62359 1
0.728634 0.635645 1
0.712184 0.647715 1
0.69572 0.65977 1
0.679255 0.671824 1
0.662806 0.683894 1
1 0.309911 1
1 0.321965 1
1 0.33402 1
1 0.34609 1
1 0.358144 1
1 0.370199 1
1 0.382269 1
1 0.394324 1
1 0.406378 1
1 0.418448 1
1 0.430503 1
1 0.442557 1
1 0.454627 1
1 0.466682 1
1 0.478737 1
0.990173 0.490791 1
0.973709 0.502861 1
0.957259 0.514916 1
0.940795 0.52697 1
0.924346 0.53904 1
0.907881 0.551095 1
0.891417 0.563149 1
0.874968 0.575219 1
0.858503 0.587274 1
0.842054 0.599329 1
0.825589 0.611399 1
0.809125 0.623453 1
0.792676 0.635508 1
0.776211 0.647578 1
0.759762 0.659632 1
0.743297 0.671687 1
0.726848 0.683757 1
0.710384 0.695811 1
1 0.321828 1
1 0.333883 1
1 0.345953 1
1 0.358007 1
1 0.370062 1
1 0.382116 1
1 0.394186 1
1 0.406241 1
1 0.418296 1
