public/LUTS/Color Shift/ColorShift_04.cube
TITLE "Generated by Resolve"
LUT_3D_SIZE 33
0 0 0
0 0.0146487 0.00224308
0 0.0293126 0.00447089
0 0.0439612 0.00671397
0 0.0586252 0.00894179
0 0.0732891 0.0111849
0 0.0879377 0.0134279
0 0.102602 0.0156558
0 0.117266 0.0178988
0 0.131914 0.0201419
0 0.146578 0.0223697
0 0.161242 0.0246128
0 0.175891 0.0268406
0 0.190555 0.0290837
0 0.205219 0.0313268
0 0.219867 0.0335546
0 0.234531 0.0357977
0 0.249195 0.0380407
0 0.263844 0.0402686
0 0.278508 0.0425116
0 0.293156 0.0447547
0 0.30782 0.0469825
0 0.322484 0.0492256
0 0.337133 0.0514534
0 0.351797 0.0536965
0 0.366461 0.0559396
0 0.381109 0.0581674
0 0.395773 0.0604105
0 0.410437 0.0626535
0 0.425086 0.0648814
0 0.43975 0.0671244
0 0.454414 0.0693523
0 0.469062 0.0715953
0.0320745 0.0150759 0.0508125
0.0135195 0.0297398 0.0530404
0 0.0443885 0.0552834
0 0.0590524 0.0575265
0 0.0737011 0.0597543
0 0.088365 0.0619974
0 0.103029 0.0642252
0 0.117678 0.0664683
0 0.132342 0.0687114
0 0.147005 0.0709392
0 0.161654 0.0731823
0 0.176318 0.0754253
0 0.190982 0.0776532
0 0.205631 0.0798962
0 0.220295 0.0821393
0 0.234958 0.0843671
0 0.249607 0.0866102
0 0.264271 0.088838
0 0.27892 0.0910811
0 0.293584 0.0933242
0 0.308248 0.095552
0 0.322896 0.0977951
0 0.33756 0.100038
0 0.352224 0.102266
0 0.366873 0.104509
0 0.381537 0.106737
0 0.396201 0.10898
0 0.410849 0.111223
0 0.425513 0.113451
0 0.440177 0.115694
0 0.454826 0.117937
0 0.46949 0.120165
0 0.484154 0.122408
0.0641642 0.0301671 0.10164
0.045594 0.0448157 0.103883
0.0270237 0.0594797 0.106111
0.0084535 0.0741436 0.108354
0 0.0887922 0.110597
0 0.103456 0.112825
0 0.11812 0.115068
0 0.132769 0.117296
0 0.147433 0.119539
0 0.162081 0.121782
0 0.176745 0.12401
0 0.191409 0.126253
0 0.206058 0.128496
0 0.220722 0.130724
0 0.235386 0.132967
0 0.250034 0.13521
0 0.264698 0.137438
0 0.279362 0.139681
0 0.294011 0.141909
0 0.308675 0.144152
0 0.323339 0.146395
0 0.337987 0.148623
0 0.352651 0.150866
0 0.367315 0.153109
0 0.381964 0.155337
0 0.396628 0.15758
0 0.411276 0.159808
0 0.42594 0.162051
0 0.440604 0.164294
0 0.455253 0.166522
0 0.469917 0.168765
0 0.484581 0.171008
0 0.499229 0.173236
0.0962539 0.0452583 0.152468
0.0776837 0.0599069 0.154711
0.0591135 0.0745708 0.156954
0.0405432 0.0892195 0.159182
0.021973 0.103883 0.161425
0.00340276 0.118547 0.163668
0 0.133196 0.165896
0 0.14786 0.168139
0 0.162524 0.170367
0 0.177172 0.17261
0 0.191836 0.174853
0 0.2065 0.177081
0 0.221149 0.179324
0 0.235813 0.181567
0 0.250477 0.183795
0 0.265126 0.186038
0 0.279789 0.188281
0 0.294438 0.190509
0 0.309102 0.192752
0 0.323766 0.19498
0 0.338415 0.197223
0 0.353079 0.199466
0 0.367742 0.201694
0 0.382391 0.203937
0 0.397055 0.20618
0 0.411719 0.208408
0 0.426368 0.210651
0 0.441032 0.212879
0 0.455695 0.215122
0 0.470344 0.217365
0 0.485008 0.219593
0 0.499672 0.221836
0 0.514321 0.224079
0.128344 0.0603494 0.203311
0.109773 0.0749981 0.205539
0.0912032 0.089662 0.207782
0.0726329 0.104311 0.210025
0.0540627 0.118975 0.212253
0.0354925 0.133639 0.214496
0.0169223 0.148287 0.216739
0 0.162951 0.218967
0 0.1776 0.22121
0 0.192264 0.223438
0 0.206928 0.225681
0 0.221576 0.227924
0 0.23624 0.230152
0 0.250904 0.232395
0 0.265553 0.234638
0 0.280217 0.236866
0 0.294881 0.239109
0 0.309529 0.241352
0 0.324193 0.24358
0 0.338857 0.245823
0 0.353506 0.248051
0 0.36817 0.250294
0 0.382834 0.252537
0 0.397482 0.254765
0 0.412146 0.257008
0 0.426795 0.259251
0 0.441459 0.261479
0 0.456123 0.263722
0 0.470771 0.265949
0 0.485435 0.268193
0 0.500099 0.270436
0 0.514748 0.272663
0 0.529412 0.274907
0.160433 0.0754406 0.254139
0.141863 0.0900893 0.256382
0.123293 0.104738 0.25861
0.104723 0.119402 0.260853
0.0861524 0.134066 0.263096
0.0675822 0.148714 0.265324
0.049012 0.163378 0.267567
0.0304417 0.178042 0.26981
0.0118715 0.192691 0.272038
0 0.207355 0.274281
0 0.222019 0.276509
0 0.236667 0.278752
0 0.251331 0.280995
0 0.26598 0.283223
0 0.280644 0.285466
0 0.295308 0.287709
0 0.309957 0.289937
0 0.32462 0.29218
0 0.339284 0.294423
0 0.353933 0.296651
0 0.368597 0.298894
0 0.383261 0.301122
0 0.39791 0.303365
0 0.412573 0.305608
0 0.427237 0.307836
0 0.441886 0.310079
0 0.45655 0.312322
0 0.471214 0.314549
0 0.485863 0.316793
0 0.500526 0.31902
0 0.515175 0.321263
0 0.529839 0.323507
0 0.544503 0.325734
0.192523 0.0905165 0.304982
0.173953 0.10518 0.30721
0.155383 0.119829 0.309453
0.136812 0.134493 0.311681
0.118242 0.149142 0.313924
0.0996719 0.163806 0.316167
0.0811017 0.17847 0.318395
0.0625315 0.193118 0.320638
0.0439612 0.207782 0.322881
0.025391 0.222446 0.325109
0.00682078 0.237095 0.327352
0 0.251759 0.32958
0 0.266423 0.331823
0 0.281071 0.334066
0 0.295735 0.336294
0 0.310399 0.338537
0 0.325048 0.34078
0 0.339712 0.343008
0 0.354376 0.345251
0 0.369024 0.347494
0 0.383688 0.349722
0 0.398337 0.351965
0 0.413001 0.354192
0 0.427665 0.356435
0 0.442313 0.358679
0 0.456977 0.360906
0 0.471641 0.363149
0 0.48629 0.365393
0 0.500954 0.36762
0 0.515618 0.369863
0 0.530266 0.372091
0 0.54493 0.374334
0 0.559594 0.376577
0.224598 0.105608 0.35581
0.206043 0.120256 0.358053
0.187472 0.13492 0.360281
0.168902 0.149584 0.362524
0.150332 0.164233 0.364752
0.131762 0.178897 0.366995
0.113191 0.193561 0.369238
0.0946212 0.208209 0.371466
0.076051 0.222873 0.373709
0.0574807 0.237537 0.375952
0.0389105 0.252186 0.37818
0.0203403 0.26685 0.380423
0.00177005 0.281498 0.38265
0 0.296162 0.384894
0 0.310826 0.387137
0 0.325475 0.389364
0 0.340139 0.391608
0 0.354803 0.393851
0 0.369451 0.396078
0 0.384115 0.398322
0 0.398779 0.400565
0 0.413428 0.402792
0 0.428092 0.405035
0 0.442756 0.407263
0 0.457404 0.409506
0 0.472068 0.411749
0 0.486732 0.413977
0 0.501381 0.41622
0 0.516045 0.418463
0 0.530694 0.420691
0 0.545357 0.422934
0 0.560021 0.425162
0 0.57467 0.427405
0.256687 0.120699 0.406638
0.238132 0.135348 0.408881
0.219562 0.150011 0.411124
0.200992 0.16466 0.413352
0.182422 0.179324 0.415595
0.163851 0.193988 0.417823
0.145281 0.208637 0.420066
0.126711 0.223301 0.422309
0.108141 0.237964 0.424536
0.0895705 0.252613 0.42678
0.0710002 0.267277 0.429023
0.05243 0.281941 0.43125
0.0338598 0.29659 0.433494
0.0152895 0.311254 0.435721
0 0.325917 0.437964
0 0.340566 0.440208
0 0.35523 0.442435
0 0.369894 0.444678
0 0.384543 0.446921
0 0.399207 0.449149
0 0.413855 0.451392
0 0.428519 0.453635
0 0.443183 0.455863
0 0.457832 0.458106
0 0.472496 0.460334
0 0.48716 0.462577
0 0.501808 0.46482
0 0.516472 0.467048
0 0.531136 0.469291
0 0.545785 0.471534
0 0.560449 0.473762
0 0.575113 0.476005
0 0.589761 0.478233
0.288777 0.13579 0.457481
0.270222 0.150439 0.459709
0.251652 0.165103 0.461952
0.233082 0.179751 0.464195
0.214511 0.194415 0.466423
0.195941 0.209079 0.468666
0.177371 0.223728 0.470893
0.158801 0.238392 0.473136
0.14023 0.25304 0.47538
0.12166 0.267704 0.477607
0.10309 0.282368 0.47985
0.0845197 0.297017 0.482094
0.0659495 0.311681 0.484321
0.0473793 0.326345 0.486564
0.028809 0.340993 0.488792
0.0102388 0.355657 0.491035
0 0.370321 0.493278
0 0.38497 0.495506
0 0.399634 0.497749
0 0.414298 0.499992
0 0.428946 0.50222
0 0.44361 0.504463
0 0.458274 0.506706
0 0.472923 0.508934
0 0.487587 0.511177
0 0.502235 0.513405
0 0.516899 0.515648
0 0.531563 0.517891
0 0.546212 0.520119
0 0.560876 0.522362
0 0.57554 0.524605
0 0.590188 0.526833
0 0.604852 0.529076
0.320867 0.150881 0.508309
0.302312 0.16553 0.510552
0.283742 0.180179 0.512779
0.265171 0.194842 0.515023
0.246601 0.209506 0.517266
0.228031 0.224155 0.519493
0.209461 0.238819 0.521737
0.19089 0.253483 0.523964
0.17232 0.268132 0.526207
0.15375 0.282795 0.52845
0.13518 0.297459 0.530678
0.116609 0.312108 0.532921
0.0980392 0.326772 0.535164
0.079469 0.341436 0.537392
0.0608988 0.356085 0.539635
0.0423285 0.370748 0.541878
0.0237583 0.385397 0.544106
0.00518807 0.400061 0.546349
0 0.414725 0.548577
0 0.429374 0.55082
0 0.444038 0.553063
0 0.458701 0.555291
0 0.47335 0.557534
0 0.488014 0.559777
0 0.502678 0.562005
0 0.517327 0.564248
0 0.531991 0.566476
0 0.546654 0.568719
0 0.561303 0.570962
0 0.575967 0.57319
0 0.590631 0.575433
0 0.60528 0.577676
0 0.619944 0.579904
0.352956 0.165957 0.559136
0.334401 0.180621 0.561379
0.315831 0.19527 0.563622
0.297261 0.209934 0.56585
0.278691 0.224598 0.568093
0.260121 0.239246 0.570336
0.24155 0.25391 0.572564
0.22298 0.268559 0.574807
0.20441 0.283223 0.577035
0.18584 0.297887 0.579278
0.167269 0.312535 0.581521
0.148699 0.327199 0.583749
0.130129 0.341863 0.585992
0.111559 0.356512 0.588235
0.0929885 0.371176 0.590463
0.0744182 0.38584 0.592706
0.055848 0.400488 0.594949
0.0372778 0.415152 0.597177
0.0187076 0.429816 0.59942
0.000137331 0.444465 0.601648
0 0.459129 0.603891
0 0.473793 0.606134
0 0.488441 0.608362
0 0.503105 0.610605
0 0.517754 0.612848
0 0.532418 0.615076
0 0.547082 0.617319
0 0.56173 0.619547
0 0.576394 0.62179
0 0.591058 0.624033
0 0.605707 0.626261
0 0.620371 0.628504
0 0.635035 0.630747
0.385046 0.181048 0.609979
0.366491 0.195697 0.612207
0.347921 0.210361 0.61445
0.329351 0.225025 0.616693
0.31078 0.239673 0.618921
0.29221 0.254337 0.621164
0.27364 0.269001 0.623407
0.25507 0.28365 0.625635
0.2365 0.298314 0.627878
0.217929 0.312978 0.630106
0.199359 0.327626 0.632349
0.180789 0.34229 0.634592
0.162219 0.356954 0.63682
0.143648 0.371603 0.639063
0.125078 0.386267 0.641306
0.106508 0.400916 0.643534
0.0879377 0.415579 0.645777
0.0693675 0.430243 0.64802
0.0507973 0.444892 0.650248
0.0322271 0.459556 0.652491
0.0136568 0.47422 0.654719
0 0.488869 0.656962
0 0.503532 0.659205
0 0.518196 0.661433
0 0.532845 0.663676
0 0.547509 0.665919
0 0.562173 0.668147
0 0.576822 0.67039
0 0.591485 0.672618
0 0.606149 0.674861
0 0.620798 0.677104
0 0.635462 0.679332
0 0.650111 0.681575
0.417136 0.196139 0.660807
0.398581 0.210788 0.66305
0.380011 0.225452 0.665278
0.36144 0.240101 0.667521
0.34287 0.254765 0.669764
0.3243 0.269429 0.671992
0.30573 0.284077 0.674235
0.28716 0.298741 0.676478
0.268589 0.313405 0.678706
0.250019 0.328054 0.680949
0.231449 0.342718 0.683177
0.212879 0.357382 0.68542
0.194308 0.37203 0.687663
0.175738 0.386694 0.689891
0.157168 0.401358 0.692134
0.138598 0.416007 0.694377
0.120027 0.430671 0.696605
0.101457 0.445335 0.698848
0.082887 0.459983 0.701091
0.0643168 0.474647 0.703319
0.0457465 0.489296 0.705562
0.0271763 0.50396 0.70779
0.00860609 0.518624 0.710033
0 0.533272 0.712276
0 0.547936 0.714504
0 0.5626 0.716747
0 0.577249 0.71899
0 0.591913 0.721218
0 0.606577 0.723461
0 0.621225 0.725689
0 0.635889 0.727932
0 0.650553 0.730175
0 0.665202 0.732403
0.449226 0.211231 0.71165
0.430671 0.225879 0.713878
0.4121 0.240543 0.716121
0.39353 0.255192 0.718349
0.37496 0.269856 0.720592
0.35639 0.28452 0.722835
0.337819 0.299168 0.725063
0.319249 0.313832 0.727306
0.300679 0.328496 0.729549
0.282109 0.343145 0.731777
0.263539 0.357809 0.73402
0.244968 0.372457 0.736248
0.226398 0.387121 0.738491
0.207828 0.401785 0.740734
0.189258 0.416434 0.742962
0.170687 0.431098 0.745205
0.152117 0.445762 0.747448
0.133547 0.46041 0.749676
0.114977 0.475074 0.751919
0.0964065 0.489738 0.754162
0.0778363 0.504387 0.75639
0.059266 0.519051 0.758633
0.0406958 0.533715 0.760861
0.0221256 0.548363 0.763104
0.00355535 0.563027 0.765347
0 0.577691 0.767575
0 0.59234 0.769818
0 0.607004 0.772061
0 0.621653 0.774289
0 0.636316 0.776532
0 0.65098 0.778759
0 0.665629 0.781003
0 0.680293 0.783246
0.481315 0.226322 0.762478
0.462745 0.24097 0.764721
0.444175 0.255619 0.766949
0.425605 0.270283 0.769192
0.40705 0.284947 0.77142
0.388479 0.299596 0.773663
0.369909 0.31426 0.775906
0.351339 0.328923 0.778134
0.332769 0.343572 0.780377
0.314199 0.358236 0.78262
0.295628 0.3729 0.784848
0.277058 0.387549 0.787091
0.258488 0.402213 0.789319
0.239918 0.416876 0.791562
0.221347 0.431525 0.793805
0.202777 0.446189 0.796033
0.184207 0.460853 0.798276
0.165637 0.475502 0.800519
0.147066 0.490166 0.802747
0.128496 0.504814 0.80499
0.109926 0.519478 0.807233
0.0913558 0.534142 0.809461
0.0727855 0.548791 0.811704
0.0542153 0.563455 0.813931
0.0356451 0.578119 0.816175
0.0170748 0.592767 0.818418
0 0.607431 0.820645
0 0.622095 0.822889
0 0.636744 0.825132
0 0.651408 0.827359
0 0.666072 0.829602
0 0.68072 0.83183
0 0.695384 0.834073
0.513405 0.241398 0.813306
0.494835 0.256062 0.815549
0.476265 0.27071 0.817792
0.457694 0.285374 0.82002
0.439124 0.300038 0.822263
0.420554 0.314687 0.824491
0.401984 0.329351 0.826734
0.383429 0.344015 0.828977
0.364858 0.358663 0.831205
0.346288 0.373327 0.833448
0.327718 0.387976 0.835691
0.309148 0.40264 0.837919
0.290578 0.417304 0.840162
0.272007 0.431952 0.84239
0.253437 0.446616 0.844633
0.234867 0.46128 0.846876
0.216297 0.475929 0.849104
0.197726 0.490593 0.851347
0.179156 0.505257 0.85359
0.160586 0.519905 0.855817
0.142016 0.534569 0.858061
0.123445 0.549233 0.860304
0.104875 0.563882 0.862531
0.086305 0.578546 0.864775
0.0677348 0.593194 0.867002
0.0491646 0.607858 0.869245
0.0305943 0.622522 0.871489
0.0120241 0.637171 0.873716
0 0.651835 0.875959
0 0.666499 0.878202
0 0.681147 0.88043
0 0.695811 0.882673
0 0.710475 0.884901
0.545495 0.256489 0.864149
0.526925 0.271138 0.866377
0.508354 0.285801 0.86862
0.489784 0.300465 0.870863
0.471214 0.315114 0.873091
0.452644 0.329778 0.875334
0.434073 0.344442 0.877562
0.415503 0.359091 0.879805
0.396933 0.373754 0.882048
0.378363 0.388418 0.884276
0.359792 0.403067 0.886519
0.341238 0.417731 0.888762
0.322667 0.432395 0.89099
0.304097 0.447044 0.893233
0.285527 0.461707 0.89546
0.266957 0.476356 0.897704
0.248386 0.49102 0.899947
0.229816 0.505684 0.902174
0.211246 0.520333 0.904418
0.192676 0.534997 0.906661
0.174105 0.549661 0.908888
0.155535 0.564309 0.911131
0.136965 0.578973 0.913375
0.118395 0.593637 0.915602
0.0998245 0.608286 0.917845
0.0812543 0.62295 0.920073
0.0626841 0.637613 0.922316
0.0441138 0.652262 0.924559
0.0255436 0.666926 0.926787
0.00697337 0.68159 0.92903
0 0.696239 0.931273
0 0.710903 0.933501
0 0.725551 0.935744
0.577585 0.27158 0.914977
0.559014 0.286229 0.91722
0.540444 0.300893 0.919448
0.521874 0.315557 0.921691
0.503304 0.330205 0.923934
0.484733 0.344869 0.926162
0.466163 0.359518 0.928405
0.447593 0.374182 0.930632
0.429023 0.388846 0.932876
0.410452 0.403494 0.935119
0.391882 0.418158 0.937346
0.373312 0.432822 0.93959
0.354742 0.447471 0.941833
0.336172 0.462135 0.94406
0.317617 0.476799 0.946303
0.299046 0.491447 0.948531
0.280476 0.506111 0.950774
0.261906 0.520775 0.953017
0.243336 0.535424 0.955245
0.224765 0.550088 0.957488
0.206195 0.564752 0.959731
0.187625 0.5794 0.961959
0.169055 0.594064 0.964202
0.150484 0.608713 0.966445
0.131914 0.623377 0.968673
0.113344 0.638041 0.970916
0.0947738 0.652689 0.973144
0.0762036 0.667353 0.975387
0.0576333 0.682017 0.97763
0.0390631 0.696666 0.979858
0.0204929 0.71133 0.982101
0.00192264 0.725994 0.984344
0 0.740642 0.986572
0.609674 0.286671 0.965805
0.591104 0.30132 0.968048
0.572534 0.315984 0.970291
0.553964 0.330632 0.972519
0.535393 0.345296 0.974762
0.516823 0.35996 0.977005
0.498253 0.374609 0.979232
0.479683 0.389273 0.981476
0.461112 0.403937 0.983703
0.442542 0.418585 0.985946
0.423972 0.433249 0.98819
0.405402 0.447913 0.990417
0.386831 0.462562 0.99266
0.368261 0.477226 0.994904
0.349691 0.491875 0.997131
0.331121 0.506539 0.999374
0.312551 0.521202 1
0.29398 0.535851 1
0.275425 0.550515 1
0.256855 0.565179 1
0.238285 0.579828 1
0.219715 0.594491 1
0.201144 0.609155 1
0.182574 0.623804 1
0.164004 0.638468 1
0.145434 0.653132 1
0.126864 0.667781 1
0.108293 0.682445 1
0.0897231 0.697108 1
0.0711528 0.711757 1
0.0525826 0.726421 1
0.0340124 0.74107 1
0.0154421 0.755734 1
0.641749 0.301762 1
0.623194 0.316411 1
0.604623 0.331075 1
0.586053 0.345724 1
0.567483 0.360388 1
0.548913 0.375036 1
0.530343 0.3897 1
0.511772 0.404364 1
0.493202 0.419013 1
0.474632 0.433677 1
0.456062 0.448341 1
0.437491 0.462989 1
0.418921 0.477653 1
0.400351 0.492317 1
0.381781 0.506966 1
0.36321 0.52163 1
0.34464 0.536294 1
0.32607 0.550942 1
0.3075 0.565606 1
0.28893 0.580255 1
0.270359 0.594919 1
0.251804 0.609583 1
0.233234 0.624231 1
0.214664 0.638895 1
0.196094 0.653559 1
0.177523 0.668208 1
0.158953 0.682872 1
0.140383 0.697536 1
0.121813 0.712184 1
0.103243 0.726848 1
0.0846723 0.741512 1
0.0661021 0.756161 1
0.0475319 0.770825 1
0.673838 0.316838 1
0.655283 0.331502 1
0.636713 0.346151 1
0.618143 0.360815 1
0.599573 0.375479 1
0.581003 0.390127 1
0.562432 0.404791 1
0.543862 0.419455 1
0.525292 0.434104 1
0.506722 0.448768 1
0.488151 0.463416 1
0.469581 0.47808 1
0.451011 0.492744 1
0.432441 0.507393 1
0.41387 0.522057 1
0.3953 0.536721 1
0.37673 0.551369 1
0.35816 0.566033 1
0.33959 0.580697 1
0.321019 0.595346 1
0.302449 0.61001 1
0.283879 0.624674 1
0.265309 0.639323 1
0.246738 0.653986 1
0.228183 0.66865 1
0.209613 0.683299 1
0.191043 0.697963 1
0.172473 0.712612 1
0.153903 0.727275 1
0.135332 0.741939 1
0.116762 0.756588 1
0.0981918 0.771252 1
0.0796216 0.785916 1
0.705928 0.33193 1
0.687373 0.346578 1
0.668803 0.361242 1
0.650233 0.375906 1
0.631662 0.390555 1
0.613092 0.405219 1
0.594522 0.419883 1
0.575952 0.434531 1
0.557382 0.449195 1
0.538811 0.463859 1
0.520241 0.478508 1
0.501671 0.493172 1
0.483101 0.507836 1
0.46453 0.522484 1
0.44596 0.537148 1
0.42739 0.551812 1
0.40882 0.566461 1
0.390249 0.581125 1
0.371679 0.595773 1
0.353109 0.610437 1
0.334539 0.625101 1
0.315969 0.63975 1
0.297398 0.654414 1
0.278828 0.669078 1
0.260258 0.683726 1
0.241688 0.69839 1
0.223117 0.713054 1
0.204547 0.727703 1
0.185992 0.742367 1
0.167422 0.757031 1
0.148852 0.771679 1
0.130282 0.786343 1
0.111711 0.801007 1
0.738018 0.347021 1
0.719463 0.361669 1
0.700893 0.376333 1
0.682322 0.390997 1
0.663752 0.405646 1
0.645182 0.42031 1
0.626612 0.434974 1
0.608042 0.449622 1
0.589471 0.464286 1
0.570901 0.478935 1
0.552331 0.493599 1
0.533761 0.508263 1
0.51519 0.522911 1
0.49662 0.537575 1
0.47805 0.552239 1
0.45948 0.566888 1
0.440909 0.581552 1
0.422339 0.596216 1
0.403769 0.610864 1
0.385199 0.625528 1
0.366629 0.640192 1
0.348058 0.654841 1
0.329488 0.669505 1
0.310918 0.684169 1
0.292348 0.698817 1
0.273777 0.713481 1
0.255207 0.72813 1
0.236637 0.742794 1
0.218067 0.757458 1
0.199496 0.772107 1
0.180926 0.78677 1
0.162371 0.801434 1
0.143801 0.816083 1
0.770108 0.362112 1
0.751553 0.376761 1
0.732982 0.391424 1
0.714412 0.406073 1
0.695842 0.420737 1
0.677272 0.435401 1
0.658701 0.45005 1
0.640131 0.464714 1
0.621561 0.479377 1
0.602991 0.494026 1
0.584421 0.50869 1
0.56585 0.523354 1
0.54728 0.538003 1
0.52871 0.552666 1
0.51014 0.567315 1
0.491569 0.581979 1
0.472999 0.596643 1
0.454429 0.611292 1
0.435859 0.625956 1
0.417288 0.64062 1
0.398718 0.655268 1
0.380148 0.669932 1
0.361578 0.684596 1
0.343008 0.699245 1
0.324437 0.713909 1
0.305867 0.728573 1
0.287297 0.743221 1
0.268727 0.757885 1
0.250156 0.772549 1
0.231586 0.787198 1
0.213016 0.801862 1
0.194446 0.81651 1
0.175875 0.831174 1
0.802197 0.377203 1
0.783642 0.391852 1
0.765072 0.406516 1
0.746502 0.421164 1
0.727932 0.435828 1
0.709361 0.450477 1
0.690791 0.465141 1
0.672221 0.479805 1
0.653651 0.494453 1
0.635081 0.509117 1
0.61651 0.523781 1
0.59794 0.53843 1
0.57937 0.553094 1
0.5608 0.567758 1
0.542229 0.582406 1
0.523659 0.59707 1
0.505089 0.611734 1
0.486519 0.626383 1
0.467948 0.641047 1
0.449378 0.655711 1
0.430808 0.670359 1
0.412238 0.685023 1
0.393668 0.699672 1
0.375097 0.714336 1
0.356527 0.729 1
0.337957 0.743648 1
0.319387 0.758312 1
0.300816 0.772976 1
0.282246 0.787625 1
0.263676 0.802289 1
0.245106 0.816953 1
0.226535 0.831601 1
0.207965 0.846265 1
0.834287 0.392294 1
0.815732 0.406943 1
0.797162 0.421592 1
0.778592 0.436255 1
0.760021 0.450919 1
0.741451 0.465568 1
0.722881 0.480232 1
0.704311 0.494896 1
0.68574 0.509544 1
0.66717 0.524208 1
0.6486 0.538872 1
0.63003 0.553521 1
0.61146 0.568185 1
0.592889 0.582834 1
0.574319 0.597498 1
0.555749 0.612161 1
0.537179 0.62681 1
0.518608 0.641474 1
0.500038 0.656138 1
0.481468 0.670787 1
0.462898 0.68545 1
0.444327 0.700114 1
0.425757 0.714763 1
0.407187 0.729427 1
0.388617 0.744091 1
0.370047 0.75874 1
0.351476 0.773404 1
0.332906 0.788067 1
0.314336 0.802716 1
0.295766 0.81738 1
0.277195 0.832029 1
0.258625 0.846693 1
0.240055 0.861357 1
0.866377 0.40737 1
0.847822 0.422034 1
0.829252 0.436683 1
0.810681 0.451347 1
0.792111 0.465995 1
0.773541 0.480659 1
0.754971 0.495323 1
0.7364 0.509972 1
0.71783 0.524636 1
