public/LUTS/Color Shift/ColorShift_47.cube
TITLE "Generated by Resolve"
LUT_3D_SIZE 9
0 0 0
0 0.0482338 0.0700999
0 0.0964675 0.1402
0 0.144701 0.2103
0 0.19295 0.2804
0 0.241184 0.3505
0 0.289418 0.420615
0 0.337652 0.490715
0 0.385901 0.560815
0.190295 0.0476692 0.157305
0.124468 0.0959029 0.22739
0.0586404 0.144137 0.297505
0 0.192386 0.367605
0 0.24062 0.437705
0 0.288853 0.507805
0 0.337102 0.577905
0 0.385336 0.648005
0 0.43357 0.71812
0.380606 0.0953536 0.314626
0.314794 0.143587 0.38471
0.248951 0.191821 0.45481
0.183124 0.240055 0.524926
0.117281 0.288304 0.595026
0.0514534 0.336538 0.665125
0 0.384771 0.735225
0 0.433005 0.805325
0 0.481254 0.875441
0.570932 0.143038 0.471946
0.505104 0.191272 0.542031
0.439277 0.239506 0.612131
0.373434 0.287739 0.682246
0.307607 0.335973 0.752346
0.241764 0.384222 0.822446
0.175937 0.432456 0.892546
0.110109 0.48069 0.962646
0.0442664 0.528923 1
0.761242 0.190707 0.629267
0.695415 0.238941 0.699351
0.629587 0.28719 0.769451
0.56376 0.335424 0.839567
0.497917 0.383658 0.909667
0.43209 0.431891 0.979767
0.366262 0.48014 1
0.30042 0.528374 1
0.234592 0.576608 1
0.951568 0.238392 0.786587
0.88574 0.286625 0.856672
0.819898 0.334859 0.926772
0.75407 0.383093 0.996887
0.688243 0.431342 1
0.6224 0.479576 1
0.556573 0.52781 1
0.490745 0.576059 1
0.424903 0.624292 1
1 0.286076 0.943893
1 0.33431 1
1 0.382544 1
0.944396 0.430777 1
0.878553 0.479011 1
0.812726 0.52726 1
0.746883 0.575494 1
0.681056 0.623728 1
0.615228 0.671977 1
1 0.333745 1
1 0.381979 1
1 0.430228 1
1 0.478462 1
1 0.526696 1
1 0.574929 1
0.937209 0.623178 1
0.871382 0.671412 1
0.805539 0.719646 1
1 0.38143 1
1 0.429664 1
1 0.477897 1
1 0.526146 1
1 0.57438 1
1 0.622614 1
1 0.670848 1
1 0.719097 1
0.995865 0.76733 1
0.000518807 0.0290837 0
0 0.0773175 0
0 0.125551 0.0377813
0 0.173785 0.107897
0 0.222019 0.177996
0 0.270268 0.248096
0 0.318502 0.318196
0 0.366735 0.388296
0 0.414984 0.458412
0.190814 0.0767529 0.0548867
0.124987 0.124987 0.124987
0.0591592 0.17322 0.195087
0 0.221469 0.265187
0 0.269703 0.335302
0 0.317937 0.405402
0 0.366171 0.475502
0 0.41442 0.545602
0 0.462654 0.615702
0.381125 0.124437 0.212207
0.315297 0.172671 0.282307
0.24947 0.220905 0.352407
0.183642 0.269139 0.422507
0.1178 0.317372 0.492622
0.0519722 0.365621 0.562722
0 0.413855 0.632822
0 0.462089 0.702922
0 0.510338 0.773022
0.57145 0.172107 0.369528
0.505623 0.22034 0.439628
0.439796 0.268589 0.509728
0.373953 0.316823 0.579828
0.308125 0.365057 0.649927
0.242283 0.413291 0.720043
0.176455 0.46154 0.790143
0.110628 0.509773 0.860243
0.0447852 0.558007 0.930343
0.761761 0.219791 0.526848
0.695933 0.268025 0.596948
0.630106 0.316258 0.667048
0.564279 0.364508 0.737148
0.498436 0.412741 0.807248
0.432609 0.460975 0.877363
0.366766 0.509209 0.947463
0.300938 0.557458 1
0.235111 0.605692 1
0.952087 0.267475 0.684169
0.886259 0.315709 0.754269
0.820417 0.363943 0.824369
0.754589 0.412177 0.894469
0.688762 0.460426 0.964569
0.622919 0.508659 1
0.557092 0.556893 1
0.491264 0.605127 1
0.425422 0.653376 1
1 0.31516 0.841489
1 0.363378 0.911589
1 0.411627 0.981689
0.9449 0.459861 1
0.879072 0.508095 1
0.813245 0.556344 1
0.747402 0.604578 1
0.681575 0.652811 1
0.615747 0.701045 1
1 0.362829 0.99881
1 0.411063 1
1 0.459297 1
1 0.507546 1
1 0.555779 1
1 0.604013 1
0.937728 0.652247 1
0.871885 0.700496 1
0.806058 0.74873 1
1 0.410513 1
1 0.458747 1
1 0.506981 1
1 0.555215 1
1 0.603464 1
1 0.651698 1
1 0.699931 1
1 0.748165 1
0.996384 0.796414 1
0.00103761 0.0581674 0
0 0.106401 0
0 0.154635 0
0 0.202869 0.00547799
0 0.251118 0.0755779
0 0.299351 0.145678
0 0.347585 0.215778
0 0.395819 0.285878
0 0.444068 0.355978
0.191333 0.105837 0
0.125505 0.15407 0.0225681
0.059678 0.202304 0.092668
0 0.250553 0.162768
0 0.298787 0.232868
0 0.347021 0.302983
0 0.395254 0.373083
0 0.443503 0.443183
0 0.491737 0.513283
0.381643 0.153521 0.109789
0.315816 0.201755 0.179889
0.249989 0.249989 0.249989
0.184161 0.298222 0.320089
0.118318 0.346471 0.390188
0.052491 0.394705 0.460304
0 0.442939 0.530404
0 0.491173 0.600504
0 0.539422 0.670604
0.571969 0.201205 0.267109
0.506142 0.249424 0.337209
0.440299 0.297673 0.407309
0.374472 0.345907 0.477409
0.308644 0.394141 0.547509
0.242802 0.442374 0.617624
0.176974 0.490623 0.687724
0.111147 0.538857 0.757824
0.045304 0.587091 0.827924
0.76228 0.248875 0.42443
0.696452 0.297108 0.49453
0.630625 0.345342 0.56463
0.564797 0.393591 0.63473
0.498955 0.441825 0.704829
0.433127 0.490059 0.774929
0.367285 0.538293 0.845045
0.301457 0.586542 0.915145
0.23563 0.634775 0.985245
0.952605 0.296559 0.58175
0.886778 0.344793 0.65185
0.820935 0.393027 0.72195
0.755108 0.44126 0.79205
0.689281 0.489509 0.86215
0.623438 0.537743 0.93225
0.55761 0.585977 1
0.491768 0.634211 1
0.42594 0.68246 1
1 0.344244 0.739071
1 0.392462 0.809171
1 0.440711 0.879271
0.945418 0.488945 0.949371
0.879591 0.537179 1
0.813764 0.585428 1
0.747921 0.633661 1
0.682094 0.681895 1
0.616266 0.730129 1
1 0.391913 0.896391
1 0.440146 0.966491
1 0.48838 1
1 0.536629 1
1 0.584863 1
1 0.633097 1
0.938247 0.681346 1
0.872404 0.72958 1
0.806577 0.777813 1
1 0.439597 1
1 0.487831 1
1 0.536065 1
1 0.584298 1
1 0.632547 1
1 0.680781 1
1 0.729015 1
1 0.777249 1
0.996887 0.825498 1
0.00155642 0.0872511 0
0 0.135485 0
0 0.183719 0
0 0.231952 0
0 0.280201 0
0 0.328435 0.0432593
0 0.376669 0.113359
0 0.424903 0.183459
0 0.473152 0.253559
0.191852 0.13492 0
0.126024 0.183154 0
0.0601816 0.231388 0
0 0.279637 0.0603494
0 0.327871 0.130449
0 0.376104 0.200549
0 0.424338 0.270665
0 0.472587 0.340764
0 0.520821 0.410864
0.382162 0.182605 0.00737011
0.316335 0.230838 0.0774701
0.250507 0.279072 0.14757
0.18468 0.327306 0.21767
0.118837 0.375555 0.28777
0.0530098 0.423789 0.35787
0 0.472023 0.427985
0 0.520256 0.498085
0 0.568505 0.568185
0.572488 0.230289 0.164691
0.506661 0.278508 0.234791
0.440818 0.326757 0.304891
0.37499 0.37499 0.37499
0.309163 0.423224 0.44509
0.24332 0.471473 0.51519
0.177493 0.519707 0.585306
0.111666 0.567941 0.655406
0.0458228 0.616175 0.725505
0.762798 0.277958 0.322011
0.696971 0.326192 0.392111
0.631144 0.374426 0.462211
0.565301 0.422675 0.532311
0.499474 0.470909 0.602411
0.433646 0.519142 0.672511
0.367803 0.567376 0.742626
0.301976 0.615625 0.812726
0.236149 0.663859 0.882826
0.953109 0.325643 0.479332
0.887297 0.373877 0.549432
0.821454 0.42211 0.619532
0.755627 0.470344 0.689632
0.689799 0.518593 0.759731
0.623957 0.566827 0.829831
0.558129 0.615061 0.899931
0.492287 0.663294 0.970047
0.426459 0.711543 1
1 0.373327 0.636652
1 0.421561 0.706737
1 0.469795 0.776852
0.945937 0.518029 0.846952
0.88011 0.566262 0.917052
0.814282 0.614511 0.987152
0.74844 0.662745 1
0.682612 0.710979 1
0.61677 0.759213 1
1 0.420996 0.793973
1 0.46923 0.864057
1 0.517464 0.934173
1 0.565713 1
1 0.613947 1
1 0.662181 1
0.938766 0.71043 1
0.872923 0.758663 1
0.807095 0.806897 1
1 0.468681 0.951293
1 0.516915 1
1 0.565148 1
1 0.613382 1
1 0.661631 1
1 0.709865 1
1 0.758099 1
1 0.806348 1
0.997406 0.854582 1
0.00207523 0.116335 0
0 0.164569 0
0 0.212802 0
0 0.261036 0
0 0.309285 0
0 0.357519 0
0 0.405753 0.0109407
0 0.453986 0.0810407
0 0.502235 0.151141
0.19237 0.164004 0
0.126543 0.212238 0
0.0607004 0.260471 0
0 0.308721 0
0 0.356954 0.0280308
0 0.405188 0.0981308
0 0.453422 0.168246
0 0.501671 0.238346
0 0.549905 0.308446
0.382681 0.211688 0
0.316854 0.259922 0
0.251026 0.308156 0.0451514
0.185183 0.35639 0.115251
0.119356 0.404639 0.185351
0.0535286 0.452873 0.255451
0 0.501106 0.325551
0 0.54934 0.395666
0 0.597589 0.465766
0.573007 0.259373 0.0622721
0.507179 0.307607 0.132357
0.441337 0.35584 0.202472
0.375509 0.404074 0.272572
0.309682 0.452308 0.342672
0.243839 0.500557 0.412772
0.178012 0.548791 0.482872
0.112169 0.597025 0.552987
0.0463417 0.645258 0.623087
0.763317 0.307042 0.219593
0.69749 0.355276 0.289677
0.631662 0.40351 0.359792
0.56582 0.451759 0.429892
0.499992 0.499992 0.499992
0.434165 0.548226 0.570092
0.368322 0.596475 0.640192
0.302495 0.644709 0.710307
0.236667 0.692943 0.780407
0.953628 0.354726 0.376913
0.887816 0.40296 0.446998
0.821973 0.451194 0.517113
0.756146 0.499428 0.587213
0.690303 0.547677 0.657313
0.624475 0.595911 0.727413
0.558648 0.644144 0.797513
0.492805 0.692378 0.867628
0.426978 0.740627 0.937728
1 0.402411 0.534234
1 0.450645 0.604318
1 0.498878 0.674434
0.946456 0.547112 0.744533
0.880629 0.595346 0.814633
0.814801 0.643595 0.884733
0.748959 0.691829 0.954833
0.683131 0.740063 1
0.617288 0.788296 1
1 0.45008 0.691554
1 0.498314 0.761639
1 0.546563 0.831739
1 0.594797 0.901854
1 0.64303 0.971954
1 0.691264 1
0.939284 0.739513 1
0.873442 0.787747 1
0.807614 0.835981 1
1 0.497765 0.848875
1 0.545998 0.918959
1 0.594232 0.989059
1 0.642466 1
1 0.690715 1
1 0.738949 1
1 0.787182 1
1 0.835431 1
0.997925 0.883665 1
0.00259403 0.145418 0
0 0.193652 0
0 0.241886 0
0 0.29012 0
0 0.338369 0
0 0.386603 0
0 0.434836 0
0 0.48307 0
0 0.531319 0.0487221
0.192889 0.193088 0
0.127062 0.241321 0
0.0612192 0.289555 0
0 0.337804 0
0 0.386038 0
0 0.434272 0
0 0.482521 0.0658122
0 0.530755 0.135927
0 0.578988 0.206027
0.3832 0.240772 0
0.317372 0.289006 0
0.251545 0.33724 0
0.185702 0.385473 0.0128328
0.119875 0.433722 0.0829328
0.0540475 0.481956 0.153033
0 0.53019 0.223133
0 0.578424 0.293248
0 0.626673 0.363348
0.57351 0.288457 0
0.507698 0.33669 0.0299382
0.441855 0.384924 0.100053
0.376028 0.433158 0.170153
0.310185 0.481392 0.240253
0.244358 0.529641 0.310353
0.178531 0.577874 0.380453
0.112688 0.626108 0.450553
0.0468605 0.674342 0.520668
0.763836 0.336126 0.117174
0.698009 0.38436 0.187259
0.632181 0.432609 0.257359
0.566339 0.480842 0.327474
0.500511 0.529076 0.397574
0.434684 0.57731 0.467674
0.368841 0.625559 0.537774
0.303014 0.673793 0.607874
0.237171 0.722026 0.677989
0.954147 0.38381 0.274495
0.888319 0.432044 0.344579
0.822492 0.480278 0.414679
0.756664 0.528511 0.484794
0.690822 0.576761 0.554894
0.624994 0.624994 0.624994
0.559167 0.673228 0.695094
0.493324 0.721477 0.765194
0.427497 0.769711 0.835309
1 0.431495 0.431815
1 0.479728 0.5019
1 0.527962 0.572
0.946975 0.576196 0.642115
0.881148 0.62443 0.712215
0.815305 0.672679 0.782315
0.749477 0.720913 0.852415
0.68365 0.769146 0.922515
0.617807 0.81738 0.99263
1 0.479164 0.589136
1 0.527398 0.65922
1 0.575647 0.72932
1 0.62388 0.799435
1 0.672114 0.869535
1 0.720348 0.939635
0.939803 0.768597 1
0.87396 0.816831 1
0.808133 0.865064 1
1 0.526848 0.746441
1 0.575082 0.816541
1 0.623316 0.886641
1 0.671565 0.956741
1 0.719799 1
1 0.768032 1
1 0.816266 1
1 0.864515 1
0.998444 0.912749 1
0.00311284 0.174502 0
0 0.222736 0
0 0.27097 0
0 0.319203 0
0 0.367453 0
0 0.415686 0
0 0.46392 0
0 0.512169 0
0 0.560403 0
0.193393 0.222171 0
0.127581 0.270405 0
0.061738 0.318639 0
0 0.366888 0
0 0.415122 0
0 0.463355 0
0 0.511604 0
0 0.559838 0.0334936
0 0.608072 0.103609
0.383719 0.269856 0
0.317891 0.31809 0
0.252064 0.366323 0
0.186221 0.414557 0
0.120394 0.462806 0
0.0545663 0.51104 0.0506142
0 0.559274 0.120714
0 0.607523 0.190814
0 0.655756 0.260929
0.574029 0.31754 0
0.508217 0.365774 0
0.442374 0.414008 0
0.376547 0.462242 0.0677348
0.310704 0.510475 0.137835
0.244877 0.558724 0.207935
0.179049 0.606958 0.278035
0.113207 0.655192 0.348135
0.0473793 0.703426 0.41825
0.764355 0.365209 0.0147402
0.698528 0.413443 0.0848402
0.6327 0.461692 0.15494
0.566857 0.509926 0.225055
0.50103 0.55816 0.295155
0.435187 0.606394 0.365255
0.36936 0.654643 0.435355
0.303532 0.702876 0.505455
0.23769 0.75111 0.575555
0.954665 0.412894 0.172061
0.888838 0.461128 0.242161
0.823011 0.509361 0.312261
0.757183 0.55761 0.382361
0.691341 0.605844 0.452476
0.625513 0.654078 0.522576
0.559686 0.702312 0.592676
0.493843 0.750561 0.662776
0.428016 0.798795 0.732876
1 0.460578 0.329381
1 0.508812 0.399481
1 0.557046 0.469581
0.947494 0.60528 0.539681
0.881666 0.653513 0.609796
0.815824 0.701762 0.679896
0.749996 0.749996 0.749996
0.684169 0.79823 0.820096
0.618326 0.846479 0.890196
1 0.508247 0.486702
1 0.556481 0.556802
1 0.60473 0.626902
1 0.652964 0.697002
1 0.701198 0.767117
1 0.749432 0.837217
0.940307 0.797681 0.907317
0.874479 0.845914 0.977417
0.808652 0.894148 1
1 0.555932 0.644022
1 0.604166 0.714122
1 0.652399 0.784222
1 0.700648 0.854322
1 0.748882 0.924437
1 0.797116 0.994537
1 0.84535 1
1 0.893599 1
0.998962 0.941833 1
0.00361639 0.203586 0
0 0.25182 0
0 0.300053 0
0 0.348287 0
0 0.396536 0
0 0.44477 0
0 0.493004 0
0 0.541253 0
0 0.589487 0
0.193912 0.251255 0
0.128099 0.299489 0
0.0622568 0.347738 0
0 0.395972 0
0 0.444205 0
0 0.492439 0
0 0.540688 0
0 0.588922 0
0 0.637156 0.00117494
0.384237 0.298939 0
0.31841 0.347173 0
0.252583 0.395407 0
0.18674 0.443641 0
0.120912 0.49189 0
0.0550851 0.540124 0
0 0.588357 0.0182956
0 0.636606 0.0883955
0 0.68484 0.158495
0.574548 0.346624 0
0.508721 0.394858 0
0.442893 0.443091 0
0.377066 0.491325 0
0.311223 0.539559 0.0354162
0.245396 0.587808 0.105516
0.179568 0.636042 0.175616
0.113725 0.684276 0.245716
0.0478981 0.732525 0.315816
0.764874 0.394293 0
0.699046 0.442527 0
0.633219 0.490776 0.0525216
0.567376 0.53901 0.122621
0.501549 0.587243 0.192737
0.435706 0.635477 0.262837
0.369879 0.683726 0.332937
0.304051 0.73196 0.403037
0.238209 0.780194 0.473136
0.955184 0.441978 0.0696422
0.889357 0.490211 0.139742
0.823529 0.538445 0.209842
0.757702 0.586694 0.279942
0.691859 0.634928 0.350057
0.626032 0.683162 0.420157
0.560189 0.731395 0.490257
0.494362 0.779644 0.560357
0.428534 0.827878 0.630457
1 0.489662 0.226963
1 0.537896 0.297063
1 0.58613 0.367163
0.948013 0.634363 0.437263
0.882185 0.682612 0.507362
0.816342 0.730846 0.577478
0.750515 0.77908 0.647578
0.684688 0.827314 0.717678
0.618845 0.875563 0.787778
1 0.537346 0.384283
1 0.585565 0.454383
1 0.633814 0.524483
1 0.682048 0.594583
1 0.730282 0.664683
1 0.778515 0.734798
0.940826 0.826764 0.804898
0.874998 0.874998 0.874998
0.809171 0.923232 0.945098
1 0.585016 0.541604
1 0.633249 0.611704
1 0.681483 0.681804
1 0.729732 0.751904
1 0.777966 0.822003
1 0.8262 0.892119
1 0.874434 0.962219
1 0.922683 1
0.999481 0.970916 1
0.0041352 0.23267 0
0 0.280903 0
0 0.329137 0
0 0.377386 0
0 0.42562 0
0 0.473854 0
0 0.522087 0
0 0.570336 0
0 0.61857 0
0.19443 0.280339 0
0.128603 0.328573 0
0.0627756 0.376822 0
0 0.425055 0
0 0.473289 0
0 0.521523 0
0 0.569772 0
0 0.618006 0
0 0.666239 0
0.384756 0.328023 0
0.318929 0.376257 0
0.253101 0.424491 0
0.187259 0.47274 0
0.121431 0.520974 0
0.0555886 0.569207 0
0 0.617441 0
0 0.66569 0
0 0.713924 0.0560769
0.575067 0.375708 0
0.509239 0.423941 0
0.443412 0.472175 0
0.377584 0.520409 0
0.311742 0.568643 0
0.245914 0.616892 0.00309758
0.180087 0.665125 0.0731975
0.114244 0.713359 0.143297
0.0484169 0.761608 0.213397
0.765393 0.423377 0
0.699565 0.471611 0
0.633722 0.51986 0
0.567895 0.568093 0.0202029
0.502068 0.616327 0.0903029
0.436225 0.664561 0.160418
0.370398 0.71281 0.230518
0.30457 0.761044 0.300618
0.238727 0.809277 0.370718
0.955703 0.471061 0
0.889876 0.519295 0.0373236
0.824048 0.567529 0.107424
0.758221 0.615778 0.177523
0.692378 0.664012 0.247623
0.626551 0.712245 0.317739
0.560708 0.760479 0.387839
0.494881 0.808728 0.457938
0.429053 0.856962 0.528038
1 0.518746 0.124544
1 0.566979 0.194644
1 0.615213 0.264744
0.948531 0.663447 0.334844
0.882704 0.711696 0.404944
0.816861 0.75993 0.475059
0.751034 0.808164 0.545159
0.685191 0.856397 0.615259
0.619364 0.904646 0.685359
1 0.56643 0.281865
1 0.614649 0.351965
1 0.662898 0.422065
1 0.711131 0.492164
1 0.759365 0.562264
1 0.807614 0.632364
0.941344 0.855848 0.70248
0.875517 0.904082 0.77258
0.809689 0.952316 0.84268
1 0.614099 0.439185
1 0.662333 0.509285
1 0.710567 0.579385
1 0.758816 0.649485
1 0.80705 0.719585
1 0.855283 0.789685
1 0.903517 0.8598
1 0.951766 0.9299
1 1 1
