public/LUTS/Color Shift/ColorShift_71.cube
TITLE "Generated by Resolve"
LUT_3D_SIZE 33
0 0 0
0.0430152 0 0
0.0860456 0 0
0.129076 0 0
0.172107 0 0
0.215137 0 0
0.258167 0 0
0.301198 0 0
0.344228 0 0
0.387259 0 0
0.430289 0 0
0.47332 0 0
0.51635 0 0
0.55938 0 0
0.602411 0 0
0.645441 0 0
0.688472 0 0
0.731502 0 0
0.774533 0 0
0.817563 0 0
0.860578 0 0
0.903609 0 0
0.946639 0 0
0.98967 0 0
1 0 0
1 0 0
1 0 0
1 0 0
1 0 0
1 0 0
1 0 0
1 0 0
1 0 0
0 0.0391089 0
0.0177157 0.0377203 0
0.0607462 0.0363317 0
0.103777 0.0349432 0
0.146807 0.0335699 0
0.189837 0.0321813 0
0.232868 0.0307927 0
0.275898 0.0294041 0
0.318929 0.0280156 0
0.361959 0.0266423 0
0.404974 0.0252537 0
0.448005 0.0238651 0
0.491035 0.0224765 0
0.534066 0.021088 0
0.577096 0.0197147 0
0.620127 0.0183261 0
0.663157 0.0169375 0
0.706188 0.0155489 0
0.749218 0.0141604 0
0.792248 0.0127718 0
0.835279 0.0113985 0
0.878309 0.0100099 0
0.92134 0.00862135 0
0.96437 0.00723278 0
1 0.00584421 0
1 0.00447089 0
1 0.00308232 0
1 0.00169375 0
1 0.00030518 0
1 0 0
1 0 0
1 0 0
1 0 0
0 0.078233 0
0 0.0768444 0
0.0354314 0.0754559 0
0.0784619 0.0740826 0
0.121492 0.072694 0
0.164523 0.0713054 0
0.207553 0.0699168 0
0.250584 0.0685283 0
0.293614 0.0671397 0
0.336645 0.0657664 0
0.379675 0.0643778 0
0.422705 0.0629892 0
0.465736 0.0616007 0
0.508766 0.0602121 0
0.551797 0.0588388 0
0.594827 0.0574502 0
0.637858 0.0560616 0
0.680888 0.0546731 0
0.723918 0.0532845 0
0.766949 0.0519112 0
0.809979 0.0505226 0
0.85301 0.049134 0
0.89604 0.0477455 0
0.939071 0.0463569 0
0.982101 0.0449683 0
1 0.043595 0
1 0.0422065 0
1 0.0408179 0
1 0.0394293 0
1 0.0380407 0
1 0.0366674 0
1 0.0352789 0
1 0.0338903 0
0 0.117357 0
0 0.115969 0
0.0101167 0.11458 0
0.0531472 0.113207 0
0.0961776 0.111818 0
0.139208 0.11043 0
0.182239 0.109041 0
0.225269 0.107652 0
0.268299 0.106279 0
0.31133 0.104891 0
0.35436 0.103502 0
0.397391 0.102113 0
0.440421 0.100725 0
0.483452 0.0993362 0
0.526482 0.0979629 0
0.569512 0.0965744 0
0.612543 0.0951858 0
0.655573 0.0937972 0
0.698604 0.0924086 0
0.741634 0.0910353 0
0.784665 0.0896468 0
0.827695 0.0882582 0
0.870726 0.0868696 0
0.913756 0.085481 0
0.956786 0.0841077 0
0.999817 0.0827192 0
1 0.0813306 0
1 0.079942 0
1 0.0785534 0
1 0.0771649 0
1 0.0757916 0
1 0.074403 0
1 0.0730144 0
0 0.156481 0
0 0.155093 0
0 0.153704 0
0.0278325 0.152331 0
0.0708629 0.150942 0
0.113893 0.149554 0
0.156924 0.148165 0
0.199954 0.146777 0
0.242985 0.145403 0
0.286015 0.144015 0
0.329046 0.142626 0
0.372076 0.141238 0
0.415106 0.139849 0
0.458137 0.138476 0
0.501167 0.137087 0
0.544198 0.135698 0
0.587228 0.13431 0
0.630259 0.132921 0
0.673289 0.131533 0
0.71632 0.130159 0
0.75935 0.128771 0
0.80238 0.127382 0
0.845411 0.125994 0
0.888441 0.124605 0
0.931472 0.123232 0
0.974502 0.121843 0
1 0.120455 0
1 0.119066 0
1 0.117678 0
1 0.116304 0
1 0.114916 0
1 0.113527 0
1 0.112139 0
0 0.195605 0
0 0.194217 0
0 0.192844 0
0.00251774 0.191455 0
0.0455482 0.190066 0
0.0885786 0.188678 0
0.131609 0.187289 0
0.17464 0.185916 0
0.21767 0.184527 0
0.2607 0.183139 0
0.303731 0.18175 0
0.346761 0.180362 0
0.389792 0.178973 0
0.432822 0.1776 0
0.475853 0.176211 0
0.518883 0.174823 0
0.561913 0.173434 0
0.604944 0.172045 0
0.647974 0.170672 0
0.691005 0.169284 0
0.734035 0.167895 0
0.777066 0.166506 0
0.820096 0.165118 0
0.863127 0.163745 0
0.906157 0.162356 0
0.949187 0.160967 0
0.992218 0.159579 0
1 0.15819 0
1 0.156802 0
1 0.155428 0
1 0.15404 0
1 0.152651 0
1 0.151263 0
0 0.23473 0
0 0.233341 0
0 0.231968 0
0 0.230579 0
0.0202335 0.229191 0
0.0632639 0.227802 0
0.106294 0.226413 0
0.149325 0.22504 0
0.192355 0.223651 0
0.235386 0.222263 0
0.278416 0.220874 0
0.321447 0.219486 0
0.364477 0.218112 0
0.407507 0.216724 0
0.450538 0.215335 0
0.493568 0.213947 0
0.536599 0.212558 0
0.579629 0.21117 0
0.62266 0.209796 0
0.66569 0.208408 0
0.708721 0.207019 0
0.751751 0.205631 0
0.794781 0.204242 0
0.837812 0.202869 0
0.880842 0.20148 0
0.923873 0.200092 0
0.966903 0.198703 0
1 0.197314 0
1 0.195941 0
1 0.194553 0
1 0.193164 0
1 0.191775 0
1 0.190387 0
0 0.273854 0
0 0.27248 0
0 0.271092 0
0 0.269703 0
0 0.268315 0
0.0379492 0.266926 0
0.0809796 0.265538 0
0.12401 0.264164 0
0.167041 0.262776 0
0.210071 0.261387 0
0.253101 0.259998 0
0.296132 0.25861 0
0.339162 0.257237 0
0.382193 0.255848 0
0.425223 0.254459 0
0.468254 0.253071 0
0.511284 0.251682 0
0.554314 0.250309 0
0.597345 0.24892 0
0.640375 0.247532 0
0.683406 0.246143 0
0.726436 0.244755 0
0.769467 0.243366 0
0.812497 0.241993 0
0.855528 0.240604 0
0.898558 0.239216 0
0.941588 0.237827 0
0.984619 0.236439 0
1 0.235065 0
1 0.233677 0
1 0.232288 0
1 0.2309 0
1 0.229511 0
0 0.312978 0
0 0.311604 0
0 0.310216 0
0 0.308827 0
0 0.307439 0
0.0126345 0.30605 0
0.0556649 0.304677 0
0.0986954 0.303288 0
0.141726 0.3019 0
0.184756 0.300511 0
0.227787 0.299123 0
0.270817 0.297749 0
0.313848 0.296361 0
0.356878 0.294972 0
0.399908 0.293584 0
0.442939 0.292195 0
0.485969 0.290806 0
0.529 0.289433 0
0.57203 0.288045 0
0.615061 0.286656 0
0.658091 0.285267 0
0.701122 0.283879 0
0.744152 0.282506 0
0.787182 0.281117 0
0.830213 0.279728 0
0.873243 0.27834 0
0.916274 0.276951 0
0.959304 0.275578 0
1 0.274189 0
1 0.272801 0
1 0.271412 0
1 0.270024 0
1 0.268635 0
0 0.352102 0
0 0.350729 0
0 0.34934 0
0 0.347951 0
0 0.346563 0
0 0.345174 0
0.0303655 0.343801 0
0.0733959 0.342412 0
0.116426 0.341024 0
0.159457 0.339635 0
0.202487 0.338247 0
0.245518 0.336873 0
0.288548 0.335485 0
0.331579 0.334096 0
0.374609 0.332708 0
0.417639 0.331319 0
0.46067 0.329946 0
0.5037 0.328557 0
0.546731 0.327169 0
0.589746 0.32578 0
0.632776 0.324392 0
0.675807 0.323003 0
0.718837 0.32163 0
0.761868 0.320241 0
0.804898 0.318853 0
0.847929 0.317464 0
0.890959 0.316075 0
0.933989 0.314702 0
0.97702 0.313313 0
1 0.311925 0
1 0.310536 0
1 0.309148 0
1 0.307774 0
0 0.391241 0
0 0.389853 0
0 0.388464 0
0 0.387076 0
0 0.385687 0
0 0.384314 0
0.00505074 0.382925 0
0.0480812 0.381537 0
0.0911116 0.380148 0
0.134142 0.378759 0
0.177172 0.377371 0
0.220203 0.375998 0
0.263233 0.374609 0
0.306264 0.37322 0
0.349294 0.371832 0
0.392325 0.370443 0
0.435355 0.36907 0
0.478386 0.367681 0
0.521416 0.366293 0
0.564446 0.364904 0
0.607477 0.363516 0
0.650507 0.362142 0
0.693538 0.360754 0
0.736568 0.359365 0
0.779599 0.357977 0
0.822629 0.356588 0
0.86566 0.3552 0
0.90869 0.353826 0
0.95172 0.352438 0
0.994751 0.351049 0
1 0.34966 0
1 0.348272 0
1 0.346899 0
0 0.430365 0
0 0.428977 0
0 0.427588 0
0 0.4262 0
0 0.424811 0
0 0.423438 0
0 0.422049 0
0.0227665 0.420661 0
0.0657969 0.419272 0
0.108827 0.417884 0
0.151858 0.41651 0
0.194888 0.415122 0
0.237919 0.413733 0
0.280949 0.412345 0
0.32398 0.410956 0
0.36701 0.409567 0
0.41004 0.408194 0
0.453071 0.406806 0
0.496101 0.405417 0
0.539132 0.404028 0
0.582162 0.40264 0
0.625193 0.401266 0
0.668223 0.399878 0
0.711254 0.398489 0
0.754284 0.397101 0
0.797314 0.395712 0
0.840345 0.394339 0
0.883375 0.39295 0
0.926406 0.391562 0
0.969436 0.390173 0
1 0.388785 0
1 0.387411 0
1 0.386023 0
0 0.46949 0
0 0.468101 0
0 0.466712 0
0 0.465324 0
0 0.463951 0
0 0.462562 0
0 0.461173 0
0 0.459785 0
0.0404822 0.458396 0
0.0835126 0.457008 0
0.126543 0.455634 0
0.169574 0.454246 0
0.212604 0.452857 0
0.255634 0.451469 0
0.298665 0.45008 0
0.341695 0.448707 0
0.384726 0.447318 0
0.427756 0.44593 0
0.470787 0.444541 0
0.513817 0.443153 0
0.556848 0.441779 0
0.599878 0.440391 0
0.642908 0.439002 0
0.685939 0.437613 0
0.728969 0.436225 0
0.772 0.434836 0
0.81503 0.433463 0
0.858061 0.432074 0
0.901091 0.430686 0
0.944121 0.429297 0
0.987152 0.427909 0
1 0.426535 0
1 0.425147 0
0 0.508614 0
0 0.507225 0
0 0.505837 0
0 0.504448 0
0 0.503075 0
0 0.501686 0
0 0.500298 0
0 0.498909 0
0.0151675 0.49752 0
0.0581979 0.496147 0
0.101228 0.494759 0
0.144259 0.49337 0
0.187289 0.491981 0
0.23032 0.490593 0
0.27335 0.489204 0
0.316381 0.487831 0
0.359411 0.486442 0
0.402441 0.485054 0
0.445472 0.483665 0
0.488502 0.482277 0
0.531533 0.480903 0
0.574563 0.479515 0
0.617594 0.478126 0
0.660624 0.476738 0
0.703655 0.475349 0
0.746685 0.473976 0
0.789715 0.472587 0
0.832746 0.471199 0
0.875776 0.46981 0
0.918807 0.468421 0
0.961837 0.467033 0
1 0.46566 0
1 0.464271 0
0 0.547738 0
0 0.546349 0
0 0.544961 0
0 0.543572 0
0 0.542199 0
0 0.54081 0
0 0.539422 0
0 0.538033 0
0 0.536645 0
0.0328832 0.535271 0
0.0759136 0.533883 0
0.118944 0.532494 0
0.161975 0.531106 0
0.205005 0.529717 0
0.248035 0.528344 0
0.291066 0.526955 0
0.334096 0.525567 0
0.377127 0.524178 0
0.420157 0.522789 0
0.463188 0.521401 0
0.506218 0.520027 0
0.549249 0.518639 0
0.592279 0.51725 0
0.635309 0.515862 0
0.67834 0.514473 0
0.72137 0.5131 0
0.764401 0.511711 0
0.807431 0.510323 0
0.850462 0.508934 0
0.893492 0.507546 0
0.936522 0.506172 0
0.979553 0.504784 0
1 0.503395 0
0 0.586862 0
0 0.585473 0
0 0.584085 0
0 0.582712 0
0 0.581323 0
0 0.579934 0
0 0.578546 0
0 0.577157 0
0 0.575784 0
0.00756847 0.574395 0
0.0505989 0.573007 0
0.0936294 0.571618 0
0.13666 0.57023 0
0.17969 0.568841 0
0.222721 0.567468 0
0.265751 0.566079 0
0.308782 0.564691 0
0.351812 0.563302 0
0.394842 0.561913 0
0.437873 0.56054 0
0.480903 0.559152 0
0.523934 0.557763 0
0.566964 0.556374 0
0.609995 0.554986 0
0.653025 0.553613 0
0.696056 0.552224 0
0.739086 0.550835 0
0.782116 0.549447 0
0.825147 0.548058 0
0.868177 0.54667 0
0.911208 0.545296 0
0.954238 0.543908 0
0.997269 0.542519 0
0 0.625986 0
0 0.624598 0
0 0.623209 0
0 0.621836 0
0 0.620447 0
0 0.619058 0
0 0.61767 0
0 0.616281 0
0 0.614908 0
0 0.613519 0
0.0252842 0.612131 0
0.0683146 0.610742 0
0.111345 0.609354 0
0.154376 0.60798 0
0.197406 0.606592 0
0.240436 0.605203 0
0.283467 0.603815 0
0.326497 0.602426 0
0.369528 0.601038 0
0.412558 0.599664 0
0.455589 0.598276 0
0.498619 0.596887 0
0.54165 0.595499 0
0.58468 0.59411 0
0.62771 0.592737 0
0.670741 0.591348 0
0.713771 0.58996 0
0.756802 0.588571 0
0.799832 0.587182 0
0.842863 0.585809 0
0.885893 0.584421 0
0.928923 0.583032 0
0.971954 0.581643 0
0 0.66511 0
0 0.663722 0
0 0.662348 0
0 0.66096 0
0 0.659571 0
0 0.658183 0
0 0.656794 0
0 0.655406 0
0 0.654032 0
0 0.652644 0
0 0.651255 0
0.0430152 0.649866 0
0.0860456 0.648478 0
0.129076 0.647105 0
0.172107 0.645716 0
0.215137 0.644327 0
0.258167 0.642939 0
0.301198 0.64155 0
0.344228 0.640177 0
0.387259 0.638788 0
0.430289 0.6374 0
0.47332 0.636011 0
0.51635 0.634623 0
0.55938 0.633234 0
0.602411 0.631861 0
0.645441 0.630472 0
0.688472 0.629084 0
0.731502 0.627695 0
0.774517 0.626307 0
0.817548 0.624933 0
0.860578 0.623545 0
0.903609 0.622156 0
0.946639 0.620768 0
0 0.704234 0
0 0.702846 0
0 0.701473 0
0 0.700084 0
0 0.698695 0
0 0.697307 0
0 0.695918 0
0 0.694545 0
0 0.693156 0
0 0.691768 0
0 0.690379 0
0.0177005 0.688991 0
0.0607309 0.687602 0
0.103761 0.686229 0
0.146792 0.68484 0
0.189822 0.683452 0
0.232853 0.682063 0
0.275883 0.680674 0
0.318914 0.679301 0
0.361944 0.677913 0
0.404974 0.676524 0
0.448005 0.675135 0
0.491035 0.673747 0
0.534066 0.672374 0
0.577096 0.670985 0
0.620127 0.669596 0
0.663157 0.668208 0
0.706188 0.666819 0
0.749218 0.665446 0
0.792248 0.664057 0
0.835279 0.662669 0
0.878309 0.66128 0
0.92134 0.659892 0
0 0.743358 0
0 0.741985 0
0 0.740597 0
0 0.739208 0
0 0.737819 0
0 0.736431 0
0 0.735042 0
0 0.733669 0
0 0.73228 0
0 0.730892 0
0 0.729503 0
0 0.728115 0
0.0354162 0.726741 0
0.0784466 0.725353 0
0.121477 0.723964 0
0.164508 0.722576 0
0.207538 0.721187 0
0.250568 0.719814 0
0.293599 0.718425 0
0.336629 0.717037 0
0.37966 0.715648 0
0.42269 0.71426 0
0.465721 0.712871 0
0.508751 0.711498 0
0.551781 0.710109 0
0.594812 0.708721 0
0.637842 0.707332 0
0.680873 0.705943 0
0.723903 0.70457 0
0.766934 0.703182 0
0.809964 0.701793 0
0.852995 0.700404 0
0.896025 0.699016 0
0 0.782483 0
0 0.781109 0
0 0.779721 0
0 0.778332 0
0 0.776944 0
0 0.775555 0
0 0.774182 0
0 0.772793 0
0 0.771405 0
0 0.770016 0
0 0.768627 0
0 0.767239 0
0.0101015 0.765866 0
0.0531319 0.764477 0
0.0961624 0.763088 0
0.139193 0.7617 0
0.182223 0.760311 0
0.225254 0.758938 0
0.268284 0.757549 0
0.311315 0.756161 0
0.354345 0.754772 0
0.397375 0.753384 0
0.440406 0.75201 0
0.483436 0.750622 0
0.526467 0.749233 0
0.569497 0.747845 0
0.612528 0.746456 0
0.655558 0.745068 0
0.698589 0.743694 0
0.741619 0.742306 0
0.784649 0.740917 0
0.82768 0.739528 0
0.87071 0.73814 0
0 0.821607 0
0 0.820233 0
0 0.818845 0
0 0.817456 0
0 0.816068 0
0 0.814679 0
0 0.813306 0
0 0.811917 0
0 0.810529 0
0 0.80914 0
0 0.807752 0
0 0.806378 0
0 0.80499 0
0.0278172 0.803601 0
0.0708476 0.802213 0
0.113878 0.800824 0
0.156909 0.799435 0
0.199939 0.798062 0
0.242969 0.796674 0
0.286 0.795285 0
0.32903 0.793896 0
0.372061 0.792508 0
0.415091 0.791135 0
0.458122 0.789746 0
0.501152 0.788357 0
0.544182 0.786969 0
0.587213 0.78558 0
0.630243 0.784207 0
0.673274 0.782818 0
0.716304 0.78143 0
0.759335 0.780041 0
0.802365 0.778653 0
0.845396 0.777264 0
0 0.860746 0
0 0.859358 0
0 0.857969 0
0 0.85658 0
0 0.855192 0
0 0.853803 0
0 0.85243 0
0 0.851041 0
0 0.849653 0
0 0.848264 0
0 0.846876 0
0 0.845502 0
0 0.844114 0
0.00250248 0.842725 0
0.0455329 0.841337 0
0.0885634 0.839948 0
0.131594 0.838575 0
0.174624 0.837186 0
0.217655 0.835798 0
0.260685 0.834409 0
0.303716 0.833021 0
0.346746 0.831647 0
0.389776 0.830259 0
0.432807 0.82887 0
0.475837 0.827482 0
0.518868 0.826093 0
0.561898 0.824704 0
0.604929 0.823331 0
0.647959 0.821942 0
0.69099 0.820554 0
0.73402 0.819165 0
0.77705 0.817777 0
0.820081 0.816403 0
0 0.89987 0
0 0.898482 0
0 0.897093 0
0 0.895705 0
0 0.894316 0
0 0.892943 0
0 0.891554 0
0 0.890166 0
0 0.888777 0
0 0.887388 0
0 0.886015 0
0 0.884627 0
0 0.883238 0
0 0.881849 0
0.0202182 0.880461 0
0.0632486 0.879072 0
0.106279 0.877699 0
0.14931 0.87631 0
0.19234 0.874922 0
0.23537 0.873533 0
0.278401 0.872145 0
0.321431 0.870771 0
0.364462 0.869383 0
0.407492 0.867994 0
0.450523 0.866606 0
0.493553 0.865217 0
0.536583 0.863844 0
0.579614 0.862455 0
0.622644 0.861067 0
0.665675 0.859678 0
0.708705 0.858289 0
0.751736 0.856901 0
0.794766 0.855528 0
0 0.938994 0
0 0.937606 0
0 0.936217 0
0 0.934829 0
0 0.93344 0
0 0.932067 0
0 0.930678 0
0 0.92929 0
0 0.927901 0
0 0.926513 0
0 0.925139 0
0 0.923751 0
0 0.922362 0
0 0.920974 0
0 0.919585 0
0.0379339 0.918212 0
0.0809644 0.916823 0
0.123995 0.915434 0
0.167025 0.914046 0
0.210056 0.912657 0
0.253086 0.911269 0
0.296117 0.909895 0
0.339147 0.908507 0
0.382177 0.907118 0
0.425208 0.90573 0
0.468238 0.904341 0
0.511269 0.902968 0
0.554299 0.901579 0
0.59733 0.900191 0
0.64036 0.898802 0
0.683391 0.897414 0
0.726421 0.89604 0
0.769451 0.894652 0
0 0.978119 0
0 0.97673 0
0 0.975341 0
0 0.973953 0
0 0.97258 0
0 0.971191 0
0 0.969802 0
0 0.968414 0
0 0.967025 0
0 0.965637 0
0 0.964263 0
0 0.962875 0
0 0.961486 0
0 0.960098 0
0 0.958709 0
0.0126345 0.957336 0
0.0556649 0.955947 0
0.0986954 0.954559 0
0.141726 0.95317 0
0.184756 0.951782 0
0.227787 0.950408 0
0.270817 0.94902 0
0.313848 0.947631 0
0.356878 0.946242 0
0.399908 0.944854 0
0.442939 0.943465 0
0.485969 0.942092 0
0.529 0.940703 0
0.57203 0.939315 0
0.615061 0.937926 0
0.658091 0.936538 0
0.701122 0.935164 0
0.744152 0.933776 0
0 1 0
0 1 0
0 1 0
0 1 0
0 1 0
0 1 0
0 1 0
0 1 0
0 1 0
0 1 0
0 1 0
0 1 0
0 1 0
0 0.999222 0
0 0.997848 0
0 0.99646 0
0.0303502 0.995071 0
0.0733806 0.993683 0
0.116411 0.992294 0
0.159442 0.990906 0
0.202472 0.989532 0
0.245502 0.988144 0
0.288533 0.986755 0
0.331563 0.985367 0
0.374594 0.983978 0
0.417624 0.982605 0
0.460655 0.981216 0
0.503685 0.979828 0
0.546715 0.978439 0
0.589746 0.97705 0
0.632776 0.975677 0
0.675807 0.974289 0
0.718837 0.9729 0
0 1 0
0 1 0
0 1 0
0 1 0
0 1 0
0 1 0
0 1 0
0 1 0
0 1 0
