public/LUTS/Color Shift/ColorShift_41.cube
TITLE "Generated by Resolve"
LUT_3D_SIZE 5
0 0 0
0 0.0505531 0.239353
0 0.101122 0.478721
0 0.151675 0.71809
0 0.202243 0.957458
0.423468 0.105135 0.138552
0.40235 0.155688 0.377905
0.381231 0.206256 0.617273
0.360128 0.256809 0.856641
0.33901 0.307378 1
0.846952 0.210269 0.277104
0.825849 0.260838 0.516457
0.80473 0.311391 0.755825
0.783612 0.361959 0.995193
0.762509 0.412512 1
1 0.315419 0.415656
1 0.365972 0.655009
1 0.416541 0.894377
1 0.467094 1
1 0.517662 1
1 0.420554 0.554223
1 0.471107 0.793576
1 0.521675 1
1 0.572229 1
1 0.622797 1
0 0.0943008 0
0 0.144854 0.111437
0 0.195422 0.350805
0 0.245975 0.590173
0 0.296544 0.829541
0.271107 0.199435 0.0106355
0.249989 0.249989 0.249989
0.22887 0.300542 0.489357
0.207767 0.35111 0.728725
0.186648 0.401663 0.968093
0.694591 0.30457 0.149187
0.673487 0.355123 0.38854
0.652369 0.405692 0.627909
0.631251 0.456245 0.867277
0.610132 0.506813 1
1 0.409705 0.287755
1 0.460273 0.527108
1 0.510826 0.766476
1 0.561395 1
1 0.611948 1
1 0.514855 0.426307
1 0.565408 0.66566
1 0.615976 0.905028
1 0.666529 1
1 0.717098 1
0 0.188602 0
0 0.239155 0
0 0.289723 0.222889
0 0.340276 0.462257
0 0.390845 0.701625
0.11873 0.293736 0
0.097612 0.344289 0.122072
0.0764935 0.394858 0.36144
0.0553902 0.445411 0.600809
0.0342718 0.495979 0.840177
0.542214 0.398871 0.0212711
0.521111 0.449439 0.260624
0.499992 0.499992 0.499992
0.478874 0.550546 0.739361
0.457771 0.601114 0.978729
0.965713 0.504021 0.159823
0.944595 0.554574 0.399176
0.923491 0.605127 0.638544
0.902373 0.655695 0.877913
0.881254 0.706249 1
1 0.609155 0.29839
1 0.659709 0.537743
1 0.710277 0.777111
1 0.76083 1
1 0.811399 1
0 0.282902 0
0 0.333455 0
0 0.384024 0.0949722
0 0.434577 0.33434
0 0.485145 0.573709
0 0.388037 0
0 0.43859 0
0 0.489158 0.233509
0 0.539712 0.472877
0 0.59028 0.712245
0.389853 0.493172 0
0.368734 0.54374 0.132708
0.347616 0.594293 0.372076
0.326497 0.644862 0.611444
0.305394 0.695415 0.850813
0.813336 0.598321 0.0319066
0.792218 0.648875 0.27126
0.771115 0.699443 0.510628
0.749996 0.749996 0.749996
0.728878 0.800549 0.989364
1 0.703456 0.170459
1 0.754009 0.409812
1 0.804578 0.64918
1 0.855131 0.888548
1 0.905699 1
0 0.377203 0
0 0.427756 0
0 0.478325 0
0 0.528878 0.206409
0 0.579446 0.445777
0 0.482338 0
0 0.532891 0
0 0.583459 0.105592
0 0.634012 0.344961
0 0.684581 0.584329
0.237476 0.587472 0
0.216358 0.638041 0.00477607
0.195239 0.688594 0.244144
0.174136 0.739162 0.483513
0.153017 0.789715 0.722881
0.66096 0.692622 0
0.639857 0.743175 0.143343
0.618738 0.793744 0.382712
0.59762 0.844297 0.62208
0.576501 0.894865 0.861448
1 0.797757 0.0425422
1 0.848325 0.281895
1 0.898878 0.521263
1 0.949447 0.760632
1 1 1
