public/LUTS/Color Shift/ColorShift_73.cube
TITLE "Generated by Resolve"
LUT_3D_SIZE 5
0 0 0
0.381964 0 0
0.763958 0 0
1 0 0
1 0 0
0 0.305638 0
0.240848 0.273396 0
0.622827 0.241138 0
1 0.208896 0
1 0.176638 0
0 0.611292 0
0.0997177 0.579049 0
0.481712 0.546792 0
0.863691 0.514549 0
1 0.482292 0
0 0.916945 0
0 0.884703 0
0.340581 0.852445 0
0.72256 0.820203 0
1 0.787945 0
0 1 0
0 1 0
0.199451 1 0
0.58143 1 0
0.963424 1 0
0.00914015 0 0.410666
0.391104 0 0.353521
0.773098 0 0.296361
1 0 0.2392
1 0 0.18204
0 0.282231 0.307149
0.249989 0.249989 0.249989
0.631983 0.217746 0.192828
1 0.185489 0.135668
1 0.153246 0.0785077
0 0.587884 0.203616
0.108858 0.555642 0.146456
0.490852 0.5234 0.0892958
0.872831 0.491142 0.0321355
1 0.4589 0
0 0.893538 0.100069
0 0.861295 0.0429236
0.349722 0.829053 0
0.731716 0.796796 0
1 0.764553 0
0 1 0
0 1 0
0.208591 1 0
0.590585 1 0
0.972564 1 0
0.0182803 0 0.821363
0.400259 0 0.764218
0.782238 0 0.707057
1 0 0.649897
1 0 0.592737
0 0.258839 0.717845
0.259129 0.226581 0.660685
0.641123 0.194339 0.603525
1 0.162097 0.546365
1 0.129839 0.489204
0 0.564492 0.614313
0.117998 0.532235 0.557153
0.499992 0.499992 0.499992
0.881987 0.46775 0.442832
1 0.435492 0.385672
0 0.870146 0.510765
0 0.837888 0.45362
0.358862 0.805646 0.39646
0.740856 0.773404 0.3393
1 0.741146 0.282139
0 1 0.407233
0 1 0.350088
0.217731 1 0.292927
0.599725 1 0.235767
0.98172 1 0.178607
0.0274357 0 1
0.4094 0 1
0.791379 0 1
1 0 1
1 0 1
0 0.235431 1
0.268269 0.203189 1
0.650263 0.170932 1
1 0.138689 0.957061
1 0.106432 0.899901
0 0.541085 1
0.127153 0.508843 0.967849
0.509133 0.476585 0.910689
0.891127 0.444343 0.853529
1 0.4121 0.796368
0 0.846738 0.921462
0 0.814496 0.864317
0.368002 0.782238 0.807157
0.749996 0.749996 0.749996
1 0.717754 0.692836
0 1 0.817929
0 1 0.760784
0.226871 1 0.703624
0.608865 1 0.646464
0.99086 1 0.589303
0.0365759 0 1
0.41854 0 1
0.800534 0 1
1 0 1
1 0 1
0 0.212024 1
0.277424 0.179782 1
0.659403 0.147539 1
1 0.115282 1
1 0.0830396 1
0 0.517678 1
0.136294 0.485435 1
0.518273 0.453193 1
0.900267 0.420935 1
1 0.388693 1
0 0.823331 1
0 0.791089 1
0.377157 0.758846 1
0.759136 0.726589 1
1 0.694347 1
0 1 1
0 1 1
0.236027 1 1
0.618006 1 1
1 1 1
