public/LUTS/Color Shift/ColorShift_50.cube
TITLE "Generated by Resolve"
LUT_3D_SIZE 5
0 0 0
0 0.153079 0.0787366
0 0.306172 0.157488
0 0.459251 0.236225
0 0.612345 0.314977
0.409873 0.0599069 0.522057
0.115862 0.212985 0.600793
0 0.366064 0.679545
0 0.519158 0.758282
0 0.672251 0.837034
0.819776 0.119814 1
0.525765 0.272892 1
0.231724 0.425986 1
0 0.579065 1
0 0.732158 1
1 0.179721 1
0.935653 0.332799 1
0.641627 0.485893 1
0.347601 0.638972 1
0.0535592 0.792065 1
1 0.239628 1
1 0.392706 1
1 0.5458 1
0.757488 0.698878 1
0.463462 0.851972 1
0.134127 0.0370031 0
0 0.190082 0
0 0.343175 0
0 0.496254 0
0 0.649348 0
0.543999 0.09691 0.171252
0.249989 0.249989 0.249989
0 0.403082 0.328725
0 0.556161 0.407477
0 0.709255 0.486213
0.953902 0.156817 0.693339
0.659892 0.309895 0.772076
0.36585 0.462989 0.850828
0.0718242 0.616068 0.929564
0 0.769162 1
1 0.216724 1
1 0.369802 1
0.775753 0.522896 1
0.481727 0.675975 1
0.187686 0.829068 1
1 0.276631 1
1 0.429709 1
1 0.582803 1
0.891615 0.735897 1
0.597589 0.888975 1
0.268269 0.0740063 0
0 0.227085 0
0 0.380179 0
0 0.533272 0
0 0.686351 0
0.678141 0.133913 0
0.384131 0.286992 0
0.0900893 0.440085 0
0 0.593179 0.0566415
0 0.746258 0.135393
1 0.19382 0.342504
0.794018 0.346899 0.421256
0.499992 0.499992 0.499992
0.205966 0.653086 0.578729
0 0.806165 0.657481
1 0.253727 0.864607
1 0.406821 0.943343
0.909895 0.559899 1
0.615854 0.712993 1
0.321828 0.866072 1
1 0.313649 1
1 0.466728 1
1 0.619806 1
1 0.7729 1
0.731731 0.925978 1
0.402396 0.111025 0
0.108385 0.264103 0
0 0.417182 0
0 0.570275 0
0 0.723369 0
0.812284 0.170932 0
0.518257 0.32401 0
0.224231 0.477089 0
0 0.630182 0
0 0.783261 0
1 0.230838 0
0.928161 0.383917 0.0704204
0.634134 0.536995 0.149157
0.340093 0.690089 0.227909
0.046067 0.843183 0.306645
1 0.290745 0.513771
1 0.443824 0.592508
1 0.596902 0.67126
0.749996 0.749996 0.749996
0.45597 0.90309 0.828733
1 0.350652 1
1 0.503731 1
1 0.656825 1
1 0.809903 1
0.865858 0.962997 1
0.536538 0.148028 0
0.242527 0.301106 0
0 0.4542 0
0 0.607279 0
0 0.760372 0
0.94641 0.207935 0
0.652399 0.361013 0
0.358373 0.514092 0
0.064332 0.667185 0
0 0.820279 0
1 0.267842 0
1 0.42092 0
0.768261 0.574014 0
0.474235 0.727092 0
0.180209 0.880186 0
1 0.327749 0.162936
1 0.480827 0.241672
1 0.633921 0.320424
0.884138 0.786999 0.399161
0.590097 0.940093 0.477913
1 0.387655 0.685023
1 0.540734 0.763775
1 0.693828 0.842512
1 0.846906 0.921263
1 1 1
