public/LUTS/Color Shift/ColorShift_53.cube
TITLE "Generated by Resolve"
LUT_3D_SIZE 33
0 0 0
0 0.0205844 0
0 0.0411841 0
0 0.0617838 0
0 0.0823835 0
0 0.102983 0
0 0.123583 0
0 0.144183 0
0 0.164782 0
0 0.185382 0
0 0.205982 0
0 0.226581 0
0 0.247181 0
0 0.267781 0
0 0.28838 0
0 0.308965 0
0 0.329564 0
0 0.350164 0
0 0.370764 0
0 0.391363 0
0 0.411963 0
0 0.432563 0
0 0.453162 0
0 0.473762 0
0 0.494362 0
0 0.514961 0
0 0.535561 0
0 0.556161 0
0 0.576761 0
0 0.59736 0
0 0.61796 0
0 0.63856 0
0 0.659159 0
0.0327611 0.0120394 0.0728466
0 0.0326238 0.0668803
0 0.0532235 0.0608988
0 0.0738231 0.0549172
0 0.0944228 0.0489509
0 0.115023 0.0429694
0 0.135622 0.0370031
0 0.156222 0.0310216
0 0.176822 0.0250553
0 0.197421 0.0190738
0 0.218021 0.0131075
0 0.238621 0.00712596
0 0.25922 0.00115969
0 0.27982 0
0 0.30042 0
0 0.321019 0
0 0.341619 0
0 0.362203 0
0 0.382803 0
0 0.403403 0
0 0.424002 0
0 0.444602 0
0 0.465202 0
0 0.485801 0
0 0.506401 0
0 0.527001 0
0 0.547601 0
0 0.5682 0
0 0.5888 0
0 0.6094 0
0 0.629999 0
0 0.650599 0
0 0.671199 0
0.0655375 0.024094 0.145724
0.0307012 0.0446784 0.139757
0 0.0652781 0.133776
0 0.0858778 0.12781
0 0.106477 0.121828
0 0.127077 0.115862
0 0.147677 0.10988
0 0.168276 0.103914
0 0.188861 0.0979324
0 0.209461 0.0919509
0 0.23006 0.0859846
0 0.25066 0.0800031
0 0.27126 0.0740368
0 0.291859 0.0680552
0 0.312459 0.062089
0 0.333059 0.0561074
0 0.353658 0.0501411
0 0.374258 0.0441596
0 0.394858 0.0381933
0 0.415457 0.0322118
0 0.436057 0.0262303
0 0.456657 0.020264
0 0.477256 0.0142824
0 0.497856 0.00831617
0 0.518456 0.00233463
0 0.53904 0
0 0.55964 0
0 0.58024 0
0 0.600839 0
0 0.621439 0
0 0.642039 0
0 0.662638 0
0 0.683238 0
0.0983139 0.0361334 0.218601
0.0634928 0.0567178 0.212634
0.0286412 0.0773175 0.206668
0 0.0979171 0.200687
0 0.118517 0.194705
0 0.139116 0.188739
0 0.159716 0.182757
0 0.180316 0.176791
0 0.200916 0.170809
0 0.221515 0.164843
0 0.242115 0.158862
0 0.262715 0.152895
0 0.283314 0.146914
0 0.303914 0.140948
0 0.324514 0.134966
0 0.345113 0.128985
0 0.365698 0.123018
0 0.386297 0.117037
0 0.406897 0.11107
0 0.427497 0.105089
0 0.448096 0.0991226
0 0.468696 0.0931411
0 0.489296 0.0871748
0 0.509896 0.0811933
0 0.530495 0.075227
0 0.551095 0.0692454
0 0.571694 0.0632639
0 0.592294 0.0572976
0 0.612894 0.0513161
0 0.633494 0.0453498
0 0.654093 0.0393683
0 0.674693 0.033402
0 0.695293 0.0274205
0.131106 0.048188 0.291493
0.0962692 0.0687724 0.285512
0.0614176 0.0893721 0.279545
0.026566 0.109972 0.273564
0 0.130571 0.267597
0 0.151171 0.261616
0 0.171771 0.25565
0 0.192355 0.249668
0 0.212955 0.243702
0 0.233555 0.23772
0 0.254154 0.231739
0 0.274754 0.225772
0 0.295354 0.219791
0 0.315953 0.213825
0 0.336553 0.207843
0 0.357153 0.201877
0 0.377752 0.195895
0 0.398352 0.189929
0 0.418952 0.183948
0 0.439551 0.177981
0 0.460151 0.172
0 0.480751 0.166018
0 0.50135 0.160052
0 0.52195 0.15407
0 0.542535 0.148104
0 0.563134 0.142123
0 0.583734 0.136156
0 0.604334 0.130175
0 0.624933 0.124208
0 0.645533 0.118227
0 0.666133 0.112261
0 0.686732 0.106279
0 0.707332 0.100298
0.163882 0.0602274 0.36437
0.129046 0.0808118 0.358404
0.0941939 0.101411 0.352422
0.0593423 0.122011 0.346456
0.0244907 0.142611 0.340475
0 0.16321 0.334493
0 0.18381 0.328527
0 0.20441 0.322545
0 0.22501 0.316579
0 0.245609 0.310597
0 0.266209 0.304631
0 0.286809 0.29865
0 0.307408 0.292683
0 0.328008 0.286702
0 0.348608 0.280735
0 0.369192 0.274754
0 0.389792 0.268772
0 0.410391 0.262806
0 0.430991 0.256825
0 0.451591 0.250858
0 0.47219 0.244877
0 0.49279 0.238911
0 0.51339 0.232929
0 0.533989 0.226963
0 0.554589 0.220981
0 0.575189 0.215015
0 0.595789 0.209033
0 0.616388 0.203052
0 0.636988 0.197086
0 0.657588 0.191104
0 0.678187 0.185138
0 0.698787 0.179156
0 0.719387 0.17319
0.196658 0.0722667 0.437247
0.161822 0.0928664 0.431281
0.12697 0.113466 0.425299
0.0921187 0.134066 0.419333
0.0572671 0.154665 0.413352
0.0224155 0.175265 0.407385
0 0.19585 0.401404
0 0.216449 0.395438
0 0.237049 0.389456
0 0.257649 0.38349
0 0.278248 0.377508
0 0.298848 0.371527
0 0.319448 0.36556
0 0.340047 0.359579
0 0.360647 0.353613
0 0.381247 0.347631
0 0.401846 0.341665
0 0.422446 0.335683
0 0.443046 0.329717
0 0.463645 0.323735
0 0.484245 0.317769
0 0.504845 0.311788
0 0.525444 0.305806
0 0.546044 0.29984
0 0.566629 0.293858
0 0.587228 0.287892
0 0.607828 0.28191
0 0.628428 0.275944
0 0.649027 0.269963
0 0.669627 0.263996
0 0.690227 0.258015
0 0.710826 0.252049
0 0.731426 0.246067
0.229435 0.0843214 0.51014
0.194598 0.104906 0.504158
0.159747 0.125505 0.498192
0.124895 0.146105 0.49221
0.0900435 0.166705 0.486244
0.0551919 0.187304 0.480262
0.0203403 0.207904 0.474281
0 0.228504 0.468315
0 0.249104 0.462333
0 0.269703 0.456367
0 0.290303 0.450385
0 0.310903 0.444419
0 0.331502 0.438437
0 0.352102 0.432471
0 0.372686 0.42649
0 0.393286 0.420523
0 0.413886 0.414542
0 0.434485 0.40856
0 0.455085 0.402594
0 0.475685 0.396612
0 0.496284 0.390646
0 0.516884 0.384665
0 0.537484 0.378698
0 0.558083 0.372717
0 0.578683 0.366751
0 0.599283 0.360769
0 0.619883 0.354803
0 0.640482 0.348821
0 0.661082 0.34284
0 0.681682 0.336873
0 0.702281 0.330892
0 0.722881 0.324926
0 0.743465 0.318944
0.262211 0.0963607 0.583017
0.227375 0.11696 0.577035
0.192523 0.13756 0.571069
0.157671 0.15816 0.565087
0.12282 0.178759 0.559121
0.0879683 0.199344 0.55314
0.0531167 0.219944 0.547173
0.018265 0.240543 0.541192
0 0.261143 0.535225
0 0.281743 0.529244
0 0.302342 0.523278
0 0.322942 0.517296
0 0.343542 0.511315
0 0.364141 0.505348
0 0.384741 0.499367
0 0.405341 0.4934
0 0.42594 0.487419
0 0.44654 0.481453
0 0.46714 0.475471
0 0.487739 0.469505
0 0.508339 0.463523
0 0.528939 0.457557
0 0.549538 0.451575
0 0.570123 0.445594
0 0.590723 0.439628
0 0.611322 0.433646
0 0.631922 0.42768
0 0.652522 0.421698
0 0.673121 0.415732
0 0.693721 0.409751
0 0.714321 0.403784
0 0.73492 0.397803
0 0.75552 0.391836
0.294987 0.108415 0.655894
0.260151 0.129 0.649927
0.225299 0.149599 0.643946
0.190448 0.170199 0.63798
0.155596 0.190799 0.631998
0.120745 0.211398 0.626032
0.0859083 0.231998 0.62005
0.0510567 0.252598 0.614069
0.0162051 0.273198 0.608103
0 0.293797 0.602121
0 0.314397 0.596155
0 0.334997 0.590173
0 0.355596 0.584207
0 0.376181 0.578225
0 0.39678 0.572259
0 0.41738 0.566278
0 0.43798 0.560311
0 0.458579 0.55433
0 0.479179 0.548348
0 0.499779 0.542382
0 0.520378 0.5364
0 0.540978 0.530434
0 0.561578 0.524453
0 0.582177 0.518486
0 0.602777 0.512505
0 0.623377 0.506539
0 0.643977 0.500557
0 0.664576 0.494591
0 0.685176 0.488609
0 0.705776 0.482628
0 0.726375 0.476661
0 0.74696 0.47068
0 0.767559 0.464714
0.327764 0.120455 0.728771
0.292943 0.141054 0.722805
0.258091 0.161654 0.716823
0.223239 0.182254 0.710857
0.188388 0.202838 0.704875
0.153536 0.223438 0.698909
0.118685 0.244038 0.692927
0.0838331 0.264637 0.686961
0.0489815 0.285237 0.68098
0.0141299 0.305837 0.675013
0 0.326436 0.669032
0 0.347036 0.663066
0 0.367636 0.657084
0 0.388235 0.651102
0 0.408835 0.645136
0 0.429435 0.639155
0 0.450034 0.633188
0 0.470634 0.627207
0 0.491234 0.621241
0 0.511833 0.615259
0 0.532433 0.609293
0 0.553033 0.603311
0 0.573617 0.597345
0 0.594217 0.591363
0 0.614816 0.585382
0 0.635416 0.579416
0 0.656016 0.573434
0 0.676616 0.567468
0 0.697215 0.561486
0 0.717815 0.55552
0 0.738415 0.549538
0 0.759014 0.543572
0 0.779614 0.537591
0.360555 0.132509 0.801663
0.325719 0.153094 0.795682
0.290867 0.173693 0.789715
0.256016 0.194293 0.783734
0.221164 0.214893 0.777768
0.186313 0.235492 0.771786
0.151461 0.256092 0.76582
0.116609 0.276692 0.759838
0.0817578 0.297292 0.753857
0.0469062 0.317891 0.74789
0.0120546 0.338491 0.741909
0 0.359091 0.735943
0 0.37969 0.729961
0 0.400275 0.723995
0 0.420874 0.718013
0 0.441474 0.712047
0 0.462074 0.706065
0 0.482673 0.700099
0 0.503273 0.694118
0 0.523873 0.688136
0 0.544472 0.68217
0 0.565072 0.676188
0 0.585672 0.670222
0 0.606271 0.66424
0 0.626871 0.658274
0 0.647471 0.652293
0 0.66807 0.646326
0 0.68867 0.640345
0 0.70927 0.634379
0 0.72987 0.628397
0 0.750454 0.622415
0 0.771054 0.616449
0 0.791653 0.610468
0.393332 0.144549 0.87454
0.358495 0.165148 0.868574
0.323644 0.185748 0.862593
0.288792 0.206332 0.856611
0.253941 0.226932 0.850645
0.219089 0.247532 0.844663
0.184237 0.268132 0.838697
0.149386 0.288731 0.832715
0.114534 0.309331 0.826749
0.0796826 0.329931 0.820768
0.044831 0.35053 0.814801
0.0099794 0.37113 0.80882
0 0.39173 0.802853
0 0.412329 0.796872
0 0.432929 0.79089
0 0.453529 0.784924
0 0.474128 0.778943
0 0.494728 0.772976
0 0.515328 0.766995
0 0.535927 0.761028
0 0.556527 0.755047
0 0.577111 0.749081
0 0.597711 0.743099
0 0.618311 0.737133
0 0.638911 0.731151
0 0.65951 0.72517
0 0.68011 0.719203
0 0.70071 0.713222
0 0.721309 0.707256
0 0.741909 0.701274
0 0.762509 0.695308
0 0.783108 0.689326
0 0.803708 0.68336
0.426108 0.156603 0.947417
0.391272 0.177188 0.941451
0.35642 0.197787 0.93547
0.321569 0.218387 0.929503
0.286717 0.238987 0.923522
0.251865 0.259586 0.917556
0.217014 0.280186 0.911574
0.182162 0.300786 0.905608
0.147311 0.321386 0.899626
0.112459 0.341985 0.893645
0.0776074 0.362585 0.887678
0.0427558 0.383185 0.881697
0.00790417 0.403769 0.875731
0 0.424369 0.869749
0 0.444968 0.863783
0 0.465568 0.857801
0 0.486168 0.851835
0 0.506767 0.845853
0 0.527367 0.839887
0 0.547967 0.833906
0 0.568566 0.827924
0 0.589166 0.821958
0 0.609766 0.815976
0 0.630365 0.81001
0 0.650965 0.804028
0 0.671565 0.798062
0 0.692164 0.792081
0 0.712764 0.786114
0 0.733364 0.780133
0 0.753948 0.774166
0 0.774548 0.768185
0 0.795148 0.762203
0 0.815747 0.756237
0.458885 0.168643 1
0.424048 0.189242 1
0.389197 0.209827 1
0.354345 0.230426 1
0.319493 0.251026 0.996399
0.284642 0.271626 0.990433
0.24979 0.292226 0.984451
0.214939 0.312825 0.978485
0.180087 0.333425 0.972503
0.145235 0.354025 0.966537
0.110384 0.374624 0.960555
0.0755322 0.395224 0.954589
0.0406806 0.415824 0.948608
0.00582895 0.436423 0.942641
0 0.457023 0.93666
0 0.477623 0.930678
0 0.498222 0.924712
0 0.518822 0.91873
0 0.539422 0.912764
0 0.560021 0.906783
0 0.580606 0.900816
0 0.601205 0.894835
0 0.621805 0.888869
0 0.642405 0.882887
0 0.663005 0.876921
0 0.683604 0.870939
0 0.704204 0.864958
0 0.724804 0.858991
0 0.745403 0.85301
0 0.766003 0.847044
0 0.786603 0.841062
0 0.807202 0.835096
0 0.827802 0.829114
0.491661 0.180697 1
0.456825 0.201282 1
0.421973 0.221881 1
0.387121 0.242481 1
0.35227 0.263081 1
0.317418 0.28368 1
0.282567 0.30428 1
0.247715 0.32488 1
0.212863 0.34548 1
0.178012 0.366079 1
0.14316 0.386679 1
0.108309 0.407263 1
0.0734722 0.427863 1
0.0386206 0.448463 1
0.00376898 0.469062 1
0 0.489662 1
0 0.510262 0.997589
0 0.530861 0.991623
0 0.551461 0.985641
0 0.572061 0.979675
0 0.59266 0.973693
0 0.61326 0.967712
0 0.63386 0.961746
0 0.654459 0.955764
0 0.675059 0.949798
0 0.695659 0.943816
0 0.716258 0.93785
0 0.736858 0.931868
0 0.757443 0.925902
0 0.778042 0.919921
0 0.798642 0.913954
0 0.819242 0.907973
0 0.839841 0.901991
0.524437 0.192737 1
0.489601 0.213336 1
0.454749 0.233921 1
0.419898 0.25452 1
0.385046 0.27512 1
0.350195 0.29572 1
0.315358 0.31632 1
0.280507 0.336919 1
0.245655 0.357519 1
0.210803 0.378119 1
0.175952 0.398718 1
0.1411 0.419318 1
0.106249 0.439918 1
0.071397 0.460517 1
0.0365454 0.481117 1
0.00169375 0.501717 1
0 0.522316 1
0 0.542916 1
0 0.563516 1
0 0.5841 1
0 0.6047 1
0 0.625299 1
0 0.645899 1
0 0.666499 1
0 0.687099 1
0 0.707698 1
0 0.728298 1
0 0.748898 1
0 0.769497 0.998779
0 0.790097 0.992798
0 0.810697 0.986831
0 0.831296 0.98085
0 0.851896 0.974884
0.557214 0.204791 1
0.522393 0.225376 1
0.487541 0.245975 1
0.452689 0.266575 1
0.417838 0.287175 1
0.382986 0.307774 1
0.348135 0.328374 1
0.313283 0.348974 1
0.278431 0.369574 1
0.24358 0.390173 1
0.208728 0.410758 1
0.173877 0.431357 1
0.139025 0.451957 1
0.104173 0.472557 1
0.0693217 0.493156 1
0.0344701 0.513756 1
0 0.534356 1
0 0.554955 1
0 0.575555 1
0 0.596155 1
0 0.616754 1
0 0.637354 1
0 0.657954 1
0 0.678553 1
0 0.699153 1
0 0.719753 1
0 0.740353 1
0 0.760952 1
0 0.781537 1
0 0.802136 1
0 0.822736 1
0 0.843336 1
0 0.863935 1
0.590005 0.216831 1
0.555169 0.237415 1
0.520317 0.258015 1
0.485466 0.278614 1
0.450614 0.299214 1
0.415763 0.319814 1
0.380911 0.340414 1
0.346059 0.361013 1
0.311208 0.381613 1
0.276356 0.402213 1
0.241505 0.422812 1
0.206653 0.443412 1
0.171801 0.464012 1
0.13695 0.484611 1
0.102098 0.505211 1
0.0672465 0.525811 1
0.0323949 0.54641 1
0 0.56701 1
0 0.587594 1
0 0.608194 1
0 0.628794 1
0 0.649393 1
0 0.669993 1
0 0.690593 1
0 0.711192 1
0 0.731792 1
0 0.752392 1
0 0.772992 1
0 0.793591 1
0 0.814191 1
0 0.834791 1
0 0.85539 1
0 0.87599 1
0.622782 0.228885 1
0.587945 0.24947 1
0.553094 0.270069 1
0.518242 0.290669 1
0.483391 0.311269 1
0.448539 0.331868 1
0.413687 0.352468 1
0.378836 0.373068 1
0.343984 0.393668 1
0.309133 0.414252 1
0.274281 0.434852 1
0.239429 0.455451 1
0.204578 0.476051 1
0.169726 0.496651 1
0.134874 0.51725 1
0.100023 0.53785 1
0.0651713 0.55845 1
0.0303197 0.579049 1
0 0.599649 1
0 0.620249 1
0 0.640848 1
0 0.661448 1
0 0.682048 1
0 0.702647 1
0 0.723247 1
0 0.743847 1
0 0.764446 1
0 0.785031 1
0 0.805631 1
0 0.82623 1
0 0.84683 1
0 0.86743 1
0 0.888029 1
0.655558 0.240925 1
0.620722 0.261509 1
0.58587 0.282109 1
0.551019 0.302708 1
0.516167 0.323308 1
0.481315 0.343908 1
0.446464 0.364508 1
0.411612 0.385107 1
0.376761 0.405707 1
0.341909 0.426307 1
0.307057 0.446906 1
0.272206 0.467506 1
0.237354 0.488106 1
0.202502 0.508705 1
0.167651 0.529305 1
0.132799 0.549905 1
0.0979477 0.570504 1
0.0630961 0.591089 1
0.0282444 0.611688 1
0 0.632288 1
0 0.652888 1
0 0.673487 1
0 0.694087 1
0 0.714687 1
0 0.735286 1
0 0.755886 1
0 0.776486 1
0 0.797086 1
0 0.817685 1
0 0.838285 1
0 0.858885 1
0 0.879484 1
0 0.900084 1
0.688334 0.252979 1
0.653498 0.273564 1
0.618647 0.294163 1
0.583795 0.314763 1
0.548943 0.335363 1
0.514092 0.355962 1
0.47924 0.376562 1
0.444389 0.397162 1
0.409537 0.417746 1
0.374685 0.438346 1
0.339834 0.458946 1
0.304982 0.479545 1
0.27013 0.500145 1
0.235279 0.520745 1
0.200427 0.541344 1
0.165576 0.561944 1
0.130724 0.582544 1
0.0958724 0.603143 1
0.0610361 0.623743 1
0.0261845 0.644343 1
0 0.664942 1
0 0.685542 1
0 0.706142 1
0 0.726741 1
0 0.747341 1
0 0.767941 1
0 0.788525 1
0 0.809125 1
0 0.829725 1
0 0.850324 1
0 0.870924 1
0 0.891524 1
0 0.912123 1
0.721111 0.265019 1
0.686275 0.285603 1
0.651423 0.306203 1
0.616571 0.326802 1
0.58172 0.347402 1
0.546868 0.368002 1
0.512016 0.388602 1
0.477165 0.409201 1
0.442313 0.429801 1
0.407462 0.450401 1
0.37261 0.471 1
0.337758 0.4916 1
0.302922 0.5122 1
0.26807 0.532799 1
0.233219 0.553399 1
0.198367 0.573999 1
0.163516 0.594598 1
0.128664 0.615183 1
0.0938125 0.635782 1
0.0589609 0.656382 1
0.0241093 0.676982 1
0 0.697581 1
0 0.718181 1
0 0.738781 1
0 0.75938 1
0 0.77998 1
0 0.80058 1
0 0.82118 1
0 0.841779 1
0 0.862379 1
0 0.882979 1
0 0.903578 1
0 0.924178 1
0.753887 0.277073 1
0.719051 0.297658 1
0.684199 0.318257 1
0.649348 0.338857 1
0.614496 0.359457 1
0.579644 0.380056 1
0.544808 0.400656 1
0.509957 0.421241 1
0.475105 0.44184 1
0.440253 0.46244 1
0.405402 0.48304 1
0.37055 0.503639 1
0.335698 0.524239 1
0.300847 0.544839 1
0.265995 0.565438 1
0.231144 0.586038 1
0.196292 0.606638 1
0.16144 0.627237 1
0.126589 0.647837 1
0.0917372 0.668437 1
0.0568856 0.689036 1
0.022034 0.709636 1
0 0.730236 1
0 0.750835 1
0 0.771435 1
0 0.79202 1
0 0.812619 1
0 0.833219 1
0 0.853819 1
0 0.874418 1
0 0.895018 1
0 0.915618 1
0 0.936217 1
0.786664 0.289113 1
0.751842 0.309697 1
0.716991 0.330297 1
0.682139 0.350896 1
0.647288 0.371496 1
0.612436 0.392096 1
0.577585 0.412695 1
0.542733 0.433295 1
0.507881 0.453895 1
0.47303 0.474495 1
0.438178 0.495094 1
0.403326 0.515694 1
0.368475 0.536294 1
0.333623 0.556893 1
0.298772 0.577493 1
0.26392 0.598093 1
0.229068 0.618677 1
0.194217 0.639277 1
0.159365 0.659876 1
0.124514 0.680476 1
0.089662 0.701076 1
0.0548104 0.721675 1
0.0199588 0.742275 1
0 0.762875 1
0 0.783475 1
0 0.804074 1
0 0.824674 1
0 0.845273 1
0 0.865873 1
0 0.886473 1
0 0.907073 1
0 0.927672 1
0 0.948272 1
0.819455 0.301152 1
0.784619 0.321752 1
0.749767 0.342351 1
0.714916 0.362951 1
0.680064 0.383551 1
0.645212 0.40415 1
0.610361 0.424735 1
0.575509 0.445335 1
0.540658 0.465934 1
0.505806 0.486534 1
0.470954 0.507134 1
0.436103 0.527733 1
0.401251 0.548333 1
0.3664 0.568933 1
0.331548 0.589532 1
0.296696 0.610132 1
0.261845 0.630732 1
0.226993 0.651331 1
0.192142 0.671931 1
0.15729 0.692531 1
0.122438 0.71313 1
0.0875868 0.73373 1
0.0527352 0.75433 1
0.0178836 0.774929 1
0 0.795514 1
0 0.816114 1
0 0.836713 1
0 0.857313 1
0 0.877913 1
0 0.898512 1
0 0.919112 1
0 0.939712 1
0 0.960311 1
0.852232 0.313207 1
0.817395 0.333791 1
0.782544 0.354391 1
0.747692 0.37499 1
0.71284 0.39559 1
0.677989 0.41619 1
0.643137 0.43679 1
0.608286 0.457389 1
0.573434 0.477989 1
0.538582 0.498589 1
0.503731 0.519188 1
0.468879 0.539788 1
0.434028 0.560388 1
0.399176 0.580987 1
0.364324 0.601587 1
0.329473 0.622171 1
0.294621 0.642771 1
0.25977 0.663371 1
0.224918 0.68397 1
0.190066 0.70457 1
0.155215 0.72517 1
0.120363 0.745769 1
0.0855116 0.766369 1
0.05066 0.786969 1
0.0158083 0.807568 1
0 0.828168 1
0 0.848768 1
0 0.869368 1
0 0.889967 1
0 0.910567 1
0 0.931167 1
0 0.951766 1
0 0.972351 1
0.885008 0.325246 1
0.850172 0.345846 1
0.81532 0.366445 1
0.780468 0.387045 1
0.745617 0.407645 1
0.710765 0.428229 1
0.675914 0.448829 1
0.641062 0.469429 1
0.60621 0.490028 1
