public/LUTS/Color Shift/ColorShift_28.cube
TITLE "Generated by Resolve"
LUT_3D_SIZE 33
0 0 0
0.0309148 0 0.0139315
0.0618296 0 0.027863
0.0927596 0 0.0418097
0.123674 0 0.0557412
0.154604 0 0.069688
0.185534 0 0.0836194
0.216449 0 0.0975509
0.247379 0 0.111498
0.278294 0 0.125429
0.309224 0 0.139361
0.340139 0 0.153307
0.371069 0 0.167239
0.401999 0 0.181186
0.432914 0 0.195117
0.463844 0 0.209049
0.494759 0 0.222995
0.525689 0 0.236927
0.556619 0 0.250874
0.587533 0 0.264805
0.618463 0 0.278737
0.649378 0 0.292683
0.680308 0 0.306615
0.711223 0 0.320562
0.742153 0 0.334493
0.773083 0 0.348424
0.803998 0 0.362371
0.834928 0 0.376303
0.865843 0 0.390234
0.896773 0 0.404181
0.927703 0 0.418112
0.958618 0 0.432059
0.989548 0 0.445991
0.0154574 0.0276493 0
0.0463569 0.0259556 0.00581369
0.0772869 0.0242618 0.0197452
0.108217 0.0225681 0.0336767
0.139132 0.0208743 0.0476234
0.170062 0.0191806 0.0615549
0.200977 0.0174868 0.0754864
0.231907 0.0157931 0.0894331
0.262821 0.0140993 0.103365
0.293751 0.0124056 0.117311
0.324681 0.0107118 0.131243
0.355596 0.00900282 0.145174
0.386526 0.00730907 0.159121
0.417441 0.00561532 0.173053
0.448371 0.00392157 0.186999
0.479301 0.00222782 0.200931
0.510216 0.000534066 0.214862
0.541146 0 0.228809
0.572061 0 0.242741
0.602991 0 0.256687
0.633906 0 0.270619
0.664836 0 0.28455
0.695766 0 0.298497
0.72668 0 0.312428
0.75761 0 0.326375
0.788525 0 0.340307
0.819455 0 0.354238
0.850385 0 0.368185
0.8813 0 0.382116
0.91223 0 0.396048
0.943145 0 0.409995
0.974075 0 0.423926
1 0 0.437873
0.0309148 0.0552987 0
0.0618296 0.0536049 0
0.0927443 0.0519112 0.0116121
0.123674 0.0502174 0.0255589
0.154589 0.0485237 0.0394903
0.185519 0.0468299 0.0534218
0.216449 0.0451362 0.0673686
0.247364 0.0434424 0.0813001
0.278294 0.0417487 0.0952468
0.309209 0.0400549 0.109178
0.340139 0.0383612 0.12311
0.371054 0.0366674 0.137057
0.401984 0.0349737 0.150988
0.432914 0.0332799 0.164935
0.463828 0.0315862 0.178866
0.494759 0.0298924 0.192798
0.525673 0.0281987 0.206744
0.556603 0.0265049 0.220676
0.587533 0.0248112 0.234607
0.618448 0.0231174 0.248554
0.649378 0.0214237 0.262486
0.680293 0.0197299 0.276432
0.711223 0.0180362 0.290364
0.742153 0.0163424 0.304295
0.773068 0.0146487 0.318242
0.803998 0.0129549 0.332174
0.834913 0.0112612 0.34612
0.865843 0.00956741 0.360052
0.896757 0.00787366 0.373983
0.927687 0.0061799 0.38793
0.958618 0.00448615 0.401862
0.989532 0.0027924 0.415808
1 0.00109865 0.42974
0.0463722 0.0829633 0
0.0772869 0.0812695 0
0.108217 0.0795758 0.00349432
0.139132 0.0778821 0.0174258
0.170062 0.0761883 0.0313573
0.200977 0.0744945 0.045304
0.231907 0.0728008 0.0592355
0.262821 0.071107 0.0731823
0.293751 0.0694133 0.0871138
0.324681 0.0677195 0.101045
0.355596 0.0660258 0.114992
0.386526 0.0643168 0.128923
0.417441 0.062623 0.142855
0.448371 0.0609293 0.156802
0.479301 0.0592355 0.170733
0.510216 0.0575418 0.18468
0.541146 0.055848 0.198611
0.572061 0.0541543 0.212543
0.602991 0.0524605 0.22649
0.633906 0.0507668 0.240421
0.664836 0.049073 0.254368
0.695766 0.0473793 0.268299
0.72668 0.0456855 0.282231
0.75761 0.0439918 0.296178
0.788525 0.042298 0.310109
0.819455 0.0406043 0.324056
0.850385 0.0389105 0.337987
0.8813 0.0372168 0.351919
0.91223 0.035523 0.365866
0.943145 0.0338293 0.379797
0.974075 0.0321355 0.393729
1 0.0304417 0.407675
1 0.028748 0.421607
0.0618448 0.110613 0
0.0927443 0.108919 0
0.123674 0.107225 0
0.154589 0.105531 0.00929274
0.185519 0.103838 0.0232395
0.216449 0.102144 0.037171
0.247364 0.10045 0.0511025
0.278294 0.0987564 0.0650492
0.309209 0.0970626 0.0789807
0.340139 0.0953689 0.0929274
0.371054 0.0936751 0.106859
0.401984 0.0919814 0.12079
0.432914 0.0902876 0.134737
0.463828 0.0885939 0.148669
0.494759 0.0869001 0.162615
0.525673 0.0852064 0.176547
0.556603 0.0835126 0.190478
0.587533 0.0818189 0.204425
0.618448 0.0801251 0.218357
0.649378 0.0784314 0.232303
0.680293 0.0767376 0.246235
0.711223 0.0750439 0.260166
0.742138 0.0733501 0.274113
0.773068 0.0716564 0.288045
0.803998 0.0699626 0.301976
0.834913 0.0682689 0.315923
0.865843 0.0665751 0.329854
0.896757 0.0648814 0.343801
0.927687 0.0631876 0.357733
0.958618 0.0614939 0.371664
0.989532 0.0598001 0.385611
1 0.0581064 0.399542
1 0.0564126 0.413489
0.0773022 0.138277 0
0.108217 0.136584 0
0.139132 0.13489 0
0.170062 0.133196 0.00117494
0.200977 0.131502 0.0151064
0.231907 0.129809 0.0290379
0.262821 0.128115 0.0429847
0.293751 0.126421 0.0569162
0.324681 0.124727 0.0708629
0.355596 0.123033 0.0847944
0.386526 0.121324 0.0987259
0.417441 0.119631 0.112673
0.448371 0.117937 0.126604
0.479301 0.116243 0.140551
0.510216 0.114549 0.154482
0.541146 0.112856 0.168414
0.572061 0.111162 0.182361
0.602991 0.109468 0.196292
0.633906 0.107774 0.210224
0.664836 0.106081 0.22417
0.695766 0.104387 0.238102
0.72668 0.102693 0.252049
0.75761 0.100999 0.26598
0.788525 0.0993057 0.279911
0.819455 0.097612 0.293858
0.850385 0.0959182 0.30779
0.8813 0.0942245 0.321736
0.91223 0.0925307 0.335668
0.943145 0.090837 0.349599
0.974075 0.0891432 0.363546
1 0.0874495 0.377478
1 0.0857557 0.391424
1 0.084062 0.405356
0.0927596 0.165927 0
0.123674 0.164233 0
0.154589 0.162539 0
0.185519 0.160845 0
0.216449 0.159152 0.00697337
0.247364 0.157458 0.0209201
0.278294 0.155764 0.0348516
0.309209 0.15407 0.0487831
0.340139 0.152377 0.0627298
0.371054 0.150683 0.0766613
0.401984 0.148989 0.0906081
0.432914 0.147295 0.10454
0.463828 0.145602 0.118471
0.494759 0.143908 0.132418
0.525673 0.142214 0.146349
0.556603 0.14052 0.160296
0.587533 0.138827 0.174228
0.618448 0.137133 0.188159
0.649378 0.135439 0.202106
0.680293 0.133745 0.216037
0.711223 0.132052 0.229984
0.742138 0.130358 0.243915
0.773068 0.128664 0.257847
0.803998 0.12697 0.271794
0.834913 0.125277 0.285725
0.865843 0.123583 0.299672
0.896757 0.121889 0.313603
0.927687 0.120195 0.327535
0.958618 0.118502 0.341482
0.989532 0.116808 0.355413
1 0.115114 0.369345
1 0.11342 0.383291
1 0.111727 0.397223
0.108217 0.193591 0
0.139132 0.191897 0
0.170062 0.190204 0
0.200977 0.18851 0
0.231907 0.186816 0
0.262821 0.185122 0.0127871
0.293751 0.183429 0.0267185
0.324681 0.181735 0.0406653
0.355596 0.180041 0.0545968
0.386526 0.178347 0.0685435
0.417441 0.176638 0.082475
0.448371 0.174945 0.0964065
0.479286 0.173251 0.110353
0.510216 0.171557 0.124285
0.541146 0.169863 0.138231
0.572061 0.16817 0.152163
0.602991 0.166476 0.166094
0.633906 0.164782 0.180041
0.664836 0.163088 0.193973
0.695766 0.161395 0.207904
0.72668 0.159701 0.221851
0.75761 0.158007 0.235782
0.788525 0.156313 0.249729
0.819455 0.15462 0.263661
0.85037 0.152926 0.277592
0.8813 0.151232 0.291539
0.91223 0.149538 0.30547
0.943145 0.147845 0.319417
0.974075 0.146151 0.333349
1 0.144457 0.34728
1 0.142763 0.361227
1 0.14107 0.375158
1 0.139376 0.389105
0.12369 0.221241 0
0.154589 0.219547 0
0.185519 0.217853 0
0.216449 0.216159 0
0.247364 0.214466 0
0.278294 0.212772 0.004654
0.309209 0.211078 0.0186007
0.340139 0.209384 0.0325322
0.371054 0.207691 0.046479
0.401984 0.205997 0.0604105
0.432914 0.204303 0.074342
0.463828 0.202609 0.0882887
0.494759 0.200916 0.10222
0.525673 0.199222 0.116152
0.556603 0.197528 0.130098
0.587533 0.195834 0.14403
0.618448 0.194141 0.157977
0.649378 0.192447 0.171908
0.680293 0.190753 0.18584
0.711223 0.189059 0.199786
0.742138 0.187366 0.213718
0.773068 0.185672 0.227665
0.803998 0.183978 0.241596
0.834913 0.182284 0.255528
0.865843 0.180591 0.269474
0.896757 0.178897 0.283406
0.927687 0.177203 0.297353
0.958618 0.175509 0.311284
0.989532 0.173816 0.325216
1 0.172122 0.339162
1 0.170428 0.353094
1 0.168734 0.367025
1 0.167041 0.380972
0.139147 0.248905 0
0.170062 0.247211 0
0.200977 0.245518 0
0.231907 0.243824 0
0.262821 0.24213 0
0.293751 0.240436 0
0.324681 0.238743 0.0104677
0.355596 0.237049 0.0243992
0.386526 0.235355 0.0383459
0.417441 0.233661 0.0522774
0.448371 0.231952 0.0662242
0.479286 0.230259 0.0801556
0.510216 0.228565 0.0940871
0.541146 0.226871 0.108034
0.572061 0.225177 0.121965
0.602991 0.223484 0.135912
0.633906 0.22179 0.149844
0.664836 0.220096 0.163775
0.695766 0.218402 0.177722
0.72668 0.216709 0.191653
0.75761 0.215015 0.2056
0.788525 0.213321 0.219532
0.819455 0.211627 0.233463
0.85037 0.209934 0.24741
0.8813 0.20824 0.261341
0.91223 0.206546 0.275273
0.943145 0.204852 0.289219
0.974075 0.203159 0.303151
1 0.201465 0.317098
1 0.199771 0.331029
1 0.198077 0.344961
1 0.196384 0.358907
1 0.19469 0.372839
0.154604 0.276555 0
0.185519 0.274861 0
0.216434 0.273167 0
0.247364 0.271473 0
0.278294 0.26978 0
0.309209 0.268086 0
0.340139 0.266392 0.00233463
0.371054 0.264698 0.0162814
0.401984 0.263005 0.0302129
0.432914 0.261311 0.0441596
0.463828 0.259617 0.0580911
0.494759 0.257923 0.0720226
0.525673 0.256229 0.0859693
0.556603 0.254536 0.0999008
0.587518 0.252842 0.113848
0.618448 0.251148 0.127779
0.649378 0.249454 0.141711
0.680293 0.247761 0.155657
0.711223 0.246067 0.169589
0.742138 0.244373 0.18352
0.773068 0.242679 0.197467
0.803998 0.240986 0.211398
0.834913 0.239292 0.225345
0.865843 0.237598 0.239277
0.896757 0.235904 0.253208
0.927687 0.234211 0.267155
0.958602 0.232517 0.281086
0.989532 0.230823 0.295033
1 0.229129 0.308965
1 0.227436 0.322896
1 0.225742 0.336843
1 0.224048 0.350774
1 0.222354 0.364721
0.170077 0.304219 0
0.200977 0.302525 0
0.231907 0.300832 0
0.262821 0.299138 0
0.293751 0.297444 0
0.324681 0.29575 0
0.355596 0.294057 0
0.386526 0.292363 0.00814832
0.417441 0.290669 0.0220798
0.448371 0.28896 0.0360266
0.479286 0.287266 0.049958
0.510216 0.285573 0.0639048
0.541146 0.283879 0.0778363
0.572061 0.282185 0.0917678
0.602991 0.280491 0.105715
0.633906 0.278798 0.119646
0.664836 0.277104 0.133593
0.695766 0.27541 0.147524
0.72668 0.273716 0.161456
0.75761 0.272023 0.175402
0.788525 0.270329 0.189334
0.819455 0.268635 0.203281
0.85037 0.266941 0.217212
0.8813 0.265248 0.231144
0.91223 0.263554 0.24509
0.943145 0.26186 0.259022
0.974075 0.260166 0.272969
1 0.258473 0.2869
1 0.256779 0.300832
1 0.255085 0.314778
1 0.253391 0.32871
1 0.251698 0.342641
1 0.250004 0.356588
0.185534 0.331868 0
0.216434 0.330175 0
0.247364 0.328481 0
0.278294 0.326787 0
0.309209 0.325093 0
0.340139 0.3234 0
0.371054 0.321706 0
0.401984 0.320012 1.5259e-05
0.432914 0.318318 0.013962
0.463828 0.316625 0.0278935
0.494759 0.314931 0.0418402
0.525673 0.313237 0.0557717
0.556603 0.311543 0.0697032
0.587518 0.30985 0.08365
0.618448 0.308156 0.0975814
0.649378 0.306462 0.111528
0.680293 0.304768 0.12546
0.711223 0.303075 0.139391
0.742138 0.301381 0.153338
0.773068 0.299687 0.167269
0.803998 0.297993 0.181201
0.834913 0.2963 0.195148
0.865843 0.294606 0.209079
0.896757 0.292912 0.223026
0.927687 0.291218 0.236957
0.958602 0.289525 0.250889
0.989532 0.287831 0.264836
1 0.286137 0.278767
1 0.284443 0.292714
1 0.28275 0.306645
1 0.281056 0.320577
1 0.279362 0.334524
1 0.277668 0.348455
0.200992 0.359533 0
0.231907 0.357839 0
0.262821 0.356146 0
0.293751 0.354452 0
0.324666 0.352758 0
0.355596 0.351064 0
0.386526 0.349371 0
0.417441 0.347677 0
0.448371 0.345983 0.00582895
0.479286 0.344274 0.0197757
0.510216 0.34258 0.0337072
0.541146 0.340887 0.0476387
0.572061 0.339193 0.0615854
0.602991 0.337499 0.0755169
0.633906 0.335805 0.0894484
0.664836 0.334112 0.103395
0.695766 0.332418 0.117327
0.72668 0.330724 0.131273
0.75761 0.32903 0.145205
0.788525 0.327337 0.159136
0.819455 0.325643 0.173083
0.85037 0.323949 0.187015
0.8813 0.322255 0.200961
0.91223 0.320562 0.214893
0.943145 0.318868 0.228824
0.974075 0.317174 0.242771
1 0.31548 0.256703
1 0.313787 0.270649
1 0.312093 0.284581
1 0.310399 0.298512
1 0.308705 0.312459
1 0.307012 0.32639
1 0.305318 0.340322
0.216449 0.387182 0
0.247364 0.385489 0
0.278294 0.383795 0
0.309209 0.382101 0
0.340139 0.380407 0
0.371054 0.378714 0
0.401984 0.37702 0
0.432914 0.375326 0
0.463828 0.373632 0
0.494759 0.371939 0.0116426
0.525673 0.370245 0.0255741
0.556603 0.368551 0.0395209
0.587518 0.366857 0.0534524
0.618448 0.365164 0.0673838
0.649378 0.36347 0.0813306
0.680293 0.361776 0.0952621
0.711223 0.360082 0.109209
0.742138 0.358389 0.12314
0.773068 0.356695 0.137072
0.803998 0.355001 0.151019
0.834913 0.353307 0.16495
0.865843 0.351614 0.178897
0.896757 0.34992 0.192828
0.927687 0.348226 0.20676
0.958602 0.346532 0.220706
0.989532 0.344839 0.234638
1 0.343145 0.248569
1 0.341451 0.262516
1 0.339757 0.276448
1 0.338064 0.290394
1 0.33637 0.304326
1 0.334676 0.318257
1 0.332982 0.332204
0.231922 0.414847 0
0.262821 0.413153 0
0.293751 0.41146 0
0.324666 0.409766 0
0.355596 0.408072 0
0.386526 0.406378 0
0.417441 0.404685 0
0.448371 0.402991 0
0.479286 0.401282 0
0.510216 0.399588 0.00350958
0.541146 0.397894 0.0174563
0.572061 0.396201 0.0313878
0.602991 0.394507 0.0453193
0.633906 0.392813 0.059266
0.664836 0.391119 0.0731975
0.69575 0.389425 0.0871443
0.72668 0.387732 0.101076
0.75761 0.386038 0.115007
0.788525 0.384344 0.128954
0.819455 0.38265 0.142885
0.85037 0.380957 0.156817
0.8813 0.379263 0.170764
0.91223 0.377569 0.184695
0.943145 0.375875 0.198642
0.974075 0.374182 0.212573
1 0.372488 0.226505
1 0.370794 0.240452
1 0.3691 0.254383
1 0.367407 0.26833
1 0.365713 0.282261
1 0.364019 0.296193
1 0.362325 0.31014
1 0.360632 0.324071
0.247379 0.442496 0
0.278294 0.440803 0
0.309209 0.439109 0
0.340139 0.437415 0
0.371054 0.435721 0
0.401984 0.434028 0
0.432914 0.432334 0
0.463828 0.43064 0
0.494759 0.428946 0
0.525673 0.427253 0
0.556603 0.425559 0.00932326
0.587518 0.423865 0.0232548
0.618448 0.422171 0.0372015
0.649378 0.420478 0.051133
0.680293 0.418784 0.0650645
0.711223 0.41709 0.0790112
0.742138 0.415396 0.0929427
0.773068 0.413703 0.106889
0.803998 0.412009 0.120821
0.834913 0.410315 0.134752
0.865843 0.408621 0.148699
0.896757 0.406928 0.162631
0.927687 0.405234 0.176577
0.958602 0.40354 0.190509
0.989532 0.401846 0.20444
1 0.400153 0.218387
1 0.398459 0.232319
1 0.396765 0.246265
1 0.395071 0.260197
1 0.393378 0.274128
1 0.391684 0.288075
1 0.38999 0.302007
1 0.388296 0.315938
0.262837 0.470161 0
0.293751 0.468467 0
0.324666 0.466773 0
0.355596 0.46508 0
0.386526 0.463386 0
0.417441 0.461692 0
0.448371 0.459998 0
0.479286 0.458305 0
0.510216 0.456596 0
0.541146 0.454902 0
0.572061 0.453208 0.0011902
0.602991 0.451514 0.0151369
0.633906 0.449821 0.0290684
0.664836 0.448127 0.0429999
0.69575 0.446433 0.0569467
0.72668 0.444739 0.0708782
0.75761 0.443046 0.0848249
0.788525 0.441352 0.0987564
0.819455 0.439658 0.112688
0.85037 0.437964 0.126635
0.8813 0.436271 0.140566
0.91223 0.434577 0.154513
0.943145 0.432883 0.168444
0.974075 0.431189 0.182376
1 0.429496 0.196323
1 0.427802 0.210254
1 0.426108 0.224186
1 0.424414 0.238132
1 0.422721 0.252064
1 0.421027 0.266011
1 0.419333 0.279942
1 0.417639 0.293873
1 0.415946 0.30782
0.278309 0.49781 0
0.309209 0.496117 0
0.340139 0.494423 0
0.371054 0.492729 0
0.401984 0.491035 0
0.432898 0.489342 0
0.463828 0.487648 0
0.494759 0.485954 0
0.525673 0.48426 0
0.556603 0.482567 0
0.587518 0.480873 0
0.618448 0.479179 0.00700389
0.649378 0.477485 0.0209354
0.680293 0.475792 0.0348821
0.711223 0.474098 0.0488136
0.742138 0.472404 0.0627451
0.773068 0.47071 0.0766918
0.803983 0.469017 0.0906233
0.834913 0.467323 0.10457
0.865843 0.465629 0.118502
0.896757 0.463935 0.132433
0.927687 0.462242 0.14638
0.958602 0.460548 0.160311
0.989532 0.458854 0.174258
1 0.45716 0.18819
1 0.455467 0.202121
1 0.453773 0.216068
1 0.452079 0.229999
1 0.450385 0.243946
1 0.448692 0.257877
1 0.446998 0.271809
1 0.445304 0.285756
1 0.44361 0.299687
0.293767 0.525475 0
0.324666 0.523781 0
0.355596 0.522087 0
0.386526 0.520394 0
0.417441 0.5187 0
0.448371 0.517006 0
0.479286 0.515312 0
0.510216 0.513619 0
0.541146 0.51191 0
0.572061 0.510216 0
0.602991 0.508522 0
0.633906 0.506828 0
0.664836 0.505135 0.0128176
0.69575 0.503441 0.0267491
0.72668 0.501747 0.0406806
0.75761 0.500053 0.0546273
0.788525 0.49836 0.0685588
0.819455 0.496666 0.0825055
0.85037 0.494972 0.096437
0.8813 0.493278 0.110369
0.91223 0.491585 0.124315
0.943145 0.489891 0.138247
0.974075 0.488197 0.152193
1 0.486503 0.166125
1 0.48481 0.180056
1 0.483116 0.194003
1 0.481422 0.207935
1 0.479728 0.221866
1 0.478035 0.235813
1 0.476341 0.249744
1 0.474647 0.263691
1 0.472953 0.277623
1 0.47126 0.291554
0.309224 0.553124 0
0.340139 0.551431 0
0.371054 0.549737 0
0.401984 0.548043 0
0.432898 0.546349 0
0.463828 0.544656 0
0.494759 0.542962 0
0.525673 0.541268 0
0.556603 0.539574 0
0.587518 0.537881 0
0.618448 0.536187 0
0.649378 0.534493 0
0.680293 0.532799 0.00468452
0.711223 0.531106 0.018616
0.742138 0.529412 0.0325628
0.773068 0.527718 0.0464942
0.803983 0.526024 0.060441
0.834913 0.52433 0.0743725
0.865843 0.522637 0.088304
0.896757 0.520943 0.102251
0.927687 0.519249 0.116182
0.958602 0.517555 0.130114
0.989532 0.515862 0.14406
1 0.514168 0.157992
1 0.512474 0.171939
1 0.510781 0.18587
1 0.509087 0.199802
1 0.507393 0.213748
1 0.505699 0.22768
1 0.504005 0.241627
1 0.502312 0.255558
1 0.500618 0.26949
1 0.498924 0.283436
0.324681 0.580789 0
0.355596 0.579095 0
0.386526 0.577401 0
0.417441 0.575708 0
0.448371 0.574014 0
0.479286 0.57232 0
0.510216 0.570626 0
0.541131 0.568917 0
0.572061 0.567224 0
0.602991 0.56553 0
0.633906 0.563836 0
0.664836 0.562142 0
0.69575 0.560449 0
0.72668 0.558755 0.0104982
0.75761 0.557061 0.0244297
0.788525 0.555367 0.0383612
0.819455 0.553674 0.0523079
0.85037 0.55198 0.0662394
0.8813 0.550286 0.0801862
0.912215 0.548592 0.0941176
0.943145 0.546899 0.108049
0.974075 0.545205 0.121996
1 0.543511 0.135927
1 0.541817 0.149874
1 0.540124 0.163806
1 0.53843 0.177737
1 0.536736 0.191684
1 0.535042 0.205615
1 0.533349 0.219562
1 0.531655 0.233494
1 0.529961 0.247425
1 0.528267 0.261372
1 0.526574 0.275303
0.340154 0.608438 0
0.371054 0.606744 0
0.401984 0.605051 0
0.432898 0.603357 0
0.463828 0.601663 0
0.494759 0.59997 0
0.525673 0.598276 0
0.556603 0.596582 0
0.587518 0.594888 0
0.618448 0.593194 0
0.649378 0.591501 0
0.680293 0.589807 0
0.711223 0.588113 0
0.742138 0.586419 0.00236515
0.773068 0.584726 0.0162966
0.803983 0.583032 0.0302434
0.834913 0.581338 0.0441749
0.865843 0.579644 0.0581216
0.896757 0.577951 0.0720531
0.927687 0.576257 0.0859846
0.958602 0.574563 0.0999313
0.989532 0.572869 0.113863
1 0.571176 0.12781
1 0.569482 0.141741
1 0.567788 0.155673
1 0.566094 0.169619
1 0.564401 0.183551
1 0.562707 0.197482
1 0.561013 0.211429
1 0.559319 0.22536
1 0.557626 0.239307
1 0.555932 0.253239
1 0.554238 0.26717
0.355612 0.636103 0
0.386526 0.634409 0
0.417441 0.632715 0
0.448371 0.631022 0
0.479286 0.629328 0
0.510216 0.627634 0
0.541131 0.62594 0
0.572061 0.624231 0
0.602991 0.622538 0
0.633906 0.620844 0
0.664836 0.61915 0
0.69575 0.617456 0
0.72668 0.615763 0
0.75761 0.614069 0
0.788525 0.612375 0.00817884
0.819455 0.610681 0.0221103
0.85037 0.608988 0.0360418
0.8813 0.607294 0.0499886
0.912215 0.6056 0.06392
0.943145 0.603906 0.0778668
0.974075 0.602213 0.0917983
1 0.600519 0.10573
1 0.598825 0.119677
1 0.597131 0.133608
1 0.595438 0.147555
1 0.593744 0.161486
1 0.59205 0.175418
1 0.590356 0.189364
1 0.588663 0.203296
1 0.586969 0.217243
1 0.585275 0.231174
1 0.583581 0.245106
1 0.581888 0.259052
0.371069 0.663752 0
0.401984 0.662058 0
0.432898 0.660365 0
0.463828 0.658671 0
0.494759 0.656977 0
0.525673 0.655283 0
0.556603 0.65359 0
0.587518 0.651896 0
0.618448 0.650202 0
0.649378 0.648508 0
0.680293 0.646815 0
0.711223 0.645121 0
0.742138 0.643427 0
0.773068 0.641733 0
0.803983 0.64004 4.57771e-05
0.834913 0.638346 0.0139773
0.865843 0.636652 0.027924
0.896757 0.634958 0.0418555
0.927687 0.633265 0.0558022
0.958602 0.631571 0.0697337
0.989532 0.629877 0.0836652
1 0.628183 0.097612
1 0.62649 0.111543
1 0.624796 0.12549
1 0.623102 0.139422
1 0.621408 0.153353
1 0.619715 0.1673
1 0.618021 0.181231
1 0.616327 0.195163
1 0.614633 0.20911
1 0.61294 0.223041
1 0.611246 0.236988
1 0.609552 0.250919
0.386542 0.691417 0
0.417441 0.689723 0
0.448371 0.688029 0
0.479286 0.686336 0
0.510216 0.684642 0
0.541131 0.682948 0
0.572061 0.681254 0
0.602991 0.679545 0
0.633906 0.677852 0
0.664836 0.676158 0
0.69575 0.674464 0
0.72668 0.67277 0
0.75761 0.671077 0
0.788525 0.669383 0
0.819455 0.667689 0
0.85037 0.665995 0.00585946
0.8813 0.664302 0.019791
0.912215 0.662608 0.0337377
0.943145 0.660914 0.0476692
0.974075 0.65922 0.0616007
1 0.657526 0.0755474
1 0.655833 0.0894789
1 0.654139 0.10341
1 0.652445 0.117357
1 0.650752 0.131289
1 0.649058 0.145235
1 0.647364 0.159167
1 0.64567 0.173098
1 0.643977 0.187045
1 0.642283 0.200977
1 0.640589 0.214923
1 0.638895 0.228855
1 0.637201 0.242786
0.401999 0.719066 0
0.432898 0.717372 0
0.463828 0.715679 0
0.494759 0.713985 0
0.525673 0.712291 0
0.556603 0.710597 0
0.587518 0.708904 0
0.618448 0.70721 0
0.649363 0.705516 0
0.680293 0.703822 0
0.711223 0.702129 0
0.742138 0.700435 0
0.773068 0.698741 0
0.803983 0.697047 0
0.834913 0.695354 0
0.865843 0.69366 0
0.896757 0.691966 0.0116579
0.927687 0.690272 0.0256046
0.958602 0.688579 0.0395361
0.989532 0.686885 0.0534829
1 0.685191 0.0674144
1 0.683497 0.0813458
1 0.681804 0.0952926
1 0.68011 0.109224
1 0.678416 0.123171
1 0.676722 0.137102
1 0.675029 0.151034
1 0.673335 0.164981
1 0.671641 0.178912
1 0.669947 0.192859
1 0.668254 0.20679
1 0.66656 0.220722
1 0.664866 0.234668
0.417456 0.746731 0
0.448371 0.745037 0
0.479286 0.743343 0
0.510216 0.74165 0
0.541131 0.739956 0
0.572061 0.738262 0
0.602991 0.736553 0
0.633906 0.734859 0
0.664836 0.733166 0
