public/LUTS/Color Shift/ColorShift_79.cube
TITLE "Generated by Resolve"
LUT_3D_SIZE 33
0 0 0
0.0459907 0 0.0240787
0.0919966 0 0.0481575
0.138018 0 0.0722515
0.184024 0 0.0963302
0.23003 0 0.120424
0.276051 0 0.144503
0.322057 0 0.168597
0.368078 0 0.192676
0.414084 0 0.21677
0.46009 0 0.240848
0.506111 0 0.264942
0.552117 0 0.289021
0.598138 0 0.313115
0.644144 0 0.337194
0.69015 0 0.361288
0.736171 0 0.385367
0.782177 0 0.409461
0.828199 0 0.433539
0.874205 0 0.457633
0.920211 0 0.481712
0.966232 0 0.505806
1 0 0.529885
1 0 0.553979
1 0 0.578073
1 0 0.602152
1 0 0.626245
1 0 0.650324
1 0 0.674418
1 0 0.698497
1 0 0.722591
1 0 0.74667
1 0 0.770764
0.0175937 0.0298314 0
0.0635843 0.0223087 0
0.10959 0.0147707 0.0180667
0.155612 0.00724804 0.0421607
0.201617 0 0.0662394
0.247639 0 0.0903334
0.293645 0 0.114412
0.339651 0 0.138506
0.385672 0 0.162585
0.431678 0 0.186679
0.477699 0 0.210773
0.523705 0 0.234852
0.569711 0 0.258946
0.615732 0 0.283024
0.661738 0 0.307118
0.707744 0 0.331197
0.753765 0 0.355291
0.799771 0 0.37937
0.845792 0 0.403464
0.891798 0 0.427543
0.937804 0 0.451637
0.983825 0 0.475715
1 0 0.499809
1 0 0.523888
1 0 0.547982
1 0 0.572061
1 0 0.596155
1 0 0.620233
1 0 0.644327
1 0 0.668406
1 0 0.6925
1 0 0.716579
1 0 0.740673
0.0352026 0.0596628 0
0.0811933 0.0521401 0
0.127199 0.0446174 0
0.173205 0.0370947 0.0120546
0.219226 0.029572 0.0361486
0.265232 0.022034 0.0602274
0.311254 0.0145113 0.0843214
0.357259 0.00698863 0.1084
0.403265 0 0.132494
0.449287 0 0.156573
0.495293 0 0.180667
0.541314 0 0.204746
0.58732 0 0.22884
0.633326 0 0.252918
0.679347 0 0.277012
0.725353 0 0.301091
0.771374 0 0.325185
0.81738 0 0.349264
0.863386 0 0.373358
0.909407 0 0.397436
0.955413 0 0.42153
1 0 0.445609
1 0 0.469703
1 0 0.493782
1 0 0.517876
1 0 0.541955
1 0 0.566049
1 0 0.590127
1 0 0.614221
1 0 0.6383
1 0 0.662394
1 0 0.686473
1 0 0.710567
0.0527962 0.0895094 0
0.0987869 0.0819867 0
0.144808 0.074464 0
0.190814 0.0669261 0
0.23682 0.0594034 0.00604257
0.282841 0.0518807 0.0301213
0.328847 0.044358 0.0542153
0.374868 0.0368353 0.078294
0.420874 0.0293126 0.102388
0.46688 0.0217746 0.126467
0.512901 0.0142519 0.150561
0.558907 0.00672923 0.17464
0.604929 0 0.198734
0.650935 0 0.222812
0.696941 0 0.246906
0.742962 0 0.270985
0.788968 0 0.295079
0.834989 0 0.319158
0.880995 0 0.343252
0.927001 0 0.36733
0.973022 0 0.391424
1 0 0.415518
1 0 0.439597
1 0 0.463691
1 0 0.48777
1 0 0.511864
1 0 0.535943
1 0 0.560037
1 0 0.584115
1 0 0.608209
1 0 0.632288
1 0 0.656382
1 0 0.680461
0.0704051 0.119341 0
0.116396 0.111818 0
0.162402 0.104295 0
0.208423 0.0967727 0
0.254429 0.08925 0
0.300435 0.0817273 3.0518e-05
0.346456 0.0741894 0.0241093
0.392462 0.0666667 0.0482032
0.438483 0.059144 0.072282
0.484489 0.0516213 0.096376
0.530495 0.0440986 0.120455
0.576516 0.0365759 0.144549
0.622522 0.0290379 0.168627
0.668544 0.0215152 0.192721
0.714549 0.0139925 0.2168
0.760555 0.00646983 0.240894
0.806577 0 0.264973
0.852583 0 0.289067
0.898604 0 0.313146
0.94461 0 0.33724
0.990616 0 0.361318
1 0 0.385412
1 0 0.409491
1 0 0.433585
1 0 0.457664
1 0 0.481758
1 0 0.505837
1 0 0.529931
1 0 0.554009
1 0 0.578103
1 0 0.602182
1 0 0.626276
1 0 0.650355
0.088014 0.149187 0
0.134005 0.141665 0
0.180011 0.134142 0
0.226017 0.126604 0
0.272038 0.119081 0
0.318044 0.111559 0
0.36405 0.104036 0
0.410071 0.0965133 0.0180972
0.456077 0.0889906 0.0421759
0.502098 0.0814527 0.0662699
0.548104 0.07393 0.0903487
0.59411 0.0664073 0.114443
0.640131 0.0588846 0.138521
0.686137 0.0513619 0.162615
0.732158 0.0438392 0.186694
0.778164 0.0363012 0.210788
0.82417 0.0287785 0.234867
0.870192 0.0212558 0.258961
0.916197 0.0137331 0.28304
0.962219 0.00621042 0.307134
1 0 0.331212
1 0 0.355306
1 0 0.379385
1 0 0.403479
1 0 0.427558
1 0 0.451652
1 0 0.475731
1 0 0.499825
1 0 0.523903
1 0 0.547997
1 0 0.572091
1 0 0.59617
1 0 0.620264
0.105608 0.179019 0
0.151598 0.171496 0
0.19762 0.163973 0
0.243626 0.156451 0
0.289631 0.148928 0
0.335653 0.141405 0
0.381659 0.133883 0
0.427665 0.126345 0
0.473686 0.118822 0.0120699
0.519692 0.111299 0.0361639
0.565713 0.103777 0.0602426
0.611719 0.0962539 0.0843366
0.657725 0.088716 0.108415
0.703746 0.0811933 0.132509
0.749752 0.0736706 0.156603
0.795773 0.0661479 0.180682
0.841779 0.0586252 0.204776
0.887785 0.0511025 0.228855
0.933806 0.0435645 0.252949
0.979812 0.0360418 0.277028
1 0.0285191 0.301122
1 0.0209964 0.3252
1 0.0134737 0.349294
1 0.00595102 0.373373
1 0 0.397467
1 0 0.421546
1 0 0.44564
1 0 0.469718
1 0 0.493812
1 0 0.517891
1 0 0.541985
1 0 0.566064
1 0 0.590158
0.123217 0.208865 0
0.169207 0.201343 0
0.215213 0.19382 0
0.261234 0.186297 0
0.30724 0.178759 0
0.353246 0.171237 0
0.399268 0.163714 0
0.445274 0.156191 0
0.491295 0.148669 0
0.537301 0.141146 0.00605783
0.583307 0.133608 0.0301518
0.629328 0.126085 0.0542306
0.675334 0.118563 0.0783246
0.72134 0.11104 0.102403
0.767361 0.103517 0.126497
0.813367 0.0959793 0.150576
0.859388 0.0884565 0.17467
0.905394 0.0809339 0.198749
0.9514 0.0734112 0.222843
0.997421 0.0658885 0.246921
1 0.0583658 0.271015
1 0.0508278 0.295094
1 0.0433051 0.319188
1 0.0357824 0.343267
1 0.0282597 0.367361
1 0.020737 0.39144
1 0.0132143 0.415534
1 0.00567636 0.439612
1 0 0.463706
1 0 0.487785
1 0 0.511879
1 0 0.535958
1 0 0.560052
0.14081 0.238697 0
0.186801 0.231174 0
0.232822 0.223651 0
0.278828 0.216129 0
0.324849 0.208606 0
0.370855 0.201083 0
0.416861 0.193561 0
0.462882 0.186023 0
0.508888 0.1785 0
0.55491 0.170977 0
0.600916 0.163455 4.57771e-05
0.646922 0.155932 0.0241245
0.692943 0.148409 0.0482185
0.738949 0.140871 0.0722972
0.78497 0.133349 0.0963912
0.830976 0.125826 0.12047
0.876982 0.118303 0.144564
0.923003 0.11078 0.168643
0.969009 0.103243 0.192737
1 0.0957198 0.216815
1 0.0881971 0.240909
1 0.0806744 0.264988
1 0.0731518 0.289082
1 0.0656291 0.313161
1 0.0580911 0.337255
1 0.0505684 0.361349
1 0.0430457 0.385428
1 0.035523 0.409522
1 0.0280003 0.4336
1 0.0204776 0.457694
1 0.0129397 0.481773
1 0.00541695 0.505867
1 0 0.529946
0.158419 0.268544 0
0.20441 0.261021 0
0.250416 0.253498 0
0.296437 0.245975 0
0.342443 0.238437 0
0.388464 0.230915 0
0.43447 0.223392 0
0.480476 0.215869 0
0.526497 0.208347 0
0.572503 0.200824 0
0.618524 0.193286 0
0.66453 0.185763 0
0.710536 0.178241 0.0181125
0.756558 0.170718 0.0422065
0.802563 0.163195 0.0662852
0.848585 0.155673 0.0903792
0.894591 0.148135 0.114458
0.940597 0.140612 0.138552
0.986618 0.133089 0.162631
1 0.125566 0.186725
1 0.118044 0.210803
1 0.110506 0.234897
1 0.102983 0.258976
1 0.0954604 0.28307
1 0.0879377 0.307149
1 0.080415 0.331243
1 0.0728923 0.355322
1 0.0653544 0.379416
1 0.0578317 0.403494
1 0.050309 0.427588
1 0.0427863 0.451667
1 0.0352636 0.475761
1 0.0277409 0.49984
0.176028 0.29839 0
0.222019 0.290867 0
0.268025 0.28333 0
0.314031 0.275807 0
0.360052 0.268284 0
0.406058 0.260761 0
0.452079 0.253239 0
0.498085 0.245716 0
0.544091 0.238178 0
0.590112 0.230655 0
0.636118 0.223133 0
0.682139 0.21561 0
0.728145 0.208087 0
0.774151 0.200549 0.0121004
0.820172 0.193027 0.0361791
0.866178 0.185504 0.0602731
0.9122 0.177981 0.0843519
0.958206 0.170459 0.108446
1 0.162936 0.132525
1 0.155398 0.156619
1 0.147875 0.180697
1 0.140352 0.204791
1 0.13283 0.22887
1 0.125307 0.252964
1 0.117784 0.277043
1 0.110246 0.301137
1 0.102724 0.325216
1 0.095201 0.34931
1 0.0876783 0.373388
1 0.0801556 0.397482
1 0.0726177 0.421561
1 0.065095 0.445655
1 0.0575723 0.469734
0.193622 0.328222 0
0.239612 0.320699 0
0.285634 0.313176 0
0.33164 0.305653 0
0.377646 0.298131 0
0.423667 0.290593 0
0.469673 0.28307 0
0.515694 0.275547 0
0.5617 0.268025 0
0.607706 0.260502 0
0.653727 0.252979 0
0.699733 0.245441 0
0.745754 0.237919 0
0.79176 0.230396 0
0.837766 0.222873 0.00607309
0.883787 0.215351 0.0301671
0.929793 0.207813 0.0542458
0.975814 0.20029 0.0783398
1 0.192767 0.102434
1 0.185245 0.126513
1 0.177722 0.150607
1 0.170199 0.174685
1 0.162661 0.198779
1 0.155138 0.222858
1 0.147616 0.246952
1 0.140093 0.271031
1 0.13257 0.295125
1 0.125048 0.319203
1 0.11751 0.343297
1 0.109987 0.367376
1 0.102464 0.39147
1 0.0949416 0.415549
1 0.0874189 0.439643
0.211231 0.358068 0
0.257221 0.350545 0
0.303227 0.343008 0
0.349248 0.335485 0
0.395254 0.327962 0
0.44126 0.320439 0
0.487282 0.312917 0
0.533288 0.305394 0
0.579309 0.297856 0
0.625315 0.290333 0
0.671321 0.282811 0
0.717342 0.275288 0
0.763348 0.267765 0
0.809369 0.260243 0
0.855375 0.252705 0
0.901381 0.245182 6.10361e-05
0.947402 0.237659 0.024155
0.993408 0.230137 0.0482338
1 0.222614 0.0723278
1 0.215076 0.0964065
1 0.207553 0.1205
1 0.200031 0.144579
1 0.192508 0.168673
1 0.184985 0.192752
1 0.177462 0.216846
1 0.169924 0.240925
1 0.162402 0.265019
1 0.154879 0.289097
1 0.147356 0.313191
1 0.139834 0.33727
1 0.132311 0.361364
1 0.124773 0.385443
1 0.11725 0.409537
0.22884 0.3879 0
0.27483 0.380377 0
0.320836 0.372854 0
0.366842 0.365332 0
0.412863 0.357809 0
0.458869 0.350271 0
0.504891 0.342748 0
0.550896 0.335225 0
0.596902 0.327703 0
0.642924 0.32018 0
0.68893 0.312657 0
0.734936 0.305119 0
0.780957 0.297597 0
0.826963 0.290074 0
0.872984 0.282551 0
0.91899 0.275029 0
0.964996 0.267506 0
1 0.259968 0.0181277
1 0.252445 0.0422217
1 0.244923 0.0663005
1 0.2374 0.0903944
1 0.229877 0.114473
1 0.222354 0.138567
1 0.214817 0.162646
1 0.207294 0.18674
1 0.199771 0.210819
1 0.192248 0.234913
1 0.184726 0.259007
1 0.177188 0.283085
1 0.169665 0.307179
1 0.162142 0.331258
1 0.15462 0.355352
1 0.147097 0.379431
0.246433 0.417746 0
0.292424 0.410224 0
0.338445 0.402701 0
0.384451 0.395163 0
0.430457 0.38764 0
0.476478 0.380118 0
0.522484 0.372595 0
0.568505 0.365072 0
0.614511 0.357549 0
0.660517 0.350011 0
0.706538 0.342489 0
0.752544 0.334966 0
0.798566 0.327443 0
0.844572 0.319921 0
0.890578 0.312383 0
0.936599 0.30486 0
0.982605 0.297337 0
1 0.289815 0
1 0.282292 0.0121157
1 0.274769 0.0362097
1 0.267231 0.0602884
1 0.259709 0.0843824
1 0.252186 0.108461
1 0.244663 0.132555
1 0.23714 0.156634
1 0.229618 0.180728
1 0.22208 0.204807
1 0.214557 0.228901
1 0.207034 0.252979
1 0.199512 0.277073
1 0.191989 0.301152
1 0.184451 0.325246
1 0.176928 0.349325
0.264042 0.447578 0
0.310033 0.440055 0
0.356039 0.432532 0
0.40206 0.42501 0
0.448066 0.417487 0
0.494072 0.409964 0
0.540093 0.402426 0
0.586099 0.394903 0
0.63212 0.387381 0
0.678126 0.379858 0
0.724132 0.372335 0
0.770153 0.364813 0
0.816159 0.357275 0
0.862181 0.349752 0
0.908186 0.342229 0
0.954192 0.334707 0
1 0.327184 0
1 0.319646 0
1 0.312123 0
1 0.304601 0.00610361
1 0.297078 0.0301823
1 0.289555 0.0542763
1 0.282032 0.0783551
1 0.274495 0.102449
1 0.266972 0.126528
1 0.259449 0.150622
1 0.251926 0.174701
1 0.244404 0.198795
1 0.236881 0.222873
1 0.229343 0.246967
1 0.22182 0.271046
1 0.214298 0.29514
1 0.206775 0.319219
0.281651 0.477424 0
0.327626 0.469902 0
0.373648 0.462379 0
0.419654 0.454841 0
0.465675 0.447318 0
0.511681 0.439796 0
0.557687 0.432273 0
0.603708 0.42475 0
0.649714 0.417227 0
0.695735 0.409689 0
0.741741 0.402167 0
0.787747 0.394644 0
0.833768 0.387121 0
0.879774 0.379599 0
0.925795 0.372076 0
0.971801 0.364538 0
1 0.357015 0
1 0.349493 0
1 0.34197 0
1 0.334447 0
1 0.326909 7.62951e-05
1 0.319387 0.0241703
1 0.311864 0.0482643
1 0.304341 0.072343
1 0.296818 0.096437
1 0.289296 0.120516
1 0.281758 0.14461
1 0.274235 0.168688
1 0.266712 0.192782
1 0.25919 0.216861
1 0.251667 0.240955
1 0.244144 0.265034
1 0.236606 0.289128
0.299245 0.507256 0
0.345235 0.499733 0
0.391241 0.49221 0
0.437263 0.484688 0
0.483268 0.477165 0
0.52929 0.469642 0
0.575296 0.462119 0
0.621302 0.454582 0
0.667323 0.447059 0
0.713329 0.439536 0
0.75935 0.432013 0
0.805356 0.424491 0
0.851362 0.416953 0
0.897383 0.40943 0
0.943389 0.401907 0
0.98941 0.394385 0
1 0.386862 0
1 0.379339 0
1 0.371801 0
1 0.364279 0
1 0.356756 0
1 0.349233 0
1 0.341711 0.0181582
1 0.334188 0.042237
1 0.32665 0.066331
1 0.319127 0.0904097
1 0.311604 0.114504
1 0.304082 0.138582
1 0.296559 0.162676
1 0.289021 0.186755
1 0.281498 0.210849
1 0.273976 0.234928
1 0.266453 0.259022
0.316854 0.537102 0
0.362844 0.52958 0
0.40885 0.522057 0
0.454856 0.514534 0
0.500877 0.506996 0
0.546883 0.499474 0
0.592905 0.491951 0
0.638911 0.484428 0
0.684916 0.476905 0
0.730938 0.469383 0
0.776944 0.461845 0
0.822965 0.454322 0
0.868971 0.446799 0
0.914977 0.439277 0
0.960998 0.431754 0
1 0.424216 0
1 0.416693 0
1 0.409171 0
1 0.401648 0
1 0.394125 0
1 0.386603 0
1 0.379065 0
1 0.371542 0
1 0.364019 0.0121309
1 0.356497 0.0362249
1 0.348974 0.0603037
1 0.341451 0.0843977
1 0.333913 0.108476
1 0.32639 0.13257
1 0.318868 0.156649
1 0.311345 0.180743
1 0.303822 0.204837
1 0.296284 0.228916
0.334447 0.566934 0
0.380438 0.559411 0
0.426459 0.551888 0
0.472465 0.544366 0
0.518486 0.536843 0
0.564492 0.52932 0
0.610498 0.521798 0
0.656519 0.51426 0
0.702525 0.506737 0
0.748531 0.499214 0
0.794553 0.491691 0
0.840558 0.484169 0
0.88658 0.476646 0
0.932586 0.469108 0
0.978592 0.461585 0
1 0.454063 0
1 0.44654 0
1 0.439017 0
1 0.431479 0
1 0.423957 0
1 0.416434 0
1 0.408911 0
1 0.401389 0
1 0.393866 0
1 0.386328 0.00611887
1 0.378805 0.0302129
1 0.371283 0.0542916
1 0.36376 0.0783856
1 0.356237 0.102464
1 0.348714 0.126558
1 0.341176 0.150637
1 0.333654 0.174731
1 0.326131 0.19881
0.352056 0.59678 0
0.398047 0.589258 0
0.444053 0.581735 0
0.490074 0.574212 0
0.53608 0.566674 0
0.582101 0.559152 0
0.628107 0.551629 0
0.674113 0.544106 0
0.720134 0.536583 0
0.76614 0.529061 0
0.812161 0.521523 0
0.858167 0.514 0
0.904173 0.506477 0
0.950195 0.498955 0
0.996201 0.491432 0
1 0.483909 0
1 0.476371 0
1 0.468849 0
1 0.461326 0
1 0.453803 0
1 0.446281 0
1 0.438743 0
1 0.43122 0
1 0.423697 0
1 0.416175 0
1 0.408652 0.000106813
1 0.401129 0.0241855
1 0.393591 0.0482795
1 0.386069 0.0723583
1 0.378546 0.0964523
1 0.371023 0.120531
1 0.3635 0.144625
1 0.355978 0.168704
0.369665 0.626627 0
0.415656 0.619104 0
0.461662 0.611566 0
0.507668 0.604044 0
0.553689 0.596521 0
0.599695 0.588998 0
0.645716 0.581476 0
0.691722 0.573953 0
0.737728 0.566415 0
0.783749 0.558892 0
0.829755 0.551369 0
0.875776 0.543847 0
0.921782 0.536324 0
0.967788 0.528786 0
1 0.521263 0
1 0.513741 0
1 0.506218 0
1 0.498695 0
1 0.491173 0
1 0.483635 0
1 0.476112 0
1 0.468589 0
1 0.461067 0
1 0.453544 0
1 0.446021 0
1 0.438483 0
1 0.430961 0
1 0.423438 0.0181735
1 0.415915 0.0422675
1 0.408392 0.0663462
1 0.400854 0.0904402
1 0.393332 0.114519
1 0.385809 0.138613
0.387259 0.656458 0
0.433249 0.648936 0
0.479271 0.641413 0
0.525277 0.63389 0
0.571283 0.626368 0
0.617304 0.61883 0
0.66331 0.611307 0
0.709331 0.603784 0
0.755337 0.596262 0
0.801343 0.588739 0
0.847364 0.581216 0
0.89337 0.573678 0
0.939391 0.566155 0
0.985397 0.558633 0
1 0.55111 0
1 0.543587 0
1 0.536049 0
1 0.528527 0
1 0.521004 0
1 0.513481 0
1 0.505959 0
1 0.498436 0
1 0.490898 0
1 0.483375 0
1 0.475853 0
1 0.46833 0
1 0.460807 0
1 0.453285 0
1 0.445747 0.0121614
1 0.438224 0.0362402
1 0.430701 0.0603342
1 0.423178 0.0844129
1 0.415656 0.108507
0.404868 0.686305 0
0.450858 0.678782 0
0.496864 0.671244 0
0.542885 0.663722 0
0.588891 0.656199 0
0.634897 0.648676 0
0.680919 0.641154 0
0.726925 0.633631 0
0.772946 0.626093 0
0.818952 0.61857 0
0.864958 0.611048 0
0.910979 0.603525 0
0.956985 0.596002 0
1 0.588479 0
1 0.580941 0
1 0.573419 0
1 0.565896 0
1 0.558373 0
1 0.550851 0
1 0.543313 0
1 0.53579 0
1 0.528267 0
1 0.520745 0
1 0.513222 0
1 0.505699 0
1 0.498161 0
1 0.490639 0
1 0.483116 0
1 0.475593 0
1 0.468071 0.00613413
1 0.460548 0.0302281
1 0.45301 0.0543069
1 0.445487 0.0784009
0.422477 0.716136 0
0.468452 0.708614 0
0.514473 0.701091 0
0.560479 0.693568 0
0.6065 0.686046 0
0.652506 0.678508 0
0.698512 0.670985 0
0.744533 0.663462 0
0.790539 0.65594 0
0.836561 0.648417 0
0.882567 0.640894 0
0.928573 0.633356 0
0.974594 0.625834 0
1 0.618311 0
1 0.610788 0
1 0.603265 0
1 0.595743 0
1 0.588205 0
1 0.580682 0
1 0.573159 0
1 0.565637 0
1 0.558114 0
1 0.550591 0
1 0.543053 0
1 0.535531 0
1 0.528008 0
1 0.520485 0
1 0.512963 0
1 0.505425 0
1 0.497902 0
1 0.490379 0.000122072
1 0.482856 0.0242161
1 0.475334 0.0482948
0.44007 0.745983 0
0.486061 0.73846 0
0.532082 0.730938 0
0.578088 0.7234 0
0.624094 0.715877 0
0.670115 0.708354 0
0.716121 0.700832 0
0.762127 0.693309 0
0.808148 0.685786 0
0.854154 0.678248 0
0.900175 0.670726 0
0.946181 0.663203 0
0.992187 0.65568 0
1 0.648157 0
1 0.64062 0
1 0.633097 0
1 0.625574 0
1 0.618051 0
1 0.610529 0
1 0.603006 0
1 0.595468 0
1 0.587945 0
1 0.580423 0
1 0.5729 0
1 0.565377 0
1 0.557855 0
1 0.550317 0
1 0.542794 0
1 0.535271 0
1 0.527749 0
1 0.520226 0
1 0.512688 0
1 0.505165 0.0181888
0.457679 0.775814 0
0.50367 0.768292 0
0.549676 0.760769 0
0.595697 0.753246 0
0.641703 0.745724 0
0.687709 0.738201 0
0.73373 0.730663 0
0.779736 0.72314 0
0.825757 0.715618 0
0.871763 0.708095 0
0.917769 0.700572 0
0.96379 0.693049 0
1 0.685512 0
1 0.677989 0
1 0.670466 0
1 0.662943 0
1 0.655421 0
1 0.647883 0
1 0.64036 0
1 0.632837 0
1 0.625315 0
1 0.617792 0
1 0.610269 0
1 0.602731 0
1 0.595209 0
1 0.587686 0
1 0.580163 0
1 0.572641 0
1 0.565118 0
1 0.55758 0
1 0.550057 0
1 0.542535 0
1 0.535012 0
0.475273 0.805661 0
0.521263 0.798138 0
0.567285 0.790616 0
0.613291 0.783078 0
0.659312 0.775555 0
0.705318 0.768032 0
0.751324 0.76051 0
0.797345 0.752987 0
0.843351 0.745464 0
