public/LUTS/Color Shift/ColorShift_77.cube
TITLE "Generated by Resolve"
LUT_3D_SIZE 9
0 0 0
0.197131 0 0.0556497
0.394278 0 0.111315
0.591424 0 0.166979
0.788586 0 0.222644
0.985733 0 0.278294
1 0 0.333959
1 0 0.389624
1 0 0.445289
0.0180514 0.133639 0
0.215183 0.104845 0
0.412329 0.0760357 0.00192264
0.609476 0.0472419 0.0575723
0.806638 0.0184329 0.113237
1 0 0.168902
1 0 0.224567
1 0 0.280217
1 0 0.335882
0.0361028 0.267292 0
0.233234 0.238499 0
0.430381 0.209689 0
0.627527 0.180896 0
0.824689 0.152087 0.00383001
1 0.123278 0.0594797
1 0.0944839 0.115145
1 0.0656748 0.170809
1 0.0368811 0.226474
0.0541543 0.400946 0
0.251286 0.372152 0
0.448432 0.343343 0
0.645579 0.314549 0
0.842741 0.28574 0
1 0.256931 0
1 0.228138 0.00573739
1 0.199329 0.061387
1 0.170535 0.117052
0.0722057 0.5346 0
0.269337 0.505806 0
0.466484 0.476997 0
0.66363 0.448203 0
0.860792 0.419394 0
1 0.390585 0
1 0.361791 0
1 0.332982 0
1 0.304189 0.00764477
0.0902571 0.668254 0
0.287388 0.63946 0
0.484535 0.610651 0
0.681682 0.581842 0
0.878843 0.553048 0
1 0.524239 0
1 0.495445 0
1 0.466636 0
1 0.437842 0
0.108309 0.801907 0
0.30544 0.773114 0
0.502586 0.744305 0
0.699733 0.715496 0
0.896895 0.686702 0
1 0.657893 0
1 0.629099 0
1 0.60029 0
1 0.571496 0
0.12636 0.935561 0
0.323491 0.906767 0
0.520638 0.877958 0
0.717784 0.849149 0
0.914946 0.820356 0
1 0.791547 0
1 0.762753 0
1 0.733944 0
1 0.70515 0
0.144411 1 0
0.341543 1 0
0.538689 1 0
0.735836 0.982803 0
0.932998 0.954009 0
1 0.9252 0
1 0.896406 0
1 0.867597 0
1 0.838804 0
0 0.0201419 0.178729
0.106935 0 0.234394
0.304082 0 0.290044
0.501244 0 0.345708
0.69839 0 0.401373
0.895537 0 0.457038
1 0 0.512688
1 0 0.568353
1 0 0.624018
0 0.15378 0.069337
0.124987 0.124987 0.124987
0.322133 0.0961776 0.180652
0.519295 0.0673838 0.236316
0.716442 0.0385748 0.291966
0.913588 0.00978103 0.347631
1 0 0.403296
1 0 0.458961
1 0 0.514611
0 0.287434 0
0.143038 0.25864 0.0155795
0.340185 0.229831 0.0712291
0.537346 0.201038 0.126894
0.734493 0.172229 0.182559
0.93164 0.143435 0.238224
1 0.114626 0.293873
1 0.085832 0.349538
1 0.057023 0.405203
0 0.421088 0
0.161089 0.392294 0
0.358236 0.363485 0
0.555398 0.334691 0.0174868
0.752544 0.305882 0.0731365
0.949691 0.277089 0.128801
1 0.24828 0.184466
1 0.219486 0.240131
1 0.190677 0.295796
0 0.554742 0
0.179141 0.525948 0
0.376287 0.497139 0
0.573449 0.468345 0
0.770596 0.439536 0
0.967742 0.410742 0.0193942
1 0.381933 0.0750439
1 0.35314 0.130709
1 0.324331 0.186374
6.10361e-05 0.688396 0
0.197192 0.659602 0
0.394339 0.630793 0
0.591501 0.601999 0
0.788647 0.57319 0
0.985794 0.544396 0
1 0.515587 0
1 0.486793 0.0213016
1 0.457984 0.0769665
0.0181125 0.822049 0
0.215244 0.793256 0
0.41239 0.764446 0
0.609552 0.735653 0
0.806699 0.706844 0
1 0.67805 0
1 0.649241 0
1 0.620447 0
1 0.591638 0
0.0361639 0.955703 0
0.233295 0.926909 0
0.430442 0.8981 0
0.627604 0.869307 0
0.82475 0.840497 0
1 0.811704 0
1 0.782895 0
1 0.754101 0
1 0.725292 0
0.0542153 1 0
0.251347 1 0
0.448493 1 0
0.645655 1 0
0.842802 0.974151 0
1 0.945357 0
1 0.916548 0
1 0.887755 0
1 0.858946 0
0 0.0402991 0.357488
0.0167391 0.0115053 0.413138
0.213886 0 0.468803
0.411032 0 0.524468
0.608194 0 0.580133
0.805341 0 0.635782
1 0 0.691447
1 0 0.747112
1 0 0.802777
0 0.173938 0.248081
0.0347906 0.145144 0.303746
0.231937 0.116335 0.359396
0.429084 0.0875257 0.415061
0.626245 0.058732 0.470726
0.823392 0.0299229 0.52639
1 0.00112917 0.582055
1 0 0.637705
1 0 0.69337
0 0.307591 0.138674
0.052842 0.278798 0.194324
0.249989 0.249989 0.249989
0.447135 0.22118 0.305653
0.644297 0.192386 0.361318
0.841443 0.163577 0.416968
1 0.134783 0.472633
1 0.105974 0.528298
1 0.0771801 0.583963
0 0.441245 0.0292515
0.0708934 0.412451 0.0849165
0.26804 0.383642 0.140581
0.465187 0.354833 0.196231
0.662348 0.32604 0.251896
0.859495 0.29723 0.307561
1 0.268437 0.363226
1 0.239628 0.418875
1 0.210834 0.47454
0 0.574899 0
0.0889448 0.546105 0
0.286091 0.517296 0.0311589
0.483238 0.488487 0.0868238
0.6804 0.459693 0.142489
0.877546 0.430884 0.198138
1 0.40209 0.253803
1 0.373281 0.309468
1 0.344488 0.365133
0 0.708553 0
0.106996 0.679744 0
0.304143 0.65095 0
0.501289 0.622141 0
0.698451 0.593347 0.0330663
0.895598 0.564538 0.0887312
1 0.535744 0.144396
1 0.506935 0.200046
1 0.478141 0.255711
0 0.842206 0
0.125048 0.813397 0
0.322194 0.784604 0
0.519341 0.755795 0
0.716503 0.727001 0
0.913649 0.698192 0
1 0.669398 0.0349737
1 0.640589 0.0906386
1 0.611795 0.146304
0 0.97586 0
0.143099 0.947051 0
0.340246 0.918257 0
0.537392 0.889448 0
0.734554 0.860655 0
0.931701 0.831846 0
1 0.803052 0
1 0.774243 0
1 0.745449 0.0368811
0 1 0
0.161151 1 0
0.358297 1 0
0.555444 1 0
0.752605 0.994308 0
0.949752 0.965499 0
1 0.936706 0
1 0.907897 0
1 0.879103 0
0 0.060441 0.536248
0 0.0316472 0.591897
0.12369 0.00285344 0.647562
0.320836 0 0.703227
0.517983 0 0.758877
0.715145 0 0.814542
0.912291 0 0.870207
1 0 0.925872
1 0 0.981521
0 0.19408 0.426841
0 0.165286 0.48249
0.141741 0.136492 0.538155
0.338888 0.107683 0.59382
0.536034 0.0788739 0.649485
0.733196 0.0500801 0.705135
0.930343 0.0212711 0.7608
1 0 0.816464
1 0 0.872129
0 0.327733 0.317433
0 0.298939 0.373083
0.159792 0.270146 0.428748
0.356939 0.241337 0.484398
0.554086 0.212528 0.540063
0.751247 0.183734 0.595728
0.948394 0.154925 0.651392
1 0.126131 0.707057
1 0.097322 0.762707
0 0.461387 0.208011
0 0.432593 0.263661
0.177844 0.4038 0.319326
0.37499 0.37499 0.37499
0.572137 0.346181 0.430655
0.769299 0.317388 0.48632
0.966445 0.288579 0.54197
1 0.259785 0.597635
1 0.230976 0.6533
0 0.595041 0.0986038
0 0.566247 0.154253
0.195895 0.537453 0.209918
0.393042 0.508644 0.265583
0.590188 0.479835 0.321233
0.78735 0.451041 0.376898
0.984497 0.422232 0.432563
1 0.393439 0.488228
1 0.36463 0.543877
0 0.728695 0
0.0167849 0.699901 0.0448463
0.213947 0.671107 0.100496
0.411093 0.642298 0.156161
0.60824 0.613489 0.211826
0.805402 0.584695 0.267491
1 0.555886 0.32314
1 0.527092 0.378805
1 0.498283 0.43447
0 0.862348 0
0.0348363 0.833555 0
0.231998 0.804746 0
0.429145 0.775952 0.0467536
0.626291 0.747143 0.102403
0.823453 0.718349 0.158068
1 0.68954 0.213733
1 0.660746 0.269398
1 0.631937 0.325048
0 0.996002 0
0.0528878 0.967208 0
0.25005 0.938399 0
0.447196 0.909606 0
0.644343 0.880796 0
0.841505 0.852003 0.048661
1 0.823194 0.104311
1 0.7944 0.159976
1 0.765591 0.215641
0 1 0
0.0709392 1 0
0.268101 1 0
0.465248 1 0
0.662394 1 0
0.859556 0.985656 0
1 0.956847 0
1 0.928054 0.0505684
1 0.899245 0.106233
0 0.0805982 0.714992
0 0.0518044 0.770657
0.0334936 0.0229953 0.826307
0.23064 0 0.881971
0.427787 0 0.937636
0.624933 0 0.993301
0.822095 0 1
1 0 1
1 0 1
0 0.214237 0.6056
0 0.185443 0.66125
0.0515297 0.156634 0.716915
0.248692 0.12784 0.77258
0.445838 0.0990311 0.828229
0.642985 0.0702373 0.883894
0.840146 0.0414282 0.939559
1 0.0126192 0.995224
1 0 1
0 0.34789 0.496178
0 0.319097 0.551843
0.0695811 0.290288 0.607492
0.266743 0.261494 0.663157
0.46389 0.232685 0.718822
0.661036 0.203876 0.774487
0.858198 0.175082 0.830137
1 0.146273 0.885801
1 0.117479 0.941466
0 0.481544 0.38677
0 0.45275 0.44242
0.0876326 0.423941 0.498085
0.284794 0.395148 0.55375
0.481941 0.366339 0.6094
0.679088 0.33753 0.665064
0.876249 0.308736 0.720729
1 0.279927 0.776394
1 0.251133 0.832059
0 0.615198 0.277348
0 0.586404 0.333013
0.105684 0.557595 0.388663
0.302846 0.528801 0.444327
0.499992 0.499992 0.499992
0.697139 0.471183 0.555657
0.894301 0.44239 0.611322
1 0.413581 0.666972
1 0.384787 0.722637
0 0.748852 0.167941
0 0.720058 0.22359
0.123735 0.691249 0.279255
0.320897 0.662455 0.33492
0.518044 0.633646 0.390585
0.71519 0.604837 0.446235
0.912352 0.576043 0.5019
1 0.547234 0.557565
1 0.518441 0.61323
0 0.882506 0.0585184
0 0.853712 0.114183
0.141787 0.824903 0.169848
0.338949 0.796094 0.225498
0.536095 0.7673 0.281163
0.733242 0.738491 0.336828
0.930404 0.709697 0.392493
1 0.680888 0.448142
1 0.652094 0.503807
0 1 0
0 0.987366 0.00476081
0.159838 0.958556 0.0604257
0.357 0.929747 0.116091
0.554147 0.900954 0.171756
0.751293 0.872145 0.227405
0.948455 0.843351 0.28307
1 0.814542 0.338735
1 0.785748 0.3944
0 1 0
0 1 0
0.17789 1 0
0.375051 1 0.00666819
0.572198 1 0.0623331
0.769345 1 0.117998
0.966506 0.977005 0.173663
1 0.948196 0.229313
1 0.919402 0.284977
0 0.100755 0.893751
0 0.0719463 0.949401
0 0.0431525 1
0.140444 0.0143435 1
0.337591 0 1
0.534737 0 1
0.731884 0 1
0.929046 0 1
1 0 1
0 0.234394 0.784344
0 0.205585 0.840009
0 0.176791 0.895674
0.15848 0.147982 0.951324
0.355642 0.119188 1
0.552789 0.0903792 1
0.749935 0.0615854 1
0.947097 0.0327764 1
1 0.00396735 1
0 0.368032 0.674937
0 0.339239 0.730587
0 0.310445 0.786252
0.176532 0.281636 0.841917
0.373693 0.252842 0.897581
0.57084 0.224033 0.953231
0.767987 0.195239 1
0.965148 0.16643 1
1 0.137621 1
0 0.501686 0.565515
0 0.472892 0.62118
0 0.444099 0.676844
0.194583 0.41529 0.732494
0.391745 0.386496 0.788159
0.588891 0.357687 0.843824
0.786038 0.328878 0.899489
0.9832 0.300084 0.955139
1 0.271275 1
0 0.63534 0.456107
0 0.606546 0.511757
0.0154879 0.577752 0.567422
0.212634 0.548943 0.623087
0.409796 0.52015 0.678752
0.606943 0.491341 0.734401
0.804089 0.462531 0.790066
1 0.433738 0.845731
1 0.404929 0.901396
0 0.768994 0.3467
0 0.7402 0.40235
0.0335393 0.711406 0.458015
0.230686 0.682597 0.513664
0.427848 0.653803 0.569329
0.624994 0.624994 0.624994
0.822141 0.596185 0.680659
1 0.567391 0.736324
1 0.538582 0.791974
0 0.902647 0.237278
0 0.873854 0.292927
0.0515908 0.84506 0.348592
0.248737 0.816251 0.404257
0.445899 0.787457 0.459922
0.643046 0.758648 0.515587
0.840192 0.729839 0.571237
1 0.701045 0.626902
1 0.672236 0.682567
0 1 0.127871
0 1 0.18352
0.0696422 0.978714 0.239185
0.266789 0.949905 0.29485
0.463951 0.921111 0.3505
0.661097 0.892302 0.406165
0.858244 0.863493 0.46183
1 0.834699 0.517494
1 0.80589 0.573144
0 1 0.0184482
0 1 0.0741131
0.0876936 1 0.129763
0.28484 1 0.185428
0.482002 1 0.241093
0.679149 1 0.296757
0.876295 0.997147 0.352407
1 0.968353 0.408072
1 0.939544 0.463737
0 0.120897 1
0 0.0921035 1
0 0.0632944 1
0.0502327 0.0345006 1
0.247395 0.00569162 1
0.444541 0 1
0.641688 0 1
0.838834 0 1
1 0 1
0 0.254536 0.963104
0 0.225742 1
0 0.196933 1
0.0682841 0.168139 1
0.265431 0.13933 1
0.462593 0.110536 1
0.659739 0.0817273 1
0.856886 0.0529335 1
1 0.0241245 1
0 0.38819 0.853697
0 0.359396 0.909346
0 0.330587 0.965011
0.0863355 0.301793 1
0.283482 0.272984 1
0.480644 0.24419 1
0.677791 0.215381 1
0.874937 0.186587 1
1 0.157778 1
0 0.521843 0.744274
0 0.49305 0.799939
0 0.46424 0.855589
0.104387 0.435447 0.911254
0.301534 0.406638 0.966918
0.498695 0.377844 1
0.695842 0.349035 1
0.892989 0.320241 1
1 0.291432 1
0 0.655497 0.634867
0 0.626703 0.690517
0 0.597894 0.746181
0.122438 0.5691 0.801846
0.319585 0.540291 0.857496
0.516747 0.511498 0.913161
0.713893 0.482689 0.968826
0.91104 0.45388 1
1 0.425086 1
0 0.789151 0.525444
0 0.760357 0.581109
0 0.731548 0.636759
0.14049 0.702754 0.692424
0.337636 0.673945 0.748089
0.534798 0.645151 0.803754
0.731945 0.616342 0.859403
0.929091 0.587533 0.915068
1 0.55874 0.970733
0 0.922805 0.416037
0 0.894011 0.471687
0 0.865202 0.527352
0.158541 0.836408 0.583017
0.355688 0.807599 0.638666
0.55285 0.778805 0.694331
0.749996 0.749996 0.749996
0.947143 0.721187 0.805661
1 0.692393 0.861326
0 1 0.306615
0 1 0.36228
0 0.998856 0.417929
0.176593 0.970062 0.473594
0.373739 0.941253 0.529259
0.570901 0.912459 0.584924
0.768048 0.88365 0.640589
0.965194 0.854841 0.696239
1 0.826047 0.751904
0 1 0.197208
0 1 0.252857
0 1 0.308522
0.194644 1 0.364187
0.391791 1 0.419852
0.588952 1 0.475502
0.786099 1 0.531167
0.983246 0.988495 0.586831
1 0.959701 0.642496
0 0.141054 1
0 0.112245 1
0 0.0834516 1
0 0.0546426 1
0.157183 0.0258488 1
0.354345 0 1
0.551492 0 1
0.748638 0 1
0.945785 0 1
0 0.274693 1
0 0.245884 1
0 0.21709 1
0 0.188281 1
0.175235 0.159487 1
0.372381 0.130678 1
0.569543 0.101884 1
0.76669 0.0730755 1
0.963836 0.0442817 1
0 0.408347 1
0 0.379538 1
0 0.350744 1
0 0.321935 1
0.193286 0.293141 1
0.390433 0.264332 1
0.587594 0.235538 1
0.784741 0.206729 1
0.981888 0.177935 1
0 0.542 0.923033
0 0.513191 0.978683
0 0.484398 1
0.0141909 0.455589 1
0.211337 0.426795 1
0.408484 0.397986 1
0.605646 0.369192 1
0.802792 0.340383 1
0.999939 0.311589 1
0 0.675654 0.813611
0 0.646845 0.869276
0 0.618051 0.924941
0.0322423 0.589242 0.980591
0.229389 0.560449 1
0.426535 0.53164 1
0.623697 0.502846 1
0.820844 0.474037 1
1 0.445243 1
0 0.809308 0.704204
0 0.780499 0.759854
0 0.751705 0.815518
0.0502937 0.722896 0.871183
0.24744 0.694102 0.926848
0.444587 0.665293 0.982498
0.641749 0.6365 1
0.838895 0.607691 1
1 0.578882 1
0 0.942962 0.594781
0 0.914153 0.650446
0 0.885359 0.706111
0.0683452 0.85655 0.761761
0.265492 0.827756 0.817426
0.462638 0.798947 0.873091
0.6598 0.770153 0.928756
0.856947 0.741344 0.984405
1 0.712535 1
0 1 0.485374
0 1 0.541024
0 1 0.596689
0.0863966 0.990204 0.652354
0.283543 0.96141 0.708019
0.48069 0.932601 0.763668
0.677852 0.903807 0.819333
0.874998 0.874998 0.874998
1 0.846189 0.930663
0 1 0.375967
0 1 0.431617
0 1 0.487282
0.104448 1 0.542931
0.301595 1 0.598596
0.498741 1 0.654261
0.695903 1 0.709926
0.89305 1 0.765591
1 0.979843 0.821241
0 0.161196 1
0 0.132403 1
0 0.103593 1
0 0.0747997 1
0.0669871 0.0459907 1
0.264134 0.0171969 1
0.461295 0 1
0.658442 0 1
0.855589 0 1
0 0.294835 1
0 0.266041 1
0 0.237232 1
0 0.208438 1
0.0850385 0.179629 1
0.282185 0.150835 1
0.479332 0.122026 1
0.676493 0.0932326 1
0.87364 0.0644236 1
0 0.428489 1
0 0.399695 1
0 0.370886 1
0 0.342092 1
0.10309 0.313283 1
0.300237 0.284489 1
0.497383 0.25568 1
0.694545 0.226886 1
0.891691 0.198077 1
0 0.562142 1
0 0.533349 1
0 0.50454 1
0 0.475746 1
0.121141 0.446937 1
0.318288 0.418143 1
0.515435 0.389334 1
0.712596 0.36054 1
0.909743 0.331731 1
0 0.695796 0.99237
0 0.667002 1
0 0.638193 1
0 0.6094 1
0.139193 0.580591 1
0.336339 0.551797 1
0.533486 0.522988 1
0.730648 0.494194 1
0.927794 0.465385 1
0 0.82945 0.882963
0 0.800656 0.938613
0 0.771847 0.994278
0 0.743053 1
0.157244 0.714244 1
0.354391 0.68545 1
0.551537 0.656641 1
0.748699 0.627848 1
0.945846 0.599039 1
0 0.963104 0.773541
0 0.93431 0.82919
0 0.905501 0.884855
0 0.876707 0.94052
0.175296 0.847898 0.996185
0.372442 0.819104 1
0.569589 0.790295 1
0.766751 0.761501 1
0.963897 0.732692 1
0 1 0.664134
0 1 0.719783
0 1 0.775448
0 1 0.831113
0.193347 0.981552 0.886763
0.390494 0.952758 0.942428
0.58764 0.923949 0.998093
0.784802 0.895155 1
0.981949 0.866346 1
0 1 0.554711
0 1 0.610376
0 1 0.666026
0.0142367 1 0.721691
0.211398 1 0.777356
0.408545 1 0.833021
0.605692 1 0.88867
0.802853 1 0.944335
1 1 1
