public/LUTS/Color Shift/ColorShift_40.cube
TITLE "Generated by Resolve"
LUT_3D_SIZE 9
0 0 0
0.00167849 0.0211337 0.123369
0.00335698 0.0422675 0.246769
0.00503548 0.0634012 0.370153
0.00671397 0.084535 0.493538
0.00839246 0.105669 0.616922
0.0100862 0.126787 0.740322
0.0117647 0.147921 0.863706
0.0134432 0.169055 0.987091
0.208499 0.0554665 0.0542
0.210178 0.0766003 0.177569
0.211856 0.097734 0.300969
0.213535 0.118868 0.424353
0.215213 0.140002 0.547738
0.216892 0.161135 0.671122
0.21857 0.182269 0.794522
0.220264 0.203403 0.917906
0.221942 0.224521 1
0.417029 0.110948 0.1084
0.418708 0.132067 0.231785
0.420386 0.153201 0.355169
0.422065 0.174334 0.478553
0.423743 0.195468 0.601953
0.425422 0.216602 0.725338
0.4271 0.237736 0.848722
0.428779 0.258869 0.972107
0.430457 0.280003 1
0.625544 0.166415 0.162615
0.627222 0.187549 0.285985
0.628901 0.208682 0.409369
0.630594 0.229816 0.532769
0.632273 0.25095 0.656153
0.633951 0.272084 0.779538
0.63563 0.293217 0.902937
0.637308 0.314351 1
0.638987 0.33547 1
0.834073 0.221897 0.216815
0.835752 0.243015 0.3402
0.83743 0.264149 0.463584
0.839109 0.285283 0.586969
0.840787 0.306416 0.710353
0.842466 0.32755 0.833753
0.844144 0.348684 0.957137
0.845823 0.369818 1
0.847517 0.390951 1
1 0.277363 0.271031
1 0.298497 0.3944
1 0.319631 0.517784
1 0.340764 0.641184
1 0.361898 0.764569
1 0.383032 0.887953
1 0.404166 1
1 0.425299 1
1 0.446433 1
1 0.332845 0.325231
1 0.353964 0.448615
1 0.375097 0.572
1 0.396231 0.695384
1 0.417365 0.818769
1 0.438499 0.942168
1 0.459632 1
1 0.480766 1
1 0.5019 1
1 0.388312 0.379446
1 0.409445 0.502815
1 0.430579 0.6262
1 0.451713 0.749599
1 0.472847 0.872984
1 0.49398 0.996368
1 0.515114 1
1 0.536248 1
1 0.557382 1
1 0.443793 0.433646
1 0.464912 0.557031
1 0.486046 0.680415
1 0.507179 0.8038
1 0.528313 0.927184
1 0.549447 1
1 0.570581 1
1 0.591714 1
1 0.612848 1
0 0.0483864 0
0 0.0695201 0.0707866
0 0.0906539 0.194171
0 0.111788 0.317556
0 0.132921 0.440955
0 0.154055 0.56434
0 0.175189 0.687724
0 0.196323 0.811124
0 0.217456 0.934508
0.123308 0.103853 0.00161746
0.124987 0.124987 0.124987
0.126665 0.14612 0.248371
0.128344 0.167254 0.371771
0.130022 0.188388 0.495155
0.131701 0.209522 0.61854
0.133379 0.230655 0.741924
0.135073 0.251789 0.865324
0.136751 0.272923 0.988708
0.331838 0.159335 0.0558175
0.333516 0.180468 0.179187
0.335195 0.201587 0.302586
0.336873 0.222721 0.425971
0.338552 0.243854 0.549355
0.34023 0.264988 0.672755
0.341909 0.286122 0.796139
0.343587 0.307256 0.919524
0.345266 0.328389 1
0.540352 0.214801 0.110033
0.542031 0.235935 0.233402
0.543709 0.257069 0.356786
0.545388 0.278202 0.480171
0.547082 0.299336 0.603571
0.54876 0.32047 0.726955
0.550439 0.341604 0.85034
0.552117 0.362737 0.973724
0.553796 0.383871 1
0.748882 0.270283 0.164233
0.750561 0.291417 0.287602
0.752239 0.312551 0.411002
0.753918 0.333669 0.534386
0.755596 0.354803 0.657771
0.757275 0.375937 0.781155
0.758953 0.39707 0.904555
0.760632 0.418204 1
0.762325 0.439338 1
0.957397 0.32575 0.218448
0.959091 0.346883 0.341817
0.960769 0.368017 0.465202
0.962448 0.389151 0.588586
0.964126 0.410285 0.711986
0.965805 0.431418 0.83537
0.967483 0.452552 0.958755
0.969162 0.473686 1
0.97084 0.49482 1
1 0.381231 0.272648
1 0.402365 0.396017
1 0.423499 0.519417
1 0.444617 0.642802
1 0.465751 0.766186
1 0.486885 0.88957
1 0.508019 1
1 0.529152 1
1 0.550286 1
1 0.436698 0.326848
1 0.457832 0.450233
1 0.478965 0.573617
1 0.500099 0.697002
1 0.521233 0.820401
1 0.542367 0.943786
1 0.5635 1
1 0.584634 1
1 0.605768 1
1 0.49218 0.381064
1 0.513313 0.504433
1 0.534447 0.627817
1 0.555581 0.751217
1 0.576699 0.874601
1 0.597833 0.997986
1 0.618967 1
1 0.640101 1
1 0.661234 1
0 0.096788 0
0 0.117906 0.0181888
0 0.13904 0.141588
0 0.160174 0.264973
0 0.181308 0.388357
0 0.202441 0.511742
0 0.223575 0.635142
0 0.244709 0.758526
0 0.265843 0.88191
0.0381018 0.152255 0
0.0397803 0.173388 0.0723888
0.0414588 0.194507 0.195789
0.0431373 0.215641 0.319173
0.044831 0.236774 0.442557
0.0465095 0.257908 0.565942
0.048188 0.279042 0.689342
0.0498665 0.300175 0.812726
0.051545 0.321309 0.93611
0.246632 0.207721 0.00321965
0.24831 0.228855 0.126604
0.249989 0.249989 0.249989
0.251667 0.271122 0.373373
0.253346 0.292256 0.496773
0.255024 0.31339 0.620157
0.256703 0.334524 0.743542
0.258381 0.355657 0.866926
0.260075 0.376791 0.990326
0.455146 0.263203 0.057435
0.45684 0.284337 0.180804
0.458518 0.30547 0.304189
0.460197 0.326589 0.427588
0.461875 0.347723 0.550973
0.463554 0.368856 0.674357
0.465232 0.38999 0.797757
0.466911 0.411124 0.921141
0.468589 0.432258 1
0.663676 0.318669 0.111635
0.665354 0.339803 0.235019
0.667033 0.360937 0.358404
0.668711 0.382071 0.481788
0.67039 0.403204 0.605173
0.672084 0.424338 0.728573
0.673762 0.445472 0.851957
0.675441 0.466606 0.975341
0.677119 0.487739 1
0.872206 0.374151 0.16585
0.873884 0.395285 0.289219
0.875563 0.416419 0.412604
0.877241 0.437552 0.536004
0.87892 0.458671 0.659388
0.880598 0.479805 0.782773
0.882277 0.500938 0.906157
0.883955 0.522072 1
0.885634 0.543206 1
1 0.429618 0.22005
1 0.450752 0.343435
1 0.471885 0.466819
1 0.493019 0.590204
1 0.514153 0.713588
1 0.535286 0.836988
1 0.55642 0.960372
1 0.577554 1
1 0.598688 1
1 0.4851 0.274266
1 0.506233 0.397635
1 0.527367 0.521019
1 0.548501 0.644419
1 0.569619 0.767803
1 0.590753 0.891188
1 0.611887 1
1 0.633021 1
1 0.654154 1
1 0.540566 0.328466
1 0.5617 0.45185
1 0.582834 0.575235
1 0.603967 0.698619
1 0.625101 0.822003
1 0.646235 0.945403
1 0.667369 1
1 0.688502 1
1 0.709636 1
0 0.145174 0
0 0.166308 0
0 0.187442 0.0889906
0 0.208576 0.212375
0 0.229709 0.33576
0 0.250843 0.459159
0 0.271977 0.582544
0 0.293111 0.705928
0 0.314244 0.829313
0 0.200641 0
0 0.221775 0.0198062
0 0.242908 0.143191
0 0.264042 0.266575
0 0.285176 0.38996
0 0.30631 0.513359
0 0.327443 0.636744
0 0.348577 0.760128
0 0.369711 0.883513
0.161425 0.256123 0
0.163104 0.277256 0.0740063
0.164782 0.29839 0.197391
0.166461 0.319509 0.32079
0.168139 0.340642 0.444175
0.169833 0.361776 0.567559
0.171511 0.38291 0.690944
0.17319 0.404044 0.814343
0.174868 0.425177 0.937728
0.369955 0.311589 0.00483711
0.371633 0.332723 0.128206
0.373312 0.353857 0.251606
0.37499 0.37499 0.37499
0.376669 0.396124 0.498375
0.378347 0.417258 0.621775
0.380026 0.438392 0.745159
0.381704 0.459525 0.868544
0.383383 0.480659 0.991928
0.57847 0.367071 0.0590524
0.580148 0.388205 0.182422
0.581842 0.409339 0.305806
0.58352 0.430472 0.429191
0.585199 0.451591 0.55259
0.586877 0.472724 0.675975
0.588556 0.493858 0.799359
0.590234 0.514992 0.922759
0.591913 0.536126 1
0.786999 0.422538 0.113252
0.788678 0.443671 0.236622
0.790356 0.464805 0.360021
0.792035 0.485939 0.483406
0.793713 0.507073 0.60679
0.795392 0.528206 0.730175
0.797086 0.54934 0.853574
0.798764 0.570474 0.976959
0.800443 0.591608 1
0.995529 0.478019 0.167468
0.997208 0.499153 0.290837
0.998886 0.520287 0.414221
1 0.541421 0.537606
1 0.562554 0.661006
1 0.583673 0.78439
1 0.604807 0.907774
1 0.62594 1
1 0.647074 1
1 0.533486 0.221668
1 0.55462 0.345037
1 0.575753 0.468437
1 0.596887 0.591821
1 0.618021 0.715206
1 0.639155 0.83859
1 0.660288 0.96199
1 0.681422 1
1 0.702556 1
1 0.588968 0.275883
1 0.610101 0.399252
1 0.631235 0.522637
1 0.652369 0.646021
1 0.673503 0.769421
1 0.694621 0.892805
1 0.715755 1
1 0.736889 1
1 0.758022 1
0 0.193576 0
0 0.21471 0
0 0.235828 0.0363928
0 0.256962 0.159777
0 0.278096 0.283177
0 0.299229 0.406561
0 0.320363 0.529946
0 0.341497 0.65333
0 0.362631 0.77673
0 0.249042 0
0 0.270176 0
0 0.29131 0.0905928
0 0.312428 0.213977
0 0.333562 0.337377
0 0.354696 0.460761
0 0.37583 0.584146
0 0.396963 0.70753
0 0.418097 0.83093
0.0762188 0.304509 0
0.0778973 0.325643 0.0214084
0.0795911 0.346777 0.144808
0.0812695 0.36791 0.268193
0.082948 0.389044 0.391577
0.0846265 0.410178 0.514961
0.086305 0.431312 0.638361
0.0879835 0.452445 0.761746
0.089662 0.473579 0.88513
0.284749 0.359991 0
0.286427 0.381125 0.0756237
0.288106 0.402258 0.199008
0.289784 0.423392 0.322393
0.291463 0.444511 0.445792
0.293141 0.465644 0.569177
0.294835 0.486778 0.692561
0.296513 0.507912 0.815946
0.298192 0.529046 0.939345
0.493278 0.415457 0.00645457
0.494957 0.436591 0.129824
0.496635 0.457725 0.253208
0.498314 0.478859 0.376608
0.499992 0.499992 0.499992
0.501671 0.521126 0.623377
0.503349 0.54226 0.746777
0.505028 0.563394 0.870161
0.506706 0.584527 0.993545
0.701793 0.470939 0.0606546
0.703471 0.492073 0.184039
0.70515 0.513207 0.307424
0.706844 0.53434 0.430808
0.708522 0.555474 0.554192
0.710201 0.576593 0.677592
0.711879 0.597726 0.800977
0.713558 0.61886 0.924361
0.715236 0.639994 1
0.910323 0.526406 0.11487
0.912001 0.547539 0.238239
0.91368 0.568673 0.361624
0.915358 0.589807 0.485023
0.917037 0.610941 0.608408
0.918715 0.632074 0.731792
0.920394 0.653208 0.855177
0.922087 0.674342 0.978576
0.923766 0.695476 1
1 0.581888 0.16907
1 0.603021 0.292454
1 0.624155 0.415839
1 0.645289 0.539223
1 0.666423 0.662608
1 0.687556 0.786007
1 0.708675 0.909392
1 0.729809 1
1 0.750942 1
1 0.637354 0.223285
1 0.658488 0.346654
1 0.679622 0.470039
1 0.700755 0.593439
1 0.721889 0.716823
1 0.743023 0.840208
1 0.764157 0.963592
1 0.78529 1
1 0.806424 1
0 0.241962 0
0 0.263096 0
0 0.28423 0
0 0.305364 0.107195
0 0.326497 0.230579
0 0.347631 0.353964
0 0.368765 0.477348
0 0.389899 0.600748
0 0.411032 0.724132
0 0.297429 0
0 0.318563 0
0 0.339696 0.037995
0 0.36083 0.161395
0 0.381964 0.284779
0 0.403098 0.408164
0 0.424231 0.531548
0 0.445365 0.654948
0 0.466499 0.778332
0 0.352911 0
0 0.374044 0
0 0.395178 0.0922103
0 0.416312 0.215595
0 0.43743 0.338979
0 0.458564 0.462379
0.00109865 0.479698 0.585763
0.00277714 0.500832 0.709148
0.00445563 0.521965 0.832532
0.199542 0.408377 0
0.201221 0.429511 0.0230259
0.202899 0.450645 0.14641
0.204593 0.471778 0.26981
0.206271 0.492912 0.393194
0.20795 0.514046 0.516579
0.209628 0.53518 0.639963
0.211307 0.556313 0.763363
0.212985 0.577447 0.886748
0.408072 0.463859 0
0.409751 0.484993 0.0772259
0.411429 0.506127 0.200626
0.413108 0.52726 0.32401
0.414786 0.548394 0.447395
0.416464 0.569512 0.570794
0.418143 0.590646 0.694179
0.419837 0.61178 0.817563
0.421515 0.632914 0.940948
0.616602 0.519326 0.00807202
0.61828 0.540459 0.131441
0.619959 0.561593 0.254826
0.621637 0.582727 0.37821
0.623316 0.603861 0.50161
0.624994 0.624994 0.624994
0.626673 0.646128 0.748379
0.628351 0.667262 0.871778
0.63003 0.688396 0.995163
0.825116 0.574807 0.0622721
0.826795 0.595941 0.185641
0.828473 0.617075 0.309041
0.830152 0.638209 0.432425
0.831846 0.659342 0.55581
0.833524 0.680476 0.679194
0.835203 0.701595 0.802594
0.836881 0.722728 0.925978
0.83856 0.743862 1
1 0.630289 0.116487
1 0.651408 0.239857
1 0.672541 0.363241
1 0.693675 0.486625
1 0.714809 0.610025
1 0.735943 0.73341
1 0.757076 0.856794
1 0.77821 0.980179
1 0.799344 1
1 0.685756 0.170687
1 0.706889 0.294057
1 0.728023 0.417456
1 0.749157 0.540841
1 0.770291 0.664225
1 0.791424 0.78761
1 0.812558 0.911009
1 0.833677 1
1 0.85481 1
0 0.290364 0
0 0.311498 0
0 0.332631 0
0 0.35375 0.0545968
0 0.374884 0.177981
0 0.396017 0.301366
0 0.417151 0.424765
0 0.438285 0.54815
0 0.459419 0.671534
0 0.34583 0
0 0.366964 0
0 0.388098 0
0 0.409232 0.108797
0 0.430365 0.232181
0 0.451484 0.355566
0 0.472618 0.478965
0 0.493751 0.60235
0 0.514885 0.725734
0 0.401297 0
0 0.422431 0
0 0.443565 0.0396124
0 0.464698 0.162997
0 0.485832 0.286397
0 0.506966 0.409781
0 0.528099 0.533165
0 0.549233 0.65655
0 0.570367 0.77995
0.114351 0.456779 0
0.11603 0.477913 0
0.117708 0.499046 0.0938277
0.119387 0.52018 0.217212
0.121065 0.541314 0.340597
0.122744 0.562432 0.463981
0.124422 0.583566 0.587381
0.126101 0.6047 0.710765
0.127779 0.625834 0.83415
0.322866 0.512245 0
0.324544 0.533379 0.0246433
0.326223 0.554513 0.148028
0.327901 0.575647 0.271412
0.329595 0.59678 0.394812
0.331273 0.617914 0.518196
0.332952 0.639048 0.641581
0.33463 0.660182 0.764965
0.336309 0.681315 0.888365
0.531395 0.567727 0
0.533074 0.588861 0.0788434
0.534752 0.609995 0.202228
0.536431 0.631128 0.325628
0.538109 0.652262 0.449012
0.539788 0.673396 0.572396
0.541466 0.694514 0.695796
0.543145 0.715648 0.819181
0.544839 0.736782 0.942565
0.73991 0.623209 0.00967422
0.741604 0.644327 0.133059
0.743282 0.665461 0.256443
0.744961 0.686595 0.379828
0.746639 0.707729 0.503212
0.748318 0.728862 0.626612
0.749996 0.749996 0.749996
0.751675 0.77113 0.873381
0.753353 0.792264 0.99678
0.94844 0.678676 0.0638895
0.950118 0.699809 0.187259
0.951797 0.720943 0.310643
0.953475 0.742077 0.434043
0.955154 0.76321 0.557427
0.956847 0.784344 0.680812
0.958526 0.805478 0.804196
0.960204 0.826596 0.927596
0.961883 0.84773 1
1 0.734157 0.11809
1 0.755276 0.241474
1 0.77641 0.364858
1 0.797543 0.488243
1 0.818677 0.611627
1 0.839811 0.735027
1 0.860945 0.858412
1 0.882078 0.981796
1 0.903212 1
0 0.33875 0
0 0.359884 0
0 0.381018 0
0 0.402152 0.00199893
0 0.423285 0.125383
0 0.444419 0.248783
0 0.465553 0.372168
0 0.486686 0.495552
0 0.50782 0.618936
0 0.394217 0
0 0.415351 0
0 0.436484 0
0 0.457618 0.056199
0 0.478752 0.179583
0 0.499886 0.302983
0 0.521019 0.426368
0 0.542153 0.549752
0 0.563287 0.673136
0 0.449699 0
0 0.470832 0
0 0.491966 0
0 0.5131 0.110414
0 0.534234 0.233799
0 0.555367 0.357183
0 0.576486 0.480568
0 0.59762 0.603967
0 0.618753 0.727352
0.0291447 0.505165 0
0.0308232 0.526299 0
0.0325017 0.547433 0.0412299
0.0341802 0.568566 0.164614
0.0358587 0.5897 0.287999
0.0375372 0.610834 0.411399
0.0392157 0.631968 0.534783
0.0408942 0.653101 0.658167
0.0425879 0.674235 0.781552
0.237659 0.560647 0
0.239353 0.581781 0
0.241032 0.602914 0.0954299
0.24271 0.624048 0.21883
0.244388 0.645182 0.342214
0.246067 0.666316 0.465599
0.247745 0.687434 0.588983
0.249424 0.708568 0.712383
0.251102 0.729702 0.835767
0.446189 0.616129 0
0.447868 0.637247 0.0262608
0.449546 0.658381 0.149645
0.451225 0.679515 0.27303
0.452903 0.700648 0.396414
0.454597 0.721782 0.519814
0.456275 0.742916 0.643198
0.457954 0.76405 0.766583
0.459632 0.785183 0.889967
0.654719 0.671595 0
0.656397 0.692729 0.0804608
0.658076 0.713863 0.203845
0.659754 0.734997 0.32723
0.661433 0.75613 0.450629
0.663111 0.777264 0.574014
0.66479 0.798398 0.697398
0.666468 0.819516 0.820798
0.668147 0.84065 0.944183
0.863233 0.727077 0.0112917
0.864912 0.748196 0.134661
0.866606 0.769329 0.258061
0.868284 0.790463 0.381445
0.869963 0.811597 0.504829
0.871641 0.832731 0.628214
0.87332 0.853864 0.751614
0.874998 0.874998 0.874998
0.876677 0.896132 0.998383
1 0.782544 0.065507
1 0.803677 0.188876
1 0.824811 0.312261
1 0.845945 0.435645
1 0.867079 0.559045
1 0.888212 0.682429
1 0.909346 0.805814
1 0.93048 0.929198
1 0.951598 1
0 0.387152 0
0 0.408286 0
0 0.429419 0
0 0.450553 0
0 0.471687 0.0728008
0 0.492805 0.196185
0 0.513939 0.31957
0 0.535073 0.442954
0 0.556207 0.566354
0 0.442618 0
0 0.463752 0
0 0.484886 0
0 0.50602 0.00360113
0 0.527153 0.127001
0 0.548287 0.250385
0 0.569406 0.37377
0 0.590539 0.497169
0 0.611673 0.620554
0 0.4981 0
0 0.519219 0
0 0.540352 0
0 0.561486 0.0578164
0 0.58262 0.181201
0 0.603754 0.304585
0 0.624887 0.427985
0 0.646021 0.551369
0 0.667155 0.674754
0 0.553567 0
0 0.574701 0
0 0.595834 0
0 0.616968 0.112016
0 0.638102 0.235416
0 0.659236 0.358801
0 0.680369 0.482185
0 0.701488 0.60557
0 0.722622 0.728969
0.152468 0.609049 0
0.154147 0.630167 0
0.155825 0.651301 0.0428473
0.157504 0.672435 0.166232
0.159182 0.693568 0.289616
0.160861 0.714702 0.413001
0.162539 0.735836 0.5364
0.164218 0.75697 0.659785
0.165896 0.778103 0.783169
0.360983 0.664515 0
0.362661 0.685649 0
0.364355 0.706783 0.0970474
0.366033 0.727916 0.220432
0.367712 0.74905 0.343832
0.36939 0.770184 0.467216
0.371069 0.791318 0.5906
0.372747 0.812436 0.713985
0.374426 0.83357 0.837385
0.569512 0.719997 0
0.571191 0.741115 0.027863
0.572869 0.762249 0.151263
0.574548 0.783383 0.274647
0.576226 0.804517 0.398032
0.577905 0.82565 0.521416
0.579599 0.846784 0.644816
0.581277 0.867918 0.7682
0.582956 0.889052 0.891585
0.778042 0.775464 0
0.779721 0.796597 0.0820783
0.781399 0.817731 0.205463
0.783078 0.838865 0.328847
0.784756 0.859998 0.452232
0.786435 0.881132 0.575631
0.788113 0.902266 0.699016
0.789792 0.9234 0.8224
0.79147 0.944518 0.9458
0.986557 0.830945 0.0129091
0.988235 0.852064 0.136278
0.989914 0.873198 0.259663
0.991608 0.894331 0.383062
0.993286 0.915465 0.506447
0.994965 0.936599 0.629831
0.996643 0.957732 0.753216
0.998322 0.978866 0.876616
1 1 1
