public/LUTS/Color Shift/ColorShift_97.cube
TITLE "Generated by Resolve"
LUT_3D_SIZE 5
0 0 0
0 0.127245 0.201587
0 0.254505 0.403189
0 0.381765 0.604791
0 0.509026 0.806378
0.524544 0.0396124 0.41236
0.263981 0.166857 0.613947
0.0033875 0.294118 0.815549
0 0.421378 1
0 0.548638 1
1 0.0792096 0.82475
0.788556 0.20647 1
0.527977 0.33373 1
0.267384 0.460975 1
0.00680552 0.588235 1
1 0.118822 1
1 0.246082 1
1 0.373327 1
0.791959 0.500587 1
0.53138 0.627848 1
1 0.158434 1
1 0.285679 1
1 0.41294 1
1 0.5402 1
1 0.66746 1
0 0.0831311 0
0 0.210376 0
0 0.337636 0.0392309
0 0.464897 0.240833
0 0.592157 0.44242
0.510552 0.122744 0.0484016
0.249989 0.249989 0.249989
0 0.377249 0.451591
0 0.504509 0.653193
0 0.631769 0.85478
1 0.162341 0.460792
0.774563 0.289601 0.662379
0.513985 0.416861 0.863981
0.253407 0.544121 1
0 0.671366 1
1 0.201953 0.873167
1 0.329213 1
1 0.456458 1
0.777981 0.583719 1
0.517388 0.710979 1
1 0.241566 1
1 0.368811 1
1 0.496071 1
1 0.623331 1
1 0.750591 1
0 0.166262 0
0 0.293523 0
0 0.420783 0
0 0.548028 0
0 0.675288 0.0784466
0.496559 0.205875 0
0.235996 0.33312 0
0 0.46038 0.087602
0 0.58764 0.289204
0 0.7149 0.490806
1 0.245487 0.0968032
0.760571 0.372732 0.29839
0.499992 0.499992 0.499992
0.239414 0.627253 0.701595
0 0.754513 0.903197
1 0.2851 0.509194
1 0.412345 0.710781
1 0.539605 0.912383
0.763989 0.666865 1
0.50341 0.794125 1
1 0.324697 0.921584
1 0.451957 1
1 0.579217 1
1 0.706462 1
1 0.833722 1
0 0.249409 0
0 0.376654 0
0 0.503914 0
0 0.631174 0
0 0.758434 0
0.482582 0.289006 0
0.222004 0.416266 0
0 0.543526 0
0 0.670771 0
0 0.798032 0.126818
1 0.328618 0
0.746578 0.455863 0
0.486 0.583124 0.136019
0.225422 0.710384 0.337606
0 0.837644 0.539208
1 0.368231 0.145205
1 0.495476 0.346792
1 0.622736 0.548394
0.749996 0.749996 0.749996
0.489418 0.877256 0.951598
1 0.407843 0.557595
1 0.535088 0.759182
1 0.662348 0.960784
1 0.789609 1
1 0.916869 1
0 0.33254 0
0 0.459785 0
0 0.587045 0
0 0.714305 0
0 0.841566 0
0.468589 0.372152 0
0.208011 0.499397 0
0 0.626657 0
0 0.753918 0
0 0.881178 0
0.993164 0.411749 0
0.732601 0.53901 0
0.472007 0.66627 0
0.211429 0.79353 0
0 0.920775 0.175235
1 0.451362 0
1 0.578622 0
0.996582 0.705867 0.184421
0.736004 0.833127 0.386023
0.475425 0.960388 0.58761
1 0.490974 0.193622
1 0.618219 0.395209
1 0.74548 0.596796
1 0.87274 0.798398
1 1 1
