public/LUTS/Color Shift/ColorShift_60.cube
TITLE "Generated by Resolve"
LUT_3D_SIZE 5
0 0 0
0 0.132052 0
0 0.264118 0
0 0.396185 0
0 0.528252 0
0 0.212757 0.502678
0 0.344808 0.241154
0 0.476875 0
0 0.608942 0
0 0.741009 0
0 0.425513 1
0 0.557565 0.743862
0 0.689632 0.482322
0 0.821698 0.220768
0 0.953765 0
0 0.63827 1
0 0.770336 1
0 0.902403 0.985031
0 1 0.723491
0 1 0.461936
0 0.851041 1
0 0.983093 1
0 1 1
0 1 1
0 1 0.964645
0.419409 0 0.00883497
0.341283 0.037232 0
0.263157 0.169299 0
0.185031 0.301366 0
0.106905 0.433433 0
0.328115 0.117937 0.511528
0.249989 0.249989 0.249989
0.171862 0.382055 0
0.0937362 0.514122 0
0.01561 0.646189 0
0.236805 0.330694 1
0.158694 0.462745 0.752697
0.0805524 0.594812 0.491157
0.00242618 0.726879 0.229603
0 0.858946 0
0.14551 0.54345 1
0.0673838 0.675517 1
0 0.807584 0.993866
0 0.939651 0.732326
0 1 0.470771
0.0542 0.756222 1
0 0.888273 1
0 1 1
0 1 1
0 1 0.973495
0.838849 0 0.0176699
0.760723 0 0
0.682597 0.0744793 0
0.604456 0.206546 0
0.526329 0.338613 0
0.747539 0.0231022 0.520363
0.669429 0.155169 0.258824
0.591287 0.287236 0
0.513161 0.419303 0
0.435035 0.551369 0
0.656245 0.235874 1
0.578119 0.367926 0.761547
0.499992 0.499992 0.499992
0.421866 0.632059 0.238437
0.34374 0.764126 0
0.564935 0.448631 1
0.486824 0.580682 1
0.408698 0.712749 1
0.330556 0.844816 0.741161
0.25243 0.976883 0.479606
0.47364 0.661387 1
0.395514 0.793454 1
0.317388 0.925521 1
0.239261 1 1
0.161135 1 0.98233
1 0 0.0265049
1 0 0
1 0 0
1 0.111727 0
0.945769 0.243793 0
1 0 0.529198
1 0.0603342 0.267659
1 0.192401 0.00611887
0.932601 0.324468 0
0.854475 0.456535 0
1 0.141039 1
0.997559 0.273106 0.770382
0.919432 0.405173 0.508827
0.841291 0.53724 0.247288
0.763165 0.669306 0
0.984375 0.353811 1
0.906249 0.485863 1
0.828122 0.617929 1
0.749996 0.749996 0.749996
0.67187 0.882063 0.488441
0.89308 0.566567 1
0.814954 0.698619 1
0.736828 0.830686 1
0.658701 0.962753 1
0.58056 1 0.991165
1 0 0.0353552
1 0 0
1 0 0
1 0.0168917 0
1 0.148959 0
1 0 0.538033
1 0 0.276493
1 0.0975814 0.0149538
1 0.229648 0
1 0.361715 0
1 0.0462196 1
1 0.178271 0.779217
1 0.310338 0.517662
1 0.442405 0.256123
1 0.574472 0
1 0.258976 1
1 0.391043 1
1 0.52311 1
1 0.655177 0.758831
1 0.787243 0.497292
1 0.471748 1
1 0.6038 1
1 0.735866 1
1 0.867933 1
1 1 1
