public/LUTS/Color Shift/ColorShift_30.cube
TITLE "Generated by Resolve"
LUT_3D_SIZE 5
0 0 0
0.225956 0 0.157122
0.451926 0 0.31426
0.677897 0 0.471382
0.903868 0 0.628519
0.186404 0.203113 0
0.412375 0.190112 0.0868086
0.638346 0.177111 0.243946
0.864317 0.164126 0.401068
1 0.151125 0.558206
0.372839 0.406226 0
0.598795 0.393225 0.0164797
0.824765 0.38024 0.173617
1 0.367239 0.330755
1 0.354253 0.487877
0.559258 0.609339 0
0.785214 0.596353 0
1 0.583352 0.103304
1 0.570367 0.260426
1 0.557366 0.417563
0.745678 0.812451 0
0.971633 0.799466 0
1 0.786465 0.0329747
1 0.77348 0.190112
1 0.760479 0.347234
0 0.0598764 0.16318
0.0635843 0.0468757 0.320302
0.289555 0.0338903 0.47744
0.515526 0.0208896 0.634577
0.741497 0.00790417 0.791699
0.024033 0.262974 0.0928664
0.249989 0.249989 0.249989
0.475959 0.236988 0.407126
0.70193 0.224002 0.564248
0.927901 0.211002 0.721386
0.210452 0.466102 0.0225376
0.436408 0.453101 0.179675
0.662379 0.440116 0.336797
0.88835 0.427115 0.493935
1 0.41413 0.651072
0.396872 0.669215 0
0.622827 0.656229 0.109346
0.848798 0.643229 0.266484
1 0.630243 0.423606
1 0.617243 0.580743
0.583291 0.872328 0
0.809247 0.859342 0.0390326
1 0.846342 0.196155
1 0.833356 0.353292
1 0.820356 0.51043
0 0.119753 0.326375
0 0.106767 0.483497
0.127153 0.0937667 0.640635
0.35314 0.0807813 0.797757
0.57911 0.0677806 0.954894
0 0.322866 0.256062
0.087602 0.309865 0.413184
0.313573 0.29688 0.570321
0.539544 0.283879 0.727443
0.765515 0.270893 0.884581
0.0480659 0.525979 0.185733
0.274022 0.512993 0.342855
0.499992 0.499992 0.499992
0.725963 0.486992 0.65713
0.951934 0.474006 0.814252
0.234485 0.729091 0.115419
0.460441 0.716106 0.272541
0.686412 0.703105 0.429679
0.912383 0.69012 0.586801
1 0.677119 0.743938
0.420905 0.932219 0.0450904
0.64686 0.919219 0.202213
0.872831 0.906233 0.35935
1 0.893233 0.516487
1 0.880247 0.673609
0 0.179629 0.48957
0 0.166644 0.646693
0 0.153643 0.80383
0.190738 0.140658 0.960952
0.416709 0.127657 1
0 0.382742 0.419257
0 0.369741 0.576379
0.151186 0.356756 0.733501
0.377157 0.343755 0.890639
0.603128 0.33077 1
0 0.585855 0.348928
0.111635 0.572869 0.50605
0.337606 0.559869 0.663188
0.563577 0.546883 0.820325
0.789548 0.533883 0.977447
0.0720989 0.788983 0.278614
0.298054 0.775982 0.435737
0.524025 0.762997 0.592859
0.749996 0.749996 0.749996
0.975967 0.736996 0.907134
0.258518 0.992096 0.208286
0.484474 0.979095 0.365408
0.710445 0.96611 0.522545
0.936416 0.953109 0.679683
1 0.940124 0.836805
0 0.239521 0.652766
0 0.22652 0.809888
0 0.213535 0.96701
0.0283513 0.200534 1
0.254322 0.187549 1
0 0.442618 0.582437
0 0.429633 0.739559
0 0.416632 0.896696
0.214771 0.403647 1
0.440742 0.390646 1
0 0.645731 0.512123
0 0.632746 0.669245
0.175219 0.619745 0.826383
0.40119 0.60676 0.983505
0.627161 0.593759 1
0 0.848859 0.441794
0.135668 0.835859 0.598917
0.361639 0.822873 0.756054
0.58761 0.809873 0.913191
0.813581 0.796887 1
0.0961318 1 0.371481
0.322087 1 0.528603
0.548058 1 0.68574
0.774029 1 0.842863
1 1 1
