public/LUTS/Color Shift/ColorShift_17.cube
TITLE "Generated by Resolve"
LUT_3D_SIZE 9
0 0 0
0.0508125 0.0313573 0
0.10164 0.0627298 0
0.152453 0.0941024 0
0.203281 0.125475 0
0.254093 0.156832 0
0.304921 0.188205 0
0.355734 0.219577 0
0.406561 0.250935 0
0 0.119509 0.120775
0.0173037 0.150881 0.049897
0.0681163 0.182239 0
0.118944 0.213611 0
0.169757 0.244984 0
0.220584 0.276356 0
0.271397 0.307713 0
0.322225 0.339086 0
0.373037 0.370459 0
0 0.239048 0.241581
0 0.270405 0.170703
0.0345922 0.301778 0.0998093
0.08542 0.333135 0.0289158
0.136233 0.364508 0
0.18706 0.39588 0
0.237873 0.427253 0
0.288701 0.45861 0
0.339529 0.489982 0
0 0.358572 0.362371
0 0.389929 0.291493
0.00106813 0.421302 0.2206
0.0518959 0.452674 0.149722
0.102724 0.484031 0.0788281
0.153536 0.515404 0.00794995
0.204364 0.546777 0
0.255177 0.578149 0
0.306004 0.609506 0
0 0.478096 0.483162
0 0.509468 0.412284
0 0.540825 0.341405
0.0183719 0.572198 0.270512
0.0691997 0.603571 0.199619
0.120012 0.634928 0.12874
0.17084 0.6663 0.057847
0.221653 0.697673 0
0.27248 0.72903 0
0 0.59762 0.603967
0 0.628992 0.533089
0 0.660365 0.462196
0 0.691722 0.391302
0.0356756 0.723095 0.320424
0.0864881 0.754467 0.249531
0.137316 0.785824 0.178653
0.188144 0.817197 0.107759
0.238956 0.848569 0.0368658
0 0.717159 0.724758
0 0.748516 0.65388
0 0.779889 0.582986
0 0.811261 0.512108
0.00215152 0.842618 0.441215
0.0529793 0.873991 0.370336
0.103792 0.905364 0.299443
0.15462 0.936721 0.22855
0.205432 0.968093 0.157671
0 0.836683 0.845548
0 0.86804 0.77467
0 0.899413 0.703792
0 0.930785 0.632898
0 0.962158 0.562005
0.0194553 0.993515 0.491127
0.0702678 1 0.420233
0.121096 1 0.349355
0.171908 1 0.278462
0 0.956207 0.966354
0 0.987579 0.895476
0 1 0.824582
0 1 0.753689
0 1 0.682811
0 1 0.611917
0.0367437 1 0.541039
0.0875715 1 0.470146
0.138399 1 0.399252
0.107683 0 0.0750896
0.158511 0.00547799 0.00421149
0.209323 0.0368353 0
0.260151 0.0682078 0
0.310964 0.0995804 0
0.361791 0.130938 0
0.412604 0.16231 0
0.463432 0.193683 0
0.514244 0.225055 0
0.0741741 0.0936294 0.195865
0.124987 0.124987 0.124987
0.175814 0.156359 0.0540932
0.226627 0.187716 0
0.277455 0.219089 0
0.328267 0.250462 0
0.379095 0.281819 0
0.429908 0.313191 0
0.480735 0.344564 0
0.04065 0.213153 0.316655
0.0914626 0.244511 0.245777
0.14229 0.275883 0.174899
0.193103 0.307256 0.104005
0.243931 0.338613 0.0331121
0.294743 0.369985 0
0.345571 0.401358 0
0.396384 0.432715 0
0.447211 0.464088 0
0.00712596 0.332677 0.437461
0.0579385 0.36405 0.366583
0.108766 0.395407 0.295689
0.159579 0.42678 0.224796
0.210407 0.458152 0.153918
0.261234 0.489509 0.0830243
0.312047 0.520882 0.0121462
0.362875 0.552254 0
0.413687 0.583612 0
0 0.452201 0.558251
0.0244144 0.483574 0.487373
0.0752422 0.514946 0.41648
0.12607 0.546304 0.345602
0.176883 0.577676 0.274708
0.22771 0.609049 0.20383
0.278523 0.640406 0.132937
0.329351 0.671778 0.0620432
0.380163 0.703151 0
0 0.57174 0.679042
0 0.603098 0.608164
0.0417182 0.63447 0.537285
0.092546 0.665843 0.466392
0.143359 0.6972 0.395499
0.194186 0.728573 0.32462
0.244999 0.759945 0.253727
0.295827 0.791302 0.182849
0.346639 0.822675 0.111955
0 0.691264 0.799847
0 0.722622 0.728969
0.00819409 0.753994 0.658076
0.0590219 0.785367 0.587182
0.109834 0.816724 0.516304
0.160662 0.848096 0.445411
0.21149 0.879469 0.374533
0.262303 0.910842 0.303639
0.31313 0.942199 0.232746
0 0.810788 0.920638
0 0.842161 0.84976
0 0.873518 0.778866
0.0254978 0.904891 0.707988
0.0763256 0.936263 0.637095
0.127138 0.96762 0.566217
0.177966 0.998993 0.495323
0.228779 1 0.42443
0.279606 1 0.353552
0 0.930327 1
0 0.961685 0.97055
0 0.993057 0.899672
0 1 0.828779
0.0428016 1 0.7579
0.0936141 1 0.687007
0.144442 1 0.616114
0.195254 1 0.545235
0.246082 1 0.474342
0.215396 0 0.150179
0.266209 0 0.0793011
0.317021 0.0109407 0.00840772
0.367849 0.0423133 0
0.418677 0.0736858 0
0.46949 0.105043 0
0.520317 0.136416 0
0.57113 0.167788 0
0.621958 0.199161 0
0.181872 0.0677348 0.270954
0.232685 0.0990921 0.200076
0.283513 0.130465 0.129198
0.334325 0.161822 0.0583047
0.385153 0.193194 0
0.435966 0.224567 0
0.486793 0.25594 0
0.537621 0.287297 0
0.588434 0.318669 0
0.148348 0.187259 0.39176
0.199161 0.218616 0.320882
0.249989 0.249989 0.249989
0.300816 0.281361 0.179095
0.351629 0.312718 0.108217
0.402457 0.344091 0.0373236
0.453269 0.375463 0
0.504097 0.406821 0
0.55491 0.438193 0
0.114824 0.306783 0.512551
0.165652 0.338155 0.441672
0.216464 0.369512 0.370779
0.267292 0.400885 0.299901
0.318105 0.432258 0.229007
0.368933 0.463615 0.158114
0.419745 0.494987 0.0872358
0.470573 0.52636 0.0163424
0.521385 0.557717 0
0.0813153 0.426307 0.633341
0.132128 0.457679 0.562463
0.18294 0.489052 0.491585
0.233768 0.520409 0.420691
0.284581 0.551781 0.349798
0.335409 0.583154 0.27892
0.386236 0.614511 0.208026
0.437049 0.645884 0.137148
0.487877 0.677256 0.0662547
0.0477913 0.545846 0.754147
0.0986038 0.577203 0.683268
0.149416 0.608576 0.612375
0.200244 0.639948 0.541482
0.251072 0.671305 0.470603
0.301885 0.702678 0.39971
0.352712 0.734051 0.328832
0.403525 0.765408 0.257939
0.454353 0.79678 0.187045
0.0142672 0.66537 0.874937
0.0650797 0.696727 0.804059
0.115908 0.728099 0.733166
0.16672 0.759472 0.662287
0.217548 0.790845 0.591394
0.26836 0.822202 0.5205
0.319188 0.853574 0.449622
0.370001 0.884947 0.378729
0.420829 0.916304 0.307851
0 0.784894 0.995727
0.0315557 0.816266 0.924849
0.0823835 0.847623 0.853971
0.133196 0.878996 0.783078
0.184024 0.910369 0.712184
0.234836 0.941726 0.641306
0.285664 0.973098 0.570413
0.336492 1 0.499535
0.387304 1 0.428641
0 0.904433 1
0 0.93579 1
0.0488594 0.967163 0.974762
0.0996872 0.99852 0.903868
0.1505 1 0.83299
0.201328 1 0.762097
0.25214 1 0.691218
0.302968 1 0.620325
0.35378 1 0.549432
0.323095 0 0.225269
0.373907 0 0.154391
0.424735 0 0.0835126
0.475547 0.0164187 0.0126192
0.526375 0.0477913 0
0.577188 0.0791638 0
0.628016 0.110521 0
0.678828 0.141894 0
0.729656 0.173266 0
0.28957 0.0418402 0.346059
0.340398 0.0731975 0.275181
0.391211 0.10457 0.204288
0.442039 0.135927 0.133394
0.492851 0.1673 0.0625162
0.543679 0.198672 0
0.594491 0.230045 0
0.645319 0.261402 0
0.696132 0.292775 0
0.256062 0.161364 0.46685
0.306874 0.192721 0.395972
0.357687 0.224094 0.325078
0.408515 0.255467 0.2542
0.459327 0.286824 0.183307
0.510155 0.318196 0.112413
0.560967 0.349569 0.0415351
0.611795 0.380941 0
0.662623 0.412299 0
0.222538 0.280888 0.58764
0.27335 0.312261 0.516762
0.324163 0.343618 0.445884
0.37499 0.37499 0.37499
0.425818 0.406363 0.304097
0.476631 0.43772 0.233219
0.527459 0.469093 0.162325
0.578271 0.500465 0.0914473
0.629099 0.531823 0.0205539
0.189014 0.400412 0.708446
0.239826 0.431785 0.637568
0.290654 0.463157 0.566674
0.341466 0.494514 0.495781
0.392294 0.525887 0.424903
0.443107 0.55726 0.354009
0.493935 0.588617 0.283116
0.544747 0.619989 0.212238
0.595575 0.651362 0.141344
0.155489 0.519951 0.829236
0.206302 0.551308 0.758358
0.25713 0.582681 0.687465
0.307942 0.614054 0.616587
0.35877 0.645411 0.545693
0.409583 0.676783 0.4748
0.46041 0.708156 0.403922
0.511238 0.739513 0.333028
0.562051 0.770886 0.26215
0.121965 0.639475 0.950027
0.172778 0.670832 0.879149
0.223606 0.702205 0.80827
0.274418 0.733577 0.737377
0.325246 0.76495 0.666484
0.376074 0.796307 0.595605
0.426886 0.82768 0.524712
0.477714 0.859052 0.453834
0.528527 0.89041 0.38294
0.0884413 0.758999 1
0.139269 0.790372 0.999954
0.190082 0.821729 0.929061
0.240909 0.853101 0.858167
0.291722 0.884474 0.787289
0.34255 0.915846 0.716396
0.393362 0.947204 0.645502
0.44419 0.978576 0.574624
0.495003 1 0.503731
0.0549325 0.878538 1
0.105745 0.909895 1
0.156558 0.941268 1
0.207385 0.972625 0.978973
0.258198 1 0.90808
0.309026 1 0.837186
0.359838 1 0.766308
0.410666 1 0.695415
0.461494 1 0.624537
0.430793 0 0.300374
0.481605 0 0.22948
0.532433 0 0.158602
0.583261 0 0.0877089
0.634073 0.0218967 0.0168307
0.684901 0.0532692 0
0.735714 0.0846265 0
0.786542 0.115999 0
0.837354 0.147372 0
0.397284 0.0159457 0.421149
0.448096 0.047303 0.350271
0.498909 0.0786755 0.279377
0.549737 0.110033 0.208499
0.600565 0.141405 0.137606
0.651377 0.172778 0.0667124
0.702205 0.20415 0
0.753017 0.235508 0
0.803845 0.26688 0
0.36376 0.13547 0.541939
0.414572 0.166827 0.471061
0.4654 0.198199 0.400183
0.516213 0.229572 0.32929
0.567041 0.260929 0.258396
0.617853 0.292302 0.187518
0.668681 0.323674 0.116625
0.719493 0.355047 0.0457313
0.770321 0.386404 0
0.330236 0.254994 0.662745
0.381048 0.286366 0.591867
0.431876 0.317723 0.520974
0.482689 0.349096 0.45008
0.533516 0.380468 0.379202
0.584329 0.411826 0.308309
0.635157 0.443198 0.237415
0.685969 0.474571 0.166537
0.736797 0.505943 0.0956436
0.296712 0.374517 0.783536
0.347524 0.40589 0.712657
0.398352 0.437263 0.641764
0.449165 0.46862 0.570886
0.499992 0.499992 0.499992
0.55082 0.531365 0.429099
0.601633 0.562722 0.358221
0.652461 0.594095 0.287327
0.703273 0.625467 0.216449
0.263188 0.494057 0.904326
0.314015 0.525414 0.833448
0.364828 0.556786 0.76257
0.415656 0.588159 0.691676
0.466468 0.619516 0.620783
0.517296 0.650889 0.549905
0.568109 0.682261 0.479011
0.618936 0.713619 0.408118
0.669749 0.744991 0.33724
0.229679 0.613581 1
0.280491 0.644938 0.954253
0.331304 0.67631 0.88336
0.382132 0.707683 0.812467
0.432944 0.739055 0.741588
0.483772 0.770413 0.670695
0.534585 0.801785 0.599802
0.585412 0.833158 0.528923
0.63624 0.864515 0.45803
0.196155 0.733104 1
0.246967 0.764477 1
0.29778 0.795834 1
0.348608 0.827207 0.933272
0.39942 0.858579 0.862379
0.450248 0.889952 0.791485
0.501076 0.921309 0.720607
0.551888 0.952682 0.649714
0.602716 0.984054 0.578836
0.162631 0.852644 1
0.213443 0.884001 1
0.264271 0.915373 1
0.315084 0.946731 1
0.365911 0.978103 0.983169
0.416724 1 0.912291
0.467552 1 0.841398
0.518364 1 0.770504
0.569192 1 0.699626
0.538506 0 0.375463
0.589319 0 0.304585
0.640131 0 0.233692
0.690959 0 0.162814
0.741772 0 0.0919203
0.792599 0.0273747 0.0210269
0.843412 0.058732 0
0.89424 0.0901045 0
0.945068 0.121477 0
0.504982 0 0.496239
0.555795 0.0214084 0.425361
0.606622 0.052781 0.354482
0.657435 0.0841382 0.283589
0.708263 0.115511 0.212696
0.759075 0.146883 0.141817
0.809903 0.178256 0.0709239
0.860716 0.209613 3.0518e-05
0.911543 0.240986 0
0.471458 0.109575 0.617044
0.522271 0.140932 0.546151
0.573098 0.172305 0.475273
0.623911 0.203677 0.404379
0.674739 0.235035 0.333501
0.725567 0.266407 0.262608
0.776379 0.29778 0.191714
0.827207 0.329152 0.120836
0.878019 0.36051 0.0499428
0.437934 0.229099 0.737835
0.488746 0.260471 0.666957
0.539574 0.291829 0.596063
0.590402 0.323201 0.525185
0.641215 0.354574 0.454292
0.692042 0.385931 0.383398
0.742855 0.417304 0.31252
0.793683 0.448676 0.241627
0.844495 0.480049 0.170733
0.404425 0.348623 0.858625
0.455238 0.379995 0.787747
0.50605 0.411368 0.716869
0.556878 0.442725 0.645975
0.607691 0.474098 0.575082
0.658518 0.50547 0.504204
0.709331 0.536828 0.43331
0.760159 0.5682 0.362417
0.810971 0.599573 0.291539
0.370901 0.468162 0.979431
0.421714 0.499519 0.908537
0.472526 0.530892 0.837659
0.523354 0.562264 0.766766
0.574166 0.593622 0.695888
0.624994 0.624994 0.624994
0.675822 0.656367 0.554101
0.726635 0.687724 0.483223
0.777462 0.719097 0.412329
0.337377 0.587686 1
0.38819 0.619043 1
0.439017 0.650416 0.95845
0.48983 0.681788 0.887572
0.540658 0.713161 0.816678
0.59147 0.744518 0.745785
0.642298 0.775891 0.674907
0.693111 0.807263 0.604013
0.743938 0.838621 0.53312
0.303853 0.70721 1
0.354665 0.738582 1
0.405493 0.76994 1
0.456306 0.801312 1
0.507134 0.832685 0.937469
0.557946 0.864057 0.86659
0.608774 0.895415 0.795697
0.659586 0.926787 0.724804
0.710414 0.95816 0.653925
0.270329 0.826749 1
0.321141 0.858106 1
0.371969 0.889479 1
0.422782 0.920836 1
0.47361 0.952209 1
0.524422 0.983581 0.987381
0.57525 1 0.916487
0.626078 1 0.845609
0.67689 1 0.774716
0.646204 0 0.450553
0.697017 0 0.379675
0.747845 0 0.308782
0.798657 0 0.237903
0.849485 0 0.16701
0.900298 0.00148013 0.0961318
0.951125 0.0328374 0.0252384
1 0.06421 0
1 0.0955825 0
0.61268 0 0.571328
0.663493 0 0.50045
0.714321 0.0268864 0.429572
0.765148 0.0582589 0.358679
0.815961 0.0896162 0.2878
0.866789 0.120989 0.216907
0.917601 0.152361 0.146014
0.968429 0.183719 0.0751354
1 0.215091 0.00424201
0.579156 0.0836805 0.692134
0.629984 0.115038 0.621256
0.680797 0.14641 0.550362
0.731624 0.177783 0.479484
0.782437 0.20914 0.408591
0.833265 0.240513 0.337697
0.884077 0.271885 0.266819
0.934905 0.303258 0.195926
0.985718 0.334615 0.125032
0.545647 0.203204 0.812924
0.59646 0.234577 0.742046
0.647272 0.265934 0.671153
0.6981 0.297307 0.600275
0.748913 0.328679 0.529381
0.799741 0.360037 0.458503
0.850568 0.391409 0.38761
0.901381 0.422782 0.316716
0.952209 0.454154 0.245838
0.512123 0.322744 0.933715
0.562936 0.354101 0.862837
0.613748 0.385473 0.791959
0.664576 0.416831 0.721065
0.715404 0.448203 0.650187
0.766217 0.479576 0.579293
0.817044 0.510933 0.5084
0.867857 0.542306 0.437522
0.918685 0.573678 0.366629
0.478599 0.442267 1
0.529412 0.473625 0.983642
0.58024 0.504997 0.912749
0.631052 0.53637 0.841871
0.68188 0.567727 0.770977
0.732692 0.5991 0.700084
0.78352 0.630472 0.629206
0.834333 0.66183 0.558312
0.885161 0.693202 0.487419
0.445075 0.561791 1
0.495888 0.593164 1
0.546715 0.624521 1
0.597528 0.655894 0.962661
0.648356 0.687266 0.891768
0.699168 0.718624 0.82089
0.749996 0.749996 0.749996
0.800824 0.781369 0.679103
0.851637 0.812726 0.608225
0.411551 0.681315 1
0.462364 0.712688 1
0.513191 0.744045 1
0.564019 0.775418 1
0.614832 0.80679 1
0.66566 0.838163 0.94168
0.716472 0.86952 0.870787
0.7673 0.900893 0.799908
0.818112 0.932265 0.729015
0.378027 0.800855 1
0.428855 0.832212 1
0.479667 0.863584 1
0.530495 0.894942 1
0.581308 0.926314 1
0.632136 0.957687 1
0.682948 0.989059 0.991592
0.733776 1 0.920699
0.784588 1 0.849805
0.753902 0 0.525643
0.804715 0 0.454765
0.855543 0 0.383886
0.906355 0 0.312993
0.957183 0 0.2421
1 0 0.171221
1 0.00694286 0.100328
1 0.0383154 0.0294499
1 0.069688 0
0.720394 0 0.646433
0.771206 0 0.575555
0.822019 0.000991836 0.504662
0.872847 0.0323644 0.433768
0.923659 0.0637217 0.36289
0.974487 0.0950942 0.291997
1 0.126467 0.221118
1 0.157824 0.150225
1 0.189197 0.0793317
0.68687 0.0577859 0.767224
0.737682 0.0891432 0.696345
0.788495 0.120516 0.625452
0.839323 0.151888 0.554574
0.89015 0.183261 0.48368
0.940963 0.214618 0.412802
0.991791 0.245991 0.341909
1 0.277363 0.271015
1 0.308721 0.200137
0.653346 0.17731 0.888014
0.704158 0.208682 0.817136
0.754986 0.24004 0.746258
0.805798 0.271412 0.675364
0.856626 0.302785 0.604486
0.907439 0.334142 0.533593
0.958267 0.365515 0.462699
1 0.396887 0.391821
1 0.42826 0.320928
0.619821 0.296849 1
0.670634 0.328206 0.937942
0.721462 0.359579 0.867048
0.772274 0.390936 0.796155
0.823102 0.422309 0.725277
0.873915 0.453681 0.654383
0.924743 0.485039 0.583505
0.97557 0.516411 0.512612
1 0.547784 0.441718
0.586297 0.416373 1
0.63711 0.44773 1
0.687938 0.479103 0.987839
0.73875 0.510475 0.91696
0.789578 0.541833 0.846067
0.840406 0.573205 0.775189
0.891218 0.604578 0.704295
0.942046 0.635935 0.633402
0.992859 0.667308 0.562524
0.552773 0.535897 1
0.603601 0.567269 1
0.654414 0.598627 1
0.705242 0.629999 1
0.756054 0.661372 0.966873
0.806882 0.692729 0.895979
0.857694 0.724102 0.825086
0.908522 0.755474 0.754208
0.959335 0.786831 0.683314
0.519265 0.655421 1
0.570077 0.686793 1
0.62089 0.718166 1
0.671717 0.749523 1
0.72253 0.780896 1
0.773358 0.812268 1
0.82417 0.843626 0.945891
0.874998 0.874998 0.874998
0.925826 0.906371 0.804105
0.48574 0.77496 1
0.536553 0.806317 1
0.587366 0.83769 1
0.638193 0.869047 1
0.689021 0.90042 1
0.739834 0.931792 1
0.790661 0.963165 1
0.841474 0.994522 0.995789
0.892302 1 0.92491
0.861601 0 0.600748
0.912428 0 0.52987
0.963241 0 0.458976
1 0 0.388083
1 0 0.317205
1 0 0.246311
1 0 0.175418
1 0.0124208 0.10454
1 0.0437934 0.0336461
0.828092 0 0.721523
0.878904 0 0.650645
0.929732 0 0.579751
0.980545 0.00646983 0.508873
1 0.0378271 0.43798
1 0.0691997 0.367086
1 0.100572 0.296208
1 0.13193 0.225315
1 0.163302 0.154437
0.794568 0.0318914 0.842313
0.84538 0.0632486 0.771435
0.896208 0.0946212 0.700557
0.947021 0.125994 0.629664
0.997848 0.157366 0.55877
1 0.188724 0.487892
1 0.220096 0.416999
1 0.251469 0.34612
1 0.282826 0.275227
0.761044 0.151415 0.963119
0.811856 0.182788 0.892241
0.862684 0.214145 0.821347
0.913497 0.245518 0.750454
0.964324 0.27689 0.679576
1 0.308263 0.608682
1 0.33962 0.537804
1 0.370993 0.466911
1 0.402365 0.396017
0.72752 0.270954 1
0.778347 0.302312 1
0.82916 0.333684 0.942138
0.879988 0.365042 0.87126
0.9308 0.396414 0.800366
0.981628 0.427787 0.729488
1 0.459144 0.658595
1 0.490517 0.587701
1 0.521889 0.516823
0.694011 0.390478 1
0.744823 0.421836 1
0.795636 0.453208 1
0.846464 0.484581 0.99205
0.897276 0.515938 0.921157
0.948104 0.547311 0.850278
0.998917 0.578683 0.779385
1 0.61004 0.708507
1 0.641413 0.637613
0.660487 0.510002 1
0.711299 0.541375 1
0.762112 0.572732 1
0.81294 0.604105 1
0.863752 0.635477 1
0.91458 0.666835 0.971069
0.965408 0.698207 0.900191
1 0.72958 0.829297
1 0.760937 0.758404
0.626963 0.629526 1
0.677775 0.660899 1
0.728603 0.692271 1
0.779416 0.723629 1
0.830243 0.755001 1
0.881056 0.786374 1
0.931884 0.817731 1
0.982696 0.849104 0.950088
1 0.880476 0.87921
0.593439 0.749065 1
0.644251 0.780423 1
0.695079 0.811795 1
0.745892 0.843168 1
0.796719 0.874525 1
0.847532 0.905898 1
0.89836 0.93727 1
0.949172 0.968627 1
1 1 1
