public/LUTS/Color Shift/ColorShift_32.cube
TITLE "Generated by Resolve"
LUT_3D_SIZE 33
0 0 0
0.0242008 0 0.024506
0.0484016 0 0.0490425
0.0726024 0 0.0735637
0.0968185 0 0.098085
0.121019 0 0.122606
0.145235 0 0.147127
0.169436 0 0.171649
0.193637 0 0.196185
0.217853 0 0.220706
0.242054 0 0.245228
0.26627 0 0.269749
0.290471 0 0.29427
0.314672 0 0.318807
0.338888 0 0.343328
0.363088 0 0.367849
0.387304 0 0.39237
0.411505 0 0.416892
0.435706 0 0.441413
0.459922 0 0.46595
0.484123 0 0.490471
0.508339 0 0.514992
0.53254 0 0.539513
0.556741 0 0.564034
0.580957 0 0.588571
0.605158 0 0.613092
0.629374 0 0.637613
0.653574 0 0.662135
0.677775 0 0.686656
0.701991 0 0.711177
0.726192 0 0.735714
0.750408 0 0.760235
0.774609 0 0.784756
0.0310369 0.0228885 0
0.0552377 0.0218509 0.0169833
0.0794385 0.0208133 0.0415198
0.103655 0.0197757 0.066041
0.127855 0.0187381 0.0905623
0.152056 0.0176852 0.115084
0.176272 0.0166476 0.139605
0.200473 0.01561 0.164141
0.224689 0.0145724 0.188663
0.24889 0.0135348 0.213184
0.273091 0.0124971 0.237705
0.297307 0.0114443 0.262226
0.321508 0.0104067 0.286748
0.345724 0.00936904 0.311284
0.369924 0.00833143 0.335805
0.394125 0.00729381 0.360327
0.418341 0.0062562 0.384848
0.442542 0.00520333 0.409369
0.466758 0.00416571 0.43389
0.490959 0.0031281 0.458427
0.51516 0.00209049 0.482948
0.539376 0.00105287 0.507469
0.563577 1.5259e-05 0.531991
0.587793 0 0.556512
0.611994 0 0.581048
0.636194 0 0.60557
0.66041 0 0.630091
0.684611 0 0.654612
0.708827 0 0.679133
0.733028 0 0.703655
0.757229 0 0.728191
0.781445 0 0.752712
0.805646 0 0.777234
0.062089 0.0457923 0
0.0862898 0.0447547 0.00946059
0.110491 0.0437171 0.0339818
0.134707 0.0426795 0.0585184
0.158907 0.0416266 0.0830396
0.183108 0.040589 0.107561
0.207324 0.0395514 0.132082
0.231525 0.0385138 0.156603
0.255741 0.0374762 0.18114
0.279942 0.0364385 0.205661
0.304143 0.0353857 0.230182
0.328359 0.0343481 0.254704
0.35256 0.0333104 0.279225
0.376776 0.0322728 0.303746
0.400977 0.0312352 0.328283
0.425177 0.0301976 0.352804
0.449393 0.0291447 0.377325
0.473594 0.0281071 0.401846
0.49781 0.0270695 0.426368
0.522011 0.0260319 0.450904
0.546227 0.0249943 0.475425
0.570428 0.0239567 0.499947
0.594629 0.0229191 0.524468
0.618845 0.0218662 0.548989
0.643046 0.0208286 0.57351
0.667262 0.019791 0.598047
0.691463 0.0187533 0.622568
0.715663 0.0177157 0.647089
0.739879 0.0166781 0.671611
0.76408 0.0156252 0.696132
0.788296 0.0145876 0.720653
0.812497 0.01355 0.74519
0.836698 0.0125124 0.769711
0.0931411 0.0686961 0
0.117342 0.0676585 0.0019379
0.141543 0.0666209 0.0264591
0.165759 0.065568 0.0509804
0.18996 0.0645304 0.0755169
0.214176 0.0634928 0.100038
0.238376 0.0624552 0.124559
0.262577 0.0614176 0.149081
0.286793 0.0603799 0.173602
0.310994 0.0593271 0.198138
0.33521 0.0582895 0.22266
0.359411 0.0572519 0.247181
0.383612 0.0562142 0.271702
0.407828 0.0551766 0.296223
0.432029 0.054139 0.320745
0.456245 0.0531014 0.345281
0.480446 0.0520485 0.369802
0.504646 0.0510109 0.394324
0.528862 0.0499733 0.418845
0.553063 0.0489357 0.443366
0.577279 0.0478981 0.467903
0.60148 0.0468605 0.492424
0.625681 0.0458076 0.516945
0.649897 0.04477 0.541466
0.674098 0.0437324 0.565988
0.698314 0.0426947 0.590509
0.722515 0.0416571 0.615045
0.746715 0.0406195 0.639567
0.770932 0.0395666 0.664088
0.795132 0.038529 0.688609
0.819348 0.0374914 0.71313
0.843549 0.0364538 0.737652
0.86775 0.0354162 0.762188
0.124208 0.0915999 0
0.148394 0.0905623 0
0.17261 0.0895094 0.0189364
0.196811 0.0884718 0.0434577
0.221012 0.0874342 0.0679789
0.245228 0.0863966 0.0925154
0.269429 0.085359 0.117037
0.293645 0.0843214 0.141558
0.317845 0.0832685 0.166079
0.342046 0.0822309 0.1906
0.366262 0.0811933 0.215137
0.390463 0.0801556 0.239658
0.414679 0.079118 0.264179
0.43888 0.0780804 0.288701
0.463081 0.0770428 0.313222
0.487297 0.0759899 0.337743
0.511498 0.0749523 0.36228
0.535714 0.0739147 0.386801
0.559915 0.0728771 0.411322
0.584115 0.0718395 0.435843
0.608331 0.0708019 0.460365
0.632532 0.069749 0.484901
0.656748 0.0687114 0.509422
0.680949 0.0676738 0.533944
0.70515 0.0666361 0.558465
0.729366 0.0655985 0.582986
0.753567 0.0645609 0.607507
0.777783 0.063508 0.632044
0.801984 0.0624704 0.656565
0.826185 0.0614328 0.681086
0.850401 0.0603952 0.705608
0.874601 0.0593576 0.730129
0.898817 0.05832 0.75465
0.155261 0.114504 0
0.179446 0.113451 0
0.203662 0.112413 0.0114137
0.227863 0.111376 0.035935
0.252064 0.110338 0.0604562
0.27628 0.1093 0.0849775
0.300481 0.108263 0.109514
0.324697 0.10721 0.134035
0.348898 0.106172 0.158556
0.373098 0.105135 0.183078
0.397314 0.104097 0.207599
0.421515 0.103059 0.232136
0.445731 0.102022 0.256657
0.469932 0.100984 0.281178
0.494133 0.0999313 0.305699
0.518349 0.0988937 0.33022
0.54255 0.0978561 0.354742
0.566766 0.0968185 0.379278
0.590967 0.0957809 0.4038
0.615167 0.0947433 0.428321
0.639384 0.0936904 0.452842
0.663584 0.0926528 0.477363
0.6878 0.0916152 0.5019
0.712001 0.0905776 0.526421
0.736202 0.0895399 0.550942
0.760418 0.0885023 0.575463
0.784619 0.0874495 0.599985
0.808835 0.0864118 0.624506
0.833036 0.0853742 0.649042
0.857237 0.0843366 0.673564
0.881453 0.083299 0.698085
0.905653 0.0822614 0.722606
0.92987 0.0812238 0.747127
0.186313 0.137392 0
0.210498 0.136355 0
0.234714 0.135317 0.00389105
0.258915 0.134279 0.0284123
0.283131 0.133242 0.0529335
0.307332 0.132204 0.0774548
0.331533 0.131167 0.101976
0.355749 0.130114 0.126513
0.37995 0.129076 0.151034
0.404166 0.128038 0.175555
0.428367 0.127001 0.200076
0.452567 0.125963 0.224598
0.476783 0.124926 0.249134
0.500984 0.123873 0.273655
0.5252 0.122835 0.298177
0.549401 0.121798 0.322698
0.573602 0.12076 0.347219
0.597818 0.119722 0.37174
0.622019 0.118685 0.396277
0.646235 0.117632 0.420798
0.670436 0.116594 0.445319
0.694636 0.115557 0.469841
0.718853 0.114519 0.494362
0.743053 0.113481 0.518898
0.767269 0.112444 0.54342
0.79147 0.111406 0.567941
0.815671 0.110353 0.592462
0.839887 0.109316 0.616983
0.864088 0.108278 0.641505
0.888304 0.10724 0.666041
0.912505 0.106203 0.690562
0.936706 0.105165 0.715084
0.960922 0.104112 0.739605
0.217365 0.160296 0
0.241566 0.159258 0
0.265766 0.158221 0
0.289967 0.157183 0.0208896
0.314183 0.156146 0.0454108
0.338384 0.155108 0.0699321
0.3626 0.154055 0.0944533
0.386801 0.153017 0.118975
0.411002 0.15198 0.143511
0.435218 0.150942 0.168032
0.459419 0.149905 0.192554
0.483635 0.148867 0.217075
0.507836 0.147814 0.241596
0.532036 0.146777 0.266133
0.556252 0.145739 0.290654
0.580453 0.144701 0.315175
0.604669 0.143664 0.339696
0.62887 0.142626 0.364218
0.653071 0.141573 0.388739
0.677287 0.140536 0.413275
0.701488 0.139498 0.437797
0.725704 0.13846 0.462318
0.749905 0.137423 0.486839
0.774105 0.136385 0.51136
0.798321 0.135348 0.535897
0.822522 0.134295 0.560418
0.846738 0.133257 0.584939
0.870939 0.132219 0.609461
0.89514 0.131182 0.633982
0.919356 0.130144 0.658503
0.943557 0.129107 0.68304
0.967773 0.128054 0.707561
0.991974 0.127016 0.732082
0.248417 0.1832 0
0.272618 0.182162 0
0.296818 0.181125 0
0.321019 0.180087 0.0133669
0.345235 0.179049 0.0378882
0.369436 0.177996 0.0624094
0.393652 0.176959 0.0869306
0.417853 0.175921 0.111452
0.442054 0.174884 0.135973
0.46627 0.173846 0.16051
0.490471 0.172808 0.185031
0.514687 0.171756 0.209552
0.538888 0.170718 0.234073
0.563088 0.16968 0.258595
0.587304 0.168643 0.283131
0.611505 0.167605 0.307652
0.635721 0.166567 0.332174
0.659922 0.165515 0.356695
0.684123 0.164477 0.381216
0.708339 0.163439 0.405737
0.73254 0.162402 0.430274
0.756756 0.161364 0.454795
0.780957 0.160327 0.479316
0.805158 0.159289 0.503838
0.829374 0.158236 0.528359
0.853574 0.157198 0.552895
0.877791 0.156161 0.577417
0.901991 0.155123 0.601938
0.926192 0.154086 0.626459
0.950408 0.153048 0.65098
0.974609 0.151995 0.675502
0.998825 0.150958 0.700038
1 0.14992 0.724559
0.279469 0.206104 0
0.30367 0.205066 0
0.327871 0.204028 0
0.352087 0.202991 0.00582895
0.376287 0.201938 0.0303655
0.400488 0.2009 0.0548867
0.424704 0.199863 0.079408
0.448905 0.198825 0.103929
0.473121 0.197787 0.12845
0.497322 0.19675 0.152987
0.521523 0.195697 0.177508
0.545739 0.194659 0.202029
0.56994 0.193622 0.226551
0.594156 0.192584 0.251072
0.618357 0.191546 0.275593
0.642557 0.190509 0.30013
0.666773 0.189471 0.324651
0.690974 0.188418 0.349172
0.71519 0.187381 0.373693
0.739391 0.186343 0.398215
0.763592 0.185306 0.422736
0.787808 0.184268 0.447272
0.812009 0.18323 0.471794
0.836225 0.182177 0.496315
0.860426 0.18114 0.520836
0.884627 0.180102 0.545357
0.908843 0.179065 0.569894
0.933043 0.178027 0.594415
0.957259 0.176989 0.618936
0.98146 0.175937 0.643458
1 0.174899 0.667979
1 0.173861 0.6925
1 0.172824 0.717037
0.310521 0.229007 0
0.334722 0.22797 0
0.358923 0.226932 0
0.383139 0.225879 0
0.40734 0.224842 0.0228275
0.43154 0.223804 0.047364
0.455756 0.222766 0.0718853
0.479957 0.221729 0.0964065
0.504173 0.220691 0.120928
0.528374 0.219638 0.145449
0.552575 0.218601 0.169986
0.576791 0.217563 0.194507
0.600992 0.216526 0.219028
0.625208 0.215488 0.243549
0.649409 0.21445 0.26807
0.673609 0.213413 0.292592
0.697826 0.21236 0.317128
0.722026 0.211322 0.34165
0.746242 0.210285 0.366171
0.770443 0.209247 0.390692
0.794644 0.208209 0.415213
0.81886 0.207172 0.439734
0.843061 0.206119 0.464271
0.867277 0.205081 0.488792
0.891478 0.204044 0.513313
0.915694 0.203006 0.537835
0.939895 0.201968 0.562356
0.964096 0.200931 0.586892
0.988312 0.199878 0.611414
1 0.19884 0.635935
1 0.197803 0.660456
1 0.196765 0.684977
1 0.195727 0.709499
0.341573 0.251911 0
0.365774 0.250874 0
0.389975 0.249821 0
0.414191 0.248783 0
0.438392 0.247745 0.0153048
0.462608 0.246708 0.039826
0.486809 0.24567 0.0643626
0.511009 0.244633 0.0888838
0.535225 0.243595 0.113405
0.559426 0.242542 0.137926
0.583642 0.241505 0.162448
0.607843 0.240467 0.186984
0.632044 0.239429 0.211505
0.65626 0.238392 0.236027
0.680461 0.237354 0.260548
0.704677 0.236301 0.285069
0.728878 0.235264 0.30959
0.753079 0.234226 0.334127
0.777295 0.233188 0.358648
0.801495 0.232151 0.383169
0.825711 0.231113 0.407691
0.849912 0.23006 0.432212
0.874113 0.229023 0.456733
0.898329 0.227985 0.48127
0.92253 0.226947 0.505791
0.946746 0.22591 0.530312
0.970947 0.224872 0.554833
0.995148 0.223819 0.579355
1 0.222782 0.603891
1 0.221744 0.628412
1 0.220706 0.652934
1 0.219669 0.677455
1 0.218631 0.701976
0.372641 0.274815 0
0.396826 0.273762 0
0.421042 0.272725 0
0.445243 0.271687 0
0.469444 0.270649 0.0077821
0.49366 0.269612 0.0323033
0.517861 0.268574 0.0568246
0.542077 0.267536 0.0813611
0.566278 0.266484 0.105882
0.590478 0.265446 0.130404
0.614694 0.264408 0.154925
0.638895 0.263371 0.179446
0.663111 0.262333 0.203983
0.687312 0.261295 0.228504
0.711513 0.260243 0.253025
0.735729 0.259205 0.277546
0.75993 0.258167 0.302068
0.784146 0.25713 0.326589
0.808347 0.256092 0.351125
0.832547 0.255055 0.375647
0.856764 0.254002 0.400168
0.880964 0.252964 0.424689
0.90518 0.251926 0.44921
0.929381 0.250889 0.473732
0.953582 0.249851 0.498268
0.977798 0.248814 0.522789
1 0.247776 0.547311
1 0.246723 0.571832
1 0.245686 0.596353
1 0.244648 0.62089
1 0.24361 0.645411
1 0.242573 0.669932
1 0.241535 0.694453
0.403693 0.297704 0
0.427878 0.296666 0
0.452094 0.295628 0
0.476295 0.294591 0
0.500496 0.293553 0.000259403
0.524712 0.292515 0.0247807
0.548913 0.291478 0.0493019
0.573129 0.290425 0.0738231
0.59733 0.289387 0.0983597
0.62153 0.28835 0.122881
0.645747 0.287312 0.147402
0.669947 0.286275 0.171923
0.694163 0.285237 0.196445
0.718364 0.284184 0.220981
0.742565 0.283146 0.245502
0.766781 0.282109 0.270024
0.790982 0.281071 0.294545
0.815198 0.280034 0.319066
0.839399 0.278996 0.343587
0.8636 0.277943 0.368124
0.887816 0.276905 0.392645
0.912016 0.275868 0.417166
0.936233 0.27483 0.441688
0.960433 0.273793 0.466209
0.984634 0.272755 0.49073
1 0.271717 0.515267
1 0.270665 0.539788
1 0.269627 0.564309
1 0.268589 0.58883
1 0.267552 0.613352
1 0.266514 0.637888
1 0.265476 0.662409
1 0.264424 0.686931
0.434745 0.320607 0
0.45893 0.31957 0
0.483146 0.318532 0
0.507347 0.317494 0
0.531563 0.316457 0
0.555764 0.315419 0.017258
0.579965 0.314366 0.0417792
0.604181 0.313329 0.0663005
0.628382 0.312291 0.0908217
0.652598 0.311254 0.115358
0.676799 0.310216 0.139879
0.700999 0.309178 0.164401
0.725216 0.308125 0.188922
0.749416 0.307088 0.213443
0.773632 0.30605 0.23798
0.797833 0.305013 0.262501
0.822034 0.303975 0.287022
0.84625 0.302937 0.311543
0.870451 0.3019 0.336065
0.894667 0.300847 0.360586
0.918868 0.299809 0.385122
0.943069 0.298772 0.409644
0.967285 0.297734 0.434165
0.991485 0.296696 0.458686
1 0.295659 0.483207
1 0.294606 0.507729
1 0.293568 0.532265
1 0.292531 0.556786
1 0.291493 0.581308
1 0.290455 0.605829
1 0.289418 0.63035
1 0.288365 0.654887
1 0.287327 0.679408
0.465797 0.343511 0
0.489998 0.342473 0
0.514199 0.341436 0
0.538399 0.340398 0
0.562615 0.339361 0
0.586816 0.338308 0.00973526
0.611032 0.33727 0.0342565
0.635233 0.336233 0.0587778
0.659434 0.335195 0.083299
0.68365 0.334157 0.10782
0.707851 0.33312 0.132357
0.732067 0.332067 0.156878
0.756268 0.331029 0.181399
0.780468 0.329992 0.205921
0.804685 0.328954 0.230442
0.828885 0.327916 0.254978
0.853101 0.326879 0.2795
0.877302 0.325841 0.304021
0.901503 0.324788 0.328542
0.925719 0.323751 0.353063
0.94992 0.322713 0.377584
0.974136 0.321675 0.402121
0.998337 0.320638 0.426642
1 0.3196 0.451164
1 0.318547 0.475685
1 0.31751 0.500206
1 0.316472 0.524727
1 0.315435 0.549264
1 0.314397 0.573785
1 0.313359 0.598306
1 0.312306 0.622827
1 0.311269 0.647349
1 0.310231 0.671885
0.496849 0.366415 0
0.52105 0.365377 0
0.545251 0.36434 0
0.569451 0.363302 0
0.593668 0.362249 0
0.617868 0.361212 0.00221256
0.642084 0.360174 0.0267338
0.666285 0.359136 0.0512551
0.690486 0.358099 0.0757763
0.714702 0.357061 0.100298
0.738903 0.356008 0.124819
0.763119 0.354971 0.149355
0.78732 0.353933 0.173877
0.811521 0.352895 0.198398
0.835737 0.351858 0.222919
0.859937 0.35082 0.24744
0.884153 0.349783 0.271977
0.908354 0.34873 0.296498
0.932555 0.347692 0.321019
0.956771 0.346654 0.345541
0.980972 0.345617 0.370062
1 0.344579 0.394583
1 0.343542 0.41912
1 0.342489 0.443641
1 0.341451 0.468162
1 0.340414 0.492683
1 0.339376 0.517205
1 0.338338 0.541741
1 0.337301 0.566262
1 0.336248 0.590784
1 0.33521 0.615305
1 0.334173 0.639826
1 0.333135 0.664347
0.527901 0.389319 0
0.552102 0.388281 0
0.576303 0.387243 0
0.600519 0.386191 0
0.62472 0.385153 0
0.64892 0.384115 0
0.673136 0.383078 0.0192111
0.697337 0.38204 0.0437324
0.721553 0.381003 0.0682536
0.745754 0.379965 0.0927749
0.769955 0.378912 0.117296
0.794171 0.377874 0.141817
0.818372 0.376837 0.166354
0.842588 0.375799 0.190875
0.866789 0.374762 0.215396
0.89099 0.373724 0.239918
0.915206 0.372671 0.264439
0.939406 0.371633 0.288975
0.963623 0.370596 0.313497
0.987823 0.369558 0.338018
1 0.368521 0.362539
1 0.367483 0.38706
1 0.36643 0.411582
1 0.365393 0.436118
1 0.364355 0.460639
1 0.363317 0.485161
1 0.36228 0.509682
1 0.361242 0.534203
1 0.360204 0.55874
1 0.359152 0.583261
1 0.358114 0.607782
1 0.357076 0.632303
1 0.356039 0.656825
0.558953 0.412222 0
0.583154 0.411185 0
0.607355 0.410132 0
0.631571 0.409094 0
0.655772 0.408057 0
0.679973 0.407019 0
0.704189 0.405982 0.0116732
0.728389 0.404944 0.0362097
0.752605 0.403906 0.0607309
0.776806 0.402853 0.0852522
0.801007 0.401816 0.109773
0.825223 0.400778 0.134295
0.849424 0.399741 0.158816
0.87364 0.398703 0.183352
0.897841 0.397665 0.207874
0.922042 0.396612 0.232395
0.946258 0.395575 0.256916
0.970459 0.394537 0.281437
0.994675 0.3935 0.305974
1 0.392462 0.330495
1 0.391424 0.355016
1 0.390372 0.379538
1 0.389334 0.404059
1 0.388296 0.42858
1 0.387259 0.453117
1 0.386221 0.477638
1 0.385183 0.502159
1 0.384146 0.52668
1 0.383093 0.551202
1 0.382055 0.575738
1 0.381018 0.600259
1 0.37998 0.624781
1 0.378943 0.649302
0.590005 0.435126 0
0.614206 0.434073 0
0.638407 0.433036 0
0.662623 0.431998 0
0.686824 0.430961 0
0.71104 0.429923 0
0.735241 0.428885 0.00415045
0.759441 0.427848 0.0286717
0.783658 0.426795 0.0532082
0.807858 0.425757 0.0777295
0.832074 0.42472 0.102251
0.856275 0.423682 0.126772
0.880476 0.422644 0.151293
0.904692 0.421607 0.175814
0.928893 0.420554 0.200351
0.953109 0.419516 0.224872
0.97731 0.418479 0.249393
1 0.417441 0.273915
1 0.416403 0.298436
1 0.415366 0.322972
1 0.414313 0.347494
1 0.413275 0.372015
1 0.412238 0.396536
1 0.4112 0.421057
1 0.410163 0.445579
1 0.409125 0.470115
1 0.408087 0.494636
1 0.407034 0.519158
1 0.405997 0.543679
1 0.404959 0.5682
1 0.403922 0.592737
1 0.402884 0.617258
1 0.401846 0.641779
0.621057 0.458015 0
0.645258 0.456977 0
0.669474 0.45594 0
0.693675 0.454902 0
0.717876 0.453864 0
0.742092 0.452827 0
0.766293 0.451789 0
0.790509 0.450736 0.021149
0.81471 0.449699 0.0456703
0.838911 0.448661 0.0702068
0.863127 0.447623 0.094728
0.887327 0.446586 0.119249
0.911543 0.445548 0.143771
0.935744 0.444495 0.168292
0.959945 0.443458 0.192813
0.984161 0.44242 0.21735
1 0.441382 0.241871
1 0.440345 0.266392
1 0.439307 0.290913
1 0.43827 0.315435
1 0.437217 0.339971
1 0.436179 0.364492
1 0.435142 0.389013
1 0.434104 0.413535
1 0.433066 0.438056
1 0.432029 0.462577
1 0.430976 0.487114
1 0.429938 0.511635
1 0.428901 0.536156
1 0.427863 0.560678
1 0.426825 0.585199
1 0.425788 0.609735
1 0.424735 0.634256
0.652125 0.480919 0
0.67631 0.479881 0
0.700526 0.478843 0
0.724727 0.477806 0
0.748928 0.476768 0
0.773144 0.475731 0
0.797345 0.474678 0
0.821561 0.47364 0.0136263
0.845762 0.472602 0.0381476
0.869963 0.471565 0.0626688
0.894179 0.470527 0.0872053
0.918379 0.46949 0.111727
0.942596 0.468437 0.136248
0.966796 0.467399 0.160769
0.990997 0.466361 0.18529
1 0.465324 0.209812
1 0.464286 0.234348
1 0.463249 0.258869
1 0.462211 0.283391
1 0.461158 0.307912
1 0.460121 0.332433
1 0.459083 0.35697
1 0.458045 0.381491
1 0.457008 0.406012
1 0.45597 0.430533
1 0.454917 0.455055
1 0.45388 0.479576
1 0.452842 0.504112
1 0.451804 0.528634
1 0.450767 0.553155
1 0.449729 0.577676
1 0.448676 0.602197
1 0.447639 0.626734
0.683177 0.503822 0
0.707362 0.502785 0
0.731579 0.501747 0
0.755779 0.50071 0
0.779995 0.499672 0
0.804196 0.498619 0
0.828397 0.497581 0
0.852613 0.496544 0.00610361
0.876814 0.495506 0.0306249
0.90103 0.494469 0.0551461
0.925231 0.493431 0.0796674
0.949432 0.492378 0.104204
0.973648 0.491341 0.128725
0.997848 0.490303 0.153246
1 0.489265 0.177768
1 0.488228 0.202289
1 0.48719 0.226825
1 0.486152 0.251347
1 0.4851 0.275868
1 0.484062 0.300389
1 0.483024 0.32491
1 0.481987 0.349432
1 0.480949 0.373968
1 0.479912 0.398489
1 0.478859 0.423011
1 0.477821 0.447532
1 0.476783 0.472053
1 0.475746 0.496574
1 0.474708 0.521111
1 0.473671 0.545632
1 0.472618 0.570153
1 0.47158 0.594675
1 0.470542 0.619196
0.714229 0.526726 0
0.73843 0.525689 0
0.762631 0.524651 0
0.786831 0.523613 0
0.811048 0.52256 0
0.835248 0.521523 0
0.859464 0.520485 0
0.883665 0.519448 0
0.907866 0.51841 0.0231022
0.932082 0.517372 0.0476234
0.956283 0.516335 0.0721447
0.980499 0.515282 0.0966659
1 0.514244 0.121202
1 0.513207 0.145724
1 0.512169 0.170245
1 0.511131 0.194766
1 0.510094 0.219287
1 0.509041 0.243809
1 0.508003 0.268345
1 0.506966 0.292866
1 0.505928 0.317388
1 0.504891 0.341909
1 0.503853 0.36643
1 0.5028 0.390967
1 0.501762 0.415488
1 0.500725 0.440009
1 0.499687 0.46453
1 0.49865 0.489052
1 0.497612 0.513573
1 0.496574 0.538109
1 0.495521 0.562631
1 0.494484 0.587152
1 0.493446 0.611673
0.745281 0.54963 0
0.769482 0.548592 0
0.793683 0.547555 0
0.817884 0.546502 0
0.8421 0.545464 0
0.8663 0.544427 0
0.890517 0.543389 0
0.914717 0.542351 0
0.938918 0.541314 0.0155795
0.963134 0.540276 0.0401007
0.987335 0.539223 0.064622
1 0.538186 0.0891432
1 0.537148 0.113664
1 0.53611 0.138201
1 0.535073 0.162722
1 0.534035 0.187243
1 0.532982 0.211765
1 0.531945 0.236286
1 0.530907 0.260822
1 0.52987 0.285344
1 0.528832 0.309865
1 0.527794 0.334386
1 0.526741 0.358907
1 0.525704 0.383429
1 0.524666 0.407965
1 0.523629 0.432486
1 0.522591 0.457008
1 0.521553 0.481529
1 0.520516 0.50605
1 0.519463 0.530571
1 0.518425 0.555108
1 0.517388 0.579629
1 0.51635 0.60415
0.776333 0.572534 0
0.800534 0.571496 0
0.824735 0.570443 0
0.848951 0.569406 0
0.873152 0.568368 0
0.897353 0.56733 0
0.921569 0.566293 0
0.945769 0.565255 0
0.969985 0.564218 0.00805676
0.994186 0.563165 0.032578
1 0.562127 0.0570993
1 0.56109 0.0816205
1 0.560052 0.106142
1 0.559014 0.130663
1 0.557977 0.1552
1 0.556924 0.179721
1 0.555886 0.204242
1 0.554849 0.228763
1 0.553811 0.253285
1 0.552773 0.277821
1 0.551736 0.302342
1 0.550683 0.326863
1 0.549645 0.351385
1 0.548608 0.375906
1 0.54757 0.400427
1 0.546532 0.424964
1 0.545495 0.449485
1 0.544457 0.474006
1 0.543404 0.498527
1 0.542367 0.523049
1 0.541329 0.54757
1 0.540291 0.572106
1 0.539254 0.596628
0.807385 0.595438 0
0.831586 0.5944 0
0.855787 0.593347 0
0.880003 0.592309 0
0.904204 0.591272 0
0.928405 0.590234 0
0.952621 0.589197 0
0.976822 0.588159 0
1 0.587106 0.000518807
1 0.586069 0.0250553
1 0.585031 0.0495766
1 0.583993 0.0740978
1 0.582956 0.0986191
1 0.581918 0.12314
1 0.580865 0.147662
1 0.579828 0.172198
1 0.57879 0.196719
1 0.577752 0.221241
1 0.576715 0.245762
1 0.575677 0.270283
1 0.574639 0.29482
1 0.573587 0.319341
1 0.572549 0.343862
1 0.571511 0.368383
1 0.570474 0.392905
1 0.569436 0.417426
1 0.568399 0.441962
1 0.567346 0.466484
1 0.566308 0.491005
1 0.56527 0.515526
1 0.564233 0.540047
1 0.563195 0.564569
1 0.562158 0.589105
0.838437 0.618326 0
0.862638 0.617288 0
0.886839 0.616251 0
0.911055 0.615213 0
0.935256 0.614176 0
0.959472 0.613138 0
0.983673 0.6121 0
1 0.611048 0
1 0.61001 0
