public/LUTS/Color Shift/ColorShift_57.cube
TITLE "Generated by Resolve"
LUT_3D_SIZE 5
0 0 0
0 0.155886 0
0 0.311788 0
0 0.467674 0
0 0.623575 0
0.0501717 0.161028 0.574823
0 0.316915 0.383047
0 0.472816 0.191287
0 0.628717 0
0 0.784619 0
0.100343 0.322072 1
0 0.477974 0.9579
0 0.63386 0.76614
0 0.789761 0.574365
0 0.945663 0.382589
0.150515 0.483131 1
0 0.639017 1
0 0.794903 1
0 0.950805 1
0 1 0.957443
0.200687 0.644175 1
0.0132296 0.800061 1
0 0.955947 1
0 1 1
0 1 1
0.387274 0 0
0.199817 0.0889601 0
0.0123598 0.244846 0
0 0.400748 0
0 0.556649 0
0.437446 0.0941024 0.441749
0.249989 0.249989 0.249989
0.0625315 0.40589 0.0582132
0 0.561776 0
0 0.717678 0
0.487617 0.255146 1
0.30016 0.411032 0.824842
0.112703 0.566934 0.633066
0 0.72282 0.441291
0 0.878721 0.249516
0.537789 0.41619 1
0.350332 0.572076 1
0.162875 0.727977 1
0 0.883864 1
0 1 0.824369
0.587961 0.577234 1
0.400504 0.73312 1
0.213046 0.889021 1
0.0255894 1 1
0 1 1
0.774563 0 0
0.587106 0.0220188 0
0.399649 0.17792 0
0.212192 0.333806 0
0.0247196 0.489708 0
0.824735 0.0271611 0.308675
0.637278 0.183047 0.116915
0.449821 0.338949 0
0.262364 0.49485 0
0.0748913 0.650736 0
0.874907 0.188205 0.883528
0.687449 0.344091 0.691768
0.499992 0.499992 0.499992
0.312535 0.655894 0.308217
0.125063 0.81178 0.116442
0.925078 0.349248 1
0.737621 0.505135 1
0.550164 0.661036 1
0.362707 0.816938 0.88307
0.175235 0.972824 0.691295
0.97525 0.510292 1
0.787793 0.666178 1
0.600336 0.82208 1
0.412879 0.977981 1
0.225406 1 1
1 0 0
0.974411 0 0
0.786938 0.110979 0
0.599481 0.266865 0
0.412024 0.422766 0
1 0 0.175601
1 0.116121 0
0.83711 0.272007 0
0.649653 0.427909 0
0.462196 0.58381 0
1 0.121279 0.750454
1 0.277165 0.558694
0.887282 0.433051 0.366918
0.699825 0.588952 0.175143
0.512367 0.744854 0
1 0.282322 1
1 0.438209 1
0.937453 0.594095 0.941772
0.749996 0.749996 0.749996
0.562539 0.905898 0.558221
1 0.443366 1
1 0.599252 1
0.987625 0.755138 1
0.800168 0.91104 1
0.612711 1 1
1 0 0
1 0 0
1 0.0440375 0
0.98677 0.199939 0
0.799313 0.355825 0
1 0 0.0425269
1 0.0491798 0
1 0.205066 0
1 0.360967 0
0.849485 0.516869 0
1 0.0543374 0.61738
1 0.210224 0.42562
1 0.366125 0.233845
1 0.522011 0.0420691
0.899657 0.677913 0
1 0.215381 1
1 0.371267 1
1 0.527169 0.808698
1 0.683055 0.616922
0.949828 0.838956 0.425147
1 0.376425 1
1 0.532311 1
1 0.688212 1
1 0.844099 1
1 1 1
