public/LUTS/Color Shift/ColorShift_91.cube
TITLE "Generated by Resolve"
LUT_3D_SIZE 33
0 0 0
0 0.00614939 0.0462501
0 0.0122988 0.0925154
0 0.0184482 0.138796
0 0.0245975 0.185061
0 0.0307469 0.231342
0 0.0368963 0.277607
0 0.0430457 0.323873
0 0.0491951 0.370153
0 0.0553445 0.416419
0 0.0614939 0.462699
0 0.0676432 0.508965
0 0.0738079 0.555245
0 0.0799573 0.601511
0 0.0861067 0.647776
0 0.092256 0.694057
0 0.0984054 0.740322
0 0.104555 0.786603
0 0.110704 0.832868
0 0.116854 0.879149
0 0.123003 0.925414
0 0.129152 0.971679
0 0.135302 1
0 0.141451 1
0 0.147601 1
0 0.15375 1
0 0.159899 1
0 0.166049 1
0 0.172213 1
0 0.178363 1
0 0.184512 1
0 0.190661 1
0 0.196811 1
0.0746471 0.00701915 0.0141299
0.065568 0.0131685 0.0603799
0.0564889 0.0193179 0.106645
0.0474098 0.0254673 0.152911
0.0383307 0.031632 0.199191
0.0292515 0.0377813 0.245457
0.0201572 0.0439307 0.291737
0.0110781 0.0500801 0.338003
0.00199893 0.0562295 0.384283
0 0.0623789 0.430549
0 0.0685283 0.476814
0 0.0746777 0.523095
0 0.080827 0.56936
0 0.0869764 0.615641
0 0.0931258 0.661906
0 0.0992752 0.708171
0 0.105425 0.754452
0 0.111574 0.800717
0 0.117723 0.846998
0 0.123873 0.893263
0 0.130037 0.939544
0 0.136187 0.985809
0 0.142336 1
0 0.148486 1
0 0.154635 1
0 0.160784 1
0 0.166934 1
0 0.173083 1
0 0.179232 1
0 0.185382 1
0 0.191531 1
0 0.197681 1
0 0.20383 1
0.149325 0.0140536 0.0282597
0.140246 0.0202029 0.0745098
0.131167 0.0263523 0.120775
0.122087 0.0325017 0.167041
0.113008 0.0386511 0.213321
0.103929 0.0448005 0.259586
0.0948501 0.0509499 0.305867
0.0857557 0.0570993 0.352132
0.0766766 0.0632486 0.398413
0.0675975 0.0694133 0.444678
0.0585184 0.0755627 0.490944
0.0494392 0.0817121 0.537224
0.0403601 0.0878614 0.58349
0.031281 0.0940108 0.62977
0.0222019 0.10016 0.676036
0.0131228 0.10631 0.722316
0.00404364 0.112459 0.768582
0 0.118608 0.814847
0 0.124758 0.861128
0 0.130907 0.907393
0 0.137057 0.953674
0 0.143206 0.999939
0 0.149355 1
0 0.155505 1
0 0.161654 1
0 0.167803 1
0 0.173968 1
0 0.180117 1
0 0.186267 1
0 0.192416 1
0 0.198566 1
0 0.204715 1
0 0.210864 1
0.224002 0.021088 0.0423896
0.214923 0.0272374 0.0886397
0.205844 0.0333867 0.134905
0.196765 0.0395361 0.18117
0.187686 0.0456855 0.227451
0.178607 0.0518349 0.273716
0.169528 0.0579843 0.319997
0.160449 0.0641337 0.366262
0.151354 0.0702831 0.412543
0.142275 0.0764324 0.458808
0.133196 0.0825818 0.505074
0.124117 0.0887312 0.551354
0.115038 0.0948806 0.59762
0.105959 0.10103 0.6439
0.0968795 0.107195 0.690166
0.0878004 0.113344 0.736446
0.0787213 0.119493 0.782712
0.0696422 0.125643 0.828977
0.0605478 0.131792 0.875257
0.0514687 0.137942 0.921523
0.0423896 0.144091 0.967803
0.0333104 0.15024 1
0.0242313 0.15639 1
0.0151522 0.162539 1
0.00607309 0.168688 1
0 0.174838 1
0 0.180987 1
0 0.187137 1
0 0.193286 1
0 0.199435 1
0 0.205585 1
0 0.211749 1
0 0.217899 1
0.29868 0.0281224 0.0565194
0.289601 0.0342565 0.10277
0.280522 0.0404059 0.149035
0.271443 0.0465705 0.195315
0.262364 0.0527199 0.241581
0.253285 0.0588693 0.287846
0.244205 0.0650187 0.334127
0.235126 0.0711681 0.380392
0.226047 0.0773175 0.426673
0.216953 0.0834669 0.472938
0.207874 0.0896162 0.519219
0.198795 0.0957656 0.565484
0.189715 0.101915 0.611749
0.180636 0.108064 0.65803
0.171557 0.114214 0.704295
0.162478 0.120363 0.750576
0.153399 0.126513 0.796841
0.14432 0.132662 0.843107
0.135241 0.138811 0.889387
0.126146 0.144976 0.935653
0.117067 0.151125 0.981933
0.107988 0.157275 1
0.098909 0.163424 1
0.0898299 0.169574 1
0.0807507 0.175723 1
0.0716716 0.181872 1
0.0625925 0.188022 1
0.0535134 0.194171 1
0.0444343 0.20032 1
0.0353399 0.20647 1
0.0262608 0.212619 1
0.0171817 0.218769 1
0.00810254 0.224918 1
0.373358 0.0351415 0.0706493
0.364279 0.0412909 0.116899
0.3552 0.0474403 0.163165
0.34612 0.0535897 0.209445
0.337041 0.0597391 0.255711
0.327962 0.0658885 0.301976
0.318883 0.0720378 0.348257
0.309804 0.0781872 0.394522
0.300725 0.0843519 0.440803
0.291646 0.0905013 0.487068
0.282551 0.0966506 0.533349
0.273472 0.1028 0.579614
0.264393 0.108949 0.625879
0.255314 0.115099 0.67216
0.246235 0.121248 0.718425
0.237156 0.127398 0.764706
0.228077 0.133547 0.810971
0.218997 0.139696 0.857252
0.209918 0.145846 0.903517
0.200839 0.151995 0.949783
0.191745 0.158145 0.996063
0.182666 0.164294 1
0.173587 0.170443 1
0.164508 0.176593 1
0.155428 0.182742 1
0.146349 0.188907 1
0.13727 0.195056 1
0.128191 0.201205 1
0.119112 0.207355 1
0.110033 0.213504 1
0.100938 0.219654 1
0.0918593 0.225803 1
0.0827802 0.231952 1
0.448035 0.0421759 0.0847791
0.438956 0.0483253 0.131029
0.429877 0.0544747 0.177295
0.420798 0.0606241 0.223575
0.411719 0.0667735 0.269841
0.40264 0.0729229 0.316121
0.393561 0.0790723 0.362387
0.384482 0.0852216 0.408652
0.375402 0.091371 0.454932
0.366323 0.0975204 0.501198
0.357244 0.10367 0.547478
0.34815 0.109819 0.593744
0.339071 0.115969 0.640009
0.329992 0.122133 0.68629
0.320912 0.128283 0.732555
0.311833 0.134432 0.778836
0.302754 0.140581 0.825101
0.293675 0.146731 0.871382
0.284596 0.15288 0.917647
0.275517 0.15903 0.963912
0.266438 0.165179 1
0.257343 0.171328 1
0.248264 0.177478 1
0.239185 0.183627 1
0.230106 0.189776 1
0.221027 0.195926 1
0.211948 0.202075 1
0.202869 0.208225 1
0.19379 0.214374 1
0.18471 0.220523 1
0.175631 0.226688 1
0.166537 0.232837 1
0.157458 0.238987 1
0.522713 0.0492103 0.098909
0.513649 0.0553445 0.145159
0.504555 0.0615091 0.191424
0.495476 0.0676585 0.237705
0.486397 0.0738079 0.28397
0.477317 0.0799573 0.330251
0.468238 0.0861067 0.376516
0.459159 0.092256 0.422782
0.45008 0.0984054 0.469062
0.441001 0.104555 0.515328
0.431922 0.110704 0.561608
0.422843 0.116854 0.607874
0.413748 0.123003 0.654154
0.404669 0.129152 0.70042
0.39559 0.135302 0.746685
0.386511 0.141451 0.792966
0.377432 0.147601 0.839231
0.368353 0.15375 0.885512
0.359274 0.159899 0.931777
0.350195 0.166064 0.978042
0.341115 0.172213 1
0.332036 0.178363 1
0.322942 0.184512 1
0.313863 0.190661 1
0.304784 0.196811 1
0.295705 0.20296 1
0.286625 0.20911 1
0.277546 0.215259 1
0.268467 0.221408 1
0.259388 0.227558 1
0.250309 0.233707 1
0.24123 0.239857 1
0.232136 0.246006 1
0.597391 0.0562295 0.113039
0.588327 0.0623789 0.159289
0.579248 0.0685283 0.205554
0.570153 0.0746777 0.251835
0.561074 0.080827 0.2981
0.551995 0.0869764 0.344381
0.542916 0.0931258 0.390646
0.533837 0.0992905 0.436912
0.524758 0.10544 0.483192
0.515679 0.111589 0.529458
0.5066 0.117739 0.575738
0.49752 0.123888 0.622003
0.488441 0.130037 0.668284
0.479347 0.136187 0.714549
0.470268 0.142336 0.760815
0.461189 0.148486 0.807095
0.45211 0.154635 0.853361
0.44303 0.160784 0.899641
0.433951 0.166934 0.945907
0.424872 0.173083 0.992187
0.415793 0.179232 1
0.406714 0.185382 1
0.397635 0.191531 1
0.38854 0.197681 1
0.379461 0.203845 1
0.370382 0.209995 1
0.361303 0.216144 1
0.352224 0.222293 1
0.343145 0.228443 1
0.334066 0.234592 1
0.324987 0.240742 1
0.315908 0.246891 1
0.306828 0.25304 1
0.672084 0.0632639 0.127169
0.663005 0.0694133 0.173419
0.653925 0.0755627 0.219684
0.644846 0.0817121 0.265965
0.635752 0.0878614 0.31223
0.626673 0.0940108 0.358511
0.617594 0.10016 0.404776
0.608515 0.10631 0.451057
0.599435 0.112459 0.497322
0.590356 0.118608 0.543587
0.581277 0.124758 0.589868
0.572198 0.130907 0.636133
0.563119 0.137072 0.682414
0.55404 0.143221 0.728679
0.544945 0.149371 0.774945
0.535866 0.15552 0.821225
0.526787 0.161669 0.867491
0.517708 0.167819 0.913771
0.508629 0.173968 0.960037
0.49955 0.180117 1
0.490471 0.186267 1
0.481392 0.192416 1
0.472313 0.198566 1
0.463233 0.204715 1
0.454139 0.210864 1
0.44506 0.217014 1
0.435981 0.223163 1
0.426902 0.229313 1
0.417823 0.235462 1
0.408743 0.241627 1
0.399664 0.247776 1
0.390585 0.253925 1
0.381506 0.260075 1
0.746761 0.0702983 0.141299
0.737682 0.0764477 0.187549
0.728603 0.0825971 0.233814
0.719524 0.0887465 0.280095
0.710445 0.0948959 0.32636
0.70135 0.101045 0.372641
0.692271 0.107195 0.418906
0.683192 0.113344 0.465187
0.674113 0.119493 0.511452
0.665034 0.125643 0.557717
0.655955 0.131792 0.603998
0.646876 0.137942 0.650263
0.637797 0.144091 0.696544
0.628717 0.15024 0.742809
0.619638 0.15639 0.78909
0.610544 0.162539 0.835355
0.601465 0.168688 0.881621
0.592386 0.174838 0.927901
0.583307 0.181003 0.974166
0.574228 0.187152 1
0.565148 0.193301 1
0.556069 0.199451 1
0.54699 0.2056 1
0.537911 0.211749 1
0.528832 0.217899 1
0.519738 0.224048 1
0.510658 0.230198 1
0.501579 0.236347 1
0.4925 0.242496 1
0.483421 0.248646 1
0.474342 0.254795 1
0.465263 0.260945 1
0.456184 0.267094 1
0.821439 0.0773175 0.155428
0.81236 0.0834669 0.201678
0.803281 0.0896162 0.247944
0.794202 0.0957656 0.294224
0.785122 0.101915 0.34049
0.776043 0.108064 0.38677
0.766949 0.114229 0.433036
0.75787 0.120378 0.479316
0.748791 0.126528 0.525582
0.739712 0.132677 0.571847
0.730632 0.138827 0.618128
0.721553 0.144976 0.664393
0.712474 0.151125 0.710674
0.703395 0.157275 0.756939
0.694316 0.163424 0.80322
0.685237 0.169574 0.849485
0.676143 0.175723 0.89575
0.667063 0.181872 0.942031
0.657984 0.188022 0.988296
0.648905 0.194171 1
0.639826 0.20032 1
0.630747 0.20647 1
0.621668 0.212619 1
0.612589 0.218784 1
0.60351 0.224933 1
0.59443 0.231083 1
0.585336 0.237232 1
0.576257 0.243381 1
0.567178 0.249531 1
0.558099 0.25568 1
0.54902 0.26183 1
0.53994 0.267979 1
0.530861 0.274128 1
0.896117 0.0843519 0.169558
0.887037 0.0905013 0.215808
0.877958 0.0966506 0.262089
0.868879 0.1028 0.308354
0.8598 0.108949 0.35462
0.850721 0.115099 0.4009
0.841642 0.121248 0.447166
0.832547 0.127398 0.493446
0.823468 0.133547 0.539712
0.814389 0.139696 0.585992
0.80531 0.145846 0.632258
0.796231 0.151995 0.678523
0.787152 0.15816 0.724804
0.778073 0.164309 0.771069
0.768994 0.170459 0.817349
0.759915 0.176608 0.863615
0.750835 0.182757 0.90988
0.741741 0.188907 0.956161
0.732662 0.195056 1
0.723583 0.201205 1
0.714504 0.207355 1
0.705425 0.213504 1
0.696345 0.219654 1
0.687266 0.225803 1
0.678187 0.231952 1
0.669108 0.238102 1
0.660029 0.244251 1
0.650935 0.250401 1
0.641855 0.256565 1
0.632776 0.262715 1
0.623697 0.268864 1
0.614618 0.275013 1
0.605539 0.281163 1
0.970794 0.0913863 0.183688
0.961715 0.0975357 0.229938
0.952636 0.103685 0.276219
0.943557 0.109834 0.322484
0.934478 0.115984 0.36875
0.925399 0.122133 0.41503
0.91632 0.128283 0.461295
0.90724 0.134432 0.507576
0.898161 0.140581 0.553841
0.889067 0.146731 0.600122
0.879988 0.15288 0.646387
0.870909 0.15903 0.692653
0.86183 0.165179 0.738933
0.85275 0.171328 0.785199
0.843671 0.177478 0.831479
0.834592 0.183627 0.877745
0.825513 0.189776 0.924025
0.816434 0.195941 0.970291
0.80734 0.20209 1
0.79826 0.20824 1
0.789181 0.214389 1
0.780102 0.220539 1
0.771023 0.226688 1
0.761944 0.232837 1
0.752865 0.238987 1
0.743786 0.245136 1
0.734707 0.251286 1
0.725628 0.257435 1
0.716533 0.263584 1
0.707454 0.269734 1
0.698375 0.275883 1
0.689296 0.282032 1
0.680217 0.288182 1
1 0.0984054 0.197818
1 0.104555 0.244068
1 0.110704 0.290349
1 0.116854 0.336614
1 0.123003 0.382879
1 0.129152 0.42916
0.990997 0.135317 0.475425
0.981918 0.141466 0.521706
0.972839 0.147616 0.567971
0.96376 0.153765 0.614252
0.954665 0.159915 0.660517
0.945586 0.166064 0.706783
0.936507 0.172213 0.753063
0.927428 0.178363 0.799329
0.918349 0.184512 0.845609
0.90927 0.190661 0.891875
0.900191 0.196811 0.938155
0.891112 0.20296 0.984421
0.882033 0.20911 1
0.872953 0.215259 1
0.863859 0.221408 1
0.85478 0.227558 1
0.845701 0.233722 1
0.836622 0.239872 1
0.827543 0.246021 1
0.818463 0.252171 1
0.809384 0.25832 1
0.800305 0.264469 1
0.791226 0.270619 1
0.782132 0.276768 1
0.773053 0.282918 1
0.763973 0.289067 1
0.754894 0.295216 1
1 0.10544 0.211948
1 0.111589 0.258198
1 0.117739 0.304479
1 0.123888 0.350744
1 0.130037 0.397024
1 0.136187 0.44329
1 0.142336 0.489555
1 0.148486 0.535836
1 0.154635 0.582101
1 0.160784 0.628382
1 0.166934 0.674647
1 0.173098 0.720928
1 0.179248 0.767193
1 0.185397 0.813458
0.993027 0.191546 0.859739
0.983948 0.197696 0.906004
0.974868 0.203845 0.952285
0.965789 0.209995 0.99855
0.95671 0.216144 1
0.947631 0.222293 1
0.938552 0.228443 1
0.929458 0.234592 1
0.920378 0.240742 1
0.911299 0.246891 1
0.90222 0.25304 1
0.893141 0.25919 1
0.884062 0.265339 1
0.874983 0.271504 1
0.865904 0.277653 1
0.856825 0.283803 1
0.847745 0.289952 1
0.838651 0.296101 1
0.829572 0.302251 1
1 0.112474 0.226078
1 0.118624 0.272328
1 0.124773 0.318608
1 0.130922 0.364874
1 0.137072 0.411154
1 0.143221 0.45742
1 0.149371 0.503685
1 0.15552 0.549966
1 0.161669 0.596231
1 0.167819 0.642512
1 0.173968 0.688777
1 0.180117 0.735058
1 0.186267 0.781323
1 0.192416 0.827588
1 0.198566 0.873869
1 0.204715 0.920134
1 0.21088 0.966415
1 0.217029 1
1 0.223178 1
1 0.229328 1
1 0.235477 1
1 0.241627 1
0.995056 0.247776 1
0.985977 0.253925 1
0.976898 0.260075 1
0.967819 0.266224 1
0.95874 0.272374 1
0.94966 0.278523 1
0.940581 0.284672 1
0.931502 0.290822 1
0.922423 0.296971 1
0.913344 0.30312 1
0.90425 0.309285 1
1 0.119493 0.240208
1 0.125643 0.286458
1 0.131792 0.332738
1 0.137942 0.379004
1 0.144091 0.425284
1 0.150256 0.47155
1 0.156405 0.517815
1 0.162554 0.564095
1 0.168704 0.610361
1 0.174853 0.656641
1 0.181003 0.702907
1 0.187152 0.749187
1 0.193301 0.795453
1 0.199451 0.841718
1 0.2056 0.887999
1 0.211749 0.934264
1 0.217899 0.980545
1 0.224048 1
1 0.230198 1
1 0.236347 1
1 0.242496 1
1 0.248661 1
1 0.25481 1
1 0.26096 1
1 0.267109 1
1 0.273259 1
1 0.279408 1
1 0.285557 1
1 0.291707 1
1 0.297856 1
0.997101 0.304006 1
0.988022 0.310155 1
0.978943 0.316304 1
1 0.126528 0.254337
1 0.132677 0.300587
1 0.138827 0.346868
1 0.144976 0.393133
1 0.151125 0.439414
1 0.157275 0.485679
1 0.163424 0.53196
1 0.169574 0.578225
1 0.175723 0.624491
1 0.181872 0.670771
1 0.188037 0.717037
1 0.194186 0.763317
1 0.200336 0.809583
1 0.206485 0.855863
1 0.212634 0.902129
1 0.218784 0.948394
1 0.224933 0.994675
1 0.231083 1
1 0.237232 1
1 0.243381 1
1 0.249531 1
1 0.25568 1
1 0.26183 1
1 0.267979 1
1 0.274128 1
1 0.280278 1
1 0.286442 1
1 0.292592 1
1 0.298741 1
1 0.304891 1
1 0.31104 1
1 0.317189 1
1 0.323339 1
1 0.133562 0.268482
1 0.139712 0.314717
1 0.145861 0.360998
1 0.15201 0.407263
1 0.15816 0.453544
1 0.164309 0.499809
1 0.170459 0.54609
1 0.176608 0.592355
1 0.182757 0.638621
1 0.188907 0.684901
1 0.195056 0.731167
1 0.201205 0.777447
1 0.207355 0.823713
1 0.213504 0.869993
1 0.219654 0.916259
1 0.225818 0.962524
1 0.231968 1
1 0.238117 1
1 0.244266 1
1 0.250416 1
1 0.256565 1
1 0.262715 1
1 0.268864 1
1 0.275013 1
1 0.281163 1
1 0.287312 1
1 0.293462 1
1 0.299611 1
1 0.30576 1
1 0.31191 1
1 0.318059 1
1 0.324224 1
1 0.330373 1
1 0.140597 0.282612
1 0.146731 0.328862
1 0.15288 0.375128
1 0.15903 0.421393
1 0.165194 0.467674
1 0.171344 0.513939
1 0.177493 0.56022
1 0.183642 0.606485
1 0.189792 0.652766
1 0.195941 0.699031
1 0.20209 0.745296
1 0.20824 0.791577
1 0.214389 0.837842
1 0.220539 0.884123
1 0.226688 0.930388
1 0.232837 0.976654
1 0.238987 1
1 0.245136 1
1 0.251286 1
1 0.257435 1
1 0.2636 1
1 0.269749 1
1 0.275898 1
1 0.282048 1
1 0.288197 1
1 0.294347 1
1 0.300496 1
1 0.306645 1
1 0.312795 1
1 0.318944 1
1 0.325093 1
1 0.331243 1
1 0.337392 1
1 0.147616 0.296742
1 0.153765 0.342992
1 0.159915 0.389258
1 0.166064 0.435523
1 0.172213 0.481804
1 0.178363 0.528069
1 0.184512 0.57435
1 0.190661 0.620615
1 0.196811 0.666896
1 0.202976 0.713161
1 0.209125 0.759426
1 0.215274 0.805707
1 0.221424 0.851972
1 0.227573 0.898253
1 0.233722 0.944518
1 0.239872 0.990799
1 0.246021 1
1 0.252171 1
1 0.25832 1
1 0.264469 1
1 0.270619 1
1 0.276768 1
1 0.282918 1
1 0.289067 1
1 0.295216 1
1 0.301381 1
1 0.30753 1
1 0.31368 1
1 0.319829 1
1 0.325978 1
1 0.332128 1
1 0.338277 1
1 0.344427 1
1 0.15465 0.310872
1 0.1608 0.357122
1 0.166949 0.403388
1 0.173098 0.449653
1 0.179248 0.495933
1 0.185397 0.542199
1 0.191546 0.588479
1 0.197696 0.634745
1 0.203845 0.681025
1 0.209995 0.727291
1 0.216144 0.773556
1 0.222293 0.819837
1 0.228443 0.866102
1 0.234592 0.912383
1 0.240757 0.958648
1 0.246906 1
1 0.253056 1
1 0.259205 1
1 0.265354 1
1 0.271504 1
1 0.277653 1
1 0.283803 1
1 0.289952 1
1 0.296101 1
1 0.302251 1
1 0.3084 1
1 0.314549 1
1 0.320699 1
1 0.326848 1
1 0.332998 1
1 0.339162 1
1 0.345312 1
1 0.351461 1
1 0.161685 0.325002
1 0.167819 0.371252
1 0.173968 0.417517
1 0.180133 0.463798
1 0.186282 0.510063
1 0.192432 0.556329
1 0.198581 0.602609
1 0.20473 0.648875
1 0.21088 0.695155
1 0.217029 0.741421
1 0.223178 0.787701
1 0.229328 0.833967
1 0.235477 0.880232
1 0.241627 0.926513
1 0.247776 0.972778
1 0.253925 1
1 0.260075 1
1 0.266224 1
1 0.272374 1
1 0.278538 1
1 0.284688 1
1 0.290837 1
1 0.296986 1
1 0.303136 1
1 0.309285 1
1 0.315435 1
1 0.321584 1
1 0.327733 1
1 0.333883 1
1 0.340032 1
1 0.346181 1
1 0.352331 1
1 0.35848 1
1 0.168704 0.339132
1 0.174853 0.385382
1 0.181003 0.431647
1 0.187152 0.477928
1 0.193301 0.524193
1 0.199451 0.570459
1 0.2056 0.616739
1 0.211749 0.663005
1 0.217914 0.709285
1 0.224063 0.75555
1 0.230213 0.801831
1 0.236362 0.848096
1 0.242512 0.894362
1 0.248661 0.940642
1 0.25481 0.986908
1 0.26096 1
1 0.267109 1
1 0.273259 1
1 0.279408 1
1 0.285557 1
1 0.291707 1
1 0.297856 1
1 0.304006 1
1 0.310155 1
1 0.31632 1
1 0.322469 1
1 0.328618 1
1 0.334768 1
1 0.340917 1
1 0.347066 1
1 0.353216 1
1 0.359365 1
1 0.365515 1
1 0.175738 0.353262
1 0.181888 0.399512
1 0.188037 0.445777
1 0.194186 0.492058
1 0.200336 0.538323
1 0.206485 0.584588
1 0.212634 0.630869
1 0.218784 0.677134
1 0.224933 0.723415
1 0.231083 0.76968
1 0.237232 0.815961
1 0.243381 0.862226
1 0.249531 0.908492
1 0.255695 0.954772
1 0.261845 1
1 0.267994 1
1 0.274144 1
1 0.280293 1
1 0.286442 1
1 0.292592 1
1 0.298741 1
1 0.304891 1
1 0.31104 1
1 0.317189 1
1 0.323339 1
1 0.329488 1
1 0.335637 1
1 0.341787 1
1 0.347936 1
1 0.354101 1
1 0.36025 1
1 0.3664 1
1 0.372549 1
1 0.182773 0.367391
1 0.188907 0.413642
1 0.195071 0.459907
1 0.201221 0.506188
1 0.20737 0.552453
1 0.213519 0.598733
1 0.219669 0.644999
1 0.225818 0.691264
1 0.231968 0.737545
1 0.238117 0.78381
1 0.244266 0.830091
1 0.250416 0.876356
1 0.256565 0.922637
1 0.262715 0.968902
1 0.268864 1
1 0.275013 1
1 0.281163 1
1 0.287312 1
1 0.293477 1
1 0.299626 1
1 0.305776 1
1 0.311925 1
1 0.318074 1
1 0.324224 1
1 0.330373 1
1 0.336522 1
1 0.342672 1
1 0.348821 1
1 0.354971 1
1 0.36112 1
1 0.367269 1
1 0.373419 1
1 0.379568 1
1 0.189792 0.381521
1 0.195941 0.427771
1 0.20209 0.474037
1 0.20824 0.520317
1 0.214389 0.566583
1 0.220539 0.612863
1 0.226688 0.659129
1 0.232853 0.705394
1 0.239002 0.751675
