public/LUTS/Color Shift/ColorShift_67.cube
TITLE "Generated by Resolve"
LUT_3D_SIZE 33
0 0 0
0.0271458 0.00520333 0
0.0543069 0.0104067 0
0.0814679 0.01561 0
0.108629 0.0208133 0
0.13579 0.0260319 0
0.162951 0.0312352 0
0.190112 0.0364385 0
0.217273 0.0416419 0
0.244419 0.0468452 0
0.27158 0.0520485 0
0.298741 0.0572671 0
0.325902 0.0624704 0
0.353063 0.0676738 0
0.380224 0.0728771 0
0.407385 0.0780804 0
0.434546 0.0832837 0
0.461707 0.0884871 0
0.488869 0.0937057 0
0.51603 0.098909 0
0.543191 0.104112 0
0.570352 0.109316 0
0.597513 0.114519 0
0.624659 0.119722 0
0.65182 0.124941 0
0.678981 0.130144 0
0.706142 0.135348 0
0.733303 0.140551 0
0.760464 0.145754 0
0.787625 0.150958 0
0.814786 0.156161 0
0.841947 0.161379 0
0.869108 0.166583 0
0 0.037705 0.0230869
0 0.0429084 0
0.022858 0.0481117 0
0.0500191 0.053315 0
0.0771801 0.0585184 0
0.104341 0.0637217 0
0.131502 0.0689403 0
0.158663 0.0741436 0
0.185809 0.0793469 0
0.21297 0.0845502 0
0.240131 0.0897536 0
0.267292 0.0949569 0
0.294453 0.100175 0
0.321614 0.105379 0
0.348775 0.110582 0
0.375937 0.115785 0
0.403098 0.120989 0
0.430259 0.126192 0
0.45742 0.131395 0
0.484581 0.136614 0
0.511742 0.141817 0
0.538903 0.147021 0
0.566049 0.152224 0
0.59321 0.157427 0
0.620371 0.162631 0
0.647532 0.167849 0
0.674693 0.173053 0
0.701854 0.178256 0
0.729015 0.183459 0
0.756176 0.188663 0
0.783337 0.193866 0
0.810498 0.199069 0
0.837659 0.204288 0
0 0.0754253 0.0461738
0 0.0806287 0.0152438
0 0.085832 0
0.018555 0.0910353 0
0.045716 0.0962387 0
0.0728771 0.101457 0
0.100038 0.106661 0
0.127184 0.111864 0
0.154345 0.117067 0
0.181506 0.122271 0
0.208667 0.127474 0
0.235828 0.132677 0
0.262989 0.137896 0
0.29015 0.143099 0
0.317311 0.148302 0
0.344472 0.153506 0
0.371633 0.158709 0
0.398795 0.163912 0
0.425956 0.169131 0
0.453117 0.174334 0
0.480278 0.179538 0
0.507424 0.184741 0
0.534585 0.189944 0
0.561746 0.195148 0
0.588907 0.200351 0
0.616068 0.20557 0
0.643229 0.210773 0
0.67039 0.215976 0
0.697551 0.22118 0
0.724712 0.226383 0
0.751873 0.231586 0
0.779034 0.236805 0
0.806195 0.242008 0
0 0.113146 0.0692607
0 0.118349 0.0383307
0 0.123552 0.00738537
0 0.128756 0
0.0142519 0.133959 0
0.041413 0.139178 0
0.0685588 0.144381 0
0.0957198 0.149584 0
0.122881 0.154788 0
0.150042 0.159991 0
0.177203 0.165194 0
0.204364 0.170413 0
0.231525 0.175616 0
0.258686 0.180819 0
0.285847 0.186023 0
0.313008 0.191226 0
0.340169 0.196429 0
0.36733 0.201633 0
0.394491 0.206851 0
0.421653 0.212055 0
0.448798 0.217258 0
0.475959 0.222461 0
0.50312 0.227665 0
0.530282 0.232868 0
0.557443 0.238087 0
0.584604 0.24329 0
0.611765 0.248493 0
0.638926 0.253697 0
0.666087 0.2589 0
0.693248 0.264103 0
0.720409 0.269306 0
0.74757 0.274525 0
0.774731 0.279728 0
0 0.150866 0.0923629
0 0.156069 0.0614328
0 0.161273 0.0304875
0 0.166476 0
0 0.171679 0
0.00994888 0.176898 0
0.0370947 0.182101 0
0.0642557 0.187304 0
0.0914168 0.192508 0
0.118578 0.197711 0
0.145739 0.202914 0
0.1729 0.208133 0
0.200061 0.213336 0
0.227222 0.21854 0
0.254383 0.223743 0
0.281544 0.228946 0
0.308705 0.23415 0
0.335866 0.239353 0
0.363027 0.244572 0
0.390173 0.249775 0
0.417334 0.254978 0
0.444495 0.260182 0
0.471656 0.265385 0
0.498817 0.270588 0
0.525979 0.275807 0
0.55314 0.28101 0
0.580301 0.286213 0
0.607462 0.291417 0
0.634623 0.29662 0
0.661784 0.301823 0
0.688945 0.307042 0
0.716106 0.312245 0
0.743267 0.317449 0
0 0.188586 0.11545
0 0.19379 0.0845197
0 0.198993 0.0535744
0 0.204196 0.0226291
0 0.209415 0
0 0.214618 0
0.00563058 0.219821 0
0.0327916 0.225025 0
0.0599527 0.230228 0
0.0871138 0.235431 0
0.114275 0.240635 0
0.141436 0.245853 0
0.168597 0.251057 0
0.195758 0.25626 0
0.222919 0.261463 0
0.25008 0.266667 0
0.277241 0.27187 0
0.304402 0.277089 0
0.331548 0.282292 0
0.358709 0.287495 0
0.38587 0.292699 0
0.413031 0.297902 0
0.440192 0.303105 0
0.467353 0.308309 0
0.494514 0.313527 0
0.521675 0.31873 0
0.548837 0.323934 0
0.575998 0.329137 0
0.603159 0.33434 0
0.63032 0.339544 0
0.657481 0.344762 0
0.684642 0.349966 0
0.711788 0.355169 0
0 0.226307 0.138537
0 0.23151 0.107607
0 0.236713 0.0766613
0 0.241917 0.045716
0 0.247135 0.0147707
0 0.252338 0
0 0.257542 0
0.00132753 0.262745 0
0.0284886 0.267948 0
0.0556497 0.273152 0
0.0828107 0.27837 0
0.109972 0.283574 0
0.137133 0.288777 0
0.164294 0.29398 0
0.191455 0.299184 0
0.218616 0.304387 0
0.245777 0.30959 0
0.272923 0.314809 0
0.300084 0.320012 0
0.327245 0.325216 0
0.354406 0.330419 0
0.381567 0.335622 0
0.408728 0.340826 0
0.435889 0.346044 0
0.46305 0.351247 0
0.490211 0.356451 0
0.517372 0.361654 0
0.544533 0.366857 0
0.571694 0.372061 0
0.598856 0.377264 0
0.626017 0.382483 0
0.653162 0.387686 0
0.680323 0.392889 0
0 0.264027 0.161639
0 0.26923 0.130709
0 0.274434 0.0997635
0 0.279652 0.0688182
0 0.284855 0.0378729
0 0.290059 0.0069276
0 0.295262 0
0 0.300465 0
0 0.305669 0
0.0241855 0.310872 0
0.0513466 0.316091 0
0.0785077 0.321294 0
0.105669 0.326497 0
0.13283 0.331701 0
0.159991 0.336904 0
0.187152 0.342107 0
0.214298 0.347326 0
0.241459 0.352529 0
0.26862 0.357733 0
0.295781 0.362936 0
0.322942 0.368139 0
0.350103 0.373342 0
0.377264 0.378546 0
0.404425 0.383764 0
0.431586 0.388968 0
0.458747 0.394171 0
0.485908 0.399374 0
0.513069 0.404578 0
0.54023 0.409781 0
0.567391 0.415 0
0.594537 0.420203 0
0.621698 0.425406 0
0.648859 0.43061 0
0 0.301747 0.184726
0 0.30695 0.153796
0 0.312154 0.12285
0 0.317372 0.0919051
0 0.322576 0.0609598
0 0.327779 0.0300145
0 0.332982 0
0 0.338186 0
0 0.343389 0
0 0.348608 0
0.0198825 0.353811 0
0.0470436 0.359014 0
0.0742046 0.364218 0
0.101366 0.369421 0
0.128527 0.374624 0
0.155688 0.379828 0
0.182834 0.385046 0
0.209995 0.390249 0
0.237156 0.395453 0
0.264317 0.400656 0
0.291478 0.405859 0
0.318639 0.411063 0
0.3458 0.416281 0
0.372961 0.421485 0
0.400122 0.426688 0
0.427283 0.431891 0
0.454444 0.437095 0
0.481605 0.442298 0
0.508766 0.447501 0
0.535912 0.45272 0
0.563073 0.457923 0
0.590234 0.463127 0
0.617395 0.46833 0
0 0.339467 0.207828
0 0.344671 0.176898
0 0.349874 0.145937
0 0.355093 0.114992
0 0.360296 0.0840467
0 0.365499 0.0531014
0 0.370703 0.0221561
0 0.375906 0
0 0.381109 0
0 0.386328 0
0 0.391531 0
0.0155795 0.396735 0
0.0427405 0.401938 0
0.0699016 0.407141 0
0.0970626 0.412345 0
0.124208 0.417548 0
0.151369 0.422766 0
0.178531 0.42797 0
0.205692 0.433173 0
0.232853 0.438376 0
0.260014 0.44358 0
0.287175 0.448783 0
0.314336 0.454002 0
0.341497 0.459205 0
0.368658 0.464408 0
0.395819 0.469612 0
0.42298 0.474815 0
0.450141 0.480018 0
0.477287 0.485237 0
0.504448 0.49044 0
0.531609 0.495644 0
0.55877 0.500847 0
0.585931 0.50605 0
0 0.377188 0.230915
0 0.382391 0.199985
0 0.38761 0.169039
0 0.392813 0.138094
0 0.398016 0.107149
0 0.40322 0.0762036
0 0.408423 0.0452583
0 0.413626 0.014313
0 0.41883 0
0 0.424048 0
0 0.429252 0
0 0.434455 0
0.0112764 0.439658 0
0.0384375 0.444862 0
0.0655833 0.450065 0
0.0927443 0.455283 0
0.119905 0.460487 0
0.147066 0.46569 0
0.174228 0.470893 0
0.201389 0.476097 0
0.22855 0.4813 0
0.255711 0.486503 0
0.282872 0.491722 0
0.310033 0.496925 0
0.337194 0.502129 0
0.364355 0.507332 0
0.391516 0.512535 0
0.418662 0.517739 0
0.445823 0.522957 0
0.472984 0.528161 0
0.500145 0.533364 0
0.527306 0.538567 0
0.554467 0.54377 0
0 0.414908 0.254002
0 0.420111 0.223072
0 0.42533 0.192126
0 0.430533 0.161181
0 0.435737 0.130236
0 0.44094 0.0992905
0 0.446143 0.0683452
0 0.451347 0.0373999
0 0.456565 0.00645457
0 0.461769 0
0 0.466972 0
0 0.472175 0
0 0.477378 0
0.00695811 0.482582 0
0.0341192 0.487785 0
0.0612802 0.493004 0
0.0884413 0.498207 0
0.115602 0.50341 0
0.142763 0.508614 0
0.169924 0.513817 0
0.197086 0.51902 0
0.224247 0.524239 0
0.251408 0.529442 0
0.278569 0.534646 0
0.30573 0.539849 0
0.332891 0.545052 0
0.360052 0.550256 0
0.387198 0.555459 0
0.414359 0.560678 0
0.44152 0.565881 0
0.468681 0.571084 0
0.495842 0.576288 0
0.523003 0.581491 0
0 0.452644 0.277104
0 0.457847 0.246174
0 0.46305 0.215228
0 0.468254 0.184283
0 0.473457 0.153323
0 0.47866 0.122377
0 0.483864 0.0914321
0 0.489067 0.0604868
0 0.494285 0.0295415
0 0.499489 0
0 0.504692 0
0 0.509896 0
0 0.515099 0
0 0.520302 0
0.00265507 0.525521 0
0.0298161 0.530724 0
0.0569772 0.535927 0
0.0841382 0.541131 0
0.111299 0.546334 0
0.13846 0.551537 0
0.165621 0.556741 0
0.192782 0.561959 0
0.219944 0.567163 0
0.247105 0.572366 0
0.274266 0.577569 0
0.301411 0.582773 0
0.328573 0.587976 0
0.355734 0.593194 0
0.382895 0.598398 0
0.410056 0.603601 0
0.437217 0.608804 0
0.464378 0.614008 0
0.491539 0.619211 0
0 0.490364 0.300191
0 0.495567 0.269261
0 0.500771 0.238315
0 0.505974 0.20737
0 0.511177 0.176425
0 0.516381 0.14548
0 0.521584 0.114534
0 0.526787 0.0835889
0 0.532006 0.0526436
0 0.537209 0.0216983
0 0.542412 0
0 0.547616 0
0 0.552819 0
0 0.558022 0
0 0.563241 0
0 0.568444 0
0.0255131 0.573648 0
0.0526741 0.578851 0
0.0798352 0.584054 0
0.106996 0.589258 0
0.134157 0.594476 0
0.161318 0.59968 0
0.188479 0.604883 0
0.215641 0.610086 0
0.242802 0.61529 0
0.269947 0.620493 0
0.297108 0.625696 0
0.324269 0.630915 0
0.351431 0.636118 0
0.378592 0.641321 0
0.405753 0.646525 0
0.432914 0.651728 0
0.460075 0.656931 0
0 0.528084 0.323278
0 0.533288 0.292348
0 0.538491 0.261402
0 0.543694 0.230457
0 0.548898 0.199512
0 0.554101 0.168566
0 0.559304 0.137621
0 0.564523 0.106676
0 0.569726 0.0757305
0 0.574929 0.0447852
0 0.580133 0.0138399
0 0.585336 0
0 0.590539 0
0 0.595743 0
0 0.600961 0
0 0.606165 0
0 0.611368 0
0.02121 0.616571 0
0.0483711 0.621775 0
0.0755322 0.626978 0
0.102693 0.632197 0
0.129854 0.6374 0
0.157015 0.642603 0
0.184176 0.647807 0
0.211322 0.65301 0
0.238483 0.658213 0
0.265644 0.663417 0
0.292805 0.668635 0
0.319966 0.673838 0
0.347127 0.679042 0
0.374289 0.684245 0
0.40145 0.689448 0
0.428611 0.694652 0
0 0.565805 0.34638
0 0.571008 0.31545
0 0.576211 0.284504
0 0.581415 0.253559
0 0.586618 0.222614
0 0.591821 0.191669
0 0.597025 0.160723
0 0.602243 0.129763
0 0.607446 0.0988174
0 0.61265 0.0678721
0 0.617853 0.0369268
0 0.623056 0.00598154
0 0.62826 0
0 0.633478 0
0 0.638682 0
0 0.643885 0
0 0.649088 0
0 0.654292 0
0.016907 0.659495 0
0.0440681 0.664698 0
0.0712291 0.669917 0
0.0983902 0.67512 0
0.125551 0.680323 0
0.152697 0.685527 0
0.179858 0.69073 0
0.207019 0.695933 0
0.23418 0.701152 0
0.261341 0.706355 0
0.288502 0.711559 0
0.315663 0.716762 0
0.342824 0.721965 0
0.369985 0.727169 0
0.397147 0.732372 0
0 0.603525 0.369467
0 0.608728 0.338537
0 0.613931 0.307591
0 0.619135 0.276646
0 0.624338 0.245701
0 0.629541 0.214755
0 0.63476 0.18381
0 0.639963 0.152865
0 0.645167 0.12192
0 0.65037 0.0909743
0 0.655573 0.060029
0 0.660777 0.0290837
0 0.66598 0
0 0.671199 0
0 0.676402 0
0 0.681605 0
0 0.686809 0
0 0.692012 0
0 0.697215 0
0.012604 0.702434 0
0.039765 0.707637 0
0.0669261 0.71284 0
0.0940719 0.718044 0
0.121233 0.723247 0
0.148394 0.72845 0
0.175555 0.733654 0
0.202716 0.738872 0
0.229877 0.744076 0
0.257038 0.749279 0
0.284199 0.754482 0
0.31136 0.759686 0
0.338521 0.764889 0
0.365682 0.770108 0
0 0.641245 0.392569
0 0.646448 0.361624
0 0.651652 0.330678
0 0.656855 0.299733
0 0.662058 0.268788
0 0.667262 0.237842
0 0.67248 0.206897
0 0.677684 0.175952
0 0.682887 0.145006
0 0.68809 0.114061
0 0.693294 0.0831159
0 0.698497 0.0521706
0 0.703716 0.0212253
0 0.708919 0
0 0.714122 0
0 0.719326 0
0 0.724529 0
0 0.729732 0
0 0.734936 0
0 0.740154 0
0.00830091 0.745357 0
0.0354467 0.750561 0
0.0626078 0.755764 0
0.0897688 0.760967 0
0.11693 0.766171 0
0.144091 0.771389 0
0.171252 0.776593 0
0.198413 0.781796 0
0.225574 0.786999 0
0.252735 0.792203 0
0.279896 0.797406 0
0.307057 0.802609 0
0.334218 0.807828 0
0 0.678965 0.415656
0 0.684169 0.384726
0 0.689372 0.35378
0 0.694575 0.322835
0 0.699779 0.29189
0 0.704982 0.260945
0 0.710201 0.229999
0 0.715404 0.199054
0 0.720607 0.168109
0 0.725811 0.137148
0 0.731014 0.106203
0 0.736217 0.0752575
0 0.741436 0.0443122
0 0.746639 0.0133669
0 0.751842 0
0 0.757046 0
0 0.762249 0
0 0.767452 0
0 0.772656 0
0 0.777874 0
0 0.783078 0
0.0039826 0.788281 0
0.0311437 0.793484 0
0.0583047 0.798688 0
0.0854658 0.803891 0
0.112627 0.80911 0
0.139788 0.814313 0
0.166949 0.819516 0
0.19411 0.82472 0
0.221271 0.829923 0
0.248432 0.835126 0
0.275593 0.840345 0
0.302754 0.845548 0
0 0.716686 0.438743
0 0.721889 0.407813
0 0.727092 0.376867
0 0.732296 0.345922
0 0.737499 0.314977
0 0.742718 0.284031
0 0.747921 0.253086
0 0.753124 0.222141
0 0.758328 0.191196
0 0.763531 0.16025
0 0.768734 0.129305
0 0.773938 0.0983597
0 0.779156 0.0674144
0 0.78436 0.0364691
0 0.789563 0.00552377
0 0.794766 0
0 0.799969 0
0 0.805173 0
0 0.810391 0
0 0.815595 0
0 0.820798 0
0 0.826001 0
0 0.831205 0
0.0268406 0.836408 0
0.0540017 0.841611 0
0.0811627 0.84683 0
0.108324 0.852033 0
0.135485 0.857237 0
0.162646 0.86244 0
0.189807 0.867643 0
0.216968 0.872847 0
0.244129 0.878065 0
0.27129 0.883268 0
0 0.754406 0.461845
0 0.759609 0.430915
0 0.764813 0.399969
0 0.770016 0.369009
0 0.775219 0.338064
0 0.780438 0.307118
0 0.785641 0.276173
0 0.790845 0.245228
0 0.796048 0.214282
0 0.801251 0.183337
0 0.806455 0.152392
0 0.811673 0.121447
0 0.816876 0.0905013
0 0.82208 0.059556
0 0.827283 0.0286107
0 0.832486 0
0 0.83769 0
0 0.842893 0
0 0.848112 0
0 0.853315 0
0 0.858518 0
0 0.863722 0
0 0.868925 0
0 0.874128 0
0.0225376 0.879347 0
0.0496986 0.88455 0
0.0768597 0.889754 0
0.104021 0.894957 0
0.131182 0.90016 0
0.158343 0.905364 0
0.185504 0.910567 0
0.212665 0.915785 0
0.239811 0.920989 0
0 0.792126 0.484932
0 0.79733 0.454002
0 0.802533 0.423056
0 0.807736 0.392111
0 0.812955 0.361166
0 0.818158 0.33022
0 0.823362 0.299275
0 0.828565 0.26833
0 0.833768 0.237385
0 0.838972 0.206439
0 0.844175 0.175494
0 0.849393 0.144549
0 0.854597 0.113588
0 0.8598 0.0826429
0 0.865003 0.0516976
0 0.870207 0.0207523
0 0.87541 0
0 0.880629 0
0 0.885832 0
0 0.891035 0
0 0.896239 0
0 0.901442 0
0 0.906645 0
0 0.911849 0
0 0.917067 0
0.0182345 0.922271 0
0.0453956 0.927474 0
0.0725567 0.932677 0
0.0997177 0.937881 0
0.126879 0.943084 0
0.15404 0.948302 0
0.181186 0.953506 0
0.208347 0.958709 0
0 0.829847 0.508019
0 0.83505 0.477089
0 0.840253 0.446143
0 0.845457 0.415198
0 0.850675 0.384253
0 0.855879 0.353307
0 0.861082 0.322362
0 0.866285 0.291417
0 0.871489 0.260471
0 0.876692 0.229526
0 0.881895 0.198581
0 0.887114 0.167636
0 0.892317 0.13669
0 0.89752 0.105745
0 0.902724 0.0747997
0 0.907927 0.0438544
0 0.91313 0.0129091
0 0.918349 0
0 0.923552 0
0 0.928756 0
0 0.933959 0
0 0.939162 0
0 0.944366 0
0 0.949584 0
0 0.954787 0
0 0.959991 0
0.0139315 0.965194 0
0.0410925 0.970397 0
0.0682536 0.975601 0
0.0954147 0.980804 0
0.12256 0.986023 0
0.149722 0.991226 0
0.176883 0.996429 0
0 0.867567 0.531121
0 0.87277 0.500191
0 0.877974 0.469245
0 0.883177 0.4383
0 0.888395 0.407355
0 0.893599 0.376394
0 0.898802 0.345449
0 0.904005 0.314504
0 0.909209 0.283558
0 0.914412 0.252613
0 0.919631 0.221668
0 0.924834 0.190723
0 0.930037 0.159777
0 0.935241 0.128832
0 0.940444 0.0978866
0 0.945647 0.0669413
0 0.950851 0.035996
0 0.956069 0.00505074
0 0.961273 0
0 0.966476 0
0 0.971679 0
0 0.976883 0
0 0.982086 0
0 0.987305 0
0 0.992508 0
0 0.997711 0
0 1 0
0.00962844 1 0
0.0367895 1 0
0.0639353 1 0
0.0910964 1 0
0.118257 1 0
0.145418 1 0
0 0.905287 0.554208
0 0.910491 0.523278
0 0.915694 0.492332
0 0.920913 0.461387
0 0.926116 0.430442
0 0.931319 0.399496
0 0.936522 0.368551
0 0.941726 0.337606
0 0.946929 0.306661
0 0.952132 0.275715
0 0.957351 0.24477
0 0.962554 0.213825
0 0.967758 0.182879
0 0.972961 0.151934
0 0.978164 0.120974
0 0.983368 0.0900282
0 0.988586 0.0590829
0 0.99379 0.0281376
0 0.998993 0
0 1 0
0 1 0
0 1 0
0 1 0
0 1 0
0 1 0
0 1 0
0 1 0
0 1 0
0.00531014 1 0
0.0324712 1 0
0.0596323 1 0
0.0867933 1 0
0.113954 1 0
0 0.943008 0.577295
0 0.948211 0.546365
0 0.953414 0.515419
0 0.958633 0.484474
0 0.963836 0.453529
0 0.969039 0.422583
0 0.974243 0.391638
0 0.979446 0.360693
0 0.984649 0.329747
0 0.989868 0.298802
0 0.995071 0.267857
0 1 0.236912
0 1 0.205966
0 1 0.175021
0 1 0.144076
0 1 0.11313
0 1 0.0821851
0 1 0.0512398
0 1 0.0202945
0 1 0
0 1 0
0 1 0
0 1 0
0 1 0
0 1 0
0 1 0
0 1 0
0 1 0
0 1 0
0.0010071 1 0
0.0281682 1 0
0.0553292 1 0
0.0824903 1 0
0 0.980728 0.600397
0 0.985931 0.569467
0 0.99115 0.538521
0 0.996353 0.507576
0 1 0.476631
0 1 0.445686
0 1 0.41474
0 1 0.383795
0 1 0.352834
0 1 0.321889
0 1 0.290944
0 1 0.259998
0 1 0.229053
0 1 0.198108
0 1 0.167163
0 1 0.136217
0 1 0.105272
0 1 0.0743267
0 1 0.0433814
0 1 0.0124361
0 1 0
0 1 0
0 1 0
0 1 0
0 1 0
0 1 0
0 1 0
0 1 0
0 1 0
0 1 0
0 1 0
0.0238651 1 0
0.0510262 1 0
0 1 0.623484
0 1 0.592554
0 1 0.561608
0 1 0.530663
0 1 0.499718
0 1 0.468772
0 1 0.437827
0 1 0.406882
0 1 0.375937
