public/LUTS/Color Shift/ColorShift_02.cube
TITLE "Generated by Resolve"
LUT_3D_SIZE 33
0 0 0
0 0.0139467 0.00848402
0 0.0279088 0.0169833
0 0.0418708 0.0254673
0 0.0558328 0.0339666
0 0.0697795 0.0424506
0 0.0837415 0.0509499
0 0.0977035 0.0594492
0 0.111666 0.0679332
0 0.125628 0.0764324
0 0.139574 0.0849165
0 0.153536 0.0934157
0 0.167498 0.1019
0 0.18146 0.110399
0 0.195422 0.118883
0 0.209369 0.127382
0 0.223331 0.135866
0 0.237293 0.144366
0 0.251255 0.15285
0 0.265202 0.161349
0 0.279164 0.169848
0 0.293126 0.178332
0 0.307088 0.186831
0 0.32105 0.195315
0 0.334997 0.203815
0 0.348959 0.212299
0 0.362921 0.220798
0 0.376883 0.229282
0 0.390845 0.237781
0 0.404791 0.246265
0 0.418753 0.254765
0 0.432715 0.263249
0 0.446677 0.271748
0.0391241 0.0134127 0.0473793
0.0202182 0.0273594 0.0558633
0.00129702 0.0413214 0.0643473
0 0.0552682 0.0728466
0 0.0692302 0.0813458
0 0.0831922 0.0898299
0 0.0971542 0.0983291
0 0.111116 0.106813
0 0.125063 0.115312
0 0.139025 0.123796
0 0.152987 0.132296
0 0.166949 0.14078
0 0.180911 0.149279
0 0.194858 0.157763
0 0.20882 0.166262
0 0.222782 0.174746
0 0.236744 0.183246
0 0.25069 0.191745
0 0.264652 0.200229
0 0.278614 0.208728
0 0.292576 0.217212
0 0.306538 0.225711
0 0.320485 0.234195
0 0.334447 0.242695
0 0.348409 0.251179
0 0.362371 0.259678
0 0.376333 0.268162
0 0.39028 0.276661
0 0.404242 0.285145
0 0.418204 0.293645
0 0.432166 0.302144
0 0.446113 0.310628
0 0.460075 0.319127
0.0782788 0.0268254 0.0947738
0.0593729 0.0407721 0.103258
0.0404517 0.0547341 0.111757
0.0215305 0.0686809 0.120241
0.00260929 0.0826429 0.12874
0 0.0966049 0.137224
0 0.110567 0.145724
0 0.124529 0.154208
0 0.138476 0.162707
0 0.152438 0.171191
0 0.1664 0.17969
0 0.180362 0.188174
0 0.194324 0.196674
0 0.20827 0.205158
0 0.222232 0.213657
0 0.236194 0.222156
0 0.250156 0.23064
0 0.264103 0.239139
0 0.278065 0.247623
0 0.292027 0.256123
0 0.305989 0.264607
0 0.319951 0.273106
0 0.333898 0.28159
0 0.34786 0.290089
0 0.361822 0.298573
0 0.375784 0.307073
0 0.389731 0.315572
0 0.403693 0.324056
0 0.417655 0.332555
0 0.431617 0.341039
0 0.445579 0.349538
0 0.459525 0.358022
0 0.473487 0.366522
0.117418 0.040238 0.142168
0.0985122 0.0541848 0.150652
0.0795911 0.0681468 0.159152
0.0606851 0.0820935 0.167636
0.0417639 0.0960555 0.176135
0.0228428 0.110018 0.184619
0.00392157 0.12398 0.193118
0 0.137942 0.201602
0 0.151888 0.210101
0 0.16585 0.218585
0 0.179812 0.227085
0 0.193774 0.235584
0 0.207736 0.244068
0 0.221683 0.252567
0 0.235645 0.261051
0 0.249607 0.269551
0 0.263569 0.278035
0 0.277516 0.286534
0 0.291478 0.295018
0 0.30544 0.303517
0 0.319402 0.312001
0 0.333364 0.3205
0 0.347311 0.328984
0 0.361273 0.337484
0 0.375235 0.345983
0 0.389197 0.354467
0 0.403143 0.362966
0 0.417105 0.37145
0 0.431067 0.37995
0 0.445029 0.388434
0 0.458991 0.396933
0 0.472938 0.405417
0 0.4869 0.413916
0.156573 0.0536507 0.189563
0.137667 0.0675975 0.198047
0.118746 0.0815595 0.206546
0.0998245 0.0955062 0.21503
0.0809033 0.109468 0.223529
0.0619974 0.12343 0.232013
0.0430762 0.137392 0.240513
0.024155 0.151354 0.249012
0.00523384 0.165301 0.257496
0 0.179263 0.265995
0 0.193225 0.274479
0 0.207187 0.282979
0 0.221149 0.291463
0 0.235096 0.299962
0 0.249058 0.308446
0 0.26302 0.316945
0 0.276982 0.325429
0 0.290929 0.333928
0 0.304891 0.342412
0 0.318853 0.350912
0 0.332815 0.359411
0 0.346777 0.367895
0 0.360723 0.376394
0 0.374685 0.384878
0 0.388647 0.393378
0 0.402609 0.401862
0 0.416556 0.410361
0 0.430518 0.418845
0 0.44448 0.427344
0 0.458442 0.435828
0 0.472404 0.444327
0 0.486351 0.452811
0 0.500313 0.461311
0.195712 0.0670634 0.236957
0.176806 0.0810101 0.245441
0.157885 0.0949722 0.253941
0.138979 0.108919 0.26244
0.120058 0.122881 0.270924
0.101137 0.136843 0.279423
0.0822156 0.150805 0.287907
0.0632944 0.164767 0.296407
0.0443885 0.178714 0.304891
0.0254673 0.192676 0.31339
0.00654612 0.206638 0.321874
0 0.2206 0.330373
0 0.234546 0.338857
0 0.248508 0.347356
0 0.26247 0.35584
0 0.276432 0.36434
0 0.290394 0.372839
0 0.304341 0.381323
0 0.318303 0.389822
0 0.332265 0.398306
0 0.346227 0.406806
0 0.360189 0.41529
0 0.374136 0.423789
0 0.388098 0.432273
0 0.40206 0.440772
0 0.416022 0.449256
0 0.429969 0.457755
0 0.443931 0.466239
0 0.457893 0.474739
0 0.471855 0.483238
0 0.485817 0.491722
0 0.499763 0.500221
0 0.513726 0.508705
0.234867 0.0804761 0.284352
0.215961 0.0944228 0.292851
0.19704 0.108385 0.301335
0.178119 0.122332 0.309834
0.159197 0.136294 0.318318
0.140291 0.150256 0.326818
0.12137 0.164218 0.335302
0.102449 0.17818 0.343801
0.0835279 0.192126 0.352285
0.0646067 0.206088 0.360784
0.0457008 0.22005 0.369268
0.0267796 0.234012 0.377768
0.0078584 0.247959 0.386252
0 0.261921 0.394751
0 0.275883 0.40325
0 0.289845 0.411734
0 0.303807 0.420233
0 0.317754 0.428717
0 0.331716 0.437217
0 0.345678 0.445701
0 0.35964 0.4542
0 0.373602 0.462684
0 0.387549 0.471183
0 0.401511 0.479667
0 0.415473 0.488167
0 0.429435 0.496666
0 0.443381 0.50515
0 0.457343 0.513649
0 0.471305 0.522133
0 0.485267 0.530632
0 0.499229 0.539117
0 0.513176 0.547616
0 0.527138 0.5561
0.274006 0.0938888 0.331746
0.2551 0.107836 0.340246
0.236179 0.121798 0.34873
0.217273 0.135744 0.357229
0.198352 0.149706 0.365713
0.179431 0.163668 0.374212
0.16051 0.17763 0.382696
0.141588 0.191592 0.391196
0.122683 0.205539 0.39968
0.103761 0.219501 0.408179
0.0848402 0.233463 0.416678
0.065919 0.247425 0.425162
0.047013 0.261372 0.433661
0.0280919 0.275334 0.442145
0.00917067 0.289296 0.450645
0 0.303258 0.459129
0 0.31722 0.467628
0 0.331167 0.476112
0 0.345129 0.484611
0 0.359091 0.493095
0 0.373053 0.501595
0 0.387015 0.510079
0 0.400961 0.518578
0 0.414923 0.527077
0 0.428885 0.535561
0 0.442847 0.54406
0 0.456794 0.552544
0 0.470756 0.561044
0 0.484718 0.569528
0 0.49868 0.578027
0 0.512642 0.586511
0 0.526589 0.59501
0 0.540551 0.603494
0.313161 0.107301 0.379156
0.294255 0.121248 0.38764
0.275334 0.13521 0.396124
0.256413 0.149157 0.404623
0.237491 0.163119 0.413108
0.218585 0.177081 0.421607
0.199664 0.191043 0.430106
0.180743 0.205005 0.43859
0.161822 0.218952 0.447089
0.142901 0.232914 0.455573
0.123995 0.246876 0.464073
0.105074 0.260838 0.472557
0.0861524 0.274784 0.481056
0.0672313 0.288746 0.48954
0.0483253 0.302708 0.498039
0.0294041 0.31667 0.506523
0.0104829 0.330632 0.515023
0 0.344579 0.523507
0 0.358541 0.532006
0 0.372503 0.540505
0 0.386465 0.548989
0 0.400427 0.557488
0 0.414374 0.565972
0 0.428336 0.574472
0 0.442298 0.582956
0 0.45626 0.591455
0 0.470207 0.599939
0 0.484169 0.608438
0 0.498131 0.616922
0 0.512093 0.625422
0 0.526055 0.633906
0 0.540002 0.642405
0 0.553964 0.650904
0.3523 0.120699 0.426551
0.333394 0.134661 0.435035
0.314473 0.148623 0.443534
0.295567 0.16257 0.452018
0.276646 0.176532 0.460517
0.257725 0.190494 0.469001
0.238804 0.204456 0.477501
0.219883 0.218418 0.485985
0.200977 0.232364 0.494484
0.182055 0.246326 0.502968
0.163134 0.260288 0.511467
0.144213 0.27425 0.519951
0.125307 0.288197 0.52845
0.106386 0.302159 0.536934
0.0874647 0.316121 0.545434
0.0685435 0.330083 0.553933
0.0496376 0.344045 0.562417
0.0307164 0.357992 0.570916
0.0117952 0.371954 0.5794
0 0.385916 0.5879
0 0.399878 0.596384
0 0.41384 0.604883
0 0.427787 0.613367
0 0.441749 0.621866
0 0.455711 0.63035
0 0.469673 0.638849
0 0.483619 0.647334
0 0.497581 0.655833
0 0.511543 0.664332
0 0.525505 0.672816
0 0.539467 0.681315
0 0.553414 0.689799
0 0.567376 0.698299
0.391455 0.134112 0.473945
0.372549 0.148074 0.482429
0.353628 0.162036 0.490929
0.334707 0.175982 0.499413
0.315785 0.189944 0.507912
0.29688 0.203906 0.516396
0.277958 0.217868 0.524895
0.259037 0.23183 0.533379
0.240116 0.245777 0.541878
0.221195 0.259739 0.550362
0.202289 0.273701 0.558862
0.183368 0.287663 0.567346
0.164446 0.30161 0.575845
0.145525 0.315572 0.584344
0.126619 0.329534 0.592828
0.107698 0.343496 0.601328
0.088777 0.357458 0.609812
0.0698558 0.371405 0.618311
0.0509346 0.385367 0.626795
0.0320287 0.399329 0.635294
0.0131075 0.413291 0.643778
0 0.427253 0.652277
0 0.441199 0.660761
0 0.455161 0.669261
0 0.469123 0.67776
0 0.483085 0.686244
0 0.497032 0.694743
0 0.510994 0.703227
0 0.524956 0.711727
0 0.538918 0.720211
0 0.55288 0.72871
0 0.566827 0.737194
0 0.580789 0.745693
0.430594 0.147524 0.52134
0.411688 0.161486 0.529824
0.392767 0.175448 0.538323
0.373861 0.189395 0.546807
0.35494 0.203357 0.555306
0.336019 0.217319 0.56379
0.317098 0.231281 0.57229
0.298177 0.245243 0.580774
0.279271 0.25919 0.589273
0.260349 0.273152 0.597772
0.241428 0.287114 0.606256
0.222507 0.301076 0.614755
0.203601 0.315022 0.62324
0.18468 0.328984 0.631739
0.165759 0.342947 0.640223
0.146838 0.356909 0.648722
0.127932 0.370871 0.657206
0.10901 0.384817 0.665705
0.0900893 0.398779 0.674189
0.0711681 0.412741 0.682689
0.0522469 0.426703 0.691173
0.033341 0.44065 0.699672
0.0144198 0.454612 0.708171
0 0.468574 0.716655
0 0.482536 0.725155
0 0.496498 0.733639
0 0.510445 0.742138
0 0.524407 0.750622
0 0.538369 0.759121
0 0.552331 0.767605
0 0.566293 0.776104
0 0.58024 0.784588
0 0.594202 0.793088
0.469749 0.160937 0.568734
0.450843 0.174899 0.577218
0.431922 0.188861 0.585718
0.413001 0.202808 0.594202
0.39408 0.21677 0.602701
0.375174 0.230732 0.6112
0.356252 0.244694 0.619684
0.337331 0.258656 0.628183
0.31841 0.272602 0.636667
0.299489 0.286564 0.645167
0.280583 0.300526 0.653651
0.261662 0.314488 0.66215
0.242741 0.328435 0.670634
0.223819 0.342397 0.679133
0.204913 0.356359 0.687617
0.185992 0.370321 0.696117
0.167071 0.384283 0.704601
0.14815 0.39823 0.7131
0.129229 0.412192 0.721599
0.110323 0.426154 0.730083
0.0914015 0.440116 0.738582
0.0724804 0.454063 0.747066
0.0535592 0.468025 0.755566
0.0346532 0.481987 0.76405
0.0157321 0.495949 0.772549
0 0.509911 0.781033
0 0.523857 0.789532
0 0.53782 0.798016
0 0.551781 0.806516
0 0.565744 0.815
0 0.579705 0.823499
0 0.593652 0.831998
0 0.607614 0.840482
0.508888 0.17435 0.616129
0.489982 0.188312 0.624613
0.471061 0.202274 0.633112
0.452155 0.21622 0.641611
0.433234 0.230182 0.650095
0.414313 0.244144 0.658595
0.395392 0.258106 0.667079
0.376471 0.272053 0.675578
0.357565 0.286015 0.684062
0.338643 0.299977 0.692561
0.319722 0.313939 0.701045
0.300801 0.327901 0.709545
0.281895 0.341848 0.718029
0.262974 0.35581 0.726528
0.244053 0.369772 0.735027
0.225132 0.383734 0.743511
0.206226 0.397696 0.75201
0.187304 0.411643 0.760494
0.168383 0.425605 0.768994
0.149462 0.439567 0.777478
0.130541 0.453529 0.785977
0.111635 0.467475 0.794461
0.0927138 0.481437 0.80296
0.0737926 0.495399 0.811444
0.0548714 0.509361 0.819944
0.0359655 0.523323 0.828428
0.0170443 0.53727 0.836927
0 0.551232 0.845426
0 0.565194 0.85391
0 0.579156 0.862409
0 0.593118 0.870893
0 0.607065 0.879393
0 0.621027 0.887877
0.548043 0.187762 0.663523
0.529137 0.201724 0.672023
0.510216 0.215686 0.680507
0.491295 0.229633 0.689006
0.472374 0.243595 0.69749
0.453468 0.257557 0.705989
0.434546 0.271519 0.714473
0.415625 0.285466 0.722972
0.396704 0.299428 0.731456
0.377783 0.31339 0.739956
0.358877 0.327352 0.74844
0.339956 0.341314 0.756939
0.321035 0.355261 0.765438
0.302113 0.369223 0.773922
0.283207 0.383185 0.782422
0.264286 0.397147 0.790906
0.245365 0.411109 0.799405
0.226444 0.425055 0.807889
0.207538 0.439017 0.816388
0.188617 0.452979 0.824872
0.169696 0.466941 0.833371
0.150774 0.480888 0.841856
0.131853 0.49485 0.850355
0.112947 0.508812 0.858839
0.0940261 0.522774 0.867338
0.0751049 0.536736 0.875837
0.0561837 0.550683 0.884321
0.0372778 0.564645 0.892821
0.0183566 0.578607 0.901305
0 0.592569 0.909804
0 0.606531 0.918288
0 0.620478 0.926787
0 0.63444 0.935271
0.587182 0.201175 0.710918
0.568276 0.215137 0.719417
0.549355 0.229099 0.727901
0.530449 0.243046 0.7364
0.511528 0.257008 0.744884
0.492607 0.27097 0.753384
0.473686 0.284932 0.761868
0.454765 0.298878 0.770367
0.435859 0.31284 0.778866
0.416938 0.326802 0.78735
0.398016 0.340764 0.79585
0.379095 0.354726 0.804334
0.360189 0.368673 0.812833
0.341268 0.382635 0.821317
0.322347 0.396597 0.829816
0.303426 0.410559 0.8383
0.28452 0.424521 0.846799
0.265599 0.438468 0.855283
0.246677 0.45243 0.863783
0.227756 0.466392 0.872267
0.208835 0.480354 0.880766
0.189929 0.494301 0.889265
0.171008 0.508263 0.897749
0.152087 0.522225 0.906249
0.133165 0.536187 0.914733
0.11426 0.550149 0.923232
0.0953384 0.564095 0.931716
0.0764172 0.578058 0.940215
0.057496 0.59202 0.948699
0.0385901 0.605982 0.957198
0.0196689 0.619944 0.965682
0.000747692 0.63389 0.974182
0 0.647852 0.982666
0.626337 0.214588 0.758328
0.607431 0.22855 0.766812
0.58851 0.242512 0.775296
0.569589 0.256458 0.783795
0.550668 0.27042 0.792294
0.531762 0.284382 0.800778
0.51284 0.298344 0.809277
0.493919 0.312291 0.817761
0.474998 0.326253 0.826261
0.456077 0.340215 0.834745
0.437171 0.354177 0.843244
0.41825 0.368139 0.851728
0.399329 0.382086 0.860227
0.380407 0.396048 0.868711
0.361501 0.41001 0.877211
0.34258 0.423972 0.885695
0.323659 0.437934 0.894194
0.304738 0.451881 0.902693
0.285832 0.465843 0.911177
0.266911 0.479805 0.919676
0.24799 0.493767 0.928161
0.229068 0.507713 0.93666
0.210147 0.521675 0.945144
0.191241 0.535637 0.953643
0.17232 0.549599 0.962127
0.153399 0.563561 0.970626
0.134478 0.577508 0.97911
0.115572 0.59147 0.98761
0.0966506 0.605432 0.996094
0.0777295 0.619394 1
0.0588083 0.633356 1
0.0398871 0.647303 1
0.0209812 0.661265 1
0.665476 0.228 0.805722
0.646571 0.241962 0.814206
0.627649 0.255924 0.822705
0.608743 0.269871 0.831189
0.589822 0.283833 0.839689
0.570901 0.297795 0.848173
0.55198 0.311757 0.856672
0.533059 0.325704 0.865156
0.514153 0.339666 0.873655
0.495232 0.353628 0.882139
0.47631 0.36759 0.890639
0.457389 0.381552 0.899123
0.438483 0.395499 0.907622
0.419562 0.409461 0.916121
0.400641 0.423423 0.924605
0.38172 0.437385 0.933104
0.362814 0.451347 0.941588
0.343893 0.465293 0.950088
0.324971 0.479255 0.958572
0.30605 0.493217 0.967071
0.287129 0.507179 0.975555
0.268223 0.521126 0.984054
0.249302 0.535088 0.992538
0.230381 0.54905 1
0.21146 0.563012 1
0.192554 0.576974 1
0.173632 0.590921 1
0.154711 0.604883 1
0.13579 0.618845 1
0.116884 0.632807 1
0.0979629 0.646754 1
0.0790417 0.660716 1
0.0601205 0.674678 1
0.704631 0.241413 0.853117
0.685725 0.255375 0.861601
0.666804 0.269337 0.8701
0.647883 0.283284 0.878584
0.628962 0.297246 0.887083
0.610056 0.311208 0.895567
0.591134 0.32517 0.904067
0.572213 0.339117 0.912551
0.553292 0.353079 0.92105
0.534371 0.367041 0.929534
0.515465 0.381003 0.938033
0.496544 0.394965 0.946532
0.477623 0.408911 0.955016
0.458701 0.422873 0.963516
0.439796 0.436835 0.972
0.420874 0.450797 0.980499
0.401953 0.464759 0.988983
0.383032 0.478706 0.997482
0.364126 0.492668 1
0.345205 0.50663 1
0.326284 0.520592 1
0.307362 0.534539 1
0.288441 0.548501 1
0.269535 0.562463 1
0.250614 0.576425 1
0.231693 0.590387 1
0.212772 0.604334 1
0.193866 0.618296 1
0.174945 0.632258 1
0.156024 0.64622 1
0.137102 0.660166 1
0.118181 0.674128 1
0.0992752 0.68809 1
0.74377 0.254826 0.900511
0.724865 0.268788 0.908995
0.705943 0.28275 0.917494
0.687037 0.296696 0.925978
0.668116 0.310658 0.934478
0.649195 0.32462 0.942962
0.630274 0.338582 0.951461
0.611353 0.352529 0.95996
0.592447 0.366491 0.968444
0.573526 0.380453 0.976944
0.554604 0.394415 0.985428
0.535683 0.408377 0.993927
0.516777 0.422324 1
0.497856 0.436286 1
0.478935 0.450248 1
0.460014 0.46421 1
0.441108 0.478172 1
0.422187 0.492119 1
0.403265 0.506081 1
0.384344 0.520043 1
0.365423 0.534005 1
0.346517 0.547951 1
0.327596 0.561913 1
0.308675 0.575875 1
0.289754 0.589837 1
0.270848 0.6038 1
0.251926 0.617746 1
0.233005 0.631708 1
0.214084 0.64567 1
0.195178 0.659632 1
0.176257 0.673579 1
0.157336 0.687541 1
0.138415 0.701503 1
0.782925 0.268238 0.947906
0.764019 0.2822 0.95639
0.745098 0.296162 0.964889
0.726177 0.310109 0.973388
0.707256 0.324071 0.981872
0.68835 0.338033 0.990372
0.669429 0.351995 0.998856
0.650507 0.365942 1
0.631586 0.379904 1
0.612665 0.393866 1
0.593759 0.407828 1
0.574838 0.42179 1
0.555917 0.435737 1
0.536995 0.449699 1
0.51809 0.463661 1
0.499168 0.477623 1
0.480247 0.491569 1
0.461326 0.505531 1
0.44242 0.519493 1
0.423499 0.533455 1
0.404578 0.547417 1
0.385657 0.561364 1
0.366735 0.575326 1
0.347829 0.589288 1
0.328908 0.60325 1
0.309987 0.617212 1
0.291066 0.631159 1
0.27216 0.645121 1
0.253239 0.659083 1
0.234318 0.673045 1
0.215396 0.686992 1
0.196475 0.700954 1
0.177569 0.714916 1
0.822065 0.281651 0.9953
0.803159 0.295613 1
0.784237 0.309575 1
0.765332 0.323522 1
0.74641 0.337484 1
0.727489 0.351446 1
0.708568 0.365408 1
0.689647 0.379355 1
0.670741 0.393317 1
0.65182 0.407279 1
0.632898 0.421241 1
0.613977 0.435203 1
0.595071 0.449149 1
0.57615 0.463111 1
0.557229 0.477073 1
0.538308 0.491035 1
0.519402 0.504982 1
0.500481 0.518944 1
0.481559 0.532906 1
0.462638 0.546868 1
0.443717 0.56083 1
0.424811 0.574777 1
0.40589 0.588739 1
0.386969 0.602701 1
0.368048 0.616663 1
0.349142 0.630625 1
0.33022 0.644572 1
0.311299 0.658534 1
0.292378 0.672496 1
0.273472 0.686458 1
0.254551 0.700404 1
0.23563 0.714366 1
0.216709 0.728328 1
0.861219 0.295064 1
0.842313 0.309026 1
0.823392 0.322972 1
0.804471 0.336934 1
0.78555 0.350896 1
0.766644 0.364858 1
0.747723 0.37882 1
0.728801 0.392767 1
0.70988 0.406729 1
0.690959 0.420691 1
0.672053 0.434653 1
0.653132 0.448615 1
0.634211 0.462562 1
0.61529 0.476524 1
0.596384 0.490486 1
0.577462 0.504448 1
0.558541 0.518395 1
0.53962 0.532357 1
0.520714 0.546319 1
0.501793 0.560281 1
0.482872 0.574243 1
0.463951 0.58819 1
0.445029 0.602152 1
0.426123 0.616114 1
0.407202 0.630076 1
0.388281 0.644038 1
0.36936 0.657984 1
0.350454 0.671946 1
0.331533 0.685908 1
0.312612 0.69987 1
0.29369 0.713817 1
0.274769 0.727779 1
0.255863 0.741741 1
0.900359 0.308476 1
0.881453 0.322438 1
0.862531 0.336385 1
0.843626 0.350347 1
0.824704 0.364309 1
0.805783 0.378271 1
0.786862 0.392233 1
0.767956 0.40618 1
0.749035 0.420142 1
0.730114 0.434104 1
0.711192 0.448066 1
0.692271 0.462028 1
0.673365 0.475975 1
0.654444 0.489937 1
0.635523 0.503899 1
0.616602 0.517861 1
0.597696 0.531807 1
0.578775 0.545769 1
0.559853 0.559731 1
0.540932 0.573693 1
0.522011 0.587655 1
0.503105 0.601602 1
0.484184 0.615564 1
0.465263 0.629526 1
0.446342 0.643488 1
0.427436 0.65745 1
0.408515 0.671397 1
0.389593 0.685359 1
0.370672 0.699321 1
0.351766 0.713283 1
0.332845 0.72723 1
0.313924 0.741192 1
0.295003 0.755154 1
0.939513 0.321889 1
0.920607 0.335851 1
0.901686 0.349798 1
0.882765 0.36376 1
0.863844 0.377722 1
0.844938 0.391684 1
0.826017 0.405646 1
0.807095 0.419593 1
0.788174 0.433555 1
0.769253 0.447517 1
0.750347 0.461479 1
0.731426 0.475441 1
0.712505 0.489387 1
0.693584 0.503349 1
0.674678 0.517311 1
0.655756 0.531273 1
0.636835 0.54522 1
0.617914 0.559182 1
0.599008 0.573144 1
0.580087 0.587106 1
0.561166 0.601068 1
0.542245 0.615015 1
0.523323 0.628977 1
0.504417 0.642939 1
0.485496 0.656901 1
0.466575 0.670863 1
0.447654 0.68481 1
0.428748 0.698772 1
0.409827 0.712734 1
0.390906 0.726696 1
0.371984 0.740642 1
0.353063 0.754604 1
0.334157 0.768566 1
0.978653 0.335302 1
0.959747 0.349264 1
0.940826 0.36321 1
0.92192 0.377172 1
0.902998 0.391135 1
0.884077 0.405097 1
0.865156 0.419059 1
0.846235 0.433005 1
0.827329 0.446967 1
0.808408 0.460929 1
0.789487 0.474891 1
0.770565 0.488853 1
0.751659 0.5028 1
0.732738 0.516762 1
0.713817 0.530724 1
0.694896 0.544686 1
0.67599 0.558633 1
0.657069 0.572595 1
0.638148 0.586557 1
0.619226 0.600519 1
0.600305 0.614481 1
0.581399 0.628428 1
0.562478 0.64239 1
0.543557 0.656352 1
0.524636 0.670314 1
0.50573 0.68426 1
0.486809 0.698222 1
0.467887 0.712184 1
0.448966 0.726146 1
0.43006 0.740108 1
0.411139 0.754055 1
0.392218 0.768017 1
0.373297 0.781979 1
1 0.348714 1
0.998901 0.362676 1
0.97998 0.376623 1
0.961059 0.390585 1
0.942138 0.404547 1
0.923232 0.418509 1
0.904311 0.432471 1
0.88539 0.446418 1
0.866468 0.46038 1
0.847547 0.474342 1
0.828641 0.488304 1
0.80972 0.502266 1
0.790799 0.516213 1
0.771878 0.530175 1
0.752972 0.544137 1
0.734051 0.558099 1
0.715129 0.572045 1
0.696208 0.586007 1
0.677302 0.59997 1
0.658381 0.613931 1
0.63946 0.627894 1
0.620539 0.64184 1
0.601617 0.655802 1
0.582712 0.669764 1
0.56379 0.683726 1
0.544869 0.697673 1
0.525948 0.711635 1
0.507042 0.725597 1
0.488121 0.739559 1
0.4692 0.753521 1
0.450278 0.767468 1
0.431357 0.78143 1
0.412451 0.795392 1
1 0.362127 1
1 0.376089 1
1 0.390036 1
1 0.403998 1
0.981292 0.41796 1
0.962371 0.431922 1
0.94345 0.445884 1
0.924544 0.459831 1
0.905623 0.473793 1
