public/LUTS/Color Shift/ColorShift_36.cube
TITLE "Generated by Resolve"
LUT_3D_SIZE 33
0 0 0
0.0131228 0.00149538 0.0306554
0.0262455 0.00299077 0.061326
0.0393683 0.00448615 0.0919814
0.052491 0.00598154 0.122652
0.0656138 0.00747692 0.153323
0.0787518 0.0089723 0.183993
0.0918746 0.0104677 0.214649
0.104997 0.0119631 0.245319
0.11812 0.0134585 0.27599
0.131243 0.0149538 0.306661
0.144366 0.016434 0.337316
0.157504 0.0179294 0.367987
0.170626 0.0194247 0.398657
0.183749 0.0209201 0.429328
0.196872 0.0224155 0.459998
0.209995 0.0239109 0.490654
0.223117 0.0254063 0.521324
0.23624 0.0269017 0.551995
0.249378 0.028397 0.582666
0.262501 0.0298924 0.613321
0.275624 0.0313878 0.643992
0.288746 0.0328832 0.674662
0.301869 0.0343786 0.705333
0.314992 0.035874 0.735988
0.32813 0.0373693 0.766659
0.341253 0.0388647 0.79733
0.354376 0.0403601 0.828
0.367498 0.0418555 0.858671
0.380621 0.0433509 0.889326
0.393744 0.0448463 0.919997
0.406882 0.0463417 0.950668
0.420005 0.047837 0.981338
0.044358 0.0178836 0.000350958
0.0574655 0.019379 0.0310063
0.0706035 0.0208743 0.061677
0.0837262 0.0223697 0.0923323
0.096849 0.0238651 0.123003
0.109972 0.0253605 0.153674
0.123095 0.0268559 0.184344
0.136217 0.0283513 0.215
0.149355 0.0298466 0.24567
0.162478 0.031342 0.276341
0.175601 0.0328374 0.307012
0.188724 0.0343175 0.337667
0.201846 0.0358129 0.368338
0.214969 0.0373083 0.399008
0.228107 0.0388037 0.429679
0.24123 0.0402991 0.460349
0.254353 0.0417945 0.491005
0.267475 0.0432898 0.521675
0.280598 0.0447852 0.552346
0.293721 0.0462806 0.583017
0.306859 0.047776 0.613672
0.319982 0.0492714 0.644343
0.333104 0.0507668 0.675013
0.346227 0.0522621 0.705684
0.35935 0.0537575 0.736339
0.372473 0.0552529 0.76701
0.385595 0.0567483 0.797681
0.398733 0.0582437 0.828351
0.411856 0.0597391 0.859022
0.424979 0.0612345 0.889677
0.438102 0.0627298 0.920348
0.451225 0.0642252 0.951019
0.464347 0.0657206 0.981689
0.0887312 0.0357824 0.000701915
0.101854 0.0372778 0.0313573
0.114977 0.0387579 0.0620279
0.128099 0.0402533 0.0926833
0.141222 0.0417487 0.123354
0.154345 0.0432441 0.154025
0.167468 0.0447395 0.184695
0.180606 0.0462348 0.215351
0.193729 0.0477302 0.246021
0.206851 0.0492256 0.276692
0.219974 0.050721 0.307362
0.233097 0.0522164 0.338018
0.24622 0.0537118 0.368688
0.259358 0.0552071 0.399359
0.27248 0.0567025 0.43003
0.285603 0.0581979 0.4607
0.298726 0.0596933 0.491356
0.311849 0.0611887 0.522026
0.324971 0.0626841 0.552697
0.338109 0.0641794 0.583368
0.351232 0.0656748 0.614023
0.364355 0.0671702 0.644694
0.377478 0.0686656 0.675364
0.3906 0.070161 0.706035
0.403723 0.0716564 0.73669
0.416846 0.0731365 0.767361
0.429984 0.0746319 0.798032
0.443107 0.0761273 0.828702
0.45623 0.0776226 0.859373
0.469352 0.079118 0.890028
0.482475 0.0806134 0.920699
0.495598 0.0821088 0.95137
0.508736 0.0836042 0.98204
0.133104 0.053666 0.00105287
0.146227 0.0551614 0.0317082
0.15935 0.0566567 0.0623789
0.172473 0.0581521 0.0930343
0.185595 0.0596475 0.123705
0.198718 0.0611429 0.154376
0.211856 0.0626383 0.185046
0.224979 0.0641337 0.215702
0.238102 0.0656291 0.246372
0.251225 0.0671244 0.277043
0.264347 0.0686198 0.307713
0.27747 0.0701152 0.338369
0.290608 0.0716106 0.369039
0.303731 0.073106 0.39971
0.316854 0.0746014 0.430381
0.329976 0.0760815 0.461051
0.343099 0.0775769 0.491707
0.356222 0.0790723 0.522377
0.36936 0.0805676 0.553048
0.382483 0.082063 0.583719
0.395605 0.0835584 0.614374
0.408728 0.0850538 0.645045
0.421851 0.0865492 0.675715
0.434974 0.0880446 0.706386
0.448096 0.0895399 0.737041
0.461234 0.0910353 0.767712
0.474357 0.0925307 0.798383
0.48748 0.0940261 0.829053
0.500603 0.0955215 0.859724
0.513726 0.0970169 0.890379
0.526848 0.0985122 0.92105
0.539986 0.100008 0.95172
0.553109 0.101503 0.982391
0.177478 0.0715648 0.00140383
0.1906 0.0730602 0.0320592
0.203723 0.0745556 0.0627146
0.216846 0.076051 0.0933852
0.229969 0.0775464 0.124056
0.243107 0.0790417 0.154726
0.256229 0.0805219 0.185397
0.269352 0.0820172 0.216052
0.282475 0.0835126 0.246723
0.295598 0.085008 0.277394
0.308721 0.0865034 0.308064
0.321859 0.0879988 0.33872
0.334981 0.0894942 0.36939
0.348104 0.0909895 0.400061
0.361227 0.0924849 0.430732
0.37435 0.0939803 0.461387
0.387472 0.0954757 0.492058
0.40061 0.0969711 0.522728
0.413733 0.0984665 0.553399
0.426856 0.0999619 0.58407
0.439979 0.101457 0.614725
0.453101 0.102953 0.645396
0.466224 0.104448 0.676066
0.479347 0.105943 0.706737
0.492485 0.107439 0.737392
0.505608 0.108934 0.768063
0.51873 0.11043 0.798733
0.531853 0.111925 0.829404
0.544976 0.11342 0.860059
0.558099 0.1149 0.89073
0.571237 0.116396 0.921401
0.58436 0.117891 0.952071
0.597482 0.119387 0.982742
0.221851 0.0894484 0.00175479
0.234974 0.0909438 0.0324102
0.248096 0.0924392 0.0630655
0.261219 0.0939345 0.0937362
0.274357 0.0954299 0.124407
0.28748 0.0969253 0.155077
0.300603 0.0984207 0.185748
0.313726 0.0999161 0.216403
0.326848 0.101411 0.247074
0.339971 0.102907 0.277745
0.353109 0.104402 0.308415
0.366232 0.105898 0.339071
0.379355 0.107393 0.369741
0.392477 0.108888 0.400412
0.4056 0.110384 0.431083
0.418723 0.111879 0.461738
0.431861 0.113375 0.492409
0.444984 0.11487 0.523079
0.458106 0.116365 0.55375
0.471229 0.117845 0.584421
0.484352 0.119341 0.615076
0.497475 0.120836 0.645747
0.510597 0.122332 0.676417
0.523735 0.123827 0.707088
0.536858 0.125322 0.737743
0.549981 0.126818 0.768414
0.563104 0.128313 0.799084
0.576226 0.129809 0.829755
0.589349 0.131304 0.86041
0.602487 0.132799 0.891081
0.61561 0.134295 0.921752
0.628733 0.13579 0.952422
0.641855 0.137285 0.983093
0.266239 0.107347 0.00210575
0.279347 0.108843 0.0327611
0.29247 0.110338 0.0634165
0.305608 0.111833 0.0940871
0.31873 0.113329 0.124758
0.331853 0.114824 0.155428
0.344976 0.11632 0.186099
0.358099 0.117815 0.216754
0.371221 0.11931 0.247425
0.38436 0.120806 0.278096
0.397482 0.122286 0.308766
0.410605 0.123781 0.339422
0.423728 0.125277 0.370092
0.436851 0.126772 0.400763
0.449973 0.128267 0.431434
0.463111 0.129763 0.462089
0.476234 0.131258 0.49276
0.489357 0.132753 0.52343
0.50248 0.134249 0.554101
0.515602 0.135744 0.584772
0.528725 0.13724 0.615427
0.541848 0.138735 0.646097
0.554986 0.14023 0.676768
0.568109 0.141726 0.707439
0.581231 0.143221 0.738094
0.594354 0.144717 0.768765
0.607477 0.146212 0.799435
0.6206 0.147707 0.830106
0.633738 0.149203 0.860761
0.64686 0.150698 0.891432
0.659983 0.152193 0.922103
0.673106 0.153689 0.952773
0.686229 0.155184 0.983444
0.310613 0.125246 0.0024567
0.32372 0.126726 0.0331121
0.336858 0.128222 0.0637675
0.349981 0.129717 0.0944381
0.363104 0.131212 0.125109
0.376226 0.132708 0.155779
0.389349 0.134203 0.18645
0.402472 0.135698 0.217105
0.41561 0.137194 0.247776
0.428733 0.138689 0.278447
0.441855 0.140185 0.309117
0.454978 0.14168 0.339773
0.468101 0.143175 0.370443
0.481224 0.144671 0.401114
0.494362 0.146166 0.431785
0.507485 0.147662 0.46244
0.520607 0.149157 0.493111
0.53373 0.150652 0.523781
0.546853 0.152148 0.554452
0.559976 0.153643 0.585122
0.573098 0.155138 0.615778
0.586236 0.156634 0.646448
0.599359 0.158129 0.677119
0.612482 0.159609 0.70779
0.625605 0.161105 0.738445
0.638727 0.1626 0.769116
0.65185 0.164096 0.799786
0.664988 0.165591 0.830457
0.678111 0.167086 0.861112
0.691234 0.168582 0.891783
0.704356 0.170077 0.922454
0.717479 0.171572 0.953124
0.730602 0.173068 0.983795
0.354986 0.14313 0.00280766
0.368109 0.144625 0.033463
0.381231 0.14612 0.0641184
0.394354 0.147616 0.094789
0.407477 0.149111 0.12546
0.4206 0.150607 0.15613
0.433722 0.152102 0.186801
0.44686 0.153597 0.217456
0.459983 0.155093 0.248127
0.473106 0.156588 0.278798
0.486229 0.158083 0.309468
0.499352 0.159579 0.340124
0.512474 0.161074 0.370794
0.525612 0.16257 0.401465
0.538735 0.16405 0.432135
0.551858 0.165545 0.462791
0.564981 0.167041 0.493462
0.578103 0.168536 0.524132
0.591226 0.170031 0.554803
0.604349 0.171527 0.585473
0.617487 0.173022 0.616129
0.63061 0.174517 0.646799
0.643732 0.176013 0.67747
0.656855 0.177508 0.708141
0.669978 0.179004 0.738796
0.683101 0.180499 0.769467
0.696239 0.181994 0.800137
0.709361 0.18349 0.830808
0.722484 0.184985 0.861463
0.735607 0.186481 0.892134
0.74873 0.187976 0.922805
0.761852 0.189471 0.953475
0.77499 0.190967 0.984146
0.399359 0.161028 0.00315862
0.412482 0.162524 0.033814
0.425605 0.164019 0.0644694
0.438727 0.165515 0.09514
0.45185 0.166995 0.125811
0.464973 0.16849 0.156481
0.478111 0.169986 0.187152
0.491234 0.171481 0.217807
0.504356 0.172976 0.248478
0.517479 0.174472 0.279149
0.530602 0.175967 0.309819
0.543725 0.177462 0.340475
0.556863 0.178958 0.371145
0.569986 0.180453 0.401816
0.583108 0.181949 0.432486
0.596231 0.183444 0.463142
0.609354 0.184939 0.493812
0.622477 0.186435 0.524483
0.635599 0.18793 0.555154
0.648737 0.189425 0.585824
0.66186 0.190921 0.61648
0.674983 0.192416 0.64715
0.688106 0.193912 0.677821
0.701228 0.195407 0.708492
0.714351 0.196902 0.739147
0.727489 0.198398 0.769818
0.740612 0.199893 0.800488
0.753735 0.201373 0.831159
0.766857 0.202869 0.861814
0.77998 0.204364 0.892485
0.793103 0.205859 0.923156
0.806241 0.207355 0.953826
0.819364 0.20885 0.984497
0.443732 0.178912 0.00350958
0.456855 0.180407 0.034165
0.469978 0.181903 0.0648203
0.483101 0.183398 0.095491
0.496223 0.184894 0.126162
0.509361 0.186389 0.156832
0.522484 0.187884 0.187488
0.535607 0.18938 0.218158
0.54873 0.190875 0.248829
0.561852 0.19237 0.2795
0.574975 0.193866 0.31017
0.588113 0.195361 0.340826
0.601236 0.196857 0.371496
0.614359 0.198352 0.402167
0.627482 0.199847 0.432837
0.640604 0.201343 0.463493
0.653727 0.202838 0.494163
0.66685 0.204334 0.524834
0.679988 0.205814 0.555505
0.693111 0.207309 0.58616
0.706233 0.208804 0.616831
0.719356 0.2103 0.647501
0.732479 0.211795 0.678172
0.745602 0.213291 0.708843
0.75874 0.214786 0.739498
0.771862 0.216281 0.770169
0.784985 0.217777 0.800839
0.798108 0.219272 0.83151
0.811231 0.220768 0.862165
0.824353 0.222263 0.892836
0.837491 0.223758 0.923506
0.850614 0.225254 0.954177
0.863737 0.226749 0.984833
0.488106 0.196811 0.00386053
0.501228 0.198306 0.0345159
0.514351 0.199802 0.0651713
0.527474 0.201297 0.0958419
0.540612 0.202792 0.126513
0.553735 0.204288 0.157183
0.566857 0.205783 0.187839
0.57998 0.207279 0.218509
0.593103 0.208759 0.24918
0.606226 0.210254 0.27985
0.619364 0.211749 0.310521
0.632486 0.213245 0.341176
0.645609 0.21474 0.371847
0.658732 0.216236 0.402518
0.671855 0.217731 0.433188
0.684977 0.219226 0.463844
0.6981 0.220722 0.494514
0.711238 0.222217 0.525185
0.724361 0.223713 0.555856
0.737484 0.225208 0.586511
0.750607 0.226703 0.617182
0.763729 0.228199 0.647852
0.776852 0.229694 0.678523
0.78999 0.231189 0.709194
0.803113 0.232685 0.739849
0.816236 0.23418 0.77052
0.829358 0.235676 0.80119
0.842481 0.237171 0.831861
0.855604 0.238666 0.862516
0.868742 0.240162 0.893187
0.881865 0.241657 0.923858
0.894987 0.243137 0.954528
0.90811 0.244633 0.985183
0.532494 0.214694 0.00421149
0.545602 0.21619 0.0348669
0.558724 0.217685 0.0655222
0.571862 0.219181 0.0961929
0.584985 0.220676 0.126864
0.598108 0.222171 0.157534
0.611231 0.223667 0.18819
0.624353 0.225162 0.21886
0.637476 0.226658 0.249531
0.650614 0.228153 0.280201
0.663737 0.229648 0.310872
0.67686 0.231144 0.341527
0.689982 0.232639 0.372198
0.703105 0.234134 0.402869
0.716228 0.23563 0.433539
0.729351 0.237125 0.464195
0.742489 0.238621 0.494865
0.755611 0.240116 0.525536
0.768734 0.241611 0.556207
0.781857 0.243107 0.586862
0.79498 0.244602 0.617533
0.808103 0.246082 0.648203
0.821241 0.247578 0.678874
0.834363 0.249073 0.709545
0.847486 0.250568 0.7402
0.860609 0.252064 0.770871
0.873732 0.253559 0.801541
0.886854 0.255055 0.832212
0.899992 0.25655 0.862867
0.913115 0.258045 0.893538
0.926238 0.259541 0.924208
0.939361 0.261036 0.954879
0.952483 0.262531 0.985534
0.576867 0.232593 0.00456245
0.589975 0.234089 0.0352178
0.603113 0.235584 0.0658732
0.616236 0.237079 0.0965438
0.629358 0.238575 0.127214
0.642481 0.24007 0.157885
0.655604 0.241566 0.18854
0.668727 0.243061 0.219211
0.681865 0.244556 0.249882
0.694987 0.246052 0.280552
0.70811 0.247547 0.311223
0.721233 0.249042 0.341878
0.734356 0.250523 0.372549
0.747478 0.252018 0.40322
0.760601 0.253513 0.43389
0.773739 0.255009 0.464546
0.786862 0.256504 0.495216
0.799985 0.258 0.525887
0.813107 0.259495 0.556558
0.82623 0.26099 0.587213
0.839353 0.262486 0.617884
0.852491 0.263981 0.648554
0.865614 0.265476 0.679225
0.878737 0.266972 0.709895
0.891859 0.268467 0.740551
0.904982 0.269963 0.771221
0.918105 0.271458 0.801892
0.931243 0.272953 0.832563
0.944366 0.274449 0.863218
0.957488 0.275944 0.893889
0.970611 0.27744 0.924559
0.983734 0.278935 0.95523
0.996857 0.28043 0.985885
0.621241 0.250492 0.00491341
0.634363 0.251987 0.0355688
0.647486 0.253468 0.0662242
0.660609 0.254963 0.0968948
0.673732 0.256458 0.127565
0.686854 0.257954 0.158236
0.699977 0.259449 0.188891
0.713115 0.260945 0.219562
0.726238 0.26244 0.250233
0.739361 0.263935 0.280903
0.752483 0.265431 0.311574
0.765606 0.266926 0.342229
0.778729 0.268421 0.3729
0.791852 0.269917 0.403571
0.80499 0.271412 0.434241
0.818112 0.272908 0.464897
0.831235 0.274403 0.495567
0.844358 0.275898 0.526238
0.857481 0.277394 0.556909
0.870604 0.278889 0.587564
0.883741 0.280385 0.618235
0.896864 0.28188 0.648905
0.909987 0.283375 0.679576
0.92311 0.284871 0.710246
0.936233 0.286366 0.740902
0.949355 0.287846 0.771572
0.962493 0.289342 0.802243
0.975616 0.290837 0.832914
0.988739 0.292332 0.863569
1 0.293828 0.89424
1 0.295323 0.92491
1 0.296818 0.955581
1 0.298314 0.986236
0.665614 0.268376 0.00526436
0.678737 0.269871 0.0359197
0.691859 0.271366 0.0665751
0.704982 0.272862 0.0972457
0.718105 0.274357 0.127916
0.731228 0.275853 0.158587
0.744366 0.277348 0.189242
0.757488 0.278843 0.219913
0.770611 0.280339 0.250584
0.783734 0.281834 0.281254
0.796857 0.28333 0.311925
0.809979 0.284825 0.34258
0.823102 0.28632 0.373251
0.83624 0.287816 0.403922
0.849363 0.289311 0.434592
0.862486 0.290806 0.465248
0.875608 0.292287 0.495918
0.888731 0.293782 0.526589
0.901854 0.295277 0.55726
0.914992 0.296773 0.587915
0.928115 0.298268 0.618585
0.941238 0.299763 0.649256
0.95436 0.301259 0.679927
0.967483 0.302754 0.710597
0.980606 0.30425 0.741253
0.993744 0.305745 0.771923
1 0.30724 0.802594
1 0.308736 0.833265
1 0.310231 0.86392
1 0.311727 0.894591
1 0.313222 0.925261
1 0.314717 0.955932
1 0.316213 0.986587
0.709987 0.286275 0.00561532
0.72311 0.28777 0.0362707
0.736233 0.289265 0.0669261
0.749355 0.290761 0.0975967
0.762478 0.292256 0.128267
0.775616 0.293751 0.158938
0.788739 0.295232 0.189593
0.801862 0.296727 0.220264
0.814984 0.298222 0.250935
0.828107 0.299718 0.281605
0.84123 0.301213 0.312261
0.854353 0.302708 0.342931
0.867491 0.304204 0.373602
0.880613 0.305699 0.404273
0.893736 0.307195 0.434943
0.906859 0.30869 0.465599
0.919982 0.310185 0.496269
0.933104 0.311681 0.52694
0.946242 0.313176 0.55761
0.959365 0.314672 0.588266
0.972488 0.316167 0.618936
0.985611 0.317662 0.649607
0.998734 0.319158 0.680278
1 0.320653 0.710948
1 0.322148 0.741604
1 0.323644 0.772274
1 0.325139 0.802945
1 0.326635 0.833616
1 0.32813 0.864271
1 0.329625 0.894942
1 0.331106 0.925612
1 0.332601 0.956283
1 0.334096 0.986938
0.75436 0.304158 0.00596628
0.767483 0.305653 0.0366217
0.780606 0.307149 0.067277
0.793729 0.308644 0.0979477
0.806867 0.31014 0.128618
0.819989 0.311635 0.159289
0.833112 0.31313 0.189944
0.846235 0.314626 0.220615
0.859358 0.316121 0.251286
0.87248 0.317617 0.281956
0.885603 0.319112 0.312612
0.898741 0.320607 0.343282
0.911864 0.322103 0.373953
0.924987 0.323598 0.404623
0.938109 0.325093 0.435294
0.951232 0.326589 0.46595
0.964355 0.328084 0.49662
0.977493 0.32958 0.527291
0.990616 0.331075 0.557961
1 0.33257 0.588617
1 0.334051 0.619287
1 0.335546 0.649958
1 0.337041 0.680629
1 0.338537 0.711284
1 0.340032 0.741955
1 0.341527 0.772625
1 0.343023 0.803296
1 0.344518 0.833967
1 0.346014 0.864622
1 0.347509 0.895293
1 0.349004 0.925963
1 0.3505 0.956634
1 0.351995 0.987289
0.798733 0.322057 0.00631724
0.811856 0.323552 0.0369726
0.824979 0.325048 0.067628
0.838117 0.326543 0.0982986
0.85124 0.328038 0.128969
0.864363 0.329534 0.15964
0.877485 0.331029 0.190295
0.890608 0.332525 0.220966
0.903731 0.33402 0.251637
0.916854 0.335515 0.282307
0.929992 0.336996 0.312963
0.943114 0.338491 0.343633
0.956237 0.339986 0.374304
0.96936 0.341482 0.404974
0.982483 0.342977 0.435645
0.995605 0.344472 0.4663
1 0.345968 0.496971
1 0.347463 0.527642
1 0.348959 0.558312
1 0.350454 0.588968
1 0.351949 0.619638
1 0.353445 0.650309
1 0.35494 0.68098
1 0.356435 0.711635
1 0.357931 0.742306
1 0.359426 0.772976
1 0.360922 0.803647
1 0.362417 0.834318
1 0.363912 0.864973
1 0.365408 0.895644
1 0.366903 0.926314
1 0.368399 0.956985
1 0.369894 0.98764
0.843122 0.339956 0.00666819
0.856229 0.341436 0.0373236
0.869368 0.342931 0.0679789
0.88249 0.344427 0.0986496
0.895613 0.345922 0.12932
0.908736 0.347417 0.159991
0.921859 0.348913 0.190646
0.934981 0.350408 0.221317
0.948104 0.351904 0.251987
0.961242 0.353399 0.282658
0.974365 0.354894 0.313313
0.987488 0.35639 0.343984
1 0.357885 0.374655
1 0.35938 0.405325
1 0.360876 0.435996
1 0.362371 0.466651
1 0.363867 0.497322
1 0.365362 0.527993
1 0.366857 0.558663
1 0.368353 0.589319
1 0.369848 0.619989
1 0.371344 0.65066
1 0.372839 0.681331
1 0.374334 0.711986
1 0.375814 0.742657
1 0.37731 0.773327
1 0.378805 0.803998
1 0.380301 0.834669
1 0.381796 0.865324
1 0.383291 0.895994
1 0.384787 0.926665
1 0.386282 0.957336
1 0.387778 0.987991
0.887495 0.357839 0.00701915
0.900618 0.359335 0.0376745
0.913741 0.36083 0.0683299
0.926863 0.362325 0.0990005
0.939986 0.363821 0.129671
0.953109 0.365316 0.160342
0.966232 0.366812 0.190997
0.979355 0.368307 0.221668
0.992493 0.369802 0.252338
1 0.371298 0.283009
1 0.372793 0.313664
1 0.374289 0.344335
1 0.375784 0.375006
1 0.377279 0.405676
1 0.378759 0.436347
1 0.380255 0.467002
1 0.38175 0.497673
1 0.383246 0.528344
1 0.384741 0.559014
1 0.386236 0.58967
1 0.387732 0.62034
1 0.389227 0.651011
1 0.390723 0.681682
1 0.392218 0.712337
1 0.393713 0.743008
1 0.395209 0.773678
1 0.396704 0.804349
1 0.398199 0.835019
1 0.399695 0.865675
1 0.40119 0.896345
1 0.402686 0.927016
1 0.404181 0.957687
1 0.405676 0.988342
0.931868 0.375738 0.00737011
0.944991 0.377234 0.0380255
0.958114 0.378729 0.0686809
0.971237 0.380224 0.0993515
0.98436 0.381704 0.130022
0.997482 0.3832 0.160693
1 0.384695 0.191348
1 0.386191 0.222019
1 0.387686 0.252689
1 0.389181 0.28336
1 0.390677 0.314015
1 0.392172 0.344686
1 0.393668 0.375357
1 0.395163 0.406027
1 0.396658 0.436698
1 0.398154 0.467353
1 0.399649 0.498024
1 0.401144 0.528695
1 0.40264 0.559365
1 0.404135 0.590021
1 0.405631 0.620691
1 0.407126 0.651362
1 0.408621 0.682033
1 0.410117 0.712688
1 0.411612 0.743358
1 0.413108 0.774029
1 0.414603 0.8047
1 0.416098 0.83537
1 0.417578 0.866026
1 0.419074 0.896696
1 0.420569 0.927367
1 0.422065 0.958038
1 0.42356 0.988693
0.976242 0.393622 0.00772107
0.989364 0.395117 0.0383764
1 0.396612 0.0690318
1 0.398108 0.0997024
1 0.399603 0.130373
1 0.401099 0.161044
1 0.402594 0.191699
1 0.404089 0.22237
1 0.405585 0.25304
1 0.40708 0.283711
1 0.408576 0.314366
1 0.410071 0.345037
1 0.411566 0.375708
1 0.413062 0.406378
1 0.414557 0.437034
1 0.416052 0.467704
1 0.417548 0.498375
1 0.419043 0.529046
1 0.420523 0.559716
1 0.422019 0.590372
1 0.423514 0.621042
1 0.42501 0.651713
1 0.426505 0.682383
1 0.428 0.713039
1 0.429496 0.743709
1 0.430991 0.77438
1 0.432486 0.805051
1 0.433982 0.835721
1 0.435477 0.866377
1 0.436973 0.897047
1 0.438468 0.927718
1 0.439963 0.958389
1 0.441459 0.989044
1 0.411521 0.00807202
1 0.413016 0.0387121
1 0.414511 0.0693828
1 0.416007 0.100053
1 0.417502 0.130724
1 0.418997 0.161395
1 0.420493 0.19205
1 0.421988 0.222721
1 0.423468 0.253391
1 0.424964 0.284062
1 0.426459 0.314717
1 0.427955 0.345388
1 0.42945 0.376059
1 0.430945 0.406729
1 0.432441 0.437385
1 0.433936 0.468055
1 0.435431 0.498726
1 0.436927 0.529397
1 0.438422 0.560067
1 0.439918 0.590723
1 0.441413 0.621393
1 0.442908 0.652064
1 0.444404 0.682734
1 0.445899 0.71339
1 0.447395 0.74406
1 0.44889 0.774731
1 0.450385 0.805402
1 0.451881 0.836057
1 0.453376 0.866728
1 0.454871 0.897398
1 0.456367 0.928069
1 0.457862 0.95874
1 0.459342 0.989395
1 0.429404 0.00842298
1 0.4309 0.0390631
1 0.432395 0.0697337
1 0.43389 0.100404
1 0.435386 0.131075
1 0.436881 0.161746
1 0.438376 0.192401
1 0.439872 0.223072
1 0.441367 0.253742
1 0.442863 0.284413
1 0.444358 0.315068
1 0.445853 0.345739
1 0.447349 0.37641
1 0.448844 0.40708
1 0.45034 0.437736
1 0.451835 0.468406
1 0.45333 0.499077
1 0.454826 0.529747
1 0.456321 0.560418
1 0.457816 0.591073
1 0.459312 0.621744
1 0.460807 0.652415
1 0.462287 0.683085
1 0.463783 0.713741
1 0.465278 0.744411
1 0.466773 0.775082
1 0.468269 0.805753
1 0.469764 0.836408
1 0.47126 0.867079
1 0.472755 0.897749
1 0.47425 0.92842
1 0.475746 0.959091
1 0.477241 0.989746
1 0.447303 0.00877394
1 0.448798 0.0394141
1 0.450294 0.0700847
1 0.451789 0.100755
1 0.453285 0.131426
1 0.45478 0.162097
1 0.456275 0.192752
1 0.457771 0.223423
1 0.459266 0.254093
1 0.460761 0.284764
1 0.462257 0.315419
1 0.463752 0.34609
1 0.465232 0.376761
1 0.466728 0.407431
1 0.468223 0.438087
1 0.469718 0.468757
1 0.471214 0.499428
1 0.472709 0.530098
1 0.474205 0.560769
1 0.4757 0.591424
1 0.477195 0.622095
1 0.478691 0.652766
1 0.480186 0.683436
1 0.481682 0.714092
1 0.483177 0.744762
1 0.484672 0.775433
1 0.486168 0.806104
1 0.487663 0.836759
1 0.489158 0.86743
1 0.490654 0.8981
1 0.492149 0.928771
1 0.493645 0.959442
1 0.49514 0.990097
1 0.465202 0.0091249
1 0.466697 0.039765
1 0.468177 0.0704356
1 0.469673 0.101106
1 0.471168 0.131777
1 0.472663 0.162448
1 0.474159 0.193103
1 0.475654 0.223774
1 0.47715 0.254444
1 0.478645 0.285115
1 0.48014 0.31577
1 0.481636 0.346441
1 0.483131 0.377111
1 0.484627 0.407782
1 0.486122 0.438437
1 0.487617 0.469108
1 0.489113 0.499779
1 0.490608 0.530449
1 0.492103 0.56112
1 0.493599 0.591775
1 0.495094 0.622446
1 0.49659 0.653117
1 0.498085 0.683787
1 0.49958 0.714443
1 0.501076 0.745113
1 0.502571 0.775784
1 0.504051 0.806455
1 0.505547 0.83711
1 0.507042 0.867781
1 0.508537 0.898451
1 0.510033 0.929122
1 0.511528 0.959792
1 0.513024 0.990448
1 0.483085 0.00947585
1 0.484581 0.040116
1 0.486076 0.0707866
1 0.487572 0.101457
1 0.489067 0.132128
1 0.490562 0.162799
1 0.492058 0.193454
1 0.493553 0.224125
1 0.495048 0.254795
