public/LUTS/Color Shift/ColorShift_87.cube
TITLE "Generated by Resolve"
LUT_3D_SIZE 33
0 0 0
0.0123598 0 0.0485847
0.0247349 0 0.0972
0.0371099 0 0.145815
0.049485 0 0.19443
0.0618448 0 0.243061
0.0742199 0 0.291676
0.0865949 0 0.340291
0.0989548 0 0.388907
0.11133 0 0.437522
0.123705 0 0.486137
0.13608 0 0.534752
0.14844 0 0.583368
0.160815 0 0.631983
0.17319 0 0.680598
0.18555 0 0.729213
0.197925 0 0.777829
0.2103 0 0.826444
0.222675 0 0.875059
0.235035 0 0.923674
0.24741 0 0.97229
0.259785 0 1
0.27216 0 1
0.28452 0 1
0.296895 0 1
0.30927 0 1
0.32163 0 1
0.334005 0 1
0.34638 0 1
0.358755 0 1
0.371115 0 1
0.38349 0 1
0.395865 0 1
0.0644541 0.0131533 0
0.0768139 0.0125734 0.0388342
0.089189 0.0119783 0.0874495
0.101564 0.0113985 0.136065
0.113924 0.0108034 0.18468
0.126299 0.0102235 0.233295
0.138674 0.00962844 0.28191
0.151049 0.0090486 0.330526
0.163409 0.00846876 0.379141
0.175784 0.00787366 0.427756
0.188159 0.00729381 0.476371
0.200534 0.00669871 0.524987
0.212894 0.00611887 0.573602
0.225269 0.00552377 0.622217
0.237644 0.00494392 0.670832
0.250004 0.00434882 0.719448
0.262379 0.00376898 0.768063
0.274754 0.00318914 0.816678
0.287129 0.00259403 0.865293
0.299489 0.00201419 0.913909
0.311864 0.00141909 0.962524
0.324239 0.000839246 1
0.336614 0.000244144 1
0.348974 0 1
0.361349 0 1
0.373724 0 1
0.386084 0 1
0.398459 0 1
0.410834 0 1
0.423209 0 1
0.435569 0 1
0.447944 0 1
0.460319 0 1
0.128939 0.0263218 0
0.141299 0.0257267 0.0290684
0.153674 0.0251469 0.0776837
0.166049 0.0245518 0.126299
0.178424 0.0239719 0.174914
0.190784 0.0233768 0.223529
0.203159 0.022797 0.272145
0.215534 0.0222019 0.32076
0.227893 0.021622 0.369375
0.240269 0.0210422 0.41799
0.252644 0.0204471 0.466606
0.265019 0.0198672 0.515221
0.277378 0.0192721 0.563836
0.289754 0.0186923 0.612451
0.302129 0.0180972 0.661067
0.314504 0.0175174 0.709682
0.326863 0.0169375 0.758297
0.339239 0.0163424 0.806912
0.351614 0.0157626 0.855528
0.363973 0.0151675 0.904143
0.376349 0.0145876 0.952758
0.388724 0.0139925 1
0.401099 0.0134127 1
0.413458 0.0128176 1
0.425834 0.0122377 1
0.438209 0.0116579 1
0.450568 0.0110628 1
0.462943 0.0104829 1
0.475319 0.00988785 1
0.487694 0.009308 1
0.500053 0.0087129 1
0.512428 0.00813306 1
0.524804 0.00753796 1
0.193423 0.0394751 0
0.205783 0.0388952 0.0193027
0.218158 0.0383001 0.0679179
0.230533 0.0377203 0.116533
0.242908 0.0371252 0.165148
0.255268 0.0365454 0.213764
0.267643 0.0359503 0.262379
0.280018 0.0353704 0.310994
0.292378 0.0347753 0.359609
0.304753 0.0341955 0.408225
0.317128 0.0336156 0.45684
0.329503 0.0330205 0.505455
0.341863 0.0324407 0.55407
0.354238 0.0318456 0.602686
0.366613 0.0312657 0.651301
0.378988 0.0306706 0.699916
0.391348 0.0300908 0.748531
0.403723 0.0295109 0.797147
0.416098 0.0289158 0.845762
0.428458 0.028336 0.894377
0.440833 0.0277409 0.942992
0.453208 0.0271611 0.991608
0.465583 0.026566 1
0.477943 0.0259861 1
0.490318 0.025391 1
0.502693 0.0248112 1
0.515068 0.0242313 1
0.527428 0.0236362 1
0.539803 0.0230564 1
0.552178 0.0224613 1
0.564538 0.0218814 1
0.576913 0.0212863 1
0.589288 0.0207065 1
0.257908 0.0526284 0
0.270268 0.0520485 0.00952163
0.282643 0.0514687 0.0581369
0.295018 0.0508736 0.106752
0.307393 0.0502937 0.155367
0.319753 0.0496986 0.203998
0.332128 0.0491188 0.252613
0.344503 0.0485237 0.301228
0.356878 0.0479438 0.349844
0.369238 0.047364 0.398459
0.381613 0.0467689 0.447074
0.393988 0.0461891 0.495689
0.406348 0.045594 0.544305
0.418723 0.0450141 0.59292
0.431098 0.044419 0.641535
0.443473 0.0438392 0.69015
0.455833 0.0432441 0.738766
0.468208 0.0426642 0.787381
0.480583 0.0420844 0.835996
0.492943 0.0414893 0.884611
0.505318 0.0409094 0.933227
0.517693 0.0403143 0.981842
0.530068 0.0397345 1
0.542428 0.0391394 1
0.554803 0.0385595 1
0.567178 0.0379644 1
0.579553 0.0373846 1
0.591913 0.0368048 1
0.604288 0.0362097 1
0.616663 0.0356298 1
0.629023 0.0350347 1
0.641398 0.0344549 1
0.653773 0.0338598 1
0.322393 0.0657969 0
0.334752 0.0652018 0
0.347127 0.064622 0.0483711
0.359503 0.0640421 0.0969863
0.371878 0.063447 0.145602
0.384237 0.0628672 0.194217
0.396612 0.0622721 0.242832
0.408988 0.0616922 0.291447
0.421363 0.0610971 0.340063
0.433722 0.0605173 0.388678
0.446097 0.0599374 0.437293
0.458473 0.0593423 0.485908
0.470832 0.0587625 0.534539
0.483207 0.0581674 0.583154
0.495583 0.0575875 0.631769
0.507958 0.0569924 0.680385
0.520317 0.0564126 0.729
0.532692 0.0558175 0.777615
0.545068 0.0552377 0.82623
0.557443 0.0546578 0.874846
0.569802 0.0540627 0.923461
0.582177 0.0534829 0.972076
0.594553 0.0528878 1
0.606912 0.0523079 1
0.619287 0.0517128 1
0.631662 0.051133 1
0.644038 0.0505531 1
0.656397 0.049958 1
0.668772 0.0493782 1
0.681147 0.0487831 1
0.693523 0.0482032 1
0.705882 0.0476081 1
0.718257 0.0470283 1
0.386877 0.0789502 0
0.399237 0.0783703 0
0.411612 0.0777905 0.0386053
0.423987 0.0771954 0.0872206
0.436362 0.0766155 0.135836
0.448722 0.0760204 0.184451
0.461097 0.0754406 0.233066
0.473472 0.0748455 0.281682
0.485847 0.0742657 0.330297
0.498207 0.0736706 0.378912
0.510582 0.0730907 0.427527
0.522957 0.0725109 0.476143
0.535317 0.0719158 0.524758
0.547692 0.0713359 0.573373
0.560067 0.0707408 0.621988
0.572442 0.070161 0.670604
0.584802 0.0695659 0.719219
0.597177 0.068986 0.767834
0.609552 0.0683909 0.816449
0.621927 0.0678111 0.86508
0.634287 0.0672313 0.913695
0.646662 0.0666361 0.96231
0.659037 0.0660563 1
0.671397 0.0654612 1
0.683772 0.0648814 1
0.696147 0.0642863 1
0.708522 0.0637064 1
0.720882 0.0631266 1
0.733257 0.0625315 1
0.745632 0.0619516 1
0.758007 0.0613565 1
0.770367 0.0607767 1
0.782742 0.0601816 1
0.451362 0.0921187 0
0.463737 0.0915236 0
0.476097 0.0909438 0.0288396
0.488472 0.0903639 0.0774548
0.500847 0.0897688 0.12607
0.513207 0.089189 0.174685
0.525582 0.0885939 0.223301
0.537957 0.088014 0.271916
0.550332 0.0874189 0.320531
0.562692 0.0868391 0.369146
0.575067 0.086244 0.417762
0.587442 0.0856641 0.466377
0.599817 0.0850843 0.514992
0.612177 0.0844892 0.563607
0.624552 0.0839094 0.612222
0.636927 0.0833143 0.660838
0.649287 0.0827344 0.709453
0.661662 0.0821393 0.758068
0.674037 0.0815595 0.806683
0.686412 0.0809796 0.855299
0.698772 0.0803845 0.903914
0.711147 0.0798047 0.952529
0.723522 0.0792096 1
0.735897 0.0786297 1
0.748257 0.0780346 1
0.760632 0.0774548 1
0.773007 0.0768597 1
0.785367 0.0762798 1
0.797742 0.0757 1
0.810117 0.0751049 1
0.822492 0.0745251 1
0.834852 0.07393 1
0.847227 0.0733501 1
0.515846 0.105272 0
0.528222 0.104692 0
0.540581 0.104097 0.0190738
0.552956 0.103517 0.067689
0.565332 0.102937 0.116304
0.577691 0.102342 0.16492
0.590066 0.101762 0.213535
0.602441 0.101167 0.26215
0.614816 0.100587 0.310765
0.627176 0.0999924 0.35938
0.639551 0.0994125 0.407996
0.651926 0.0988174 0.456611
0.664302 0.0982376 0.505226
0.676661 0.0976577 0.553841
0.689036 0.0970626 0.602457
0.701411 0.0964828 0.651072
0.713771 0.0958877 0.699687
0.726146 0.0953078 0.748302
0.738521 0.0947127 0.796918
0.750896 0.0941329 0.845533
0.763256 0.0935531 0.894148
0.775631 0.092958 0.942763
0.788006 0.0923781 0.991379
0.800381 0.091783 1
0.812741 0.0912032 1
0.825116 0.0906081 1
0.837491 0.0900282 1
0.849851 0.0894331 1
0.862226 0.0888533 1
0.874601 0.0882734 1
0.886976 0.0876783 1
0.899336 0.0870985 1
0.911711 0.0865034 1
0.580331 0.118441 0
0.592706 0.117845 0
0.605066 0.117266 0.009308
0.617441 0.11667 0.0579232
0.629816 0.116091 0.106538
0.642191 0.115511 0.155154
0.654551 0.114916 0.203769
0.666926 0.114336 0.252384
0.679301 0.113741 0.300999
0.691661 0.113161 0.349615
0.704036 0.112566 0.39823
0.716411 0.111986 0.446845
0.728786 0.111406 0.49546
0.741146 0.110811 0.544076
0.753521 0.110231 0.592691
0.765896 0.109636 0.641306
0.778256 0.109056 0.689921
0.790631 0.108461 0.738537
0.803006 0.107881 0.787152
0.815381 0.107286 0.835767
0.827741 0.106706 0.884382
0.840116 0.106126 0.932998
0.852491 0.105531 0.981613
0.864866 0.104952 1
0.877226 0.104356 1
0.889601 0.103777 1
0.901976 0.103182 1
0.914336 0.102602 1
0.926711 0.102007 1
0.939086 0.101427 1
0.951461 0.100847 1
0.963821 0.100252 1
0.976196 0.0996719 1
0.644816 0.131594 0
0.657191 0.131014 0
0.669551 0.130419 0
0.681926 0.129839 0.0481575
0.694301 0.129244 0.0967727
0.706676 0.128664 0.145388
0.719036 0.128084 0.194003
0.731411 0.127489 0.242618
0.743786 0.126909 0.291234
0.756146 0.126314 0.339849
0.768521 0.125734 0.388464
0.780896 0.125139 0.437079
0.793271 0.124559 0.485695
0.805631 0.12398 0.53431
0.818006 0.123384 0.582925
0.830381 0.122805 0.63154
0.842756 0.12221 0.680156
0.855116 0.12163 0.728771
0.867491 0.121035 0.777386
0.879866 0.120455 0.826001
0.892226 0.11986 0.874617
0.904601 0.11928 0.923232
0.916976 0.1187 0.971847
0.929351 0.118105 1
0.941711 0.117525 1
0.954086 0.11693 1
0.966461 0.11635 1
0.978836 0.115755 1
0.991196 0.115175 1
1 0.114595 1
1 0.114 1
1 0.11342 1
1 0.112825 1
0.7093 0.144762 0
0.721675 0.144167 0
0.734035 0.143587 0
0.74641 0.142992 0.0383917
0.758785 0.142412 0.0870069
0.77116 0.141833 0.135622
0.78352 0.141238 0.184237
0.795895 0.140658 0.232853
0.80827 0.140063 0.281468
0.82063 0.139483 0.330083
0.833005 0.138888 0.378698
0.84538 0.138308 0.427314
0.857755 0.137713 0.475929
0.870115 0.137133 0.524544
0.88249 0.136553 0.573159
0.894865 0.135958 0.621775
0.90724 0.135378 0.67039
0.9196 0.134783 0.719005
0.931975 0.134203 0.76762
0.94435 0.133608 0.816236
0.95671 0.133028 0.864851
0.969085 0.132433 0.913466
0.98146 0.131853 0.962081
0.993835 0.131273 1
1 0.130678 1
1 0.130098 1
1 0.129503 1
1 0.128923 1
1 0.128328 1
1 0.127749 1
1 0.127169 1
1 0.126574 1
1 0.125994 1
0.773785 0.157916 0
0.78616 0.157336 0
0.79852 0.156741 0
0.810895 0.156161 0.0286259
0.82327 0.155566 0.0772412
0.835645 0.154986 0.125856
0.848005 0.154406 0.174472
0.86038 0.153811 0.223087
0.872755 0.153231 0.271702
0.88513 0.152636 0.320317
0.89749 0.152056 0.368933
0.909865 0.151461 0.417548
0.92224 0.150881 0.466163
0.9346 0.150286 0.514778
0.946975 0.149706 0.563394
0.95935 0.149126 0.612009
0.971725 0.148531 0.660624
0.984085 0.147951 0.709239
0.99646 0.147356 0.757855
1 0.146777 0.80647
1 0.146181 0.855085
1 0.145602 0.9037
1 0.145022 0.952316
1 0.144427 1
1 0.143847 1
1 0.143252 1
1 0.142672 1
1 0.142077 1
1 0.141497 1
1 0.140902 1
1 0.140322 1
1 0.139742 1
1 0.139147 1
0.83827 0.171084 0
0.850645 0.170489 0
0.863005 0.169909 0
0.87538 0.169314 0.0188602
0.887755 0.168734 0.0674754
0.90013 0.168139 0.116091
0.91249 0.167559 0.164706
0.924865 0.166979 0.213321
0.93724 0.166384 0.261936
0.949615 0.165805 0.310552
0.961975 0.165209 0.359167
0.97435 0.16463 0.407782
0.986725 0.164034 0.456397
0.999084 0.163455 0.505013
1 0.16286 0.553628
1 0.16228 0.602243
1 0.1617 0.650858
1 0.161105 0.699474
1 0.160525 0.748089
1 0.15993 0.796704
1 0.15935 0.845319
1 0.158755 0.893935
1 0.158175 0.94255
1 0.157595 0.991165
1 0.157 1
1 0.15642 1
1 0.155825 1
1 0.155245 1
1 0.15465 1
1 0.15407 1
1 0.153475 1
1 0.152895 1
1 0.152316 1
0.902754 0.184237 0
0.915129 0.183658 0
0.927504 0.183062 0
0.939864 0.182483 0.00909438
0.952239 0.181888 0.0577096
0.964614 0.181308 0.106325
0.976974 0.180713 0.15494
0.989349 0.180133 0.203555
1 0.179553 0.252171
1 0.178958 0.300786
1 0.178378 0.349401
1 0.177783 0.398016
1 0.177203 0.446632
1 0.176608 0.495247
1 0.176028 0.543862
1 0.175448 0.592477
1 0.174853 0.641093
1 0.174273 0.689708
1 0.173678 0.738323
1 0.173098 0.786938
1 0.172503 0.835554
1 0.171923 0.884169
1 0.171328 0.932784
1 0.170748 0.981399
1 0.170169 1
1 0.169574 1
1 0.168994 1
1 0.168399 1
1 0.167819 1
1 0.167224 1
1 0.166644 1
1 0.166064 1
1 0.165469 1
0.967254 0.197406 0
0.979614 0.196811 0
0.991989 0.196231 0
1 0.195636 0
1 0.195056 0.0479438
1 0.194461 0.0965591
1 0.193881 0.145174
1 0.193286 0.19379
1 0.192706 0.242405
1 0.192126 0.29102
1 0.191531 0.339635
1 0.190951 0.388251
1 0.190356 0.436866
1 0.189776 0.485481
1 0.189181 0.534096
1 0.188602 0.582712
1 0.188022 0.631327
1 0.187427 0.679942
1 0.186847 0.728557
1 0.186252 0.777173
1 0.185672 0.825788
1 0.185077 0.874403
1 0.184497 0.923018
1 0.183902 0.971633
1 0.183322 1
1 0.182742 1
1 0.182147 1
1 0.181567 1
1 0.180972 1
1 0.180392 1
1 0.179797 1
1 0.179217 1
1 0.178637 1
1 0.210559 0
1 0.209979 0
1 0.209384 0
1 0.208804 0
1 0.208209 0.0381781
1 0.20763 0.0867933
1 0.207034 0.135409
1 0.206455 0.184024
1 0.205875 0.232639
1 0.20528 0.281254
1 0.2047 0.32987
1 0.204105 0.378485
1 0.203525 0.4271
1 0.20293 0.475715
1 0.20235 0.52433
1 0.201755 0.572946
1 0.201175 0.621561
1 0.200595 0.670176
1 0.2 0.718791
1 0.19942 0.767407
1 0.198825 0.816022
1 0.198245 0.864637
1 0.19765 0.913252
1 0.19707 0.961868
1 0.196475 1
1 0.195895 1
1 0.195315 1
1 0.19472 1
1 0.194141 1
1 0.193545 1
1 0.192966 1
1 0.19237 1
1 0.191791 1
1 0.223713 0
1 0.223133 0
1 0.222553 0
1 0.221958 0
1 0.221378 0.028397
1 0.220783 0.0770123
1 0.220203 0.125628
1 0.219608 0.174258
1 0.219028 0.222873
1 0.218448 0.271489
1 0.217853 0.320104
1 0.217273 0.368719
1 0.216678 0.417334
1 0.216098 0.46595
1 0.215503 0.514565
1 0.214923 0.56318
1 0.214328 0.611795
1 0.213748 0.66041
1 0.213169 0.709026
1 0.212573 0.757641
1 0.211994 0.806256
1 0.211398 0.854871
1 0.210819 0.903487
1 0.210224 0.952102
1 0.209644 1
1 0.209064 1
1 0.208469 1
1 0.207889 1
1 0.207294 1
1 0.206714 1
1 0.206119 1
1 0.205539 1
1 0.204944 1
1 0.236881 0
1 0.236301 0
1 0.235706 0
1 0.235126 0
1 0.234531 0.0186313
1 0.233951 0.0672465
1 0.233356 0.115862
1 0.232776 0.164477
1 0.232181 0.213092
1 0.231601 0.261707
1 0.231022 0.310323
1 0.230426 0.358938
1 0.229847 0.407553
1 0.229252 0.456168
1 0.228672 0.504799
1 0.228077 0.553414
1 0.227497 0.602029
1 0.226902 0.650645
1 0.226322 0.69926
1 0.225742 0.747875
1 0.225147 0.79649
1 0.224567 0.845106
1 0.223972 0.893721
1 0.223392 0.942336
1 0.222797 0.990951
1 0.222217 1
1 0.221637 1
1 0.221042 1
1 0.220462 1
1 0.219867 1
1 0.219287 1
1 0.218692 1
1 0.218112 1
1 0.250034 0
1 0.249454 0
1 0.248875 0
1 0.24828 0
1 0.2477 0.00886549
1 0.247105 0.0574807
1 0.246525 0.106096
1 0.24593 0.154711
1 0.24535 0.203326
1 0.244755 0.251942
1 0.244175 0.300557
1 0.243595 0.349172
1 0.243 0.397787
1 0.24242 0.446403
1 0.241825 0.495018
1 0.241245 0.543633
1 0.24065 0.592248
1 0.24007 0.640864
1 0.23949 0.689479
1 0.238895 0.738094
1 0.238315 0.786709
1 0.23772 0.83534
1 0.23714 0.883955
1 0.236545 0.93257
1 0.235966 0.981186
1 0.23537 1
1 0.234791 1
1 0.234211 1
1 0.233616 1
1 0.233036 1
1 0.232441 1
1 0.231861 1
1 0.231266 1
1 0.263203 0
1 0.262608 0
1 0.262028 0
1 0.261448 0
1 0.260853 0
1 0.260273 0.047715
1 0.259678 0.0963302
1 0.259098 0.144945
1 0.258503 0.193561
1 0.257923 0.242176
1 0.257328 0.290791
1 0.256748 0.339406
1 0.256168 0.388022
1 0.255573 0.436637
1 0.254994 0.485252
1 0.254398 0.533867
1 0.253819 0.582483
1 0.253223 0.631098
1 0.252644 0.679713
1 0.252064 0.728328
1 0.251469 0.776944
1 0.250889 0.825559
1 0.250294 0.874174
1 0.249714 0.922789
1 0.249119 0.971405
1 0.248539 1
1 0.247944 1
1 0.247364 1
1 0.246784 1
1 0.246189 1
1 0.245609 1
1 0.245014 1
1 0.244434 1
1 0.276356 0
1 0.275776 0
1 0.275181 0
1 0.274601 0
1 0.274022 0
1 0.273426 0.0379492
1 0.272847 0.0865644
1 0.272251 0.13518
1 0.271672 0.183795
1 0.271077 0.23241
1 0.270497 0.281025
1 0.269917 0.329641
1 0.269322 0.378256
1 0.268742 0.426871
1 0.268147 0.475486
1 0.267567 0.524102
1 0.266972 0.572717
1 0.266392 0.621332
1 0.265797 0.669947
1 0.265217 0.718563
1 0.264637 0.767178
1 0.264042 0.815793
1 0.263462 0.864408
1 0.262867 0.913024
1 0.262287 0.961639
1 0.261692 1
1 0.261112 1
1 0.260533 1
1 0.259937 1
1 0.259358 1
1 0.258762 1
1 0.258183 1
1 0.257588 1
1 0.289525 0
1 0.28893 0
1 0.28835 0
1 0.287755 0
1 0.287175 0
1 0.286595 0.0281834
1 0.286 0.0767987
1 0.28542 0.125414
1 0.284825 0.174029
1 0.284245 0.222644
1 0.28365 0.27126
1 0.28307 0.319875
1 0.28249 0.36849
1 0.281895 0.417105
1 0.281315 0.465721
1 0.28072 0.514336
1 0.28014 0.562951
1 0.279545 0.611566
1 0.278965 0.660182
1 0.27837 0.708797
1 0.27779 0.757412
1 0.277211 0.806027
1 0.276616 0.854643
1 0.276036 0.903258
1 0.275441 0.951873
1 0.274861 1
1 0.274266 1
1 0.273686 1
1 0.273106 1
1 0.272511 1
1 0.271931 1
1 0.271336 1
1 0.270756 1
1 0.302678 0
1 0.302098 0
1 0.301503 0
1 0.300923 0
1 0.300343 0
1 0.299748 0.0184176
1 0.299168 0.0670329
1 0.298573 0.115648
1 0.297993 0.164263
1 0.297398 0.212879
1 0.296818 0.261494
1 0.296223 0.310109
1 0.295644 0.358724
1 0.295064 0.40734
1 0.294469 0.455955
1 0.293889 0.50457
1 0.293294 0.553185
1 0.292714 0.601801
1 0.292119 0.650416
1 0.291539 0.699031
1 0.290944 0.747646
1 0.290364 0.796262
1 0.289784 0.844877
1 0.289189 0.893492
1 0.288609 0.942107
1 0.288014 0.990723
1 0.287434 1
1 0.286839 1
1 0.286259 1
1 0.285679 1
1 0.285084 1
1 0.284504 1
1 0.283909 1
1 0.315847 0
1 0.315251 0
1 0.314672 0
1 0.314076 0
1 0.313497 0
1 0.312917 0.00865187
1 0.312322 0.0572671
1 0.311742 0.105882
1 0.311147 0.154498
1 0.310567 0.203113
1 0.309972 0.251728
1 0.309392 0.300343
1 0.308797 0.348959
1 0.308217 0.397574
1 0.307637 0.446189
1 0.307042 0.494804
1 0.306462 0.54342
1 0.305867 0.592035
1 0.305287 0.64065
1 0.304692 0.689265
1 0.304112 0.737881
1 0.303532 0.786496
1 0.302937 0.835111
1 0.302358 0.883726
1 0.301762 0.932342
1 0.301183 0.980957
1 0.300587 1
1 0.300008 1
1 0.299413 1
1 0.298833 1
1 0.298253 1
1 0.297658 1
1 0.297078 1
1 0.329 0
1 0.32842 0
1 0.327825 0
1 0.327245 0
1 0.32665 0
1 0.32607 0
1 0.32549 0.0475013
1 0.324895 0.0961166
1 0.324315 0.144732
1 0.32372 0.193347
1 0.32314 0.241962
1 0.322545 0.290578
1 0.321965 0.339193
1 0.32137 0.387808
1 0.32079 0.436423
1 0.320211 0.485039
1 0.319615 0.533654
1 0.319036 0.582269
1 0.318441 0.630884
1 0.317861 0.6795
1 0.317266 0.728115
1 0.316686 0.77673
1 0.316106 0.825345
1 0.315511 0.87396
1 0.314931 0.922576
1 0.314336 0.971191
1 0.313756 1
1 0.313161 1
1 0.312581 1
1 0.311986 1
1 0.311406 1
1 0.310826 1
1 0.310231 1
1 0.342168 0
1 0.341573 0
1 0.340993 0
1 0.340398 0
1 0.339818 0
1 0.339223 0
1 0.338643 0.0377356
1 0.338064 0.0863508
1 0.337469 0.134966
1 0.336889 0.183581
1 0.336294 0.232197
1 0.335714 0.280812
1 0.335119 0.329427
1 0.334539 0.378042
1 0.333959 0.426657
1 0.333364 0.475273
1 0.332784 0.523888
1 0.332189 0.572503
1 0.331609 0.621118
1 0.331014 0.669734
1 0.330434 0.718349
1 0.329839 0.766964
1 0.329259 0.815579
1 0.328679 0.864195
1 0.328084 0.91281
1 0.327504 0.961425
1 0.326909 1
1 0.326329 1
1 0.325734 1
1 0.325154 1
1 0.324575 1
1 0.32398 1
1 0.3234 1
1 0.355322 0
1 0.354742 0
1 0.354147 0
1 0.353567 0
1 0.352972 0
1 0.352392 0
1 0.351797 0.0279698
1 0.351217 0.076585
1 0.350637 0.1252
