public/LUTS/Color Shift/ColorShift_83.cube
TITLE "Generated by Resolve"
LUT_3D_SIZE 5
0 0 0
0.259068 0 0.324422
0.518151 0 0.648875
0.777234 0 0.973312
1 0 1
0.349981 0.171572 0
0.609049 0.127123 0.117739
0.868132 0.0826886 0.442191
1 0.0382544 0.766629
1 0 1
0.699977 0.343145 0
0.959045 0.298711 0
1 0.254261 0.235492
1 0.209827 0.559945
1 0.165393 0.884382
1 0.514717 0
1 0.470283 0
1 0.425849 0.028809
1 0.381399 0.353246
1 0.336965 0.677699
1 0.68629 0
1 0.641855 0
1 0.597421 0
1 0.552987 0.146548
1 0.508537 0.471
0 0.122866 0.13225
0 0.0784161 0.456672
0.159091 0.0339818 0.781109
0.418173 0 1
0.677256 0 1
0 0.294423 0
0.249989 0.249989 0.249989
0.509071 0.205554 0.574441
0.768154 0.161105 0.898878
1 0.11667 1
0.340917 0.465995 0
0.599985 0.421561 0.0432898
0.859068 0.377127 0.367742
1 0.332692 0.69218
1 0.288243 1
0.690913 0.637583 0
0.949996 0.593149 0
1 0.548699 0.161044
1 0.504265 0.485496
1 0.459831 0.809934
1 0.809155 0
1 0.764721 0
1 0.720287 0
1 0.675837 0.278798
1 0.631403 0.60325
0 0.245731 0.2645
0 0.201282 0.588922
0 0.156847 0.913375
0.0590982 0.112413 1
0.318181 0.0679789 1
0 0.417288 0.0578164
0 0.372854 0.382239
0.149996 0.32842 0.706691
0.409079 0.28397 1
0.668162 0.239536 1
0 0.588861 0
0.240909 0.544427 0.17554
0.499992 0.499992 0.499992
0.759075 0.455558 0.824445
1 0.411109 1
0.331838 0.760449 0
0.590906 0.716014 0
0.849989 0.671565 0.293294
1 0.627131 0.617746
1 0.582696 0.942184
0.681834 0.932021 0
0.940902 0.887587 0
1 0.843153 0.0866102
1 0.798703 0.411048
1 0.754269 0.7355
0 0.368597 0.39675
0 0.324147 0.721172
0 0.279713 1
0 0.235279 1
0 0.190845 1
0 0.540154 0.190066
0 0.49572 0.514488
0 0.451286 0.838941
0.0500038 0.406836 1
0.309087 0.362402 1
0 0.711727 0
0 0.667292 0.307805
0.140917 0.622858 0.632242
0.4 0.578424 0.956695
0.659083 0.533974 1
0 0.883314 0
0.23183 0.83888 0.101106
0.490913 0.79443 0.425544
0.749996 0.749996 0.749996
1 0.705562 1
0.322759 1 0
0.581827 1 0
0.840909 0.966018 0.21886
1 0.921569 0.543297
1 0.877134 0.86775
0 0.491463 0.529
0 0.447013 0.853422
0 0.402579 1
0 0.358144 1
0 0.31371 1
0 0.66302 0.322316
0 0.618585 0.646738
0 0.574151 0.971191
0 0.529702 1
0 0.485267 1
0 0.834592 0.115618
0 0.790158 0.440055
0 0.745724 0.764492
0.0409094 0.701289 1
0.300008 0.65684 1
0 1 0
0 0.961746 0.233356
0.131838 0.917296 0.557809
0.390921 0.872862 0.882246
0.650004 0.828428 1
0 1 0
0.222751 1 0.0266575
0.481834 1 0.35111
0.740917 1 0.675547
1 1 1
