public/LUTS/Color Shift/ColorShift_66.cube
TITLE "Generated by Resolve"
LUT_3D_SIZE 33
0 0 0
0.0222019 0.00697337 0
0.0444038 0.0139467 0
0.0666056 0.0209201 0
0.0888075 0.0278935 0
0.111025 0.0348669 0
0.133227 0.0418402 0
0.155428 0.0488136 0
0.17763 0.0558022 0
0.199847 0.0627756 0
0.222049 0.069749 0
0.244251 0.0767224 0
0.266453 0.0836957 0
0.28867 0.0906691 0
0.310872 0.0976425 0
0.333074 0.104616 0
0.355276 0.111589 0
0.377493 0.118563 0
0.399695 0.125551 0
0.421897 0.132525 0
0.444114 0.139498 0
0.466316 0.146471 0
0.488518 0.153445 0
0.510719 0.160418 0
0.532937 0.167391 0
0.555138 0.174365 0
0.57734 0.181338 0
0.599542 0.188312 0
0.621759 0.1953 0
0.643961 0.202274 0
0.666163 0.209247 0
0.688365 0.21622 0
0.710582 0.223194 0
0 0.0366979 0.0296025
0 0.0436713 0
0.013489 0.0506447 0
0.0356909 0.0576181 0
0.0578927 0.0646067 0
0.0801099 0.0715801 0
0.102312 0.0785534 0
0.124514 0.0855268 0
0.146715 0.0925002 0
0.168933 0.0994736 0
0.191135 0.106447 0
0.213336 0.11342 0
0.235554 0.120394 0
0.257755 0.127367 0
0.279957 0.13434 0
0.302159 0.141329 0
0.324376 0.148302 0
0.346578 0.155276 0
0.36878 0.162249 0
0.390982 0.169223 0
0.413199 0.176196 0
0.435401 0.183169 0
0.457603 0.190143 0
0.479805 0.197116 0
0.502022 0.204089 0
0.524224 0.211078 0
0.546426 0.218051 0
0.568627 0.225025 0
0.590845 0.231998 0
0.613046 0.238972 0
0.635248 0.245945 0
0.65745 0.252918 0
0.679667 0.259892 0
0 0.0734264 0.0592203
0 0.0803998 0.0260929
0 0.0873732 0
0.00476081 0.0943465 0
0.026978 0.10132 0
0.0491798 0.108293 0
0.0713817 0.115267 0
0.0935836 0.12224 0
0.115801 0.129213 0
0.138003 0.136202 0
0.160204 0.143175 0
0.182406 0.150149 0
0.204623 0.157122 0
0.226825 0.164096 0
0.249027 0.171069 0
0.271229 0.178042 0
0.293446 0.185016 0
0.315648 0.191989 0
0.33785 0.198962 0
0.360052 0.205936 0
0.382269 0.212924 0
0.404471 0.219898 0
0.426673 0.226871 0
0.448875 0.233845 0
0.471092 0.240818 0
0.493294 0.247791 0
0.515496 0.254765 0
0.537713 0.261738 0
0.559915 0.268711 0
0.582116 0.275685 0
0.604318 0.282673 0
0.626535 0.289647 0
0.648737 0.29662 0
0 0.11014 0.088838
0 0.117113 0.0557107
0 0.124086 0.0225681
0 0.13106 0
0 0.138048 0
0.0182498 0.145022 0
0.0404517 0.151995 0
0.0626535 0.158968 0
0.0848707 0.165942 0
0.107073 0.172915 0
0.129274 0.179889 0
0.151476 0.186862 0
0.173693 0.193835 0
0.195895 0.200809 0
0.218097 0.207797 0
0.240299 0.214771 0
0.262516 0.221744 0
0.284718 0.228717 0
0.30692 0.235691 0
0.329137 0.242664 0
0.351339 0.249638 0
0.373541 0.256611 0
0.395743 0.263584 0
0.41796 0.270558 0
0.440162 0.277531 0
0.462364 0.28452 0
0.484565 0.291493 0
0.506783 0.298466 0
0.528984 0.30544 0
0.551186 0.312413 0
0.573388 0.319387 0
0.595605 0.32636 0
0.617807 0.333333 0
0 0.146868 0.118471
0 0.153841 0.0853285
0 0.160815 0.0521859
0 0.167788 0.0190433
0 0.174762 0
0 0.181735 0
0.00952163 0.188708 0
0.0317235 0.195682 0
0.0539406 0.202655 0
0.0761425 0.209644 0
0.0983444 0.216617 0
0.120562 0.22359 0
0.142763 0.230564 0
0.164965 0.237537 0
0.187167 0.244511 0
0.209384 0.251484 0
0.231586 0.258457 0
0.253788 0.265431 0
0.27599 0.272404 0
0.298207 0.279393 0
0.320409 0.286366 0
0.342611 0.293339 0
0.364813 0.300313 0
0.38703 0.307286 0
0.409232 0.31426 0
0.431434 0.321233 0
0.453635 0.328206 0
0.475853 0.33518 0
0.498054 0.342153 0
0.520256 0.349142 0
0.542458 0.356115 0
0.564675 0.363088 0
0.586877 0.370062 0
0 0.183581 0.148089
0 0.190555 0.114961
0 0.197528 0.0818036
0 0.204501 0.048661
0 0.21149 0.0155184
0 0.218463 0
0 0.225437 0
0.000808728 0.23241 0
0.0230106 0.239384 0
0.0452125 0.246357 0
0.0674144 0.25333 0
0.0896315 0.260304 0
0.111833 0.267277 0
0.134035 0.27425 0
0.156237 0.281239 0
0.178454 0.288212 0
0.200656 0.295186 0
0.222858 0.302159 0
0.24506 0.309133 0
0.267277 0.316106 0
0.289479 0.323079 0
0.311681 0.330053 0
0.333883 0.337026 0
0.3561 0.343999 0
0.378302 0.350988 0
0.400504 0.357961 0
0.422721 0.364935 0
0.444923 0.371908 0
0.467124 0.378882 0
0.489326 0.385855 0
0.511543 0.392828 0
0.533745 0.399802 0
0.555947 0.406775 0
0 0.22031 0.177707
0 0.227283 0.144579
0 0.234257 0.111421
0 0.24123 0.0782788
0 0.248203 0.0451362
0 0.255177 0.0119936
0 0.26215 0
0 0.269123 0
0 0.276097 0
0.0142824 0.283085 0
0.0364843 0.290059 0
0.0587015 0.297032 0
0.0809033 0.304006 0
0.103105 0.310979 0
0.125307 0.317952 0
0.147524 0.324926 0
0.169726 0.331899 0
0.191928 0.338872 0
0.214145 0.345846 0
0.236347 0.352834 0
0.258549 0.359808 0
0.280751 0.366781 0
0.302968 0.373754 0
0.32517 0.380728 0
0.347372 0.387701 0
0.369574 0.394675 0
0.391791 0.401648 0
0.413993 0.408621 0
0.436194 0.415595 0
0.458396 0.422583 0
0.480613 0.429557 0
0.502815 0.43653 0
0.525017 0.443503 0
0 0.257023 0.207324
0 0.263996 0.174197
0 0.27097 0.141054
0 0.277943 0.107897
0 0.284932 0.0747539
0 0.291905 0.0416114
0 0.298878 0.00846876
0 0.305852 0
0 0.312825 0
0 0.319799 0
0.00556954 0.326772 0
0.0277714 0.333745 0
0.0499733 0.340719 0
0.0721752 0.347692 0
0.0943923 0.354681 0
0.116594 0.361654 0
0.138796 0.368627 0
0.160998 0.375601 0
0.183215 0.382574 0
0.205417 0.389548 0
0.227619 0.396521 0
0.249821 0.403494 0
0.272038 0.410468 0
0.29424 0.417441 0
0.316442 0.42443 0
0.338643 0.431403 0
0.360861 0.438376 0
0.383062 0.44535 0
0.405264 0.452323 0
0.427466 0.459297 0
0.449683 0.46627 0
0.471885 0.473243 0
0.494087 0.480217 0
0 0.293751 0.236942
0 0.300725 0.203815
0 0.307698 0.170672
0 0.314672 0.13753
0 0.321645 0.104372
0 0.328618 0.0712291
0 0.335592 0.0380865
0 0.342565 0.00492866
0 0.349538 0
0 0.356527 0
0 0.3635 0
0 0.370474 0
0.0190433 0.377447 0
0.0412451 0.384421 0
0.0634623 0.391394 0
0.0856641 0.398367 0
0.107866 0.405341 0
0.130068 0.412314 0
0.152285 0.419287 0
0.174487 0.426276 0
0.196689 0.433249 0
0.218891 0.440223 0
0.241108 0.447196 0
0.26331 0.45417 0
0.285512 0.461143 0
0.307729 0.468116 0
0.329931 0.47509 0
0.352132 0.482063 0
0.374334 0.489036 0
0.396551 0.496025 0
0.418753 0.502998 0
0.440955 0.509972 0
0.463157 0.516945 0
0 0.330465 0.26656
0 0.337438 0.233433
0 0.344411 0.20029
0 0.3514 0.167147
0 0.358373 0.133989
0 0.365347 0.100847
0 0.37232 0.0677043
0 0.379294 0.0345617
0 0.386267 0.00140383
0 0.39324 0
0 0.400214 0
0 0.407187 0
0 0.41416 0
0.0103151 0.421149 0
0.0325322 0.428122 0
0.0547341 0.435096 0
0.076936 0.442069 0
0.0991531 0.449042 0
0.121355 0.456016 0
0.143557 0.462989 0
0.165759 0.469963 0
0.187976 0.476936 0
0.210178 0.483909 0
0.23238 0.490883 0
0.254582 0.497871 0
0.276799 0.504845 0
0.299001 0.511818 0
0.321202 0.518791 0
0.343404 0.525765 0
0.365621 0.532738 0
0.387823 0.539712 0
0.410025 0.546685 0
0.432227 0.553658 0
0 0.367193 0.296193
0 0.374166 0.26305
0 0.38114 0.229908
0 0.388113 0.196765
0 0.395087 0.163622
0 0.40206 0.130465
0 0.409033 0.097322
0 0.416007 0.0641794
0 0.422995 0.0310216
0 0.429969 0
0 0.436942 0
0 0.443915 0
0 0.450889 0
0 0.457862 0
0.0016022 0.464836 0
0.0238041 0.471809 0
0.0460059 0.478782 0
0.0682231 0.485756 0
0.090425 0.492744 0
0.112627 0.499718 0
0.134829 0.506691 0
0.157046 0.513664 0
0.179248 0.520638 0
0.20145 0.527611 0
0.223651 0.534585 0
0.245869 0.541558 0
0.26807 0.548531 0
0.290272 0.555505 0
0.31249 0.562478 0
0.334691 0.569467 0
0.356893 0.57644 0
0.379095 0.583413 0
0.401312 0.590387 0
0 0.403906 0.325811
0 0.41088 0.292668
0 0.417853 0.259525
0 0.424842 0.226383
0 0.431815 0.19324
0 0.438788 0.160082
0 0.445762 0.12694
0 0.452735 0.0937972
0 0.459709 0.0606546
0 0.466682 0.0274968
0 0.473655 0
0 0.480629 0
0 0.487602 0
0 0.494591 0
0 0.501564 0
0 0.508537 0
0.0150759 0.515511 0
0.0372931 0.522484 0
0.0594949 0.529458 0
0.0816968 0.536431 0
0.103914 0.543404 0
0.126116 0.550378 0
0.148318 0.557351 0
0.17052 0.56434 0
0.192737 0.571313 0
0.214939 0.578286 0
0.23714 0.58526 0
0.259342 0.592233 0
0.281559 0.599207 0
0.303761 0.60618 0
0.325963 0.613153 0
0.348165 0.620127 0
0.370382 0.6271 0
0 0.440635 0.355428
0 0.447608 0.322301
0 0.454582 0.289143
0 0.461555 0.256001
0 0.468528 0.222858
0 0.475502 0.189715
0 0.482475 0.156558
0 0.489448 0.123415
0 0.496437 0.0902724
0 0.50341 0.0571298
0 0.510384 0.0239719
0 0.517357 0
0 0.52433 0
0 0.531304 0
0 0.538277 0
0 0.545251 0
0 0.552224 0
0.00636301 0.559197 0
0.0285649 0.566186 0
0.0507668 0.573159 0
0.0729839 0.580133 0
0.0951858 0.587106 0
0.117388 0.594079 0
0.13959 0.601053 0
0.161807 0.608026 0
0.184009 0.615 0
0.20621 0.621973 0
0.228412 0.628946 0
0.250629 0.635935 0
0.272831 0.642908 0
0.295033 0.649882 0
0.317235 0.656855 0
0.339452 0.663828 0
0 0.477363 0.385046
0 0.484321 0.351919
0 0.491295 0.318776
0 0.498283 0.285618
0 0.505257 0.252476
0 0.51223 0.219333
0 0.519203 0.186175
0 0.526177 0.153033
0 0.53315 0.11989
0 0.540124 0.0867475
0 0.547097 0.0535897
0 0.55407 0.0204471
0 0.561044 0
0 0.568032 0
0 0.575006 0
0 0.581979 0
0 0.588952 0
0 0.595926 0
0 0.602899 0
0.0198367 0.609873 0
0.0420539 0.616846 0
0.0642557 0.623819 0
0.0864576 0.630793 0
0.108659 0.637781 0
0.130877 0.644755 0
0.153079 0.651728 0
0.17528 0.658701 0
0.197498 0.665675 0
0.219699 0.672648 0
0.241901 0.679622 0
0.264103 0.686595 0
0.28632 0.693568 0
0.308522 0.700542 0
0 0.514076 0.414664
0 0.52105 0.381537
0 0.528023 0.348394
0 0.534997 0.315236
0 0.54197 0.282094
0 0.548943 0.248951
0 0.555917 0.215808
0 0.56289 0.18265
0 0.569879 0.149508
0 0.576852 0.116365
0 0.583825 0.0832227
0 0.590799 0.0500649
0 0.597772 0.0169223
0 0.604746 0
0 0.611719 0
0 0.618692 0
0 0.625666 0
0 0.632639 0
0 0.639628 0
0 0.646601 0
0.0111238 0.653574 0
0.0333257 0.660548 0
0.0555276 0.667521 0
0.0777447 0.674495 0
0.0999466 0.681468 0
0.122148 0.688441 0
0.14435 0.695415 0
0.166567 0.702388 0
0.188769 0.709377 0
0.210971 0.71635 0
0.233173 0.723323 0
0.25539 0.730297 0
0.277592 0.73727 0
0 0.550805 0.444282
0 0.557763 0.411154
0 0.564736 0.378012
0 0.571725 0.344869
0 0.578698 0.311711
0 0.585672 0.278569
0 0.592645 0.245426
0 0.599619 0.212268
0 0.606592 0.179126
0 0.613565 0.145983
0 0.620539 0.11284
0 0.627512 0.0796826
0 0.634485 0.04654
0 0.641474 0.0133974
0 0.648447 0
0 0.655421 0
0 0.662394 0
0 0.669367 0
0 0.676341 0
0 0.683314 0
0 0.690288 0
0.00239567 0.697261 0
0.0245975 0.704234 0
0.0468147 0.711223 0
0.0690166 0.718196 0
0.0912184 0.72517 0
0.11342 0.732143 0
0.135637 0.739116 0
0.157839 0.74609 0
0.180041 0.753063 0
0.202243 0.760037 0
0.22446 0.76701 0
0.246662 0.773983 0
0 0.587518 0.473899
0 0.594491 0.440772
0 0.601465 0.40763
0 0.608438 0.374487
0 0.615412 0.341329
0 0.622385 0.308186
0 0.629358 0.275044
0 0.636347 0.241901
0 0.64332 0.208743
0 0.650294 0.175601
0 0.657267 0.142458
0 0.66424 0.109316
0 0.671214 0.0761578
0 0.678187 0.0430152
0 0.685161 0.00987259
0 0.692134 0
0 0.699107 0
0 0.706081 0
0 0.713069 0
0 0.720043 0
0 0.727016 0
0 0.733989 0
0 0.740963 0
0.0158846 0.747936 0
0.0380865 0.75491 0
0.0602884 0.761883 0
0.0825055 0.768856 0
0.104707 0.77583 0
0.126909 0.782818 0
0.149111 0.789792 0
0.171328 0.796765 0
0.19353 0.803738 0
0.215732 0.810712 0
0 0.624247 0.503532
0 0.631205 0.47039
0 0.638193 0.437247
0 0.645167 0.404105
0 0.65214 0.370962
0 0.659113 0.337804
0 0.666087 0.304662
0 0.67306 0.271519
0 0.680034 0.238376
0 0.687007 0.205219
0 0.69398 0.172076
0 0.700954 0.138933
0 0.707942 0.105776
0 0.714916 0.0726329
0 0.721889 0.0394903
0 0.728862 0.00634775
0 0.735836 0
0 0.742809 0
0 0.749783 0
0 0.756756 0
0 0.763729 0
0 0.770703 0
0 0.777676 0
0 0.784665 0
0.00715648 0.791638 0
0.0293584 0.798611 0
0.0515755 0.805585 0
0.0737774 0.812558 0
0.0959793 0.819532 0
0.118181 0.826505 0
0.140398 0.833478 0
0.1626 0.840452 0
0.184802 0.847425 0
0 0.66096 0.53315
0 0.667933 0.500023
0 0.674907 0.466865
0 0.68188 0.433722
0 0.688853 0.40058
0 0.695827 0.367422
0 0.7028 0.334279
0 0.709789 0.301137
0 0.716762 0.267994
0 0.723735 0.234836
0 0.730709 0.201694
0 0.737682 0.168551
0 0.744656 0.135409
0 0.751629 0.102251
0 0.758602 0.0691081
0 0.765576 0.0359655
0 0.772549 0.00282292
0 0.779538 0
0 0.786511 0
0 0.793484 0
0 0.800458 0
0 0.807431 0
0 0.814404 0
0 0.821378 0
0 0.828351 0
0 0.835325 0
0.0206455 0.842298 0
0.0428473 0.849271 0
0.0650492 0.85626 0
0.0872511 0.863233 0
0.109468 0.870207 0
0.13167 0.87718 0
0.153872 0.884153 0
0 0.697688 0.562768
0 0.704646 0.529641
0 0.711635 0.496483
0 0.718608 0.46334
0 0.725582 0.430198
0 0.732555 0.397055
0 0.739528 0.363897
0 0.746502 0.330755
0 0.753475 0.297612
0 0.760449 0.264469
0 0.767422 0.231312
0 0.774395 0.198169
0 0.781384 0.165026
0 0.788357 0.131868
0 0.795331 0.0987259
0 0.802304 0.0655833
0 0.809277 0.0324407
0 0.816251 0
0 0.823224 0
0 0.830198 0
0 0.837171 0
0 0.844144 0
0 0.851133 0
0 0.858106 0
0 0.86508 0
0 0.872053 0
0 0.879026 0
0.0119173 0.886 0
0.0341192 0.892973 0
0.0563363 0.899947 0
0.0785382 0.90692 0
0.10074 0.913893 0
0.122942 0.920867 0
0 0.734401 0.592386
0 0.741375 0.559258
0 0.748348 0.526116
0 0.755322 0.492958
0 0.762295 0.459815
0 0.769268 0.426673
0 0.776242 0.393515
0 0.78323 0.360372
0 0.790204 0.32723
0 0.797177 0.294087
0 0.80415 0.260929
0 0.811124 0.227787
0 0.818097 0.194644
0 0.825071 0.161501
0 0.832044 0.128344
0 0.839017 0.095201
0 0.845991 0.0620584
0 0.852979 0.0289158
0 0.859953 0
0 0.866926 0
0 0.873899 0
0 0.880873 0
0 0.887846 0
0 0.89482 0
0 0.901793 0
0 0.908766 0
0 0.91574 0
0 0.922728 0
0.00318914 0.929702 0
0.0254063 0.936675 0
0.0476081 0.943648 0
0.06981 0.950622 0
0.0920119 0.957595 0
0 0.77113 0.622003
0 0.778088 0.588876
0 0.785077 0.555734
0 0.79205 0.522576
0 0.799023 0.489433
0 0.805997 0.456291
0 0.81297 0.423148
0 0.819944 0.38999
0 0.826917 0.356847
0 0.83389 0.323705
0 0.840864 0.290562
0 0.847837 0.257404
0 0.854826 0.224262
0 0.861799 0.191119
0 0.868772 0.157977
0 0.875746 0.124819
0 0.882719 0.0916762
0 0.889693 0.0585336
0 0.896666 0.0253758
0 0.903639 0
0 0.910613 0
0 0.917586 0
0 0.924575 0
0 0.931548 0
0 0.938521 0
0 0.945495 0
0 0.952468 0
0 0.959442 0
0 0.966415 0
0 0.973388 0
0.0166781 0.980362 0
0.03888 0.987335 0
0.0610971 0.994324 0
0 0.807843 0.651621
0 0.814817 0.618494
0 0.82179 0.585351
0 0.828763 0.552209
0 0.835737 0.519051
0 0.84271 0.485908
0 0.849683 0.452766
0 0.856672 0.419623
0 0.863645 0.386465
0 0.870619 0.353323
0 0.877592 0.32018
0 0.884565 0.287022
0 0.891539 0.25388
0 0.898512 0.220737
0 0.905486 0.187594
0 0.912459 0.154437
0 0.919432 0.121294
0 0.926421 0.0881514
0 0.933394 0.0550088
0 0.940368 0.0218509
0 0.947341 0
0 0.954314 0
0 0.961288 0
0 0.968261 0
0 0.975235 0
0 0.982208 0
0 0.989181 0
0 0.99617 0
0 1 0
0 1 0
0 1 0
0.00794995 1 0
0.0301671 1 0
0 0.844572 0.681239
0 0.851545 0.648112
0 0.858518 0.614969
0 0.865492 0.581827
0 0.872465 0.548669
0 0.879438 0.515526
0 0.886412 0.482383
0 0.893385 0.449241
0 0.900359 0.416083
0 0.907332 0.38294
0 0.914305 0.349798
0 0.921279 0.316655
0 0.928267 0.283497
0 0.935241 0.250355
0 0.942214 0.217212
0 0.949187 0.18407
0 0.956161 0.150912
0 0.963134 0.117769
0 0.970108 0.0846265
0 0.977081 0.0514839
0 0.984054 0.0183261
0 0.991028 0
0 0.998016 0
0 1 0
0 1 0
0 1 0
0 1 0
0 1 0
0 1 0
0 1 0
0 1 0
0 1 0
0 1 0
0 0.881285 0.710872
0 0.888258 0.677729
0 0.895232 0.644587
0 0.902205 0.611444
0 0.909178 0.578302
0 0.916152 0.545144
0 0.92314 0.512001
0 0.930114 0.478859
0 0.937087 0.445716
0 0.94406 0.412558
0 0.951034 0.379416
0 0.958007 0.346273
0 0.964981 0.313115
0 0.971954 0.279973
0 0.978927 0.24683
0 0.985901 0.213687
0 0.992874 0.180529
0 0.999863 0.147387
0 1 0.114244
0 1 0.0811017
0 1 0.0479438
0 1 0.0148013
0 1 0
0 1 0
0 1 0
0 1 0
0 1 0
0 1 0
0 1 0
0 1 0
0 1 0
0 1 0
0 1 0
0 0.918013 0.74049
0 0.924987 0.707362
0 0.93196 0.674205
0 0.938933 0.641062
0 0.945907 0.607919
0 0.95288 0.574762
0 0.959854 0.541619
0 0.966827 0.508476
0 0.9738 0.475334
0 0.980774 0.442176
0 0.987747 0.409033
0 0.994736 0.375891
0 1 0.342748
0 1 0.30959
0 1 0.276448
0 1 0.243305
0 1 0.210163
0 1 0.177005
0 1 0.143862
0 1 0.110719
0 1 0.0775769
0 1 0.044419
0 1 0.0112764
0 1 0
0 1 0
0 1 0
0 1 0
0 1 0
0 1 0
0 1 0
0 1 0
0 1 0
0 1 0
0 0.954726 0.770108
0 0.9617 0.73698
0 0.968673 0.703822
0 0.975647 0.67068
0 0.98262 0.637537
0 0.989593 0.604395
0 0.996582 0.571237
0 1 0.538094
0 1 0.504952
0 1 0.471809
0 1 0.438651
0 1 0.405509
0 1 0.372366
0 1 0.339223
0 1 0.306065
0 1 0.272923
0 1 0.23978
0 1 0.206622
0 1 0.17348
0 1 0.140337
0 1 0.107195
0 1 0.0740368
0 1 0.0408942
0 1 0.00775158
0 1 0
0 1 0
0 1 0
0 1 0
0 1 0
0 1 0
0 1 0
0 1 0
0 1 0
0 0.991455 0.799725
0 0.998428 0.766598
0 1 0.733455
0 1 0.700298
0 1 0.667155
0 1 0.634012
0 1 0.60087
0 1 0.567712
0 1 0.534569
