public/LUTS/Color Shift/ColorShift_88.cube
TITLE "Generated by Resolve"
LUT_3D_SIZE 9
0 0 0
0.0277256 0.00396735 0.196078
0.0554513 0.00793469 0.392203
0.0831769 0.011902 0.588312
0.110903 0.0158846 0.784421
0.138613 0.019852 0.980529
0.166339 0.0238193 1
0.194064 0.0277867 1
0.22179 0.031754 1
0.272663 0.0454108 0
0.300374 0.0493782 0.17882
0.328099 0.0533455 0.374929
0.355825 0.0573129 0.571038
0.383551 0.0612802 0.767147
0.411276 0.0652628 0.963256
0.439002 0.0692302 1
0.466728 0.0731975 1
0.494453 0.0771649 1
0.545342 0.0908217 0
0.573068 0.094789 0.161532
0.600793 0.0987564 0.357656
0.628519 0.102739 0.553765
0.656245 0.106706 0.749874
0.68397 0.110674 0.945983
0.711696 0.114641 1
0.739422 0.118608 1
0.767147 0.122576 1
0.818036 0.136233 0
0.845762 0.140215 0.144259
0.873487 0.144183 0.340368
0.901213 0.14815 0.536492
0.928939 0.152117 0.732601
0.956649 0.156085 0.92871
0.984375 0.160052 1
1 0.164019 1
1 0.168002 1
1 0.181659 0
1 0.185626 0.126986
1 0.189593 0.323095
1 0.193561 0.519203
1 0.197528 0.715328
1 0.201495 0.911437
1 0.205478 1
1 0.209445 1
1 0.213413 1
1 0.22707 0
1 0.231037 0.109712
1 0.235004 0.305821
1 0.238972 0.50193
1 0.242939 0.698039
1 0.246921 0.894148
1 0.250889 1
1 0.254856 1
1 0.258824 1
1 0.27248 0
1 0.276448 0.0924392
1 0.280415 0.288548
1 0.284398 0.484657
1 0.288365 0.680766
1 0.292332 0.876875
1 0.2963 1
1 0.300267 1
1 0.304234 1
1 0.317891 0
1 0.321859 0.0751659
1 0.325841 0.271275
1 0.329809 0.467384
1 0.333776 0.663493
1 0.337743 0.859602
1 0.341711 1
1 0.345678 1
1 0.34966 1
1 0.363317 0
1 0.367285 0.0578927
1 0.371252 0.254002
1 0.375219 0.450111
1 0.379187 0.64622
1 0.383154 0.842329
1 0.387137 1
1 0.391104 1
1 0.395071 1
0 0.0756085 0
0 0.0795758 0.14226
0 0.0835431 0.338369
0 0.0875105 0.534478
0 0.0914931 0.730587
0 0.0954604 0.926696
0 0.0994278 1
0.018677 0.103395 1
0.0464027 0.107362 1
0.097261 0.121019 0
0.124987 0.124987 0.124987
0.152712 0.128954 0.321096
0.180438 0.132921 0.517205
0.208164 0.136889 0.713314
0.235889 0.140871 0.909422
0.263615 0.144839 1
0.291341 0.148806 1
0.319066 0.152773 1
0.369955 0.16643 0
0.397681 0.170397 0.107713
0.425406 0.174365 0.303822
0.453132 0.178347 0.499931
0.480858 0.182315 0.69604
0.508568 0.186282 0.892149
0.536294 0.190249 1
0.564019 0.194217 1
0.591745 0.198184 1
0.642649 0.211841 0
0.670359 0.215808 0.0904402
0.698085 0.219791 0.286549
0.725811 0.223758 0.482658
0.753536 0.227726 0.678767
0.781262 0.231693 0.874876
0.808988 0.23566 1
0.836713 0.239628 1
0.864439 0.24361 1
0.915343 0.257267 0
0.943053 0.261234 0.073167
0.970779 0.265202 0.269276
0.998505 0.269169 0.465385
1 0.273136 0.661494
1 0.277104 0.857603
1 0.281086 1
1 0.285054 1
1 0.289021 1
1 0.302678 0
1 0.306645 0.0558938
1 0.310613 0.252003
1 0.31458 0.448112
1 0.318547 0.644221
1 0.32253 0.84033
1 0.326497 1
1 0.330465 1
1 0.334432 1
1 0.348089 0
1 0.352056 0.0386206
1 0.356023 0.23473
1 0.360006 0.430838
1 0.363973 0.626947
1 0.367941 0.823056
1 0.371908 1
1 0.375875 1
1 0.379843 1
1 0.3935 0
1 0.397467 0.0213474
1 0.40145 0.217456
1 0.405417 0.413565
1 0.409384 0.609674
1 0.413352 0.805783
1 0.417319 1
1 0.421286 1
1 0.425269 1
1 0.438926 0
1 0.442893 0.00407416
1 0.44686 0.200183
1 0.450828 0.396292
1 0.454795 0.592401
1 0.458762 0.78851
1 0.462745 0.984619
1 0.466712 1
1 0.47068 1
0 0.151232 0
0 0.1552 0.088426
0 0.159167 0.284535
0 0.163134 0.480644
0 0.167102 0.676753
0 0.171069 0.872862
0 0.175051 1
0 0.179019 1
0 0.182986 1
0 0.196628 0
0 0.20061 0.0711528
0 0.204578 0.267262
0.00502022 0.208545 0.463371
0.0327459 0.212512 0.65948
0.0604715 0.21648 0.855589
0.0881971 0.220447 1
0.115923 0.22443 1
0.143648 0.228397 1
0.194537 0.242054 0
0.222263 0.246021 0.0538796
0.249989 0.249989 0.249989
0.277714 0.253956 0.446097
0.30544 0.257923 0.642206
0.333165 0.261891 0.838315
0.360891 0.265873 1
0.388617 0.269841 1
0.416342 0.273808 1
0.467231 0.287465 0
0.494957 0.291432 0.0366064
0.522683 0.295399 0.232715
0.550408 0.299367 0.428824
0.578134 0.303349 0.624933
0.605859 0.307317 0.821042
0.63357 0.311284 1
0.661295 0.315251 1
0.689021 0.319219 1
0.739925 0.332876 0
0.767651 0.336843 0.0193332
0.795361 0.34081 0.215442
0.823087 0.344793 0.411551
0.850813 0.34876 0.60766
0.878538 0.352728 0.803769
0.906264 0.356695 0.999878
0.933989 0.360662 1
0.961715 0.36463 1
1 0.378286 0
1 0.382269 0.00205997
1 0.386236 0.198169
1 0.390204 0.394278
1 0.394171 0.590387
1 0.398138 0.786496
1 0.402106 0.982605
1 0.406088 1
1 0.410056 1
1 0.423713 0
1 0.42768 0
1 0.431647 0.180896
1 0.435615 0.377005
1 0.439582 0.573114
1 0.443549 0.769223
1 0.447532 0.965331
1 0.451499 1
1 0.455467 1
1 0.469123 0
1 0.473091 0
1 0.477058 0.163622
1 0.481025 0.359731
1 0.485008 0.55584
1 0.488975 0.751949
1 0.492943 0.948058
1 0.49691 1
1 0.500877 1
1 0.514534 0
1 0.518502 0
1 0.522469 0.146349
1 0.526452 0.342458
1 0.530419 0.538567
1 0.534386 0.734676
1 0.538354 0.930785
1 0.542321 1
1 0.546288 1
0 0.226841 0
0 0.230808 0.0345922
0 0.234775 0.230701
0 0.238758 0.42681
0 0.242725 0.622919
0 0.246693 0.819028
0 0.25066 1
0 0.254627 1
0 0.258595 1
0 0.272251 0
0 0.276219 0.017319
0 0.280186 0.213428
0 0.284169 0.409537
0 0.288136 0.605646
0 0.292103 0.801755
0 0.296071 0.997864
0 0.300038 1
0 0.304006 1
0.0191348 0.317662 0
0.0468452 0.32163 4.57771e-05
0.0745708 0.325612 0.196155
0.102296 0.32958 0.392264
0.130022 0.333547 0.588373
0.157748 0.337514 0.784482
0.185473 0.341482 0.980591
0.213199 0.345449 1
0.240925 0.349432 1
0.291814 0.363088 0
0.319539 0.367056 0
0.347265 0.371023 0.178882
0.37499 0.37499 0.37499
0.402716 0.378958 0.571099
0.430442 0.382925 0.767208
0.458167 0.386892 0.963317
0.485893 0.390875 1
0.513619 0.394842 1
0.564508 0.408499 0
0.592233 0.412467 0
0.619959 0.416434 0.161608
0.647684 0.420401 0.357717
0.67541 0.424369 0.553826
0.703136 0.428351 0.749935
0.730861 0.432319 0.946044
0.758572 0.436286 1
0.786297 0.440253 1
0.837201 0.45391 0
0.864927 0.457877 0
0.892653 0.461845 0.144335
0.920363 0.465812 0.340444
0.948089 0.469795 0.536553
0.975814 0.473762 0.732662
1 0.477729 0.928771
1 0.481697 1
1 0.485664 1
1 0.499321 0
1 0.503288 0
1 0.507271 0.127062
1 0.511238 0.323171
1 0.515206 0.51928
1 0.519173 0.715389
1 0.52314 0.911498
1 0.527108 1
1 0.53109 1
1 0.544747 0
1 0.548714 0
1 0.552682 0.109789
1 0.556649 0.305898
1 0.560616 0.502007
1 0.564584 0.698116
1 0.568551 0.894224
1 0.572534 1
1 0.576501 1
1 0.590158 0
1 0.594125 0
1 0.598093 0.0925154
1 0.60206 0.288624
1 0.606027 0.484733
1 0.61001 0.680842
1 0.613977 0.876951
1 0.617945 1
1 0.621912 1
0 0.302464 0
0 0.306432 0
0 0.310399 0.176867
0 0.314366 0.372976
0 0.318334 0.569085
0 0.322316 0.765194
0 0.326284 0.961303
0 0.330251 1
0 0.334218 1
0 0.347875 0
0 0.351843 0
0 0.35581 0.159594
0 0.359777 0.355703
0 0.363745 0.551812
0 0.367712 0.747921
0 0.371695 0.94403
0 0.375662 1
0 0.379629 1
0 0.393286 0
0 0.397253 0
0 0.401221 0.142321
0 0.405188 0.33843
0 0.409171 0.534539
0 0.413138 0.730648
0.0100557 0.417105 0.926757
0.0377813 0.421073 1
0.065507 0.42504 1
0.116411 0.438697 0
0.144121 0.442664 0
0.171847 0.446632 0.125048
0.199573 0.450614 0.321157
0.227298 0.454582 0.517266
0.255024 0.458549 0.713375
0.28275 0.462516 0.909483
0.310475 0.466484 1
0.338201 0.470451 1
0.38909 0.484108 0
0.416815 0.48809 0
0.444541 0.492058 0.107774
0.472267 0.496025 0.303883
0.499992 0.499992 0.499992
0.527718 0.50396 0.696101
0.555444 0.507927 0.89221
0.583169 0.511894 1
0.610895 0.515877 1
0.661784 0.529534 0
0.689509 0.533501 0
0.717235 0.537469 0.0905013
0.744961 0.541436 0.28661
0.772686 0.545403 0.482719
0.800412 0.549371 0.678828
0.828138 0.553353 0.874937
0.855863 0.557321 1
0.883574 0.561288 1
0.934478 0.574945 0
0.962203 0.578912 0
0.989929 0.582879 0.073228
1 0.586847 0.269337
1 0.590814 0.465446
1 0.594797 0.661555
1 0.598764 0.857664
1 0.602731 1
1 0.606699 1
1 0.620356 0
1 0.624323 0
1 0.62829 0.0559548
1 0.632273 0.252064
1 0.63624 0.448173
1 0.640208 0.644282
1 0.644175 0.840391
1 0.648142 1
1 0.65211 1
1 0.665766 0
1 0.669749 0
1 0.673716 0.0386816
1 0.677684 0.234791
1 0.681651 0.4309
1 0.685618 0.627008
1 0.689586 0.823117
1 0.693553 1
1 0.697536 1
0 0.378073 0
0 0.38204 0
0 0.386023 0.123033
0 0.38999 0.319142
0 0.393957 0.515251
0 0.397925 0.71136
0 0.401892 0.907469
0 0.405859 1
0 0.409842 1
0 0.423484 0
0 0.427451 0
0 0.431434 0.10576
0 0.435401 0.301869
0 0.439368 0.497978
0 0.443336 0.694087
0 0.447303 0.890196
0 0.45127 1
0 0.455238 1
0 0.468894 0
0 0.472877 0
0 0.476844 0.0884871
0 0.480812 0.284596
0 0.484779 0.480705
0 0.488746 0.676814
0 0.492714 0.872923
0 0.496696 1
0 0.500664 1
0 0.514321 0
0 0.518288 0
0 0.522255 0.0712139
0.0241703 0.526223 0.267323
0.0518959 0.53019 0.463432
0.0796216 0.534173 0.659541
0.107332 0.53814 0.85565
0.135058 0.542107 1
0.162783 0.546075 1
0.213687 0.559731 0
0.241413 0.563699 0
0.269123 0.567666 0.0539406
0.296849 0.571633 0.25005
0.324575 0.575616 0.446159
0.3523 0.579583 0.642267
0.380026 0.583551 0.838376
0.407752 0.587518 1
0.435477 0.591485 1
0.486381 0.605142 0
0.514092 0.60911 0
0.541817 0.613092 0.0366674
0.569543 0.61706 0.232776
0.597269 0.621027 0.428885
0.624994 0.624994 0.624994
0.65272 0.628962 0.821103
0.680446 0.632929 1
0.708171 0.636896 1
0.75906 0.650553 0
0.786786 0.654536 0
0.814511 0.658503 0.0193942
0.842237 0.66247 0.215503
0.869963 0.666438 0.411612
0.897688 0.670405 0.607721
0.925414 0.674372 0.80383
0.95314 0.678355 0.999939
0.980865 0.682322 1
1 0.695979 0
1 0.699947 0
1 0.703914 0.002121
1 0.707881 0.19823
1 0.711849 0.394339
1 0.715831 0.590448
1 0.719799 0.786557
1 0.723766 0.982666
1 0.727733 1
1 0.74139 0
1 0.745357 0
1 0.749325 0
1 0.753292 0.180957
1 0.757275 0.377066
1 0.761242 0.573175
1 0.765209 0.769284
1 0.769177 0.965393
1 0.773144 1
0 0.453696 0
0 0.457664 0
0 0.461631 0.0691997
0 0.465599 0.265309
0 0.469581 0.461418
0 0.473548 0.657526
0 0.477516 0.853635
0 0.481483 1
0 0.485451 1
0 0.499107 0
0 0.503075 0
0 0.507042 0.0519265
0 0.511009 0.248035
0 0.514977 0.444144
0 0.518959 0.640253
0 0.522927 0.836362
0 0.526894 1
0 0.530861 1
0 0.544518 0
0 0.548486 0
0 0.552453 0.0346532
0 0.556435 0.230762
0 0.560403 0.426871
0 0.56437 0.62298
0 0.568338 0.819089
0 0.572305 1
0 0.576272 1
0 0.589929 0
0 0.593896 0
0 0.597879 0.01738
0 0.601846 0.213489
0 0.605814 0.409598
0 0.609781 0.605707
0 0.613748 0.801816
0 0.617716 0.997925
0 0.621698 1
0.0382696 0.635355 0
0.0659953 0.639323 0
0.0937209 0.64329 0.000106813
0.121447 0.647257 0.196216
0.149172 0.651225 0.392325
0.176898 0.655192 0.588434
0.204623 0.659175 0.784543
0.232334 0.663142 0.980652
0.26006 0.667109 1
0.310964 0.680766 0
0.338689 0.684733 0
0.366415 0.688701 0
0.394125 0.692668 0.178943
0.421851 0.696635 0.375051
0.449577 0.700618 0.57116
0.477302 0.704585 0.767269
0.505028 0.708553 0.963378
0.532753 0.71252 1
0.583658 0.726177 0
0.611368 0.730144 0
0.639094 0.734112 0
0.666819 0.738094 0.161669
0.694545 0.742061 0.357778
0.722271 0.746029 0.553887
0.749996 0.749996 0.749996
0.777722 0.753964 0.946105
0.805447 0.757931 1
0.856336 0.771588 0
0.884062 0.775555 0
0.911788 0.779538 0
0.939513 0.783505 0.144396
0.967239 0.787472 0.340505
0.994965 0.79144 0.536614
1 0.795407 0.732723
1 0.799374 0.928832
1 0.803357 1
1 0.817014 0
1 0.820981 0
1 0.824948 0
1 0.828916 0.127123
1 0.832883 0.323232
1 0.836851 0.519341
1 0.840818 0.71545
1 0.8448 0.911559
1 0.848768 1
0 0.52932 0
0 0.533288 0
0 0.537255 0.0153658
0 0.541222 0.211475
0 0.54519 0.407584
0 0.549157 0.603693
0 0.553124 0.799802
0 0.557107 0.995911
0 0.561074 1
0 0.574716 0
0 0.578698 0
0 0.582666 0
0 0.586633 0.194202
0 0.5906 0.390311
0 0.594568 0.586419
0 0.598535 0.782528
0 0.602518 0.978637
0 0.606485 1
0 0.620142 0
0 0.624109 0
0 0.628077 0
0 0.632044 0.176928
0 0.636011 0.373037
0 0.639979 0.569146
0 0.643961 0.765255
0 0.647929 0.961364
0 0.651896 1
0 0.665553 0
0 0.66952 0
0 0.673487 0
0 0.677455 0.159655
0 0.681437 0.355764
0 0.685405 0.551873
0 0.689372 0.747982
0 0.693339 0.944091
0 0.697307 1
0 0.710964 0
0 0.714931 0
0 0.718898 0
0 0.722881 0.142382
0 0.726848 0.338491
0.00148013 0.730816 0.5346
0.0292058 0.734783 0.730709
0.0569314 0.73875 0.926818
0.0846571 0.742718 1
0.135546 0.756374 0
0.163272 0.760357 0
0.190997 0.764324 0
0.218723 0.768292 0.125109
0.246448 0.772259 0.321218
0.274174 0.776226 0.517327
0.3019 0.780194 0.713436
0.329625 0.784176 0.909545
0.357336 0.788144 1
0.40824 0.801801 0
0.435966 0.805768 0
0.463691 0.809735 0
0.491417 0.813703 0.107836
0.519127 0.81767 0.303944
0.546853 0.821637 0.500053
0.574578 0.82562 0.696162
0.602304 0.829587 0.892271
0.63003 0.833555 1
0.680934 0.847211 0
0.708644 0.851179 0
0.73637 0.855146 0
0.764096 0.859113 0.0905623
0.791821 0.863096 0.286671
0.819547 0.867063 0.48278
0.847272 0.871031 0.678889
0.874998 0.874998 0.874998
0.902724 0.878965 1
0.953613 0.892622 0
0.981338 0.89659 0
1 0.900557 0
1 0.90454 0.0732891
1 0.908507 0.269398
1 0.912474 0.465507
1 0.916442 0.661616
1 0.920409 0.857725
1 0.924376 1
0 0.604929 0
0 0.608896 0
0 0.612863 0
0 0.616846 0.157641
0 0.620813 0.35375
0 0.624781 0.549859
0 0.628748 0.745968
0 0.632715 0.942077
0 0.636683 1
0 0.650339 0
0 0.654307 0
0 0.658274 0
0 0.662242 0.140368
0 0.666224 0.336477
0 0.670192 0.532586
0 0.674159 0.728695
0 0.678126 0.924804
0 0.682094 1
0 0.69575 0
0 0.699718 0
0 0.7037 0
0 0.707668 0.123095
0 0.711635 0.319203
0 0.715602 0.515312
0 0.71957 0.711421
0 0.723537 0.90753
0 0.72752 1
0 0.741176 0
0 0.745144 0
0 0.749111 0
0 0.753079 0.105821
0 0.757046 0.30193
0 0.761013 0.498039
0 0.764981 0.694148
0 0.768963 0.890257
0 0.772931 1
0 0.786587 0
0 0.790555 0
0 0.794522 0
0 0.798489 0.0885481
0 0.802457 0.284657
0 0.806439 0.480766
0 0.810407 0.676875
0 0.814374 0.872984
0 0.818341 1
0 0.831998 0
0 0.835966 0
0.0155795 0.839933 0
0.0433051 0.8439 0.0712749
0.0710307 0.847883 0.267384
0.0987564 0.85185 0.463493
0.126482 0.855817 0.659602
0.154208 0.859785 0.855711
0.181933 0.863752 1
0.232822 0.877409 0
0.260548 0.881376 0
0.288273 0.885359 0
0.315999 0.889326 0.0540017
0.343725 0.893294 0.250111
0.37145 0.897261 0.44622
0.399176 0.901228 0.642329
0.426902 0.905196 0.838437
0.454627 0.909178 1
0.505516 0.922835 0
0.533242 0.926802 0
0.560967 0.93077 0
0.588693 0.934737 0.0367285
0.616419 0.938704 0.232837
0.644129 0.942672 0.428946
0.671855 0.946639 0.625055
0.69958 0.950622 0.821164
0.727306 0.954589 1
0.77821 0.968246 0
0.80592 0.972213 0
0.833646 0.976181 0
0.861372 0.980148 0.0194553
0.889097 0.984115 0.215564
0.916823 0.988098 0.411673
0.944549 0.992065 0.607782
0.972274 0.996033 0.803891
1 1 1
