public/LUTS/Color Shift/ColorShift_85.cube
TITLE "Generated by Resolve"
LUT_3D_SIZE 33
0 0 0
0.0228733 0 0.0457923
0.0457771 0 0.0916152
0.0686656 0 0.137438
0.0915541 0 0.183246
0.114443 0 0.229068
0.137331 0 0.274891
0.16022 0 0.320714
0.183124 0 0.366522
0.206012 0 0.412345
0.228901 0 0.458167
0.251789 0 0.50399
0.274678 0 0.549798
0.297581 0 0.595621
0.32047 0 0.641443
0.343359 0 0.687266
0.366247 0 0.733074
0.389136 0 0.778897
0.412024 0 0.82472
0.434928 0 0.870542
0.457816 0 0.91635
0.480705 0 0.962173
0.503594 0 1
0.526482 0 1
0.549371 0 1
0.572274 0 1
0.595163 0 1
0.618051 0 1
0.64094 0 1
0.663828 0 1
0.686732 0 1
0.709621 0 1
0.732509 0 1
0.0551308 0.0171511 0
0.0780194 0.0137636 0.0267185
0.100908 0.0103761 0.0725414
0.123796 0.00700389 0.118349
0.146685 0.00361639 0.164172
0.169589 0.000228885 0.209995
0.192477 0 0.255818
0.215366 0 0.301625
0.238254 0 0.347448
0.261143 0 0.393271
0.284031 0 0.439094
0.306935 0 0.484901
0.329824 0 0.530724
0.352712 0 0.576547
0.375601 0 0.62237
0.398489 0 0.668177
0.421378 0 0.714
0.444282 0 0.759823
0.46717 0 0.805631
0.490059 0 0.851453
0.512947 0 0.897276
0.535836 0 0.943099
0.558724 0 0.988907
0.581628 0 1
0.604517 0 1
0.627405 0 1
0.650294 0 1
0.673182 0 1
0.696086 0 1
0.718975 0 1
0.741863 0 1
0.764752 0 1
0.78764 0 1
0.110307 0.0343023 0
0.133181 0.0309148 0.00762951
0.156069 0.0275425 0.0534524
0.178958 0.024155 0.0992599
0.201846 0.0207675 0.145083
0.22475 0.0173953 0.190906
0.247639 0.0140078 0.236728
0.270527 0.0106203 0.282536
0.293416 0.00723278 0.328359
0.316304 0.00386053 0.374182
0.339208 0.00047303 0.420005
0.362097 0 0.465812
0.384985 0 0.511635
0.407874 0 0.557458
0.430762 0 0.603281
0.453651 0 0.649088
0.476555 0 0.694911
0.499443 0 0.740734
0.522332 0 0.786542
0.54522 0 0.832364
0.568109 0 0.878187
0.590997 0 0.92401
0.613901 0 0.969818
0.63679 0 1
0.659678 0 1
0.682567 0 1
0.705455 0 1
0.728359 0 1
0.751247 0 1
0.774136 0 1
0.797024 0 1
0.819913 0 1
0.842802 0 1
0.165469 0.0514534 0
0.188342 0.0480812 0
0.211231 0.0446937 0.0343633
0.234119 0.0413062 0.0801709
0.257023 0.0379339 0.125994
0.279911 0.0345464 0.171817
0.3028 0.0311589 0.217639
0.325689 0.0277714 0.263447
0.348577 0.0243992 0.30927
0.371466 0.0210117 0.355093
0.394369 0.0176242 0.400916
0.417258 0.0142519 0.446723
0.440146 0.0108644 0.492546
0.463035 0.00747692 0.538369
0.485924 0.00408942 0.584192
0.508827 0.000717174 0.629999
0.531716 0 0.675822
0.554604 0 0.721645
0.577493 0 0.767468
0.600381 0 0.813275
0.62327 0 0.859098
0.646174 0 0.904921
0.669062 0 0.950729
0.691951 0 0.996551
0.714839 0 1
0.737728 0 1
0.760616 0 1
0.78352 0 1
0.806409 0 1
0.829297 0 1
0.852186 0 1
0.875074 0 1
0.897978 0 1
0.22063 0.0686198 0
0.243503 0.0652323 0
0.266392 0.0618448 0.0152743
0.289296 0.0584726 0.0610819
0.312184 0.0550851 0.106905
0.335073 0.0516976 0.152728
0.357961 0.0483101 0.19855
0.38085 0.0449378 0.244358
0.403738 0.0415503 0.290181
0.426642 0.0381628 0.336004
0.449531 0.0347906 0.381826
0.472419 0.0314031 0.427634
0.495308 0.0280156 0.473457
0.518196 0.0246281 0.51928
0.541085 0.0212558 0.565103
0.563989 0.0178683 0.61091
0.586877 0.0144808 0.656733
0.609766 0.0111086 0.702556
0.632654 0.00772107 0.748379
0.655543 0.00433356 0.794186
0.678447 0.000946059 0.840009
0.701335 0 0.885832
0.724224 0 0.93164
0.747112 0 0.977462
0.770001 0 1
0.792889 0 1
0.815793 0 1
0.838682 0 1
0.86157 0 1
0.884459 0 1
0.907347 0 1
0.930236 0 1
0.95314 0 1
0.275792 0.085771 0
0.298665 0.0823835 0
0.321569 0.0790112 0
0.344457 0.0756237 0.0419928
0.367346 0.0722362 0.0878157
0.390234 0.0688487 0.133639
0.413123 0.0654765 0.179461
0.436011 0.062089 0.225269
0.458915 0.0587015 0.271092
0.481804 0.0553292 0.316915
0.504692 0.0519417 0.362737
0.527581 0.0485542 0.408545
0.550469 0.0451667 0.454368
0.573358 0.0417945 0.500191
0.596262 0.038407 0.546014
0.61915 0.0350195 0.591821
0.642039 0.0316472 0.637644
0.664927 0.0282597 0.683467
0.687816 0.0248722 0.72929
0.710719 0.0214847 0.775097
0.733608 0.0181125 0.82092
0.756497 0.014725 0.866743
0.779385 0.0113375 0.912551
0.802274 0.00796521 0.958373
0.825162 0.00457771 1
0.848066 0.0011902 1
0.870954 0 1
0.893843 0 1
0.916732 0 1
0.93962 0 1
0.962509 0 1
0.985412 0 1
1 0 1
0.330953 0.102922 0
0.353826 0.0995499 0
0.37673 0.0961624 0
0.399619 0.0927749 0.0229038
0.422507 0.0893873 0.0687266
0.445396 0.0860151 0.114549
0.468284 0.0826276 0.160372
0.491188 0.0792401 0.20618
0.514076 0.0758679 0.252003
0.536965 0.0724804 0.297826
0.559853 0.0690929 0.343648
0.582742 0.0657054 0.389456
0.605631 0.0623331 0.435279
0.628534 0.0589456 0.481102
0.651423 0.0555581 0.526925
0.674311 0.0521859 0.572732
0.6972 0.0487984 0.618555
0.720088 0.0454108 0.664378
0.742977 0.0420233 0.710201
0.765881 0.0386511 0.756008
0.788769 0.0352636 0.801831
0.811658 0.0318761 0.847654
0.834546 0.0285039 0.893477
0.857435 0.0251164 0.939284
0.880339 0.0217288 0.985107
0.903227 0.0183413 1
0.926116 0.0149691 1
0.949004 0.0115816 1
0.971893 0.00819409 1
0.994781 0.00482185 1
1 0.00143435 1
1 0 1
1 0 1
0.386114 0.120073 0
0.409003 0.116701 0
0.431891 0.113313 0
0.45478 0.109926 0.00381476
0.477668 0.106554 0.0496376
0.500557 0.103166 0.0954604
0.523445 0.0997787 0.141283
0.546349 0.0964065 0.187091
0.569238 0.093019 0.232914
0.592126 0.0896315 0.278737
0.615015 0.086244 0.324559
0.637903 0.0828717 0.370367
0.660807 0.0794842 0.41619
0.683696 0.0760967 0.462013
0.706584 0.0727245 0.507836
0.729473 0.069337 0.553643
0.752361 0.0659495 0.599466
0.77525 0.062562 0.645289
0.798154 0.0591897 0.691112
0.821042 0.0558022 0.736919
0.843931 0.0524147 0.782742
0.866819 0.0490425 0.828565
0.889708 0.045655 0.874388
0.912596 0.0422675 0.920195
0.9355 0.03888 0.966018
0.958389 0.0355077 1
0.981277 0.0321202 1
1 0.0287327 1
1 0.0253605 1
1 0.021973 1
1 0.0185855 1
1 0.015198 1
1 0.0118257 1
0.441276 0.13724 0
0.464164 0.133852 0
0.487053 0.130465 0
0.509941 0.127092 0
0.53283 0.123705 0.0305486
0.555718 0.120317 0.0763714
0.578622 0.116945 0.122194
0.601511 0.113558 0.168002
0.624399 0.11017 0.213825
0.647288 0.106783 0.259648
0.670176 0.10341 0.30547
0.69308 0.100023 0.351278
0.715969 0.0966354 0.397101
0.738857 0.0932631 0.442924
0.761746 0.0898756 0.488746
0.784634 0.0864881 0.534554
0.807523 0.0831006 0.580377
0.830427 0.0797284 0.6262
0.853315 0.0763409 0.672023
0.876204 0.0729534 0.71783
0.899092 0.0695811 0.763653
0.921981 0.0661936 0.809476
0.944869 0.0628061 0.855299
0.967773 0.0594186 0.901106
0.990662 0.0560464 0.946929
1 0.0526589 0.992752
1 0.0492714 1
1 0.0458991 1
1 0.0425116 1
1 0.0391241 1
1 0.0357366 1
1 0.0323644 1
1 0.0289769 1
0.496437 0.154391 0
0.519326 0.151003 0
0.542214 0.147631 0
0.565103 0.144244 0
0.587991 0.140856 0.0114595
0.610895 0.137484 0.0572824
0.633783 0.134096 0.103105
0.656672 0.130709 0.148913
0.679561 0.127321 0.194736
0.702449 0.123949 0.240558
0.725338 0.120562 0.286381
0.748241 0.117174 0.332189
0.77113 0.113802 0.378012
0.794018 0.110414 0.423835
0.816907 0.107027 0.469657
0.839796 0.103639 0.515465
0.862699 0.100267 0.561288
0.885588 0.0968795 0.607111
0.908476 0.093492 0.652934
0.931365 0.0901198 0.698741
0.954253 0.0867323 0.744564
0.977142 0.0833448 0.790387
1 0.0799573 0.83621
1 0.076585 0.882017
1 0.0731975 0.92784
1 0.06981 0.973663
1 0.0664378 1
1 0.0630503 1
1 0.0596628 1
1 0.0562753 1
1 0.052903 1
1 0.0495155 1
1 0.046128 1
0.551614 0.171542 0
0.574487 0.16817 0
0.597375 0.164782 0
0.620264 0.161395 0
0.643168 0.158022 0
0.666056 0.154635 0.0381933
0.688945 0.151247 0.0840162
0.711833 0.14786 0.129824
0.734722 0.144488 0.175647
0.75761 0.1411 0.221469
0.780514 0.137713 0.267292
0.803403 0.13434 0.3131
0.826291 0.130953 0.358923
0.84918 0.127565 0.404746
0.872068 0.124178 0.450568
0.894957 0.120806 0.496376
0.917861 0.117418 0.542199
0.940749 0.114031 0.588022
0.963638 0.110658 0.633844
0.986526 0.107271 0.679652
1 0.103883 0.725475
1 0.100496 0.771298
1 0.0971237 0.817121
1 0.0937362 0.862928
1 0.0903487 0.908751
1 0.0869764 0.954574
1 0.0835889 1
1 0.0802014 1
1 0.0768139 1
1 0.0734417 1
1 0.0700542 1
1 0.0666667 1
1 0.0632944 1
0.606775 0.188708 0
0.629648 0.185321 0
0.652537 0.181933 0
0.675441 0.178561 0
0.698329 0.175174 0
0.721218 0.171786 0.0191043
0.744106 0.168399 0.0649271
0.766995 0.165026 0.110735
0.789883 0.161639 0.156558
0.812787 0.158251 0.20238
0.835676 0.154879 0.248203
0.858564 0.151492 0.294011
0.881453 0.148104 0.339834
0.904341 0.144717 0.385657
0.92723 0.141344 0.431479
0.950134 0.137957 0.477287
0.973022 0.134569 0.52311
0.995911 0.131197 0.568933
1 0.12781 0.614755
1 0.124422 0.660563
1 0.121035 0.706386
1 0.117662 0.752209
1 0.114275 0.798032
1 0.110887 0.843839
1 0.107515 0.889662
1 0.104128 0.935485
1 0.10074 0.981308
1 0.0973526 1
1 0.0939803 1
1 0.0905928 1
1 0.0872053 1
1 0.0838331 1
1 0.0804456 1
0.661936 0.205859 0
0.68481 0.202472 0
0.707698 0.1991 0
0.730602 0.195712 0
0.753491 0.192325 0
0.776379 0.188937 1.5259e-05
0.799268 0.185565 0.0458381
0.822156 0.182177 0.0916457
0.84506 0.17879 0.137469
0.867948 0.175418 0.183291
0.890837 0.17203 0.229114
0.913725 0.168643 0.274922
0.936614 0.165255 0.320745
0.959503 0.161883 0.366567
0.982406 0.158495 0.41239
1 0.155108 0.458198
1 0.151736 0.504021
1 0.148348 0.549844
1 0.144961 0.595666
1 0.141573 0.641474
1 0.138201 0.687297
1 0.134813 0.73312
1 0.131426 0.778943
1 0.128054 0.82475
1 0.124666 0.870573
1 0.121279 0.916396
1 0.117891 0.962219
1 0.114519 1
1 0.111131 1
1 0.107744 1
1 0.104372 1
1 0.100984 1
1 0.0975967 1
0.717098 0.223011 0
0.739971 0.219623 0
0.762875 0.216251 0
0.785763 0.212863 0
0.808652 0.209476 0
0.83154 0.206104 0
0.854429 0.202716 0.0267491
0.877317 0.199329 0.0725719
0.900221 0.195941 0.118379
0.92311 0.192569 0.164202
0.945998 0.189181 0.210025
0.968887 0.185794 0.255833
0.991775 0.182422 0.301656
1 0.179034 0.347478
1 0.175647 0.393301
1 0.172274 0.439109
1 0.168887 0.484932
1 0.165499 0.530755
1 0.162112 0.576577
1 0.15874 0.622385
1 0.155352 0.668208
1 0.151965 0.714031
1 0.148592 0.759854
1 0.145205 0.805661
1 0.141817 0.851484
1 0.13843 0.897307
1 0.135058 0.94313
1 0.13167 0.988937
1 0.128283 1
1 0.12491 1
1 0.121523 1
1 0.118135 1
1 0.114748 1
0.772259 0.240162 0
0.795148 0.236789 0
0.818036 0.233402 0
0.840925 0.230015 0
0.863813 0.226642 0
0.886702 0.223255 0
0.90959 0.219867 0.00766003
0.932494 0.21648 0.0534829
0.955383 0.213107 0.0992905
0.978271 0.20972 0.145113
1 0.206332 0.190936
1 0.20296 0.236744
1 0.199573 0.282567
1 0.196185 0.328389
1 0.192798 0.374212
1 0.189425 0.42002
1 0.186038 0.465843
1 0.18265 0.511666
1 0.179278 0.557488
1 0.175891 0.603296
1 0.172503 0.649119
1 0.169131 0.694942
1 0.165743 0.740764
1 0.162356 0.786572
1 0.158968 0.832395
1 0.155596 0.878218
1 0.152209 0.924041
1 0.148821 0.969848
1 0.145449 1
1 0.142061 1
1 0.138674 1
1 0.135286 1
1 0.131914 1
0.82742 0.257328 0
0.850309 0.253941 0
0.873198 0.250553 0
0.896086 0.247181 0
0.918975 0.243793 0
0.941863 0.240406 0
0.964767 0.237018 0
0.987655 0.233646 0.0343938
1 0.230259 0.0802014
1 0.226871 0.126024
1 0.223499 0.171847
1 0.220111 0.21767
1 0.216724 0.263478
1 0.213336 0.3093
1 0.209964 0.355123
1 0.206577 0.400931
1 0.203189 0.446754
1 0.199817 0.492576
1 0.196429 0.538399
1 0.193042 0.584207
1 0.189654 0.63003
1 0.186282 0.675853
1 0.182895 0.721675
1 0.179507 0.767483
1 0.176135 0.813306
1 0.172747 0.859129
1 0.16936 0.904952
1 0.165988 0.950759
1 0.1626 0.996582
1 0.159213 1
1 0.155825 1
1 0.152453 1
1 0.149065 1
0.882582 0.274479 0
0.90547 0.271092 0
0.928359 0.26772 0
0.951247 0.264332 0
0.974136 0.260945 0
0.99704 0.257557 0
1 0.254185 0
1 0.250797 0.0153048
1 0.24741 0.0611124
1 0.244038 0.106935
1 0.24065 0.152758
1 0.237263 0.198581
1 0.233875 0.244388
1 0.230503 0.290211
1 0.227115 0.336034
1 0.223728 0.381842
1 0.220356 0.427665
1 0.216968 0.473487
1 0.213581 0.51931
1 0.210193 0.565118
1 0.206821 0.610941
1 0.203433 0.656764
1 0.200046 0.702586
1 0.196674 0.748394
1 0.193286 0.794217
1 0.189899 0.84004
1 0.186511 0.885863
1 0.183139 0.93167
1 0.179751 0.977493
1 0.176364 1
1 0.172992 1
1 0.169604 1
1 0.166217 1
0.937758 0.29163 0
0.960632 0.288258 0
0.98352 0.284871 0
1 0.281483 0
1 0.278096 0
1 0.274723 0
1 0.271336 0
1 0.267948 0
1 0.264576 0.0420233
1 0.261189 0.0878462
1 0.257801 0.133669
1 0.254414 0.179492
1 0.251041 0.225299
1 0.247654 0.271122
1 0.244266 0.316945
1 0.240894 0.362753
1 0.237507 0.408576
1 0.234119 0.454398
1 0.230732 0.500221
1 0.227359 0.546029
1 0.223972 0.591852
1 0.220584 0.637675
1 0.217212 0.683497
1 0.213825 0.729305
1 0.210437 0.775128
1 0.20705 0.820951
1 0.203677 0.866773
1 0.20029 0.912581
1 0.196902 0.958404
1 0.19353 1
1 0.190143 1
1 0.186755 1
1 0.183368 1
0.99292 0.308797 0
1 0.305409 0
1 0.302022 0
1 0.298634 0
1 0.295262 0
1 0.291875 0
1 0.288487 0
1 0.285115 0
1 0.281727 0.0229343
1 0.27834 0.0687572
1 0.274952 0.11458
1 0.27158 0.160403
1 0.268193 0.20621
1 0.264805 0.252033
1 0.261433 0.297856
1 0.258045 0.343679
1 0.254658 0.389487
1 0.25127 0.435309
1 0.247898 0.481132
1 0.244511 0.52694
1 0.241123 0.572763
1 0.237751 0.618585
1 0.234363 0.664408
1 0.230976 0.710216
1 0.227588 0.756039
1 0.224216 0.801862
1 0.220829 0.847684
1 0.217441 0.893492
1 0.214069 0.939315
1 0.210681 0.985138
1 0.207294 1
1 0.203906 1
1 0.200534 1
1 0.325948 0
1 0.32256 0
1 0.319173 0
1 0.315801 0
1 0.312413 0
1 0.309026 0
1 0.305653 0
1 0.302266 0
1 0.298878 0.00384527
1 0.295491 0.0496681
1 0.292119 0.095491
1 0.288731 0.141314
1 0.285344 0.187121
1 0.281971 0.232944
1 0.278584 0.278767
1 0.275196 0.32459
1 0.271809 0.370398
1 0.268437 0.41622
1 0.265049 0.462043
1 0.261662 0.507851
1 0.258289 0.553674
1 0.254902 0.599496
1 0.251514 0.645319
1 0.248127 0.691127
1 0.244755 0.73695
1 0.241367 0.782773
1 0.23798 0.828595
1 0.234607 0.874403
1 0.23122 0.920226
1 0.227832 0.966049
1 0.224445 1
1 0.221073 1
1 0.217685 1
1 0.343099 0
1 0.339712 0
1 0.336339 0
1 0.332952 0
1 0.329564 0
1 0.326192 0
1 0.322805 0
1 0.319417 0
1 0.31603 0
1 0.312657 0.0305791
1 0.30927 0.0764019
1 0.305882 0.122225
1 0.30251 0.168032
1 0.299123 0.213855
1 0.295735 0.259678
1 0.292348 0.305501
1 0.288975 0.351308
1 0.285588 0.397131
1 0.2822 0.442954
1 0.278828 0.488762
1 0.275441 0.534585
1 0.272053 0.580407
1 0.268666 0.62623
1 0.265293 0.672038
1 0.261906 0.717861
1 0.258518 0.763684
1 0.255146 0.809506
1 0.251759 0.855314
1 0.248371 0.901137
1 0.244984 0.94696
1 0.241611 0.992782
1 0.238224 1
1 0.234836 1
1 0.36025 0
1 0.356878 0
1 0.353491 0
1 0.350103 0
1 0.346731 0
1 0.343343 0
1 0.339956 0
1 0.336568 0
1 0.333196 0
1 0.329809 0.01149
1 0.326421 0.0573129
1 0.323049 0.103136
1 0.319661 0.148943
1 0.316274 0.194766
1 0.312886 0.240589
1 0.309514 0.286412
1 0.306127 0.332219
1 0.302739 0.378042
1 0.299367 0.423865
1 0.295979 0.469688
1 0.292592 0.515496
1 0.289204 0.561318
1 0.285832 0.607141
1 0.282445 0.652949
1 0.279057 0.698772
1 0.275685 0.744595
1 0.272297 0.790417
1 0.26891 0.836225
1 0.265522 0.882048
1 0.26215 0.927871
1 0.258762 0.973693
1 0.255375 1
1 0.252003 1
1 0.377417 0
1 0.374029 0
1 0.370642 0
1 0.367269 0
1 0.363882 0
1 0.360494 0
1 0.357107 0
1 0.353735 0
1 0.350347 0
1 0.34696 0
1 0.343587 0.0382239
1 0.3402 0.0840467
1 0.336812 0.129854
1 0.333425 0.175677
1 0.330053 0.2215
1 0.326665 0.267323
1 0.323278 0.31313
1 0.319905 0.358953
1 0.316518 0.404776
1 0.31313 0.450599
1 0.309743 0.496406
1 0.306371 0.542229
1 0.302983 0.588052
1 0.299596 0.63386
1 0.296223 0.679683
1 0.292836 0.725505
1 0.289448 0.771328
1 0.286061 0.817136
1 0.282689 0.862959
1 0.279301 0.908782
1 0.275914 0.954604
1 0.272541 1
1 0.269154 1
1 0.394568 0
1 0.39118 0
1 0.387808 0
1 0.384421 0
1 0.381033 0
1 0.377646 0
1 0.374273 0
1 0.370886 0
1 0.367498 0
1 0.364126 0
1 0.360739 0.0191348
1 0.357351 0.0649577
1 0.353964 0.110765
1 0.350591 0.156588
1 0.347204 0.202411
1 0.343816 0.248234
1 0.340444 0.294041
1 0.337057 0.339864
1 0.333669 0.385687
1 0.330282 0.43151
1 0.326909 0.477317
1 0.323522 0.52314
1 0.320134 0.568963
1 0.316762 0.614771
1 0.313375 0.660594
1 0.309987 0.706416
1 0.3066 0.752239
1 0.303227 0.798047
1 0.29984 0.84387
1 0.296452 0.889693
1 0.29308 0.935515
1 0.289693 0.981323
1 0.286305 1
1 0.411719 0
1 0.408347 0
1 0.404959 0
1 0.401572 0
1 0.398184 0
1 0.394812 0
1 0.391424 0
1 0.388037 0
1 0.384665 0
1 0.381277 0
1 0.37789 4.57771e-05
1 0.374502 0.0458686
1 0.37113 0.0916762
1 0.367742 0.137499
1 0.364355 0.183322
1 0.360983 0.229145
1 0.357595 0.274952
1 0.354208 0.320775
1 0.35082 0.366598
1 0.347448 0.412421
1 0.34406 0.458228
1 0.340673 0.504051
1 0.337301 0.549874
1 0.333913 0.595697
1 0.330526 0.641505
1 0.327138 0.687327
1 0.323766 0.73315
1 0.320378 0.778958
1 0.316991 0.824781
1 0.313619 0.870604
1 0.310231 0.916426
1 0.306844 0.962234
1 0.303456 1
1 0.42887 0
1 0.425498 0
1 0.42211 0
1 0.418723 0
1 0.415351 0
1 0.411963 0
1 0.408576 0
1 0.405203 0
1 0.401816 0
1 0.398428 0
1 0.395041 0
1 0.391669 0.0267796
1 0.388281 0.0725872
1 0.384894 0.11841
1 0.381521 0.164233
1 0.378134 0.210056
1 0.374746 0.255863
1 0.371359 0.301686
1 0.367987 0.347509
1 0.364599 0.393332
1 0.361212 0.439139
1 0.357839 0.484962
1 0.354452 0.530785
1 0.351064 0.576608
1 0.347677 0.622415
1 0.344305 0.668238
1 0.340917 0.714061
1 0.33753 0.759869
1 0.334157 0.805692
1 0.33077 0.851514
1 0.327382 0.897337
1 0.323995 0.943145
1 0.320623 0.988968
1 0.446036 0
1 0.442649 0
1 0.439261 0
1 0.435889 0
1 0.432502 0
1 0.429114 0
1 0.425742 0
1 0.422354 0
1 0.418967 0
1 0.415579 0
1 0.412207 0
1 0.40882 0.00769055
1 0.405432 0.0534981
1 0.40206 0.099321
1 0.398672 0.145144
1 0.395285 0.190967
1 0.391897 0.236774
1 0.388525 0.282597
1 0.385138 0.32842
1 0.38175 0.374243
1 0.378378 0.42005
1 0.37499 0.465873
1 0.371603 0.511696
1 0.368215 0.557519
1 0.364843 0.603326
1 0.361456 0.649149
1 0.358068 0.694972
1 0.354696 0.740795
1 0.351308 0.786603
1 0.347921 0.832425
1 0.344533 0.878248
1 0.341161 0.924056
1 0.337774 0.969879
1 0.463188 0
1 0.4598 0
1 0.456428 0
1 0.45304 0
1 0.449653 0
1 0.446281 0
1 0.442893 0
1 0.439506 0
1 0.436118 0
