public/LUTS/Color Shift/ColorShift_26.cube
TITLE "Generated by Resolve"
LUT_3D_SIZE 9
0 0 0
0.128267 0 0.0310826
0.25655 0 0.06215
0.384833 0 0.0932326
0.5131 0 0.124315
0.641382 0 0.155398
0.769665 0 0.186481
0.897948 0 0.217548
1 0 0.248631
0.0320897 0.118227 0
0.160357 0.113252 0.00875868
0.28864 0.108263 0.0398413
0.416922 0.103288 0.0709087
0.54519 0.0983139 0.101991
0.673472 0.0933242 0.133074
0.801755 0.0883497 0.164157
0.930037 0.0833753 0.195239
1 0.0783856 0.226307
0.0641794 0.236469 0
0.192447 0.231495 0
0.320729 0.22652 0.0175174
0.449012 0.22153 0.0485847
0.577295 0.216556 0.0796674
0.705577 0.211566 0.11075
0.83386 0.206592 0.141833
0.962127 0.201617 0.172915
1 0.196628 0.203983
0.0962844 0.354711 0
0.224552 0.349737 0
0.352819 0.344762 0
0.481102 0.339773 0.0262608
0.609384 0.334798 0.0573434
0.737667 0.329824 0.088426
0.86595 0.324834 0.119509
0.994232 0.31986 0.150591
1 0.31487 0.181659
0.128374 0.472953 0
0.256641 0.467979 0
0.384924 0.463004 0
0.513207 0.458015 0.00393683
0.641474 0.45304 0.0350195
0.769757 0.448066 0.0661021
0.898039 0.443076 0.0971847
1 0.438102 0.128267
1 0.433127 0.159335
0.160464 0.591196 0
0.288731 0.586221 0
0.417014 0.581247 0
0.545296 0.576257 0
0.673579 0.571283 0.0126955
0.801862 0.566308 0.0437781
0.930129 0.561318 0.0748608
1 0.556344 0.105943
1 0.551369 0.137011
0.192569 0.709453 0
0.320821 0.704463 0
0.449104 0.699489 0
0.577386 0.694514 0
0.705669 0.689525 0
0.833951 0.68455 0.0214542
0.962234 0.679561 0.0525368
1 0.674586 0.0836194
1 0.669612 0.114687
0.224659 0.827695 0
0.352926 0.822705 0
0.481209 0.817731 0
0.609491 0.812757 0
0.737758 0.807767 0
0.866041 0.802792 0
0.994324 0.797818 0.0302129
1 0.792828 0.0612955
1 0.787854 0.0923781
0.256748 0.945937 0
0.385016 0.940948 0
0.513298 0.935973 0
0.641581 0.930999 0
0.769863 0.926009 0
0.898146 0.921035 0
1 0.91606 0.00788891
1 0.91107 0.0389715
1 0.906096 0.0700542
0 0.0117342 0.116228
0.0928969 0.00675975 0.147311
0.22118 0.00177005 0.178393
0.349462 0 0.209461
0.477745 0 0.240543
0.606012 0 0.271626
0.734295 0 0.302708
0.862577 0 0.333791
0.99086 0 0.364858
0 0.129961 0.093904
0.124987 0.124987 0.124987
0.253269 0.120012 0.156069
0.381552 0.115023 0.187152
0.509834 0.110048 0.218219
0.638102 0.105074 0.249302
0.766384 0.100084 0.280385
0.894667 0.0951095 0.311467
1 0.0901198 0.34255
0.028809 0.248203 0.0715801
0.157076 0.243229 0.102663
0.285359 0.238254 0.133745
0.413642 0.233265 0.164828
0.541924 0.22829 0.195895
0.670207 0.223316 0.226978
0.798489 0.218326 0.258061
0.926757 0.213352 0.289143
1 0.208377 0.320226
0.060914 0.366445 0.0492714
0.189181 0.361471 0.0803388
0.317449 0.356497 0.111421
0.445731 0.351507 0.142504
0.574014 0.346532 0.173571
0.702296 0.341558 0.204654
0.830579 0.336568 0.235737
0.958862 0.331594 0.266819
1 0.326619 0.297902
0.0930037 0.484703 0.0269474
0.221271 0.479713 0.0580148
0.349554 0.474739 0.0890974
0.477836 0.469764 0.12018
0.606119 0.464775 0.151247
0.734386 0.4598 0.18233
0.862669 0.45481 0.213413
0.990951 0.449836 0.244495
1 0.444862 0.275578
0.125093 0.602945 0.00462348
0.253361 0.597955 0.0356909
0.381643 0.592981 0.0667735
0.509926 0.588006 0.0978561
0.638209 0.583017 0.128939
0.766491 0.578042 0.160006
0.894774 0.573068 0.191089
1 0.568078 0.222171
1 0.563104 0.253254
0.157198 0.721187 0
0.285466 0.716197 0.0133669
0.413733 0.711223 0.0444495
0.542016 0.706249 0.0755322
0.670298 0.701259 0.106615
0.798581 0.696284 0.137682
0.926863 0.69131 0.168765
1 0.68632 0.199847
1 0.681346 0.23093
0.189288 0.839429 0
0.317556 0.834455 0
0.445838 0.829465 0.0221256
0.574121 0.824491 0.0532082
0.702388 0.819501 0.0842908
0.830671 0.814527 0.115358
0.958953 0.809552 0.146441
1 0.804562 0.177523
1 0.799588 0.208606
0.221378 0.957671 0
0.349645 0.952697 0
0.477928 0.947707 0
0.60621 0.942733 0.0308843
0.734493 0.937758 0.0619669
0.862776 0.932769 0.0930343
0.991058 0.927794 0.124117
1 0.922805 0.1552
1 0.91783 0.186282
0 0.0234684 0.232471
0.0575265 0.0184939 0.263554
0.185809 0.0135195 0.294636
0.314076 0.00852979 0.325719
0.442359 0.00355535 0.356786
0.570642 0 0.387869
0.698924 0 0.418952
0.827207 0 0.450034
0.955489 0 0.481117
0 0.141711 0.210163
0.0896162 0.136721 0.24123
0.217899 0.131746 0.272312
0.346181 0.126772 0.303395
0.474449 0.121782 0.334478
0.602731 0.116808 0.365545
0.731014 0.111818 0.396628
0.859297 0.106844 0.42771
0.987579 0.101869 0.458793
0 0.259953 0.187839
0.121706 0.254963 0.218906
0.249989 0.249989 0.249989
0.378271 0.245014 0.281071
0.506554 0.240024 0.312154
0.634836 0.23505 0.343221
0.763104 0.230076 0.374304
0.891386 0.225086 0.405386
1 0.220111 0.436469
0.0255436 0.378195 0.165515
0.153796 0.373205 0.196582
0.282078 0.368231 0.227665
0.410361 0.363256 0.258747
0.538643 0.358267 0.28983
0.666926 0.353292 0.320897
0.795209 0.348318 0.35198
0.923491 0.343328 0.383062
1 0.338354 0.414145
0.0576333 0.496437 0.143191
0.185901 0.491463 0.174258
0.314183 0.486473 0.205341
0.442451 0.481498 0.236423
0.570733 0.476509 0.267506
0.699016 0.471534 0.298573
0.827298 0.46656 0.329656
0.955581 0.46157 0.360739
1 0.456596 0.391821
0.0897231 0.614679 0.120867
0.21799 0.609705 0.151934
0.346273 0.604715 0.183017
0.474556 0.599741 0.214099
0.602838 0.594766 0.245182
0.731121 0.589776 0.276249
0.859388 0.584802 0.307332
0.987671 0.579812 0.338415
1 0.574838 0.369497
0.121828 0.732921 0.0985428
0.25008 0.727947 0.12961
0.378363 0.722957 0.160693
0.506645 0.717983 0.191775
0.634928 0.713008 0.222858
0.76321 0.708019 0.253941
0.891493 0.703044 0.285008
1 0.69807 0.316091
1 0.69308 0.347173
0.153918 0.851164 0.0762188
0.282185 0.846189 0.107286
0.410468 0.841199 0.138369
0.538735 0.836225 0.169451
0.667018 0.83125 0.200534
0.7953 0.826261 0.231617
0.923583 0.821286 0.262684
1 0.816312 0.293767
1 0.811322 0.324849
0.186007 0.969406 0.0538949
0.314275 0.964431 0.0849622
0.442557 0.959457 0.116045
0.57084 0.954467 0.147127
0.699123 0.949493 0.17821
0.82739 0.944503 0.209293
0.955673 0.939529 0.24036
1 0.934554 0.271443
1 0.929564 0.302525
0 0.0352178 0.34873
0.0221561 0.0302281 0.379797
0.150423 0.0252537 0.41088
0.278706 0.0202792 0.441962
0.406989 0.0152895 0.473045
0.535271 0.0103151 0.504112
0.663554 0.00534066 0.535195
0.791836 0.000350958 0.566278
0.920119 0 0.59736
0 0.153445 0.326406
0.0542458 0.14847 0.357473
0.182528 0.143481 0.388556
0.310796 0.138506 0.419638
0.439078 0.133516 0.450721
0.567361 0.128542 0.481804
0.695644 0.123568 0.512871
0.823926 0.118578 0.543954
0.952209 0.113603 0.575036
0 0.271687 0.304082
0.0863355 0.266712 0.335149
0.214618 0.261723 0.366232
0.342901 0.256748 0.397314
0.471183 0.251774 0.428397
0.599451 0.246784 0.45948
0.727733 0.24181 0.490547
0.856016 0.23682 0.52163
0.984298 0.231846 0.552712
0 0.389929 0.281758
0.118425 0.384955 0.312825
0.246708 0.379965 0.343908
0.37499 0.37499 0.37499
0.503273 0.370016 0.406073
0.631556 0.365026 0.437156
0.759838 0.360052 0.468223
0.888106 0.355077 0.499306
1 0.350088 0.530388
0.0222629 0.508171 0.259434
0.15053 0.503197 0.290501
0.278798 0.498207 0.321584
0.40708 0.493233 0.352667
0.535363 0.488258 0.383749
0.663645 0.483268 0.414832
0.791928 0.478294 0.445899
0.920211 0.47332 0.476982
1 0.46833 0.508064
0.0543526 0.626413 0.23711
0.18262 0.621439 0.268177
0.310903 0.616464 0.29926
0.439185 0.611475 0.330343
0.567452 0.6065 0.361425
0.695735 0.601511 0.392508
0.824018 0.596536 0.423575
0.9523 0.591562 0.454658
1 0.586572 0.48574
0.0864424 0.744656 0.214786
0.21471 0.739681 0.245853
0.342992 0.734707 0.276936
0.471275 0.729717 0.308019
0.599557 0.724743 0.339101
0.72784 0.719768 0.370184
0.856123 0.714778 0.401251
0.98439 0.709804 0.432334
1 0.704814 0.463416
0.118547 0.862898 0.192462
0.246815 0.857923 0.223545
0.375082 0.852949 0.254612
0.503365 0.847959 0.285695
0.631647 0.842985 0.316777
0.75993 0.83801 0.34786
0.888212 0.833021 0.378943
1 0.828046 0.41001
1 0.823072 0.441093
0.150637 0.98114 0.170138
0.278904 0.976165 0.201221
0.407187 0.971191 0.232288
0.53547 0.966201 0.263371
0.663737 0.961227 0.294453
0.79202 0.956252 0.325536
0.920302 0.951263 0.356619
1 0.946288 0.387686
1 0.941314 0.418769
0 0.046952 0.464973
0 0.0419776 0.49604
0.115053 0.0369879 0.527123
0.243336 0.0320134 0.558206
0.371618 0.027039 0.589288
0.499901 0.0220493 0.620356
0.628183 0.0170748 0.651438
0.756466 0.0121004 0.682521
0.884733 0.0071107 0.713603
0 0.165179 0.442649
0.0188602 0.160204 0.473732
0.147143 0.155215 0.504799
0.275425 0.15024 0.535882
0.403708 0.145266 0.566964
0.531991 0.140276 0.598047
0.660273 0.135302 0.629129
0.788556 0.130327 0.660197
0.916823 0.125338 0.691279
0 0.283421 0.420325
0.0509651 0.278447 0.451408
0.179248 0.273472 0.482475
0.30753 0.268482 0.513558
0.435798 0.263508 0.54464
0.56408 0.258518 0.575723
0.692363 0.253544 0.606806
0.820645 0.248569 0.637873
0.948928 0.24358 0.668956
0 0.401663 0.398001
0.0830549 0.396689 0.429084
0.211337 0.391714 0.460151
0.33962 0.386725 0.491234
0.467903 0.38175 0.522316
0.596185 0.376776 0.553399
0.724453 0.371786 0.584482
0.852735 0.366812 0.615549
0.981018 0.361822 0.646632
0 0.519905 0.375677
0.115145 0.514931 0.40676
0.243427 0.509957 0.437827
0.37171 0.504967 0.46891
0.499992 0.499992 0.499992
0.628275 0.495018 0.531075
0.756558 0.490028 0.562158
0.88484 0.485054 0.593225
1 0.480079 0.624308
0.0189822 0.638148 0.353353
0.14725 0.633173 0.384436
0.275532 0.628199 0.415503
0.4038 0.623209 0.446586
0.532082 0.618235 0.477668
0.660365 0.61326 0.508751
0.788647 0.60827 0.539834
0.91693 0.603296 0.570901
1 0.598321 0.601984
0.0510719 0.756405 0.331029
0.179339 0.751415 0.362112
0.307622 0.746441 0.393179
0.435904 0.741466 0.424262
0.564187 0.736477 0.455344
0.692454 0.731502 0.486427
0.820737 0.726513 0.51751
0.94902 0.721538 0.548577
1 0.716564 0.57966
0.0831769 0.874647 0.308705
0.211429 0.869657 0.339788
0.339712 0.864683 0.370871
0.467994 0.859709 0.401938
0.596277 0.854719 0.433021
0.724559 0.849744 0.464103
0.852842 0.84477 0.495186
0.981125 0.83978 0.526253
1 0.834806 0.557336
0.115267 0.992889 0.286381
0.243534 0.9879 0.317464
0.371817 0.982925 0.348547
0.500084 0.977951 0.379614
0.628367 0.972961 0.410697
0.756649 0.967987 0.441779
0.884932 0.963012 0.472862
1 0.958022 0.503944
1 0.953048 0.535012
0 0.0586862 0.581216
0 0.0537118 0.612284
0.0796826 0.0487373 0.643366
0.207965 0.0437476 0.674449
0.336248 0.0387732 0.705531
0.46453 0.0337987 0.736614
0.592813 0.028809 0.767681
0.72108 0.0238346 0.798764
0.849363 0.0188449 0.829847
0 0.176913 0.558892
0 0.171939 0.589975
0.111772 0.166964 0.621042
0.240055 0.161975 0.652125
0.368338 0.157 0.683207
0.49662 0.152026 0.71429
0.624903 0.147036 0.745373
0.75317 0.142061 0.77644
0.881453 0.137087 0.807523
0 0.295171 0.536568
0.0155947 0.290181 0.567651
0.143862 0.285206 0.598733
0.272145 0.280217 0.629801
0.400427 0.275242 0.660883
0.52871 0.270268 0.691966
0.656992 0.265278 0.723049
0.785275 0.260304 0.754131
0.913558 0.255329 0.785199
0 0.413413 0.514244
0.0476844 0.408423 0.545327
0.175967 0.403449 0.57641
0.30425 0.398474 0.607477
0.432532 0.393484 0.63856
0.5608 0.38851 0.669642
0.689082 0.38352 0.700725
0.817365 0.378546 0.731807
0.945647 0.373571 0.762875
0 0.531655 0.49192
0.0797742 0.526665 0.523003
0.208057 0.521691 0.554086
0.336339 0.516716 0.585153
0.464622 0.511727 0.616236
0.592905 0.506752 0.647318
0.721187 0.501778 0.678401
0.849454 0.496788 0.709484
0.977737 0.491814 0.740551
0 0.649897 0.469596
0.111879 0.644907 0.500679
0.240146 0.639933 0.531762
0.368429 0.634958 0.562829
0.496712 0.629969 0.593912
0.624994 0.624994 0.624994
0.753277 0.62002 0.656077
0.881559 0.61503 0.68716
1 0.610056 0.718227
0.0157015 0.768139 0.447272
0.143969 0.763165 0.478355
0.272251 0.758175 0.509438
0.400534 0.753201 0.540505
0.528801 0.748211 0.571588
0.657084 0.743236 0.60267
0.785367 0.738262 0.633753
0.913649 0.733272 0.664836
1 0.728298 0.695903
0.0477913 0.886381 0.424949
0.176059 0.881407 0.456031
0.304341 0.876417 0.487114
0.432624 0.871443 0.518181
0.560906 0.866468 0.549264
0.689189 0.861479 0.580346
0.817456 0.856504 0.611429
0.945739 0.851514 0.642512
1 0.84654 0.673579
0.0798962 1 0.402625
0.208164 0.999649 0.433707
0.336431 0.994659 0.46479
0.464714 0.989685 0.495872
0.592996 0.98471 0.52694
0.721279 0.979721 0.558022
0.849561 0.974746 0.589105
0.977844 0.969772 0.620188
1 0.964782 0.651255
0 0.0704356 0.697459
0 0.0654459 0.728542
0.0443122 0.0604715 0.759609
0.172595 0.0554818 0.790692
0.300877 0.0505074 0.821775
0.429145 0.0455329 0.852857
0.557427 0.0405432 0.88394
0.68571 0.0355688 0.915007
0.813993 0.0305943 0.94609
0 0.188663 0.675135
0 0.183673 0.706218
0.0764019 0.178698 0.737301
0.204685 0.173724 0.768368
0.332967 0.168734 0.799451
0.46125 0.16376 0.830533
0.589517 0.158785 0.861616
0.7178 0.153796 0.892699
0.846082 0.148821 0.923766
0 0.306905 0.652811
0 0.301915 0.683894
0.108492 0.296941 0.714977
0.236774 0.291966 0.746044
0.365057 0.286976 0.777127
0.493339 0.282002 0.808209
0.621622 0.277028 0.839292
0.749905 0.272038 0.870375
0.878172 0.267063 0.901442
0 0.425147 0.630488
0.012314 0.420172 0.66157
0.140597 0.415183 0.692653
0.268864 0.410208 0.723735
0.397147 0.405219 0.754803
0.525429 0.400244 0.785885
0.653712 0.39527 0.816968
0.781994 0.39028 0.848051
0.910277 0.385306 0.879133
0 0.543389 0.608164
0.0444038 0.538415 0.639246
0.172686 0.533425 0.670329
0.300969 0.52845 0.701411
0.429252 0.523476 0.732479
0.557534 0.518486 0.763561
0.685802 0.513512 0.794644
0.814084 0.508522 0.825727
0.942367 0.503548 0.856809
0 0.661631 0.58584
0.0764935 0.656657 0.616922
0.204776 0.651667 0.648005
0.333059 0.646693 0.679088
0.461341 0.641718 0.710155
0.589624 0.636728 0.741238
0.717906 0.631754 0.77232
0.846189 0.62678 0.803403
0.974456 0.62179 0.834485
0 0.779873 0.563516
0.108598 0.774899 0.594598
0.236881 0.769909 0.625681
0.365148 0.764935 0.656764
0.493431 0.75996 0.687831
0.621714 0.754971 0.718914
0.749996 0.749996 0.749996
0.878279 0.745022 0.781079
1 0.740032 0.812161
0.0124208 0.898116 0.541207
0.140688 0.893141 0.572274
0.268971 0.888167 0.603357
0.397253 0.883177 0.63444
0.525536 0.878202 0.665507
0.653803 0.873213 0.69659
0.782086 0.868238 0.727672
0.910369 0.863264 0.758755
1 0.858274 0.789837
0.0445106 1 0.518883
0.172778 1 0.54995
0.30106 1 0.581033
0.429343 1 0.612116
0.557626 0.996445 0.643183
0.685908 0.99147 0.674266
0.814191 0.986481 0.705348
0.942458 0.981506 0.736431
1 0.976516 0.767514
0 0.0821698 0.813703
0 0.0771801 0.844785
0.00894179 0.0722057 0.875868
0.137224 0.0672313 0.906935
0.265492 0.0622416 0.938018
0.393774 0.0572671 0.9691
0.522057 0.0522927 1
0.650339 0.047303 1
0.778622 0.0423285 1
0 0.200397 0.791379
0 0.195422 0.822461
0.0410315 0.190433 0.853544
0.169314 0.185458 0.884627
0.297597 0.180484 0.915694
0.425864 0.175494 0.946777
0.554147 0.17052 0.977859
0.682429 0.16553 1
0.810712 0.160555 1
0 0.318639 0.76907
0 0.313664 0.800137
0.0731212 0.308675 0.83122
0.201404 0.3037 0.862303
0.329686 0.298726 0.89337
0.457969 0.293736 0.924453
0.586252 0.288762 0.955535
0.714519 0.283787 0.986618
0.842802 0.278798 1
0 0.436881 0.746746
0 0.431907 0.777813
0.105211 0.426917 0.808896
0.233494 0.421942 0.839979
0.361776 0.416968 0.871046
0.490059 0.411978 0.902129
0.618341 0.407004 0.933211
0.746624 0.402029 0.964294
0.874907 0.39704 0.995377
0 0.555123 0.724422
0.00903334 0.550149 0.755489
0.137316 0.545174 0.786572
0.265599 0.540185 0.817655
0.393866 0.53521 0.848737
0.522148 0.530221 0.879805
0.650431 0.525246 0.910887
0.778714 0.520272 0.94197
0.906996 0.515282 0.973053
0 0.673365 0.702098
0.0411231 0.668391 0.733166
0.169406 0.663417 0.764248
0.297688 0.658427 0.795331
0.425971 0.653452 0.826413
0.554253 0.648478 0.857481
0.682521 0.643488 0.888563
0.810803 0.638514 0.919646
0.939086 0.633524 0.950729
0 0.791608 0.679774
0.073228 0.786633 0.710842
0.201495 0.781659 0.741924
0.329778 0.776669 0.773007
0.458061 0.771695 0.804089
0.586343 0.76672 0.835157
0.714626 0.76173 0.866239
0.842908 0.756756 0.897322
0.971191 0.751781 0.928405
0 0.90985 0.65745
0.105318 0.904875 0.688518
0.2336 0.899901 0.7196
0.361883 0.894911 0.750683
0.49015 0.889937 0.781765
0.618433 0.884962 0.812833
0.746715 0.879973 0.843915
0.874998 0.874998 0.874998
1 0.870024 0.906081
0.00914015 1 0.635126
0.137407 1 0.666194
0.26569 1 0.697276
0.393973 1 0.728359
0.522255 1 0.759441
0.650538 1 0.790509
0.778805 0.998215 0.821591
0.907088 0.99324 0.852674
1 0.988266 0.883757
0 0.093904 0.929946
0 0.0889296 0.961028
0 0.0839399 0.992111
0.101839 0.0789654 1
0.230121 0.073991 1
0.358404 0.0690013 1
0.486686 0.0640269 1
0.614969 0.0590524 1
0.743252 0.0540627 1
0 0.212131 0.907637
0 0.207156 0.938704
0.0056611 0.202182 0.969787
0.133928 0.197192 1
0.262211 0.192218 1
0.390494 0.187228 1
0.518776 0.182254 1
0.647059 0.177279 1
0.775341 0.17229 1
0 0.330373 0.885313
0 0.325399 0.916381
0.0377508 0.320424 0.947463
0.166033 0.315435 0.978546
0.294316 0.31046 1
0.422599 0.305486 1
0.550866 0.300496 1
0.679149 0.295521 1
0.807431 0.290532 1
0 0.448615 0.862989
0 0.443641 0.894057
0.0698405 0.438666 0.925139
0.198123 0.433677 0.956222
0.326406 0.428702 0.987305
0.454688 0.423728 1
0.582971 0.418738 1
0.711254 0.413764 1
0.839521 0.408789 1
0 0.566857 0.840665
0 0.561883 0.871733
0.101946 0.556909 0.902815
0.230213 0.551919 0.933898
0.358495 0.546944 0.964981
0.486778 0.54197 0.996048
0.615061 0.53698 1
0.743343 0.532006 1
0.871626 0.527031 1
0 0.685115 0.818341
0.00575265 0.680125 0.849409
0.134035 0.675151 0.880491
0.262318 0.670176 0.911574
0.3906 0.665187 0.942657
0.518868 0.660212 0.973739
0.64715 0.655222 1
0.775433 0.650248 1
0.903716 0.645274 1
0 0.803357 0.796017
0.0378424 0.798367 0.827085
0.166125 0.793393 0.858167
0.294408 0.788418 0.88925
0.42269 0.783429 0.920333
0.550973 0.778454 0.951415
0.679255 0.77348 0.982483
0.807523 0.76849 1
0.935805 0.763516 1
0 0.921599 0.773693
0.0699474 0.916609 0.804761
0.19823 0.911635 0.835843
0.326497 0.906661 0.866926
0.45478 0.901671 0.898009
0.583062 0.896696 0.929091
0.711345 0.891722 0.960159
0.839628 0.886732 0.991241
0.96791 0.881758 1
0 1 0.751369
0.102037 1 0.782437
0.23032 1 0.813519
0.358602 1 0.844602
0.486885 1 0.875685
0.615152 1 0.906767
0.743435 1 0.937835
0.871717 1 0.968917
1 1 1
