public/LUTS/Color Shift/ColorShift_93.cube
TITLE "Generated by Resolve"
LUT_3D_SIZE 9
0 0 0
0 0.0386664 0.165103
0 0.0773327 0.330205
0 0.115999 0.495323
0 0.154665 0.660441
0 0.193347 0.825559
0 0.232013 0.990677
0 0.27068 1
0 0.309346 1
0.299611 0.0211185 0.108812
0.224964 0.0597848 0.273899
0.150301 0.0984512 0.439017
0.0756542 0.137118 0.604135
0.000991836 0.175784 0.769253
0 0.21445 0.934371
0 0.253132 1
0 0.291798 1
0 0.330465 1
0.599252 0.042237 0.217624
0.524605 0.0808881 0.382727
0.449943 0.11957 0.547845
0.375296 0.158236 0.712947
0.300633 0.196902 0.878065
0.225986 0.235569 1
0.151324 0.274235 1
0.0766766 0.312917 1
0.00201419 0.351583 1
0.898894 0.0633402 0.326452
0.824247 0.102007 0.491539
0.749599 0.140688 0.656657
0.674937 0.179355 0.821775
0.600275 0.218021 0.986893
0.525628 0.256687 1
0.450965 0.295354 1
0.376318 0.33402 1
0.301656 0.372702 1
1 0.0844587 0.435264
1 0.123125 0.600366
1 0.161791 0.765469
0.974578 0.200473 0.930587
0.899931 0.239139 1
0.825269 0.277806 1
0.750607 0.316472 1
0.675959 0.355138 1
0.601297 0.39382 1
1 0.105577 0.544091
1 0.144244 0.709178
1 0.18291 0.874296
1 0.221576 1
1 0.260258 1
1 0.298924 1
1 0.337591 1
0.975601 0.376257 1
0.900954 0.414923 1
1 0.126696 0.652903
1 0.165362 0.818006
1 0.204028 0.983108
1 0.242695 1
1 0.281376 1
1 0.320043 1
1 0.358709 1
1 0.397375 1
1 0.436042 1
1 0.147814 0.761715
1 0.186481 0.926818
1 0.225147 1
1 0.263813 1
1 0.30248 1
1 0.341161 1
1 0.379828 1
1 0.418494 1
1 0.45716 1
1 0.168933 0.870542
1 0.207599 1
1 0.246265 1
1 0.284932 1
1 0.323598 1
1 0.36228 1
1 0.400946 1
1 0.439612 1
1 0.478279 1
0 0.0652018 0
0 0.103868 0.0161746
0 0.142535 0.181292
0 0.181216 0.34641
0 0.219883 0.511528
0 0.258549 0.676646
0 0.297215 0.841764
0 0.335882 1
0 0.374563 1
0.199634 0.0863203 0
0.124987 0.124987 0.124987
0.0503243 0.163653 0.290105
0 0.202319 0.455222
0 0.241001 0.62034
0 0.279667 0.785443
0 0.318334 0.950561
0 0.357 1
0 0.395666 1
0.499275 0.107439 0.0687114
0.424628 0.146105 0.233799
0.349981 0.184771 0.398917
0.275319 0.223438 0.564034
0.200656 0.262104 0.729152
0.126009 0.300786 0.89427
0.0513466 0.339452 1
0 0.378119 1
0 0.416785 1
0.798917 0.128557 0.177523
0.724269 0.167224 0.342626
0.649622 0.20589 0.507744
0.57496 0.244556 0.672862
0.500313 0.283223 0.83798
0.42565 0.321904 1
0.350988 0.360571 1
0.276341 0.399237 1
0.201678 0.437903 1
1 0.149676 0.286351
1 0.188342 0.451438
0.949264 0.227008 0.616556
0.874601 0.265675 0.781674
0.799954 0.304341 0.946792
0.725292 0.343008 1
0.650645 0.381689 1
0.575982 0.420356 1
0.501335 0.459022 1
1 0.170794 0.395163
1 0.209461 0.560265
1 0.248127 0.725383
1 0.286793 0.890501
1 0.32546 1
1 0.364126 1
0.950286 0.402792 1
0.875624 0.441474 1
0.800977 0.48014 1
1 0.191913 0.50399
1 0.230564 0.669078
1 0.269245 0.834195
1 0.307912 0.999313
1 0.346578 1
1 0.385245 1
1 0.423911 1
1 0.462593 1
1 0.501259 1
1 0.213016 0.612802
1 0.251682 0.777905
1 0.290349 0.943023
1 0.32903 1
1 0.367697 1
1 0.406363 1
1 0.445029 1
1 0.483696 1
1 0.522377 1
1 0.234134 0.72163
1 0.272801 0.886717
1 0.311467 1
1 0.350149 1
1 0.388815 1
1 0.427482 1
1 0.466148 1
1 0.504814 1
1 0.543481 1
0 0.130419 0
0 0.169085 0
0 0.207752 0.0323644
0 0.246433 0.197482
0 0.2851 0.3626
0 0.323766 0.527718
0 0.362432 0.692821
0 0.401099 0.857939
0 0.43978 1
0.0996414 0.151537 0
0.0249943 0.190204 0
0 0.22887 0.141176
0 0.267536 0.306279
0 0.306203 0.471397
0 0.344884 0.636515
0 0.383551 0.801633
0 0.422217 0.966751
0 0.460883 1
0.399298 0.172656 0
0.324651 0.211322 0.0848707
0.249989 0.249989 0.249989
0.175326 0.288655 0.415106
0.100679 0.327321 0.580224
0.0260166 0.366003 0.745342
0 0.404669 0.910445
0 0.443336 1
0 0.482002 1
0.69894 0.193774 0.0285954
0.624292 0.232441 0.193698
0.54963 0.271107 0.358801
0.474983 0.309773 0.523919
0.40032 0.34844 0.689036
0.325658 0.387106 0.854154
0.251011 0.425788 1
0.176349 0.464454 1
0.101701 0.50312 1
0.998581 0.214893 0.137423
0.923934 0.253559 0.30251
0.849271 0.292226 0.467628
0.774624 0.330892 0.632746
0.699962 0.369558 0.797864
0.625315 0.408225 0.962982
0.550652 0.446906 1
0.47599 0.485573 1
0.401343 0.524239 1
1 0.236011 0.246235
1 0.274662 0.411337
1 0.313344 0.57644
1 0.35201 0.741558
0.999603 0.390677 0.906676
0.924956 0.429343 1
0.850294 0.468009 1
0.775647 0.506691 1
0.700984 0.545357 1
1 0.257115 0.355062
1 0.295781 0.52015
1 0.334462 0.685267
1 0.373129 0.850385
1 0.411795 1
1 0.450462 1
1 0.489128 1
1 0.527794 1
1 0.566476 1
1 0.278233 0.463874
1 0.316899 0.628977
1 0.355566 0.794079
1 0.394247 0.959197
1 0.432914 1
1 0.47158 1
1 0.510246 1
1 0.548913 1
1 0.587594 1
1 0.299351 0.572686
1 0.338018 0.737789
1 0.376684 0.902907
1 0.415351 1
1 0.454032 1
1 0.492699 1
1 0.531365 1
1 0.570031 1
1 0.608698 1
0 0.195636 0
0 0.234302 0
0 0.272969 0
0 0.31165 0.0485389
0 0.350317 0.213657
0 0.388983 0.378775
0 0.427649 0.543893
0 0.466316 0.70901
0 0.504982 0.874128
0 0.216754 0
0 0.255421 0
0 0.294087 0
0 0.332753 0.157351
0 0.37142 0.322469
0 0.410101 0.487587
0 0.448768 0.652705
0 0.487434 0.817807
0 0.526101 0.982925
0.299306 0.237873 0
0.224659 0.276539 0
0.149996 0.315206 0.101061
0.075349 0.353872 0.266178
0.000686656 0.392538 0.431281
0 0.431205 0.596399
0 0.469886 0.761517
0 0.508553 0.926635
0 0.547219 1
0.598947 0.258991 0
0.5243 0.297658 0.0447547
0.449653 0.336324 0.209873
0.37499 0.37499 0.37499
0.300328 0.413657 0.540108
0.225681 0.452323 0.705226
0.151019 0.491005 0.870344
0.0763714 0.529671 1
0.00170901 0.568338 1
0.898589 0.28011 0
0.823941 0.318776 0.153582
0.749294 0.357443 0.3187
0.674632 0.396109 0.483803
0.599985 0.434775 0.64892
0.525322 0.473442 0.814038
0.45066 0.512108 0.979156
0.376013 0.55079 1
0.30135 0.589456 1
1 0.301228 0.0973068
1 0.339879 0.262394
1 0.378561 0.427512
0.974273 0.417227 0.59263
0.899626 0.455894 0.757748
0.824964 0.49456 0.922866
0.750317 0.533227 1
0.675654 0.571908 1
0.600992 0.610574 1
1 0.322332 0.206119
1 0.360998 0.371221
1 0.399664 0.536339
1 0.438346 0.701442
1 0.477012 0.86656
1 0.515679 1
1 0.554345 1
0.975296 0.593011 1
0.900649 0.631693 1
1 0.34345 0.314946
1 0.382116 0.480034
1 0.420783 0.645151
1 0.459464 0.810269
1 0.498131 0.975387
1 0.536797 1
1 0.575463 1
1 0.61413 1
1 0.652796 1
1 0.364569 0.423758
1 0.403235 0.588861
1 0.441901 0.753979
1 0.480568 0.919081
1 0.519249 1
1 0.557916 1
1 0.596582 1
1 0.635248 1
1 0.673915 1
0 0.260853 0
0 0.299519 0
0 0.338186 0
0 0.376852 0
0 0.415534 0.0647288
0 0.4542 0.229847
0 0.492866 0.394965
0 0.531533 0.560082
0 0.570199 0.725185
0 0.281971 0
0 0.320638 0
0 0.359304 0
0 0.397971 0.00842298
0 0.436637 0.173541
0 0.475319 0.338643
0 0.513985 0.503761
0 0.552651 0.668879
0 0.591318 0.833997
0.199313 0.30309 0
0.124666 0.341756 0
0.0500191 0.380423 0
0 0.419089 0.117235
0 0.457755 0.282353
0 0.496422 0.447471
0 0.535103 0.612589
0 0.57377 0.777707
0 0.612436 0.942809
0.49897 0.324208 0
0.424323 0.362875 0
0.34966 0.401541 0.0609445
0.274998 0.440208 0.226062
0.200351 0.478874 0.39118
0.125689 0.51754 0.556283
0.0510414 0.556207 0.721401
0 0.594888 0.886519
0 0.633555 1
0.798611 0.345327 0
0.723964 0.383978 0.00463874
0.649302 0.42266 0.169757
0.574655 0.461326 0.334874
0.499992 0.499992 0.499992
0.42533 0.538659 0.66511
0.350683 0.577325 0.830228
0.27602 0.616007 0.995346
0.201373 0.654673 1
1 0.36643 0
1 0.405097 0.113466
0.948943 0.443778 0.278584
0.874296 0.482444 0.443702
0.799634 0.521111 0.608804
0.724987 0.559777 0.773922
0.650324 0.598444 0.93904
0.575662 0.63711 1
0.501015 0.675792 1
1 0.387549 0.0571908
1 0.426215 0.222278
1 0.464881 0.387396
1 0.503563 0.552514
1 0.542229 0.717632
1 0.580896 0.88275
0.949966 0.619562 1
0.875319 0.658228 1
0.800656 0.69691 1
1 0.408667 0.166003
1 0.447333 0.331106
1 0.486 0.496223
1 0.524666 0.661341
1 0.563348 0.826444
1 0.602014 0.991562
1 0.640681 1
1 0.679347 1
1 0.718013 1
1 0.429786 0.27483
1 0.468452 0.439918
1 0.507118 0.605035
1 0.545785 0.770153
1 0.584466 0.935271
1 0.623133 1
1 0.661799 1
1 0.700465 1
1 0.739132 1
0 0.32607 0
0 0.364736 0
0 0.403403 0
0 0.442069 0
0 0.480751 0
0 0.519417 0.0809033
0 0.558083 0.246021
0 0.59675 0.411139
0 0.635416 0.576257
0 0.347189 0
0 0.385855 0
0 0.424521 0
0 0.463188 0
0 0.501854 0.0245975
0 0.54052 0.189715
0 0.579202 0.354833
0 0.617868 0.519951
0 0.656535 0.685069
0.0993362 0.368307 0
0.0246891 0.406973 0
0 0.44564 0
0 0.484306 0
0 0.522972 0.133425
0 0.561639 0.298543
0 0.60032 0.463645
0 0.638987 0.628763
0 0.677653 0.793881
0.398978 0.389425 0
0.324331 0.428077 0
0.249668 0.466758 0
0.175021 0.505425 0.0771191
0.100359 0.544091 0.242237
0.0257115 0.582757 0.407355
0 0.621424 0.572473
0 0.660105 0.737591
0 0.698772 0.902708
0.698619 0.410544 0
0.623972 0.449195 0
0.549325 0.487877 0.0208286
0.474662 0.526543 0.185946
0.4 0.565209 0.351064
0.325353 0.603876 0.516182
0.25069 0.642542 0.681285
0.176043 0.681208 0.846403
0.101381 0.71989 1
0.99826 0.431647 0
0.923613 0.470314 0
0.848966 0.50898 0.129641
0.774304 0.547662 0.294759
0.699657 0.586328 0.459876
0.624994 0.624994 0.624994
0.550332 0.663661 0.790112
0.475685 0.702327 0.95523
0.401022 0.741009 1
1 0.452766 0
1 0.491432 0.0733501
1 0.530098 0.238468
1 0.56878 0.403586
0.999298 0.607446 0.568704
0.924636 0.646113 0.733806
0.849989 0.684779 0.898924
0.775326 0.723445 1
0.700664 0.762112 1
1 0.473884 0.0170748
1 0.512551 0.182177
1 0.551217 0.34728
1 0.589883 0.512398
1 0.628565 0.677516
1 0.667231 0.842634
1 0.705898 1
1 0.744564 1
1 0.78323 1
1 0.495003 0.125887
1 0.533669 0.29099
1 0.572335 0.456107
1 0.611002 0.621225
1 0.649668 0.786343
1 0.68835 0.951446
1 0.727016 1
1 0.765682 1
1 0.804349 1
0 0.391287 0
0 0.429953 0
0 0.46862 0
0 0.507286 0
0 0.545968 0
0 0.584634 0
0 0.623301 0.0970932
0 0.661967 0.262211
0 0.700633 0.427329
0 0.412406 0
0 0.451072 0
0 0.489738 0
0 0.528405 0
0 0.567071 0
0 0.605737 0.0407874
0 0.644419 0.205905
0 0.683085 0.371008
0 0.721752 0.536126
0 0.433524 0
0 0.47219 0
0 0.510857 0
0 0.549523 0
0 0.58819 0
0 0.626856 0.149599
0 0.665522 0.314717
0 0.704204 0.479835
0 0.74287 0.644953
0.298985 0.454643 0
0.224338 0.493294 0
0.149691 0.531975 0
0.0750286 0.570642 0
0.000381476 0.609308 0.0933089
0 0.647974 0.258427
0 0.686641 0.423545
0 0.725322 0.588647
0 0.763989 0.753765
0.598642 0.475746 0
0.523995 0.514412 0
0.449332 0.553079 0
0.37467 0.59176 0.0370031
0.300023 0.630426 0.202121
0.22536 0.669093 0.367239
0.150713 0.707759 0.532357
0.076051 0.746426 0.697475
0.00138857 0.785107 0.862593
0.898283 0.496864 0
0.823636 0.535531 0
0.748974 0.574197 0
0.674327 0.612879 0.14583
0.599664 0.651545 0.310948
0.525002 0.690211 0.476066
0.450355 0.728878 0.641184
0.375692 0.767544 0.806287
0.301045 0.80621 0.971405
1 0.517983 0
1 0.556649 0
1 0.595315 0.0895399
0.973968 0.633982 0.254643
0.899306 0.672663 0.41976
0.824659 0.71133 0.584878
0.749996 0.749996 0.749996
0.675334 0.788663 0.915114
0.600687 0.827329 1
1 0.539101 0
1 0.577768 0.0332341
1 0.616434 0.198352
1 0.6551 0.36347
1 0.693782 0.528588
1 0.732448 0.693706
1 0.771115 0.858808
0.97499 0.809781 1
0.900328 0.848447 1
1 0.56022 0
1 0.598886 0.142061
1 0.637552 0.307179
1 0.676219 0.472282
1 0.714885 0.6374
1 0.753567 0.802518
1 0.792233 0.967636
1 0.8309 1
1 0.869566 1
0 0.456504 0
0 0.495171 0
0 0.533837 0
0 0.572503 0
0 0.61117 0
0 0.649851 0
0 0.688518 0
0 0.727184 0.113283
0 0.76585 0.278386
0 0.477623 0
0 0.516289 0
0 0.554955 0
0 0.593622 0
0 0.632288 0
0 0.670954 0
0 0.709636 0.0569619
0 0.748302 0.22208
0 0.786969 0.387198
0 0.498741 0
0 0.537392 0
0 0.576074 0
0 0.61474 0
0 0.653407 0
0 0.692073 0.000671397
0 0.730739 0.165789
0 0.769421 0.330907
0 0.808087 0.49601
0.199008 0.519844 0
0.124361 0.558511 0
0.0496986 0.597192 0
0 0.635859 0
0 0.674525 0
0 0.713191 0.109483
0 0.751858 0.274601
0 0.790524 0.439719
0 0.829206 0.604837
0.49865 0.540963 0
0.424002 0.579629 0
0.34934 0.618296 0
0.274693 0.656977 0
0.200031 0.695644 0.053193
0.125383 0.73431 0.218311
0.050721 0.772976 0.383429
0 0.811643 0.548547
0 0.850324 0.713649
0.798291 0.562081 0
0.723644 0.600748 0
0.648997 0.639414 0
0.574334 0.67808 0
0.499672 0.716762 0.162005
0.425025 0.755428 0.327123
0.350362 0.794095 0.492241
0.275715 0.832761 0.657359
0.201053 0.871427 0.822477
1 0.5832 0
1 0.621866 0
0.948638 0.660533 0
0.873976 0.699199 0.105715
0.799329 0.737881 0.270832
0.724666 0.776547 0.43595
0.650004 0.815213 0.601068
0.575357 0.85388 0.766186
0.500694 0.892546 0.931289
1 0.604318 0
1 0.642985 0
1 0.681651 0.049424
1 0.720317 0.214542
1 0.758984 0.379644
1 0.797665 0.544762
0.94966 0.836332 0.70988
0.874998 0.874998 0.874998
0.800336 0.913664 1
1 0.625437 0
1 0.664103 0
1 0.70277 0.158236
1 0.741436 0.323354
1 0.780102 0.488472
1 0.818784 0.65359
1 0.85745 0.818708
1 0.896117 0.98381
1 0.934783 1
0 0.521721 0
0 0.560388 0
0 0.599054 0
0 0.63772 0
0 0.676387 0
0 0.715068 0
0 0.753735 0
0 0.792401 0
0 0.831067 0.129458
0 0.54284 0
0 0.581506 0
0 0.620172 0
0 0.658839 0
0 0.697505 0
0 0.736171 0
0 0.774838 0
0 0.813519 0.0731518
0 0.852186 0.23827
0 0.563958 0
0 0.602609 0
0 0.641291 0
0 0.679957 0
0 0.718624 0
0 0.75729 0
0 0.795956 0.016846
0 0.834638 0.181964
0 0.873304 0.347082
0.0990158 0.585061 0
0.0243687 0.623728 0
0 0.662394 0
0 0.701076 0
0 0.739742 0
0 0.778408 0
0 0.817075 0.125673
0 0.855741 0.290791
0 0.894423 0.455909
0.398657 0.60618 0
0.32401 0.644846 0
0.249363 0.683513 0
0.174701 0.722194 0
0.100053 0.760861 0
0.025391 0.799527 0.0693828
0 0.838193 0.234485
0 0.87686 0.399603
0 0.915526 0.564721
0.698299 0.627298 0
0.623652 0.665965 0
0.549004 0.704631 0
0.474342 0.743297 0
0.399695 0.781979 0.013077
0.325032 0.820645 0.178195
0.250385 0.859312 0.343313
0.175723 0.897978 0.508431
0.101061 0.936645 0.673548
0.997955 0.648417 0
0.923308 0.687083 0
0.848646 0.72575 0
0.773999 0.764416 0
0.699336 0.803082 0.121904
0.624674 0.841764 0.287007
0.550027 0.88043 0.452125
0.475364 0.919097 0.617243
0.400717 0.957763 0.782361
1 0.669535 0
1 0.708202 0
1 0.746868 0
1 0.785534 0.0655985
0.998978 0.824201 0.230716
0.924331 0.862882 0.395834
0.849668 0.901549 0.560952
0.775006 0.940215 0.72607
0.700359 0.978882 0.891188
1 0.690654 0
1 0.72932 0
1 0.767987 0.009308
1 0.806653 0.174426
1 0.845319 0.339544
1 0.883986 0.504646
1 0.922667 0.669764
1 0.961334 0.834882
1 1 1
