public/LUTS/Color Shift/ColorShift_61.cube
TITLE "Generated by Resolve"
LUT_3D_SIZE 9
0 0 0
0 0.0607004 0
0 0.121416 0
0 0.182132 0
0 0.242847 0
0 0.303548 0
0 0.364263 0
0 0.424979 0
0 0.485695 0
0 0.114565 0.233845
0 0.17528 0.0961929
0 0.235981 0
0 0.296696 0
0 0.357412 0
0 0.418128 0
0 0.478828 0
0 0.539544 0
0 0.600259 0
0 0.22916 0.467704
0 0.28986 0.330068
0 0.350576 0.192401
0 0.411276 0.0547494
0 0.471992 0
0 0.532708 0
0 0.593423 0
0 0.654124 0
0 0.714839 0
0 0.34374 0.701579
0 0.40444 0.563928
0 0.465156 0.426276
0 0.525872 0.288609
0 0.586587 0.150958
0 0.647288 0.0132906
0 0.708003 0
0 0.768719 0
0 0.829435 0
0 0.45832 0.935439
0 0.519036 0.797803
0 0.579736 0.660136
0 0.640452 0.522484
0 0.701167 0.384817
0 0.761883 0.247166
0 0.822583 0.109499
0 0.883299 0
0 0.944015 0
0 0.572915 1
0 0.633616 1
0 0.694331 0.894011
0 0.755032 0.756344
0 0.815747 0.618692
0 0.876463 0.481025
0 0.937179 0.343374
0 0.997879 0.205707
0 1 0.0680552
0 0.687495 1
0 0.748196 1
0 0.808911 1
0 0.869627 0.990219
0 0.930327 0.852552
0 0.991043 0.7149
0 1 0.577234
0 1 0.439582
0 1 0.301915
0 0.802075 1
0 0.862776 1
0 0.923491 1
0 0.984207 1
0 1 1
0 1 0.94876
0 1 0.811109
0 1 0.673442
0 1 0.53579
0 0.916671 1
0 0.977371 1
0 1 1
0 1 1
0 1 1
0 1 1
0 1 1
0 1 0.907317
0 1 0.76965
0.20885 0 0.0287938
0.190478 0.0104219 0
0.172107 0.0711223 0
0.153735 0.131838 0
0.135348 0.192554 0
0.116976 0.253269 0
0.0986038 0.31397 0
0.0802319 0.374685 0
0.0618601 0.435401 0
0.143359 0.0642863 0.262623
0.124987 0.124987 0.124987
0.106615 0.185702 0
0.0882429 0.246418 0
0.0698558 0.307118 0
0.0514839 0.367834 0
0.0331121 0.42855 0
0.0147402 0.489265 0
0 0.549966 0
0.0778515 0.178866 0.496498
0.0594797 0.239567 0.358862
0.0411078 0.300282 0.221195
0.0227359 0.360998 0.0835279
0.00436408 0.421714 0
0 0.482414 0
0 0.54313 0
0 0.603845 0
0 0.664561 0
0.0123598 0.293446 0.730373
0 0.354162 0.592721
0 0.414862 0.45507
0 0.475578 0.317403
0 0.536294 0.179736
0 0.597009 0.0420844
0 0.65771 0
0 0.718425 0
0 0.779141 0
0 0.408042 0.964233
0 0.468742 0.826596
0 0.529458 0.68893
0 0.590158 0.551278
0 0.650874 0.413611
0 0.711589 0.275944
0 0.772305 0.138293
0 0.833005 0.00062562
0 0.893721 0
0 0.522622 1
0 0.583322 1
0 0.644038 0.922805
0 0.704753 0.785138
0 0.765454 0.647486
0 0.826169 0.509819
0 0.886885 0.372152
0 0.947601 0.234501
0 1 0.0968338
0 0.637201 1
0 0.697917 1
0 0.758618 1
0 0.819333 1
0 0.880049 0.881346
0 0.940764 0.743694
0 1 0.606027
0 1 0.46836
0 1 0.330709
0 0.751797 1
0 0.812497 1
0 0.873213 1
0 0.933913 1
0 0.994629 1
0 1 0.977554
0 1 0.839902
0 1 0.702235
0 1 0.564569
0 0.866377 1
0 0.927077 1
0 0.987793 1
0 1 1
0 1 1
0 1 1
0 1 1
0 1 0.93611
0 1 0.798444
0.417731 0 0.0575875
0.399359 0 0
0.380987 0.0208286 0
0.3626 0.0815442 0
0.344228 0.14226 0
0.325856 0.202976 0
0.307485 0.263676 0
0.289113 0.324392 0
0.270726 0.385107 0
0.352239 0.0139925 0.291417
0.333867 0.0746929 0.15378
0.315496 0.135409 0.0161135
0.297108 0.196109 0
0.278737 0.256825 0
0.260365 0.31754 0
0.241993 0.378256 0
0.223606 0.438956 0
0.205234 0.499672 0
0.286732 0.128573 0.525292
0.26836 0.189273 0.387655
0.249989 0.249989 0.249989
0.231617 0.310704 0.112322
0.213245 0.37142 0
0.194858 0.43212 0
0.176486 0.492836 0
0.158114 0.553552 0
0.139742 0.614267 0
0.221241 0.243153 0.759167
0.202869 0.303868 0.621515
0.184482 0.364569 0.483864
0.16611 0.425284 0.346197
0.147738 0.486 0.20853
0.129366 0.546715 0.0708782
0.110979 0.607416 0
0.092607 0.668132 0
0.0742351 0.728847 0
0.155734 0.357748 0.993027
0.137362 0.418448 0.85539
0.11899 0.479164 0.717723
0.100618 0.539864 0.580072
0.0822309 0.60058 0.442405
0.063859 0.661295 0.304738
0.0454871 0.722011 0.167086
0.0271153 0.782712 0.0294194
0.00872816 0.843427 0
0.0902266 0.472328 1
0.0718547 0.533028 1
0.0534829 0.593744 0.951598
0.035111 0.654459 0.813931
0.0167391 0.71516 0.67628
0 0.775876 0.538613
0 0.836591 0.400946
0 0.897307 0.263294
0 0.958007 0.125628
0.0247349 0.586908 1
0.00636301 0.647608 1
0 0.708324 1
0 0.769039 1
0 0.829755 0.91014
0 0.890455 0.772488
0 0.951171 0.634821
0 1 0.497154
0 1 0.359503
0 0.701503 1
0 0.762203 1
0 0.822919 1
0 0.883619 1
0 0.944335 1
0 1 1
0 1 0.868696
0 1 0.731029
0 1 0.593362
0 0.816083 1
0 0.876783 1
0 0.937499 1
0 0.998215 1
0 1 1
0 1 1
0 1 1
0 1 0.964904
0 1 0.827237
0.626612 0 0.0863813
0.60824 0 0
0.589868 0 0
0.571481 0.0312505 0
0.553109 0.0919661 0
0.534737 0.152682 0
0.516365 0.213382 0
0.497978 0.274098 0
0.479606 0.334813 0
0.56112 0 0.320211
0.542748 0.0243992 0.182574
0.524361 0.0851148 0.0449073
0.505989 0.145815 0
0.487617 0.206531 0
0.469245 0.267247 0
0.450874 0.327962 0
0.432486 0.388663 0
0.414115 0.449378 0
0.495613 0.0782788 0.554086
0.477241 0.138979 0.416449
0.458869 0.199695 0.278782
0.440497 0.26041 0.141115
0.42211 0.321111 0.0034638
0.403738 0.381826 0
0.385367 0.442542 0
0.366995 0.503258 0
0.348608 0.563958 0
0.430121 0.192859 0.787961
0.411734 0.253559 0.650309
0.393362 0.314275 0.512657
0.37499 0.37499 0.37499
0.356619 0.435706 0.237324
0.338247 0.496422 0.0996719
0.31986 0.557122 0
0.301488 0.617838 0
0.283116 0.678553 0
0.364614 0.307454 1
0.346242 0.368154 0.884184
0.327871 0.42887 0.746517
0.309483 0.48957 0.608865
0.291112 0.550286 0.471199
0.27274 0.611002 0.333532
0.254368 0.671717 0.19588
0.235981 0.732418 0.0582132
0.217609 0.793133 0
0.299107 0.422034 1
0.280735 0.482734 1
0.262364 0.54345 0.980392
0.243992 0.604166 0.842725
0.22562 0.664866 0.705074
0.207233 0.725582 0.567407
0.188861 0.786297 0.42974
0.170489 0.847013 0.292088
0.152117 0.907713 0.154421
0.233616 0.536614 1
0.215244 0.597314 1
0.196857 0.65803 1
0.178485 0.718746 1
0.160113 0.779461 0.938933
0.141741 0.840162 0.801282
0.123354 0.900877 0.663615
0.104982 0.961593 0.525948
0.0866102 1 0.388296
0.168109 0.651194 1
0.149737 0.71191 1
0.131365 0.77261 1
0.112993 0.833326 1
0.0946059 0.894041 1
0.0762341 0.954757 1
0.0578622 1 0.89749
0.0394903 1 0.759823
0.0211032 1 0.622156
0.102602 0.765789 1
0.0842298 0.82649 1
0.0658579 0.887205 1
0.0474861 0.947921 1
0.0291142 1 1
0.0107424 1 1
0 1 1
0 1 0.993698
0 1 0.856031
0.835492 0 0.115175
0.817121 0 0
0.798733 0 0
0.780362 0 0
0.76199 0.0416724 0
0.743618 0.102373 0
0.725231 0.163088 0
0.706859 0.223804 0
0.688487 0.28452 0
0.770001 0 0.349004
0.751629 0 0.211368
0.733242 0.0348211 0.0737011
0.71487 0.0955215 0
0.696498 0.156237 0
0.678126 0.216953 0
0.659739 0.277668 0
0.641367 0.338369 0
0.622995 0.399084 0
0.704494 0.027985 0.582879
0.686122 0.0886854 0.445243
0.66775 0.149401 0.307576
0.649363 0.210117 0.169909
0.630991 0.270817 0.0322576
0.612619 0.331533 0
0.594247 0.392248 0
0.575875 0.452964 0
0.557488 0.513664 0
0.638987 0.142565 0.816754
0.620615 0.203265 0.679103
0.602243 0.263981 0.541451
0.583871 0.324697 0.403784
0.565499 0.385412 0.266117
0.547112 0.446113 0.128466
0.52874 0.506828 0
0.510369 0.567544 0
0.491997 0.62826 0
0.573495 0.257145 1
0.555123 0.317861 0.912978
0.536736 0.378561 0.775311
0.518364 0.439277 0.637659
0.499992 0.499992 0.499992
0.481621 0.560708 0.362325
0.463249 0.621424 0.224674
0.444862 0.682124 0.0870069
0.42649 0.74284 0
0.507988 0.37174 1
0.489616 0.432441 1
0.471244 0.493156 1
0.452873 0.553872 0.871519
0.434485 0.614572 0.733867
0.416114 0.675288 0.596201
0.397742 0.736004 0.458534
0.37937 0.796719 0.320882
0.360983 0.85742 0.183215
0.442496 0.48632 1
0.424109 0.547021 1
0.405737 0.607736 1
0.387366 0.668452 1
0.368994 0.729168 0.967727
0.350622 0.789868 0.830076
0.332235 0.850584 0.692409
0.313863 0.911299 0.554742
0.295491 0.972015 0.41709
0.376989 0.6009 1
0.358618 0.661616 1
0.340246 0.722316 1
0.321859 0.783032 1
0.303487 0.843748 1
0.285115 0.904463 1
0.266743 0.965164 0.926284
0.248371 1 0.788617
0.229984 1 0.65095
0.311482 0.715496 1
0.293111 0.776196 1
0.274739 0.836912 1
0.256367 0.897612 1
0.237995 0.958328 1
0.219608 1 1
0.201236 1 1
0.182864 1 1
0.164492 1 0.884825
1 0 0.143969
1 0 0.00631724
1 0 0
0.989242 0 0
0.970871 0 0
0.952499 0.052079 0
0.934112 0.112795 0
0.91574 0.17351 0
0.897368 0.234226 0
0.978866 0 0.377798
0.960494 0 0.240162
0.942123 0 0.102495
0.923751 0.0452277 0
0.905379 0.105943 0
0.886992 0.166659 0
0.86862 0.227375 0
0.850248 0.288075 0
0.831876 0.348791 0
0.913375 0 0.611673
0.895003 0.0383917 0.474037
0.876631 0.0991073 0.33637
0.858244 0.159823 0.198703
0.839872 0.220523 0.0610513
0.8215 0.281239 0
0.803128 0.341955 0
0.784741 0.40267 0
0.766369 0.463371 0
0.847868 0.0922713 0.845548
0.829496 0.152972 0.707897
0.811124 0.213687 0.570245
0.792752 0.274403 0.432578
0.774365 0.335119 0.294911
0.755993 0.395819 0.157259
0.737621 0.456535 0.0195926
0.719249 0.51725 0
0.700877 0.577966 0
0.782376 0.206851 1
0.764004 0.267567 0.941772
0.745617 0.328267 0.804105
0.727245 0.388983 0.666453
0.708873 0.449699 0.528786
0.690501 0.510414 0.391119
0.672114 0.571115 0.253468
0.653742 0.63183 0.115801
0.63537 0.692546 0
0.716869 0.321447 1
0.698497 0.382147 1
0.680125 0.442863 1
0.661738 0.503563 0.900313
0.643366 0.564279 0.762661
0.624994 0.624994 0.624994
0.606622 0.68571 0.487327
0.588251 0.746426 0.349676
0.569863 0.807126 0.212009
0.651362 0.436027 1
0.63299 0.496727 1
0.614618 0.557443 1
0.596246 0.618158 1
0.577874 0.678874 0.996521
0.559487 0.739574 0.858869
0.541115 0.80029 0.721202
0.522744 0.861006 0.583535
0.504372 0.921721 0.445884
0.58587 0.550607 1
0.567498 0.611322 1
0.549111 0.672023 1
0.530739 0.732738 1
0.512367 0.793454 1
0.493996 0.85417 1
0.475624 0.91487 0.955077
0.457237 0.975586 0.817411
0.438865 1 0.679744
0.520363 0.665202 1
0.501991 0.725902 1
0.483619 0.786618 1
0.465248 0.847318 1
0.44686 0.908034 1
0.428489 0.96875 1
0.410117 1 1
0.391745 1 1
0.373373 1 0.913619
1 0 0.172763
1 0 0.035111
1 0 0
1 0 0
1 0 0
1 0.00178531 0
1 0.062501 0
1 0.123217 0
1 0.183932 0
1 0 0.406592
1 0 0.268956
1 0 0.131289
1 0 0
1 0.0556497 0
1 0.116365 0
1 0.177066 0
1 0.237781 0
1 0.298497 0
1 0 0.640467
1 0 0.502831
1 0.0488136 0.365164
1 0.109529 0.227497
1 0.17023 0.0898451
1 0.230945 0
1 0.291661 0
0.993622 0.352377 0
0.97525 0.413077 0
1 0.0419776 0.874342
1 0.102678 0.73669
1 0.163394 0.599039
1 0.224109 0.461372
0.983246 0.284825 0.323705
0.964874 0.345525 0.186053
0.946502 0.406241 0.0483864
0.92813 0.466957 0
0.909743 0.527672 0
0.991241 0.156558 1
0.972869 0.217273 0.970565
0.954498 0.277974 0.832898
0.936126 0.338689 0.695247
0.917754 0.399405 0.55758
0.899367 0.460121 0.419913
0.880995 0.520821 0.282261
0.862623 0.581537 0.144594
0.844251 0.642252 0.00694286
0.92575 0.271153 1
0.907378 0.331853 1
0.889006 0.392569 1
0.870619 0.453269 0.929107
0.852247 0.513985 0.791455
0.833875 0.574701 0.653788
0.815503 0.635416 0.516121
0.797116 0.696117 0.37847
0.778744 0.756832 0.240803
0.860243 0.385733 1
0.841871 0.446433 1
0.823499 0.507149 1
0.805127 0.567864 1
0.78674 0.628565 1
0.768368 0.689281 0.887663
0.749996 0.749996 0.749996
0.731624 0.810712 0.612329
0.713252 0.871427 0.474678
0.794751 0.500313 1
0.776379 0.561028 1
0.757992 0.621729 1
0.73962 0.682445 1
0.721248 0.74316 1
0.702876 0.803876 1
0.684489 0.864576 0.983871
0.666117 0.925292 0.846204
0.647745 0.986007 0.708537
0.729244 0.614908 1
0.710872 0.675608 1
0.6925 0.736324 1
0.674113 0.797024 1
0.655741 0.85774 1
0.637369 0.918456 1
0.618997 0.979171 1
0.600626 1 1
0.582238 1 0.942412
1 0 0.201556
1 0 0.0639048
1 0 0
1 0 0
1 0 0
1 0 0
1 0.0122072 0
1 0.0729229 0
1 0.133639 0
1 0 0.435386
1 0 0.297749
1 0 0.160082
1 0 0.0224308
1 0.00535592 0
1 0.0660716 0
1 0.126772 0
1 0.187488 0
1 0.248203 0
1 0 0.669261
1 0 0.531624
1 0 0.393957
1 0.0592203 0.256291
1 0.119936 0.118639
1 0.180652 0
1 0.241367 0
1 0.302068 0
1 0.362783 0
1 0 0.903136
1 0.0523842 0.765484
1 0.1131 0.627832
1 0.173816 0.490166
1 0.234531 0.352499
1 0.295232 0.214847
1 0.355947 0.0771801
1 0.416663 0
1 0.477378 0
1 0.106264 1
1 0.166979 0.999359
1 0.22768 0.861692
1 0.288396 0.724041
1 0.349111 0.586374
1 0.409827 0.448707
1 0.470527 0.311055
1 0.531243 0.173388
1 0.591959 0.0357366
1 0.220859 1
1 0.281559 1
1 0.342275 1
1 0.402975 0.9579
1 0.463691 0.820249
1 0.524407 0.682582
1 0.585122 0.544915
1 0.645823 0.407263
0.987625 0.706538 0.269596
1 0.335439 1
1 0.396139 1
1 0.456855 1
1 0.517571 1
0.995621 0.578271 1
0.977249 0.638987 0.916457
0.958877 0.699702 0.77879
0.940505 0.760418 0.641123
0.922118 0.821118 0.503471
1 0.450019 1
0.985245 0.510719 1
0.966873 0.571435 1
0.948501 0.632151 1
0.930129 0.692866 1
0.911742 0.753567 1
0.89337 0.814282 1
0.874998 0.874998 0.874998
0.856626 0.935714 0.737331
0.938125 0.564614 1
0.919753 0.625315 1
0.901381 0.68603 1
0.882994 0.746731 1
0.864622 0.807446 1
0.84625 0.868162 1
0.827878 0.928878 1
0.809491 0.989578 1
0.791119 1 0.971206
1 0 0.23035
1 0 0.0926986
1 0 0
1 0 0
1 0 0
1 0 0
1 0 0
1 0.0226291 0
1 0.0833295 0
1 0 0.464179
1 0 0.326543
1 0 0.188876
1 0 0.0512245
1 0 0
1 0.0157778 0
1 0.0764782 0
1 0.137194 0
1 0.19791 0
1 0 0.698054
1 0 0.560418
1 0 0.422751
1 0.00892653 0.285084
1 0.0696422 0.147433
1 0.130358 0.00976577
1 0.191073 0
1 0.251774 0
1 0.31249 0
1 0 0.93193
1 0.00209049 0.794278
1 0.0628061 0.656626
1 0.123522 0.518959
1 0.184222 0.381292
1 0.244938 0.243641
1 0.305653 0.105974
1 0.366369 0
1 0.42707 0
1 0.0559701 1
1 0.116686 1
1 0.177386 0.890486
1 0.238102 0.752834
1 0.298817 0.615167
1 0.359533 0.477501
1 0.420233 0.339849
1 0.480949 0.202182
1 0.541665 0.0645304
1 0.170565 1
1 0.231266 1
1 0.291981 1
1 0.352682 0.986694
1 0.413397 0.849042
1 0.474113 0.711376
1 0.534829 0.573709
1 0.595529 0.436057
1 0.656245 0.29839
1 0.285145 1
1 0.345846 1
1 0.406561 1
1 0.467277 1
1 0.527977 1
1 0.588693 0.945251
1 0.649409 0.807584
1 0.710124 0.669917
1 0.770825 0.532265
1 0.399725 1
1 0.460426 1
1 0.521141 1
1 0.581857 1
1 0.642573 1
1 0.703273 1
1 0.763989 1
1 0.824704 0.903792
1 0.88542 0.766125
1 0.514305 1
1 0.575021 1
1 0.635721 1
1 0.696437 1
1 0.757153 1
1 0.817868 1
1 0.878569 1
1 0.939284 1
1 1 1
