public/LUTS/Color Shift/ColorShift_50.cube
TITLE "Generated by Resolve"
LUT_3D_SIZE 9
0 0 0
0 0.0765393 0.0393683
0 0.153079 0.0787366
0 0.229618 0.118105
0 0.306172 0.157488
0 0.382712 0.196857
0 0.459251 0.236225
0 0.535805 0.275593
0 0.612345 0.314977
0.204929 0.0299535 0.261021
0.0579232 0.106493 0.300374
0 0.183032 0.339757
0 0.259571 0.379126
0 0.33611 0.418494
0 0.412665 0.457862
0 0.489204 0.497246
0 0.565744 0.536614
0 0.642298 0.575982
0.409873 0.0599069 0.522057
0.262882 0.136446 0.561425
0.115862 0.212985 0.600793
0 0.289525 0.640177
0 0.366064 0.679545
0 0.442618 0.718914
0 0.519158 0.758282
0 0.595697 0.797665
0 0.672251 0.837034
0.614816 0.0898604 0.783108
0.467826 0.1664 0.822477
0.320806 0.242939 0.861845
0.1738 0.319478 0.901213
0.0267796 0.396033 0.940581
0 0.472572 0.979965
0 0.549111 1
0 0.62565 1
0 0.702205 1
0.819776 0.119814 1
0.67277 0.196353 1
0.525765 0.272892 1
0.378744 0.349432 1
0.231724 0.425986 1
0.0847181 0.502525 1
0 0.579065 1
0 0.655619 1
0 0.732158 1
1 0.149767 1
0.877729 0.226307 1
0.730709 0.302846 1
0.583688 0.379385 1
0.436683 0.45594 1
0.289662 0.532479 1
0.142641 0.609018 1
0 0.685573 1
0 0.762112 1
1 0.179721 1
1 0.25626 1
0.935653 0.332799 1
0.788647 0.409339 1
0.641627 0.485893 1
0.494606 0.562432 1
0.347601 0.638972 1
0.20058 0.715526 1
0.0535592 0.792065 1
1 0.209674 1
1 0.286213 1
1 0.362753 1
0.993591 0.439292 1
0.846571 0.515846 1
0.699565 0.592386 1
0.552544 0.668925 1
0.405524 0.74548 1
0.258518 0.822019 1
1 0.239628 1
1 0.316167 1
1 0.392706 1
1 0.469261 1
1 0.5458 1
0.904509 0.622339 1
0.757488 0.698878 1
0.610483 0.775433 1
0.463462 0.851972 1
0.0670634 0.0184939 0
0 0.0950332 0
0 0.171572 0
0 0.248127 0
0 0.324666 0
0 0.401205 0.0214542
0 0.47776 0.0608377
0 0.554299 0.100206
0 0.630838 0.139574
0.271977 0.0484474 0.0856184
0.124987 0.124987 0.124987
0 0.201526 0.164355
0 0.27808 0.203723
0 0.35462 0.243107
0 0.431159 0.282475
0 0.507713 0.321843
0 0.584253 0.361212
0 0.660792 0.400595
0.476936 0.0784009 0.34667
0.329931 0.15494 0.386038
0.182925 0.231479 0.425406
0.0359045 0.308034 0.464775
0 0.384573 0.504143
0 0.461112 0.543526
0 0.537667 0.582895
0 0.614206 0.622263
0 0.690745 0.661631
0.68188 0.108354 0.607706
0.53489 0.184894 0.647074
0.387869 0.261433 0.686458
0.240848 0.337987 0.725826
0.093843 0.414527 0.765194
0 0.491066 0.804562
0 0.56762 0.843931
0 0.64416 0.883314
0 0.720699 0.922683
0.886824 0.138308 0.868757
0.739834 0.214847 0.908125
0.592813 0.291386 0.947494
0.445808 0.367941 0.986862
0.298787 0.44448 1
0.151766 0.521019 1
0.00476081 0.597574 1
0 0.674113 1
0 0.750652 1
1 0.168276 1
0.944778 0.2448 1
0.797772 0.321355 1
0.650752 0.397894 1
0.503731 0.474434 1
0.356725 0.550973 1
0.209705 0.627527 1
0.0626841 0.704067 1
0 0.780606 1
1 0.19823 1
1 0.274754 1
1 0.351308 1
0.855695 0.427848 1
0.70869 0.504387 1
0.561669 0.580941 1
0.414649 0.657481 1
0.267643 0.73402 1
0.120623 0.810559 1
1 0.228183 1
1 0.304707 1
1 0.381262 1
1 0.457801 1
0.913634 0.53434 1
0.766613 0.610895 1
0.619608 0.687434 1
0.472587 0.763973 1
0.325567 0.840528 1
1 0.258137 1
1 0.334661 1
1 0.411215 1
1 0.487755 1
1 0.564294 1
0.971572 0.640848 1
0.824552 0.717388 1
0.677531 0.793927 1
0.530526 0.870481 1
0.134127 0.0370031 0
0 0.113542 0
0 0.190082 0
0 0.266621 0
0 0.343175 0
0 0.419715 0
0 0.496254 0
0 0.572808 0
0 0.649348 0
0.339055 0.0669566 0
0.19205 0.143496 0
0.0450446 0.220035 0
0 0.296574 0.0283207
0 0.373129 0.067689
0 0.449668 0.107057
0 0.526207 0.146426
0 0.602747 0.185809
0 0.679301 0.225177
0.543999 0.09691 0.171252
0.397009 0.173449 0.21062
0.249989 0.249989 0.249989
0.102968 0.326528 0.289357
0 0.403082 0.328725
0 0.479622 0.368109
0 0.556161 0.407477
0 0.632715 0.446845
0 0.709255 0.486213
0.748943 0.126864 0.432288
0.601953 0.203403 0.471656
0.454932 0.279942 0.51104
0.307927 0.356481 0.550408
0.160906 0.433036 0.589776
0.0138857 0.509575 0.629145
0 0.586114 0.668528
0 0.662669 0.707897
0 0.739208 0.747265
0.953902 0.156817 0.693339
0.806897 0.233356 0.732708
0.659892 0.309895 0.772076
0.512871 0.386435 0.81146
0.36585 0.462989 0.850828
0.218845 0.539528 0.890196
0.0718242 0.616068 0.929564
0 0.692622 0.968933
0 0.769162 1
1 0.18677 0.954391
1 0.26331 0.993759
0.864836 0.339849 1
0.717815 0.416388 1
0.570809 0.492943 1
0.423789 0.569482 1
0.276768 0.646021 1
0.129763 0.722576 1
0 0.799115 1
1 0.216724 1
1 0.293263 1
1 0.369802 1
0.922774 0.446357 1
0.775753 0.522896 1
0.628733 0.599435 1
0.481727 0.675975 1
0.334707 0.752529 1
0.187686 0.829068 1
1 0.246677 1
1 0.323217 1
1 0.399756 1
1 0.47631 1
0.980697 0.55285 1
0.833692 0.629389 1
0.686671 0.705943 1
0.539651 0.782483 1
0.392645 0.859022 1
1 0.276631 1
1 0.35317 1
1 0.429709 1
1 0.506264 1
1 0.582803 1
1 0.659342 1
0.891615 0.735897 1
0.74461 0.812436 1
0.597589 0.888975 1
0.20119 0.0555123 0
0.0542 0.132036 0
0 0.208591 0
0 0.28513 0
0 0.361669 0
0 0.438224 0
0 0.514763 0
0 0.591302 0
0 0.667857 0
0.406119 0.0854658 0
0.259129 0.16199 0
0.112108 0.238544 0
0 0.315084 0
0 0.391623 0
0 0.468177 0
0 0.544717 0
0 0.621256 0.0103914
0 0.697795 0.0497597
0.611078 0.115419 0
0.464073 0.191943 0.0352026
0.317052 0.268498 0.0745708
0.170047 0.345037 0.113939
0.0230259 0.421576 0.153323
0 0.498131 0.192691
0 0.57467 0.232059
0 0.651209 0.271427
0 0.727749 0.310811
0.816022 0.145373 0.256886
0.669017 0.221897 0.296254
0.522011 0.298451 0.335622
0.37499 0.37499 0.37499
0.22797 0.45153 0.414359
0.0809644 0.528084 0.453727
0 0.604623 0.493111
0 0.681163 0.532479
0 0.757717 0.571847
1 0.175326 0.517922
0.873976 0.25185 0.55729
0.726955 0.328405 0.596658
0.579934 0.404944 0.636042
0.432929 0.481483 0.67541
0.285908 0.558038 0.714778
0.138888 0.634577 0.754147
0 0.711116 0.79353
0 0.787671 0.832898
1 0.20528 0.778973
1 0.281819 0.818341
0.931899 0.358358 0.85771
0.784894 0.434897 0.897078
0.637873 0.511437 0.936461
0.490852 0.587991 0.97583
0.343847 0.66453 1
0.196826 0.74107 1
0.0498054 0.817624 1
1 0.235233 1
1 0.311772 1
1 0.388312 1
0.989837 0.464851 1
0.842817 0.54139 1
0.695811 0.617945 1
0.548791 0.694484 1
0.40177 0.771023 1
0.254765 0.847578 1
1 0.265187 1
1 0.341726 1
1 0.418265 1
1 0.494804 1
1 0.571359 1
0.900755 0.647898 1
0.753735 0.724437 1
0.606729 0.800977 1
0.459709 0.877531 1
1 0.29514 1
1 0.371679 1
1 0.448218 1
1 0.524758 1
1 0.601312 1
1 0.677852 1
0.958694 0.754391 1
0.811673 0.830945 1
0.664652 0.907485 1
0.268269 0.0740063 0
0.121263 0.150546 0
0 0.227085 0
0 0.303639 0
0 0.380179 0
0 0.456718 0
0 0.533272 0
0 0.609812 0
0 0.686351 0
0.473182 0.10396 0
0.326192 0.180499 0
0.179171 0.257038 0
0.032166 0.333593 0
0 0.410132 0
0 0.486671 0
0 0.56321 0
0 0.639765 0
0 0.716304 0
0.678141 0.133913 0
0.531136 0.210452 0
0.384131 0.286992 0
0.23711 0.363546 0
0.0900893 0.440085 0
0 0.516625 0.0172732
0 0.593179 0.0566415
0 0.669718 0.0960098
0 0.746258 0.135393
0.883085 0.163867 0.0814679
0.736095 0.240406 0.120836
0.589075 0.316945 0.160204
0.442054 0.3935 0.199573
0.295048 0.470039 0.238941
0.148028 0.546578 0.278325
0.0010071 0.623133 0.317693
0 0.699672 0.357061
0 0.776211 0.396429
1 0.19382 0.342504
0.941039 0.270359 0.381872
0.794018 0.346899 0.421256
0.647013 0.423453 0.460624
0.499992 0.499992 0.499992
0.352972 0.576532 0.539361
0.205966 0.653086 0.578729
0.0589456 0.729625 0.618112
0 0.806165 0.657481
1 0.223774 0.603555
1 0.300313 0.642924
0.998978 0.376852 0.682292
0.851957 0.453407 0.72166
0.704936 0.529946 0.761044
0.557931 0.606485 0.800412
0.41091 0.68304 0.83978
0.26389 0.759579 0.879149
0.116884 0.836118 0.918532
1 0.253727 0.864607
1 0.330266 0.903975
1 0.406821 0.943343
1 0.48336 0.982712
0.909895 0.559899 1
0.762875 0.636439 1
0.615854 0.712993 1
0.468849 0.789532 1
0.321828 0.866072 1
1 0.283696 1
1 0.36022 1
1 0.436774 1
1 0.513313 1
1 0.589853 1
0.967819 0.666392 1
0.820813 0.742947 1
0.673793 0.819486 1
0.526772 0.896025 1
1 0.313649 1
1 0.390173 1
1 0.466728 1
1 0.543267 1
1 0.619806 1
1 0.696361 1
1 0.7729 1
0.878737 0.849439 1
0.731731 0.925978 1
0.335332 0.0925154 0
0.188342 0.169055 0
0.0413214 0.245594 0
0 0.322133 0
0 0.398688 0
0 0.475227 0
0 0.551766 0
0 0.628321 0
0 0.70486 0
0.540261 0.122469 0
0.393256 0.199008 0
0.24625 0.275547 0
0.0992294 0.352087 0
0 0.428626 0
0 0.50518 0
0 0.58172 0
0 0.658259 0
0 0.734813 0
0.745205 0.152422 0
0.598215 0.228962 0
0.451194 0.305501 0
0.304173 0.38204 0
0.157168 0.458595 0
0.0101472 0.535134 0
0 0.611673 0
0 0.688212 0
0 0.764767 0
0.950164 0.182376 0
0.803159 0.258915 0
0.656138 0.335454 0
0.509133 0.411994 0.024155
0.362112 0.488548 0.0635386
0.215091 0.565087 0.102907
0.0680858 0.641627 0.142275
0 0.718181 0.181643
0 0.79472 0.221012
1 0.212329 0.167086
1 0.288869 0.206455
0.861097 0.365408 0.245838
0.714076 0.441947 0.285206
0.567056 0.518502 0.324575
0.42005 0.595041 0.363943
0.27303 0.67158 0.403326
0.126009 0.748135 0.442695
0 0.824674 0.482063
1 0.242283 0.428138
1 0.318822 0.467506
1 0.395361 0.506874
0.91902 0.471901 0.546258
0.772015 0.548455 0.585626
0.624994 0.624994 0.624994
0.477974 0.701534 0.664363
0.330968 0.778088 0.703731
0.183948 0.854627 0.743114
1 0.272236 0.689189
1 0.348775 0.728557
1 0.425315 0.767926
1 0.501854 0.807294
0.976959 0.578408 0.846662
0.829938 0.654948 0.886046
0.682933 0.731487 0.925414
0.535912 0.808042 0.964782
0.388891 0.884581 1
1 0.30219 0.950225
1 0.378729 0.989593
1 0.455268 1
1 0.531823 1
1 0.608362 1
1 0.684901 1
0.887877 0.76144 1
0.740856 0.837995 1
0.593851 0.914534 1
1 0.332143 1
1 0.408682 1
1 0.485222 1
1 0.561776 1
1 0.638315 1
1 0.714855 1
1 0.791394 1
0.945815 0.867948 1
0.798795 0.944488 1
0.402396 0.111025 0
0.255406 0.187549 0
0.108385 0.264103 0
0 0.340642 0
0 0.417182 0
0 0.493736 0
0 0.570275 0
0 0.646815 0
0 0.723369 0
0.607324 0.140963 0
0.460334 0.217502 0
0.313313 0.294041 0
0.166293 0.370596 0
0.0192874 0.447135 0
0 0.523674 0
0 0.600229 0
0 0.676768 0
0 0.753307 0
0.812284 0.170932 0
0.665278 0.247456 0
0.518257 0.32401 0
0.371252 0.400549 0
0.224231 0.477089 0
0.0772106 0.553628 0
0 0.630182 0
0 0.706722 0
0 0.783261 0
1 0.200885 0
0.870222 0.277409 0
0.723217 0.353964 0
0.576196 0.430503 0
0.429175 0.507042 0
0.28217 0.583597 0
0.135149 0.660136 0
0 0.736675 0.00622568
0 0.813214 0.0456092
1 0.230838 0
1 0.307362 0.0310521
0.928161 0.383917 0.0704204
0.78114 0.460456 0.109789
0.634134 0.536995 0.149157
0.487114 0.61355 0.188525
0.340093 0.690089 0.227909
0.193088 0.766629 0.267277
0.046067 0.843183 0.306645
1 0.260792 0.25272
1 0.337316 0.292088
1 0.41387 0.331456
0.986099 0.49041 0.37084
0.839078 0.566949 0.410208
0.692058 0.643503 0.449577
0.545052 0.720043 0.488945
0.398032 0.796582 0.528328
0.251011 0.873137 0.567697
1 0.290745 0.513771
1 0.367269 0.55314
1 0.443824 0.592508
1 0.520363 0.631876
1 0.596902 0.67126
0.897017 0.673457 0.710628
0.749996 0.749996 0.749996
0.602975 0.826535 0.789364
0.45597 0.90309 0.828733
1 0.320699 0.774807
1 0.397238 0.814176
1 0.473777 0.853559
1 0.550317 0.892927
1 0.626856 0.932296
1 0.70341 0.971664
0.95494 0.77995 1
0.807935 0.856489 1
0.660914 0.933043 1
1 0.350652 1
1 0.427192 1
1 0.503731 1
1 0.58027 1
1 0.656825 1
1 0.733364 1
1 0.809903 1
1 0.886442 1
0.865858 0.962997 1
0.469474 0.129519 0
0.322469 0.206058 0
0.175463 0.282597 0
0.0284428 0.359152 0
0 0.435691 0
0 0.51223 0
0 0.588785 0
0 0.665324 0
0 0.741863 0
0.674388 0.159472 0
0.527398 0.236011 0
0.380377 0.312551 0
0.233371 0.38909 0
0.0863508 0.465644 0
0 0.542184 0
0 0.618723 0
0 0.695277 0
0 0.771817 0
0.879347 0.189425 0
0.732341 0.265965 0
0.585336 0.342504 0
0.438315 0.419043 0
0.291295 0.495598 0
0.144289 0.572137 0
0 0.648676 0
0 0.725231 0
0 0.80177 0
1 0.219379 0
0.937301 0.295918 0
0.79028 0.372457 0
0.643259 0.449012 0
0.496254 0.525551 0
0.349233 0.60209 0
0.202213 0.67863 0
0.0552071 0.755184 0
0 0.831724 0
1 0.249332 0
1 0.325872 0
0.995224 0.402411 0
0.848219 0.478965 0
0.701198 0.555505 0
0.554177 0.632044 0.0131228
0.407172 0.708598 0.052491
0.260151 0.785138 0.0918593
0.11313 0.861677 0.131228
1 0.279286 0.0773022
1 0.355825 0.11667
1 0.432364 0.156054
1 0.508919 0.195422
0.906142 0.585458 0.234791
0.759136 0.661997 0.274159
0.612116 0.738552 0.313542
0.465095 0.815091 0.352911
0.31809 0.89163 0.392279
1 0.309239 0.338354
1 0.385779 0.377722
1 0.462318 0.41709
1 0.538872 0.456458
1 0.615412 0.495842
0.96408 0.691951 0.53521
0.81706 0.768505 0.574578
0.670054 0.845045 0.613947
0.523033 0.921584 0.65333
1 0.339193 0.599405
1 0.415732 0.638773
1 0.492271 0.678141
1 0.568826 0.71751
1 0.645365 0.756878
1 0.721904 0.796262
1 0.798459 0.83563
0.874998 0.874998 0.874998
0.727977 0.951537 0.914366
1 0.369162 0.860441
1 0.445686 0.899809
1 0.52224 0.939178
1 0.598779 0.978561
1 0.675319 1
1 0.751858 1
1 0.828412 1
1 0.904952 1
0.932937 0.981491 1
0.536538 0.148028 0
0.389548 0.224567 0
0.242527 0.301106 0
0.0955062 0.377646 0
0 0.4542 0
0 0.530739 0
0 0.607279 0
0 0.683818 0
0 0.760372 0
0.741466 0.177981 0
0.594461 0.254505 0
0.447456 0.33106 0
0.300435 0.407599 0
0.153414 0.484138 0
0.00640879 0.560693 0
0 0.637232 0
0 0.713771 0
0 0.790326 0
0.94641 0.207935 0
0.79942 0.284459 0
0.652399 0.361013 0
0.505379 0.437552 0
0.358373 0.514092 0
0.211353 0.590646 0
0.064332 0.667185 0
0 0.743725 0
0 0.820279 0
1 0.237888 0
1 0.314427 0
0.857343 0.390967 0
0.710338 0.467506 0
0.563317 0.544045 0
0.416297 0.6206 0
0.269291 0.697139 0
0.122271 0.773678 0
0 0.850233 0
1 0.267842 0
1 0.344381 0
1 0.42092 0
0.915282 0.497459 0
0.768261 0.574014 0
0.621256 0.650553 0
0.474235 0.727092 0
0.327214 0.803632 0
0.180209 0.880186 0
1 0.297795 0
1 0.374334 0
1 0.450874 0
1 0.527413 0.0200046
0.97322 0.603967 0.0593729
0.8262 0.680507 0.0987411
0.679179 0.757046 0.138125
0.532174 0.8336 0.177493
0.385153 0.91014 0.216861
1 0.327749 0.162936
1 0.404288 0.202304
1 0.480827 0.241672
1 0.557366 0.281056
1 0.633921 0.320424
1 0.71046 0.359792
0.884138 0.786999 0.399161
0.737118 0.863554 0.438544
0.590097 0.940093 0.477913
1 0.357702 0.423987
1 0.434241 0.463355
1 0.510781 0.502724
1 0.58732 0.542092
1 0.663874 0.58146
1 0.740414 0.620844
1 0.816953 0.660212
0.942061 0.893507 0.69958
0.795056 0.970047 0.738949
1 0.387655 0.685023
1 0.464195 0.724392
1 0.540734 0.763775
1 0.617273 0.803143
1 0.693828 0.842512
1 0.770367 0.88188
1 0.846906 0.921263
1 0.923461 0.960632
1 1 1
