public/LUTS/Color Shift/ColorShift_09.cube
TITLE "Generated by Resolve"
LUT_3D_SIZE 9
0 0 0
0 0.0566567 0
0 0.113313 0
0 0.16997 0
0 0.226642 0
0 0.283299 0
0 0.339956 0
0 0.396612 0
0 0.453285 0
0.050782 0.0833906 0.205081
0.00645457 0.140047 0.159487
0 0.196704 0.113893
0 0.253361 0.0682994
0 0.310018 0.0227054
0 0.36669 0
0 0.423346 0
0 0.480003 0
0 0.53666 0
0.101564 0.166781 0.410178
0.0572519 0.223438 0.364599
0.0129244 0.280095 0.319005
0 0.336751 0.273396
0 0.393423 0.227802
0 0.45008 0.182208
0 0.506737 0.136614
0 0.563409 0.0910201
0 0.620066 0.0454261
0.152361 0.250172 0.61529
0.108034 0.306828 0.569696
0.0637064 0.363485 0.524102
0.019379 0.420157 0.478508
0 0.476814 0.432914
0 0.533471 0.38732
0 0.590143 0.341726
0 0.646799 0.296132
0 0.703456 0.250538
0.203143 0.333577 0.820386
0.158816 0.390234 0.774807
0.114488 0.446891 0.729213
0.070161 0.503548 0.683604
0.0258335 0.560204 0.63801
0 0.616876 0.592416
0 0.673533 0.546822
0 0.73019 0.501228
0 0.786847 0.455634
0.253925 0.416968 1
0.209598 0.473625 0.979904
0.165286 0.530282 0.93431
0.120958 0.586938 0.888716
0.0766308 0.64361 0.843122
0.0323033 0.700267 0.797528
0 0.756924 0.751934
0 0.813596 0.70634
0 0.870253 0.660746
0.304707 0.500359 1
0.260395 0.557015 1
0.216068 0.613687 1
0.17174 0.670344 1
0.127413 0.727001 1
0.0830854 0.783658 1
0.0387579 0.84033 0.957031
0 0.896986 0.911437
0 0.953643 0.865843
0.355505 0.583764 1
0.311177 0.640421 1
0.26685 0.697078 1
0.222522 0.753735 1
0.178195 0.810391 1
0.133867 0.867063 1
0.0895399 0.92372 1
0.0452125 0.980377 1
0.000885023 1 1
0.406287 0.667155 1
0.361959 0.723812 1
0.317632 0.780468 1
0.273304 0.83714 1
0.228992 0.893797 1
0.184665 0.950454 1
0.140337 1 1
0.0960098 1 1
0.0516823 1 1
0.118532 0 0
0.0742046 0.0415961 0
0.0298772 0.0982681 0
0 0.154925 0
0 0.211582 0
0 0.268238 0
0 0.32491 0
0 0.381567 0
0 0.438224 0
0.169314 0.0683299 0.170581
0.124987 0.124987 0.124987
0.0806592 0.181643 0.0793927
0.0363317 0.238315 0.0337987
0 0.294972 0
0 0.351629 0
0 0.408286 0
0 0.464958 0
0 0.521614 0
0.220096 0.151736 0.375677
0.175769 0.208377 0.330083
0.131441 0.265049 0.284489
0.0871138 0.321706 0.238895
0.0427863 0.378363 0.193301
0 0.435019 0.147707
0 0.491691 0.102113
0 0.548348 0.0565194
0 0.605005 0.0109255
0.270878 0.235126 0.580789
0.226566 0.291783 0.535195
0.182239 0.34844 0.489601
0.137911 0.405097 0.444007
0.0935836 0.461769 0.398413
0.0492561 0.518425 0.352819
0.00492866 0.575082 0.307225
0 0.631739 0.261631
0 0.688411 0.216022
0.321675 0.318517 0.785885
0.277348 0.375174 0.740291
0.233021 0.43183 0.694697
0.188693 0.488502 0.649104
0.144366 0.545159 0.60351
0.100038 0.601816 0.557916
0.0557107 0.658473 0.512322
0.0113832 0.715145 0.466728
0 0.771801 0.421134
0.372457 0.401923 0.990997
0.32813 0.458564 0.945403
0.283803 0.515236 0.899809
0.239475 0.571893 0.854215
0.195148 0.62855 0.808621
0.15082 0.685222 0.763027
0.106493 0.741878 0.717433
0.0621653 0.798535 0.671839
0.0178378 0.855192 0.62623
0.423239 0.485313 1
0.378927 0.54197 1
0.3346 0.598627 1
0.290272 0.655283 1
0.245945 0.711955 1
0.201617 0.768612 0.968124
0.15729 0.825269 0.92253
0.112963 0.881926 0.876936
0.0686351 0.938598 0.831342
0.474022 0.568704 1
0.429709 0.62536 1
0.385382 0.682017 1
0.341054 0.738689 1
0.296727 0.795346 1
0.252399 0.852003 1
0.208072 0.908675 1
0.163745 0.965331 1
0.119417 1 1
0.524819 0.65211 1
0.480491 0.708766 1
0.436164 0.765423 1
0.391836 0.82208 1
0.347509 0.878737 1
0.303181 0.935409 1
0.258854 0.992065 1
0.214527 1 1
0.170199 1 1
0.237064 0 0
0.192752 0.0265507 0
0.148425 0.0832074 0
0.104097 0.139864 0
0.0597696 0.196521 0
0.0154421 0.253193 0
0 0.30985 0
0 0.366506 0
0 0.423178 0
0.287846 0.0532845 0.136065
0.243534 0.109926 0.090486
0.199207 0.166598 0.044892
0.154879 0.223255 0
0.110552 0.279911 0
0.0662242 0.336568 0
0.0218967 0.39324 0
0 0.449897 0
0 0.506554 0
0.338643 0.136675 0.341176
0.294316 0.193332 0.295583
0.249989 0.249989 0.249989
0.205661 0.306645 0.204395
0.161334 0.363317 0.158801
0.117006 0.419974 0.113207
0.0726787 0.476631 0.0676127
0.0283513 0.533288 0.0220188
0 0.58996 0
0.389425 0.220066 0.546273
0.345098 0.276722 0.500694
0.300771 0.333379 0.455085
0.256443 0.390051 0.409491
0.212116 0.446708 0.363897
0.167788 0.503365 0.318303
0.123461 0.560021 0.272709
0.0791333 0.616693 0.227115
0.0348211 0.67335 0.181521
0.440208 0.303471 0.751385
0.395895 0.360113 0.705791
0.351568 0.416785 0.660197
0.30724 0.473442 0.614603
0.262913 0.530098 0.569009
0.218585 0.58677 0.523415
0.174258 0.643427 0.477821
0.129931 0.700084 0.432227
0.0856031 0.756741 0.386633
0.49099 0.386862 0.956481
0.446677 0.443519 0.910903
0.40235 0.500175 0.865293
0.358022 0.556832 0.819699
0.313695 0.613504 0.774105
0.269368 0.670161 0.728511
0.22504 0.726818 0.682918
0.180713 0.783475 0.637324
0.136385 0.840146 0.59173
0.541787 0.470253 1
0.497459 0.526909 1
0.453132 0.583566 1
0.408804 0.640238 1
0.364477 0.696895 0.979217
0.32015 0.753552 0.933623
0.275822 0.810224 0.888029
0.231495 0.86688 0.842435
0.187167 0.923537 0.796841
0.592569 0.553658 1
0.548241 0.610315 1
0.503929 0.666972 1
0.459602 0.723629 1
0.415274 0.780285 1
0.370947 0.836957 1
0.326619 0.893614 1
0.282292 0.950271 1
0.237964 1 1
0.643351 0.637049 1
0.599039 0.693706 1
0.554711 0.750362 1
0.510384 0.807019 1
0.466056 0.863691 1
0.421729 0.920348 1
0.377401 0.977005 1
0.333074 1 1
0.288746 1 1
0.355612 0 0
0.311284 0.01149 0
0.266957 0.0681468 0
0.222644 0.124819 0
0.178317 0.181476 0
0.133989 0.238132 0
0.089662 0.294789 0
0.0453346 0.351461 0
0.0010071 0.408118 0
0.406394 0.0382239 0.101564
0.362066 0.0948806 0.0559701
0.317739 0.151537 0.0103761
0.273411 0.208194 0
0.229084 0.264866 0
0.184756 0.321523 0
0.140444 0.37818 0
0.0961166 0.434836 0
0.0517891 0.491508 0
0.457176 0.121614 0.306661
0.412863 0.178271 0.261082
0.368536 0.234928 0.215488
0.324208 0.2916 0.169894
0.279881 0.348257 0.124285
0.235554 0.404913 0.0786908
0.191226 0.46157 0.0330968
0.146899 0.518242 0
0.102571 0.574899 0
0.507973 0.20502 0.511772
0.463645 0.261662 0.466178
0.419318 0.318334 0.420584
0.37499 0.37499 0.37499
0.330663 0.431647 0.329397
0.286336 0.488319 0.283803
0.242008 0.544976 0.238209
0.197681 0.601633 0.192615
0.153353 0.658289 0.147021
0.558755 0.288411 0.716869
0.514427 0.345068 0.67129
0.4701 0.401724 0.625696
0.425772 0.458381 0.580087
0.381445 0.515053 0.534493
0.337118 0.57171 0.488899
0.29279 0.628367 0.443305
0.248463 0.685023 0.397711
0.204135 0.741695 0.352117
0.609537 0.371801 0.921981
0.565225 0.428458 0.876387
0.520897 0.485115 0.830793
0.47657 0.541787 0.785199
0.432242 0.598444 0.739605
0.387915 0.6551 0.694011
0.343587 0.711772 0.648417
0.29926 0.768429 0.602823
0.254932 0.825086 0.557229
0.660319 0.455207 1
0.616007 0.511864 1
0.571679 0.568521 1
0.527352 0.625177 0.990295
0.483024 0.681834 0.944701
0.438697 0.738506 0.899107
0.394369 0.795163 0.853513
0.350042 0.85182 0.807919
0.305715 0.908476 0.762325
0.711116 0.538598 1
0.666789 0.595254 1
0.622461 0.651911 1
0.578134 0.708568 1
0.533806 0.76524 1
0.489479 0.821897 1
0.445151 0.878553 1
0.400824 0.935225 1
0.356497 0.991882 0.967437
0.761898 0.621988 1
0.717571 0.678645 1
0.673243 0.735317 1
0.628931 0.791974 1
0.584604 0.84863 1
0.540276 0.905287 1
0.495949 0.961959 1
0.451621 1 1
0.407294 1 1
0.474159 0 0
0.429831 0 0
0.385504 0.0531014 0
0.341176 0.109758 0
0.296849 0.166415 0
0.252522 0.223087 0
0.208194 0.279744 0
0.163867 0.3364 0
0.119539 0.393057 0
0.524941 0.0231632 0.0670481
0.480613 0.0798199 0.0214694
0.436286 0.136477 0
0.391959 0.193149 0
0.347631 0.249805 0
0.303304 0.306462 0
0.258976 0.363119 0
0.214649 0.419791 0
0.170321 0.476448 0
0.575723 0.106569 0.27216
0.531395 0.16321 0.226566
0.487068 0.219883 0.180972
0.442741 0.276539 0.135378
0.398413 0.333196 0.0897841
0.354086 0.389868 0.0441901
0.309758 0.446525 0
0.265446 0.503182 0
0.221118 0.559838 0
0.626505 0.18996 0.477256
0.582193 0.246616 0.431678
0.537865 0.303273 0.386084
0.493538 0.35993 0.34049
0.44921 0.416602 0.294896
0.404883 0.473259 0.249287
0.360555 0.529915 0.203693
0.316228 0.586572 0.158099
0.271901 0.643244 0.112505
0.677302 0.27335 0.682368
0.632975 0.330007 0.636774
0.588647 0.386664 0.59118
0.54432 0.443336 0.545586
0.499992 0.499992 0.499992
0.455665 0.556649 0.454398
0.411337 0.613321 0.408804
0.36701 0.669978 0.36321
0.322683 0.726635 0.317617
0.728084 0.356756 0.887465
0.683757 0.413413 0.841886
0.639429 0.470069 0.796292
0.595102 0.526726 0.750698
0.550774 0.583383 0.705089
0.506447 0.640055 0.659495
0.462119 0.696712 0.613901
0.417792 0.753368 0.568307
0.373465 0.810025 0.522713
0.778866 0.440146 1
0.734539 0.496803 1
0.690227 0.55346 1
0.645899 0.610117 0.955795
0.601572 0.666789 0.910201
0.557244 0.723445 0.864607
0.512917 0.780102 0.819013
0.468589 0.836774 0.773419
0.424262 0.893431 0.727825
0.829648 0.523537 1
0.785336 0.580194 1
0.741009 0.636866 1
0.696681 0.693523 1
0.652354 0.750179 1
0.608026 0.806836 1
0.563699 0.863508 1
0.519371 0.920165 0.978515
0.475044 0.976822 0.932921
0.880446 0.606943 1
0.836118 0.6636 1
0.791791 0.720256 1
0.747463 0.776913 1
0.703136 0.83357 1
0.658808 0.890242 1
0.614481 0.946899 1
0.570153 1 1
0.525826 1 1
0.592691 0 0
0.548379 0 0
0.504051 0.0380407 0
0.459724 0.0946975 0
0.415396 0.151369 0
0.371069 0.208026 0
0.326741 0.264683 0
0.282414 0.32134 0
0.238087 0.378012 0
0.643473 0.0081178 0.0325475
0.599161 0.0647593 0
0.554833 0.121431 0
0.510506 0.178088 0
0.466178 0.234745 0
0.421851 0.291417 0
0.377523 0.348074 0
0.333196 0.40473 0
0.288869 0.461387 0
0.69427 0.0915084 0.237659
0.649943 0.148165 0.192065
0.605615 0.204822 0.146471
0.561288 0.261479 0.100877
0.51696 0.318151 0.0552834
0.472633 0.374807 0.00968948
0.428305 0.431464 0
0.383978 0.488121 0
0.339651 0.544793 0
0.745052 0.174899 0.442756
0.700725 0.231556 0.397162
0.656397 0.288212 0.351568
0.61207 0.344884 0.305974
0.567742 0.401541 0.26038
0.523415 0.458198 0.214786
0.479088 0.51487 0.169192
0.43476 0.571527 0.123598
0.390448 0.628183 0.0780041
0.795834 0.258305 0.647868
0.751522 0.314961 0.602274
0.707195 0.371618 0.55668
0.662867 0.428275 0.511086
0.61854 0.484932 0.465492
0.574212 0.541604 0.419898
0.529885 0.59826 0.374289
0.485557 0.654917 0.328695
0.44123 0.711574 0.283101
0.846616 0.341695 0.852964
0.802304 0.398352 0.80737
0.757977 0.455009 0.761776
0.713649 0.511666 0.716182
0.669322 0.568338 0.670588
0.624994 0.624994 0.624994
0.580667 0.681651 0.5794
0.536339 0.738323 0.533806
0.492012 0.79498 0.488212
0.897414 0.425086 1
0.853086 0.481743 1
0.808759 0.538415 0.966888
0.764431 0.595071 0.921294
0.720104 0.651728 0.8757
0.675776 0.708385 0.830091
0.631449 0.765057 0.784497
0.587121 0.821714 0.738903
0.542794 0.87837 0.693309
0.948196 0.508492 1
0.903868 0.565148 1
0.859541 0.621805 1
0.815229 0.678462 1
0.770901 0.735119 1
0.726574 0.791791 1
0.682246 0.848447 0.989609
0.637919 0.905104 0.944015
0.593591 0.961776 0.898421
0.998978 0.591882 1
0.954665 0.648539 1
0.910338 0.705196 1
0.866011 0.761868 1
0.821683 0.818524 1
0.777356 0.875181 1
0.733028 0.931838 1
0.688701 0.98851 1
0.644373 1 1
0.711238 0 0
0.666911 0 0
0.622583 0.0229801 0
0.578256 0.0796521 0
0.533944 0.136309 0
0.489616 0.192966 0
0.445289 0.249638 0
0.400961 0.306294 0
0.356634 0.362951 0
0.76202 0 0
0.717693 0.0497139 0
0.673365 0.106371 0
0.629038 0.163027 0
0.58471 0.219699 0
0.540383 0.276356 0
0.496056 0.333013 0
0.451743 0.38967 0
0.407416 0.446342 0
0.812802 0.0764477 0.203143
0.76849 0.133104 0.157549
0.724163 0.189761 0.111955
0.679835 0.246433 0.0663615
0.635508 0.30309 0.0207675
0.59118 0.359747 0
0.546853 0.416419 0
0.502525 0.473075 0
0.458198 0.529732 0
0.8636 0.159854 0.408255
0.819272 0.21651 0.362661
0.774945 0.273167 0.317067
0.730617 0.329824 0.271473
0.68629 0.386481 0.225879
0.641962 0.443153 0.180285
0.597635 0.499809 0.134691
0.553307 0.556466 0.0890822
0.50898 0.613123 0.0434882
0.914382 0.243244 0.613352
0.870054 0.299901 0.567758
0.825727 0.356558 0.522164
0.781399 0.413214 0.47657
0.737072 0.469886 0.430976
0.692744 0.526543 0.385382
0.648417 0.5832 0.339788
0.604089 0.639872 0.294194
0.559762 0.696529 0.2486
0.965164 0.326635 0.818463
0.920851 0.383291 0.772869
0.876524 0.439963 0.727275
0.832197 0.49662 0.681682
0.787869 0.553277 0.636088
0.743542 0.609934 0.590494
0.699214 0.666606 0.5449
0.654887 0.723262 0.49929
0.610559 0.779919 0.453696
1 0.41004 1
0.971633 0.466697 0.977966
0.927306 0.523354 0.932372
0.882979 0.580011 0.886778
0.838651 0.636667 0.841184
0.794324 0.693339 0.79559
0.749996 0.749996 0.749996
0.705669 0.806653 0.704402
0.661341 0.863325 0.658808
1 0.493431 1
1 0.550088 1
0.978088 0.606744 1
0.933761 0.663417 1
0.889433 0.720073 1
0.845106 0.77673 1
0.800778 0.833387 0.955093
0.756451 0.890059 0.909499
0.712123 0.946715 0.863905
1 0.576837 1
1 0.633478 1
1 0.69015 1
0.984543 0.746807 1
0.94023 0.803464 1
0.895903 0.860121 1
0.851575 0.916793 1
0.807248 0.973449 1
0.762921 1 1
0.829786 0 0
0.785458 0 0
0.741131 0.00793469 0
0.696803 0.0645914 0
0.652476 0.121248 0
0.608148 0.17792 0
0.563821 0.234577 0
0.519493 0.291234 0
0.475166 0.34789 0
0.880568 0 0
0.83624 0.0346532 0
0.791913 0.09131 0
0.747585 0.147982 0
0.703258 0.204639 0
0.65893 0.261295 0
0.614603 0.317968 0
0.570275 0.374624 0
0.525948 0.431281 0
0.93135 0.0614023 0.168643
0.887022 0.118059 0.123049
0.842695 0.174716 0.0774548
0.798367 0.231373 0.0318608
0.75404 0.288029 0
0.709712 0.344701 0
0.665385 0.401358 0
0.621057 0.458015 0
0.576745 0.514672 0
0.982132 0.144793 0.373739
0.937819 0.20145 0.328145
0.893492 0.258106 0.282551
0.849165 0.314763 0.236957
0.804837 0.371435 0.191363
0.76051 0.428092 0.145769
0.716182 0.484749 0.100175
0.671855 0.541421 0.0545815
0.627527 0.598077 0.00898756
1 0.228183 0.578851
0.988602 0.28484 0.533257
0.944274 0.341512 0.487663
0.899947 0.398169 0.442069
0.855619 0.454826 0.396475
0.811292 0.511482 0.350881
0.766964 0.568154 0.305287
0.722637 0.624811 0.259693
0.678309 0.681468 0.214084
1 0.311589 0.783948
1 0.368246 0.738354
0.995056 0.424903 0.69276
0.950729 0.481559 0.647166
0.906401 0.538216 0.601572
0.862074 0.594888 0.555978
0.817746 0.651545 0.510384
0.773419 0.708202 0.46479
0.729091 0.764874 0.419196
1 0.39498 0.989059
1 0.451637 0.943465
1 0.508293 0.897871
1 0.564965 0.852277
0.957198 0.621622 0.806683
0.912871 0.678279 0.76109
0.868544 0.734936 0.715496
0.824216 0.791608 0.669902
0.779889 0.848264 0.624292
1 0.478386 1
1 0.535027 1
1 0.591699 1
1 0.648356 1
1 0.705013 1
0.963653 0.761669 0.966186
0.919326 0.818341 0.920592
0.874998 0.874998 0.874998
0.830671 0.931655 0.829404
1 0.561776 1
1 0.618433 1
1 0.67509 1
1 0.731746 1
1 0.788418 1
1 0.845075 1
0.970108 0.901732 1
0.92578 0.958389 1
0.881453 1 1
0.948318 0 0
0.904005 0 0
0.859678 0 0
0.815351 0.0495308 0
0.771023 0.106203 0
0.726696 0.16286 0
0.682368 0.219516 0
0.638041 0.276188 0
0.593713 0.332845 0
0.9991 0 0
0.954787 0.0196078 0
0.91046 0.0762646 0
0.866133 0.132921 0
0.821805 0.189578 0
0.777478 0.24625 0
0.73315 0.302907 0
0.688823 0.359564 0
0.644495 0.41622 0
1 0.0463417 0.134127
1 0.102998 0.0885481
0.961242 0.159655 0.0429389
0.916915 0.216312 0
0.872587 0.272984 0
0.82826 0.329641 0
0.783932 0.386297 0
0.739605 0.442969 0
0.695277 0.499626 0
1 0.129732 0.339239
1 0.186389 0.293645
1 0.243061 0.248051
0.967697 0.299718 0.202457
0.923369 0.356374 0.156863
0.879042 0.413031 0.111269
0.834714 0.469703 0.0656748
0.790387 0.52636 0.0200809
0.746059 0.583017 0
1 0.213138 0.544335
1 0.269795 0.498756
1 0.326452 0.453147
1 0.383108 0.407553
0.974166 0.439765 0.361959
0.929839 0.496437 0.316365
0.885512 0.553094 0.270771
0.841184 0.609751 0.225177
0.796857 0.666423 0.179583
1 0.296529 0.749447
1 0.353185 0.703853
1 0.409842 0.658259
1 0.466514 0.612665
1 0.523171 0.567071
0.980621 0.579828 0.521477
0.936294 0.636484 0.475883
0.891966 0.693156 0.430289
0.847639 0.749813 0.384695
1 0.379934 0.954543
1 0.436576 0.908965
1 0.493248 0.863355
1 0.549905 0.817761
1 0.606561 0.772168
1 0.663218 0.726574
0.987076 0.71989 0.68098
0.942748 0.776547 0.635386
0.898421 0.833204 0.589792
1 0.463325 1
1 0.519982 1
1 0.576638 1
1 0.633295 1
1 0.689967 0.977279
1 0.746624 0.931685
1 0.803281 0.886091
0.993545 0.859937 0.840497
0.949218 0.916609 0.794903
1 0.546715 1
1 0.603372 1
1 0.660029 1
1 0.716701 1
1 0.773358 1
1 0.830014 1
1 0.886671 1
1 0.943343 1
1 1 1
