public/LUTS/Color Shift/ColorShift_64.cube
TITLE "Generated by Resolve"
LUT_3D_SIZE 5
0 0 0
0.0931106 0.0837262 0
0.186221 0.167452 0
0.279347 0.251179 0
0.372457 0.334905 0
0 0.272282 0.337636
0 0.356008 0.0525063
0 0.439734 0
0.0603189 0.523461 0
0.153445 0.607187 0
0 0.544594 0.675303
0 0.628305 0.390158
0 0.712032 0.105013
0 0.795758 0
0 0.879499 0
0 0.816892 1
0 0.900618 0.727825
0 0.984344 0.442664
0 1 0.157519
0 1 0
0 1 1
0 1 1
0 1 0.780331
0 1 0.495171
0 1 0.210025
0.375891 0 0.197482
0.469001 0 0
0.562127 0.0614328 0
0.655238 0.145159 0
0.748363 0.228885 0
0.156878 0.166262 0.535134
0.249989 0.249989 0.249989
0.343099 0.333715 0
0.436225 0.417441 0
0.529335 0.501167 0
0 0.438575 0.872786
0.0309606 0.522286 0.587655
0.124071 0.606012 0.302495
0.217197 0.689738 0.0173342
0.310307 0.77348 0
0 0.710872 1
0 0.794598 0.925307
0 0.878325 0.640162
0 0.962051 0.355001
0.0912795 1 0.0698405
0 0.983169 1
0 1 1
0 1 0.977813
0 1 0.692653
0 1 0.407507
0.751812 0 0.39498
0.844923 0 0.10985
0.938048 0 0
1 0.0391394 0
1 0.122866 0
0.532799 0.0602426 0.732631
0.62591 0.143969 0.447486
0.71902 0.227695 0.162325
0.812146 0.311421 0
0.905257 0.395148 0
0.313771 0.33254 1
0.406882 0.416266 0.785153
0.499992 0.499992 0.499992
0.593103 0.583719 0.214832
0.686229 0.667445 0
0.094728 0.604852 1
0.187839 0.688563 1
0.280964 0.77229 0.837659
0.374075 0.856016 0.552499
0.467201 0.939742 0.267338
0 0.87715 1
0 0.960876 1
0.0619211 1 1
0.155047 1 0.890166
0.248157 1 0.605005
1 0 0.592477
1 0 0.307347
1 0 0.0221866
1 0 0
1 0.0168307 0
0.908721 0 0.930129
1 0.0379339 0.644984
1 0.12166 0.359823
1 0.205386 0.0746777
1 0.289113 0
0.689677 0.22652 1
0.782788 0.310246 0.982651
0.875914 0.393973 0.69749
0.969024 0.477699 0.412329
1 0.561425 0.127184
0.470649 0.498817 1
0.56376 0.582544 1
0.656886 0.66627 1
0.749996 0.749996 0.749996
0.843107 0.833722 0.464836
0.251621 0.771115 1
0.344732 0.854841 1
0.437842 0.938567 1
0.530968 1 1
0.624079 1 0.802502
1 0 0.789975
1 0 0.504845
1 0 0.219684
1 0 0
1 0 0
1 0 1
1 0 0.842481
1 0.0156405 0.557336
1 0.0993668 0.272175
1 0.183093 0
1 0.120485 1
1 0.204211 1
1 0.287938 0.894987
1 0.371664 0.609827
1 0.45539 0.324681
0.846571 0.392798 1
0.939681 0.476509 1
1 0.56025 1
1 0.643977 0.947494
1 0.727703 0.662333
0.627543 0.665095 1
0.720653 0.748821 1
0.813764 0.832547 1
0.906889 0.916274 1
1 1 1
