public/LUTS/Color Shift/ColorShift_86.cube
TITLE "Generated by Resolve"
LUT_3D_SIZE 33
0 0 0
0.0177157 0 0.0475166
0.0354314 0 0.0950637
0.0531472 0 0.142596
0.0708629 0 0.190143
0.0885939 0 0.237675
0.10631 0 0.285222
0.124025 0 0.332753
0.141741 0 0.380301
0.159457 0 0.427832
0.177188 0 0.47538
0.194903 0 0.522927
0.212619 0 0.570459
0.230335 0 0.618006
0.248051 0 0.665537
0.265782 0 0.713085
0.283497 0 0.760616
0.301213 0 0.808164
0.318929 0 0.855695
0.33666 0 0.903243
0.354376 0 0.95079
0.372091 0 0.998322
0.389807 0 1
0.407523 0 1
0.425254 0 1
0.442969 0 1
0.460685 0 1
0.478401 0 1
0.496117 0 1
0.513848 0 1
0.531563 0 1
0.549279 0 1
0.566995 0 1
0.06009 0.0150912 0
0.0778058 0.0130465 0.0328069
0.0955215 0.0109865 0.080354
0.113252 0.00894179 0.127886
0.130968 0.00688182 0.175433
0.148684 0.00483711 0.222965
0.1664 0.00277714 0.270512
0.184115 0.000732433 0.318044
0.201846 0 0.365591
0.219562 0 0.413123
0.237278 0 0.46067
0.254994 0 0.508217
0.272709 0 0.555749
0.29044 0 0.603296
0.308156 0 0.650828
0.325872 0 0.698375
0.343587 0 0.745907
0.361318 0 0.793454
0.379034 0 0.840986
0.39675 0 0.888533
0.414466 0 0.93608
0.432181 0 0.983612
0.449912 0 1
0.467628 0 1
0.485344 0 1
0.503059 0 1
0.520775 0 1
0.538506 0 1
0.556222 0 1
0.573938 0 1
0.591653 0 1
0.609384 0 1
0.6271 0 1
0.120226 0.0301976 0
0.137926 0.0281529 0.0180972
0.155657 0.0260929 0.0656291
0.173373 0.0240482 0.113176
0.191089 0.0219883 0.160708
0.208804 0.0199435 0.208255
0.226535 0.0178836 0.255787
0.244251 0.0158389 0.303334
0.261967 0.0137789 0.350866
0.279683 0.0117342 0.398413
0.297398 0.00967422 0.44596
0.315129 0.00762951 0.493492
0.332845 0.00556954 0.541039
0.350561 0.00350958 0.588571
0.368277 0.00146487 0.636118
0.385992 0 0.68365
0.403723 0 0.731197
0.421439 0 0.778729
0.439155 0 0.826276
0.45687 0 0.873823
0.474601 0 0.921355
0.492317 0 0.968902
0.510033 0 1
0.527749 0 1
0.545464 0 1
0.563195 0 1
0.580911 0 1
0.598627 0 1
0.616342 0 1
0.634058 0 1
0.651789 0 1
0.669505 0 1
0.687221 0 1
0.180346 0.045304 0
0.198062 0.0432593 0.00337224
0.215778 0.0411994 0.0509194
0.233494 0.0391546 0.0984512
0.251209 0.0370947 0.145998
0.26894 0.03505 0.19353
0.286656 0.03299 0.241077
0.304372 0.0309453 0.288609
0.322087 0.0288853 0.336156
0.339818 0.0268254 0.383703
0.357534 0.0247807 0.431235
0.37525 0.0227207 0.478782
0.392966 0.020676 0.526314
0.410681 0.018616 0.573861
0.428412 0.0165713 0.621393
0.446128 0.0145113 0.66894
0.463844 0.0124666 0.716472
0.481559 0.0104067 0.764019
0.499275 0.00836194 0.811566
0.517006 0.00630198 0.859098
0.534722 0.00425727 0.906645
0.552438 0.0021973 0.954177
0.570153 0.00015259 1
0.587884 0 1
0.6056 0 1
0.623316 0 1
0.641032 0 1
0.658747 0 1
0.676478 0 1
0.694194 0 1
0.71191 0 1
0.729625 0 1
0.747341 0 1
0.240467 0.0604105 0
0.258183 0.0583658 0
0.275898 0.0563058 0.0361944
0.293629 0.0542458 0.0837415
0.311345 0.0522011 0.131273
0.329061 0.0501411 0.17882
0.346777 0.0480964 0.226352
0.364492 0.0460365 0.273899
0.382223 0.0439918 0.321447
0.399939 0.0419318 0.368978
0.417655 0.0398871 0.416526
0.43537 0.0378271 0.464057
0.453101 0.0357824 0.511604
0.470817 0.0337224 0.559136
0.488533 0.0316777 0.606683
0.506249 0.0296178 0.654215
0.523964 0.0275731 0.701762
0.541695 0.0255131 0.74931
0.559411 0.0234684 0.796841
0.577127 0.0214084 0.844388
0.594842 0.0193637 0.89192
0.612558 0.0173037 0.939467
0.630289 0.0152438 0.986999
0.648005 0.0131991 1
0.665721 0.0111391 1
0.683436 0.00909438 1
0.701167 0.00703441 1
0.718883 0.0049897 1
0.736599 0.00292973 1
0.754314 0.000885023 1
0.77203 0 1
0.789761 0 1
0.807477 0 1
0.300603 0.0755169 0
0.318303 0.0734569 0
0.336034 0.0714122 0.0214847
0.35375 0.0693523 0.0690166
0.371466 0.0673075 0.116564
0.389181 0.0652476 0.164111
0.406912 0.0632029 0.211643
0.424628 0.0611429 0.25919
0.442344 0.0590982 0.306722
0.46006 0.0570382 0.354269
0.477775 0.0549935 0.401801
0.495506 0.0529335 0.449348
0.513222 0.0508888 0.49688
0.530938 0.0488289 0.544427
0.548653 0.0467842 0.591959
0.566384 0.0447242 0.639506
0.5841 0.0426642 0.687053
0.601816 0.0406195 0.734585
0.619532 0.0385595 0.782132
0.637247 0.0365148 0.829664
0.654978 0.0344549 0.877211
0.672694 0.0324102 0.924743
0.69041 0.0303502 0.97229
0.708125 0.0283055 1
0.725841 0.0262455 1
0.743572 0.0242008 1
0.761288 0.0221408 1
0.779004 0.0200961 1
0.796719 0.0180362 1
0.81445 0.0159915 1
0.832166 0.0139315 1
0.849882 0.0118868 1
0.867597 0.00982681 1
0.360723 0.0906233 0
0.378439 0.0885634 0
0.396155 0.0865187 0.00675975
0.41387 0.0844587 0.0543069
0.431586 0.082414 0.101854
0.449317 0.080354 0.149386
0.467033 0.0783093 0.196933
0.484749 0.0762493 0.244465
0.502464 0.0742046 0.292012
0.520195 0.0721447 0.339544
0.537911 0.0700999 0.387091
0.555627 0.06804 0.434623
0.573343 0.06598 0.48217
0.591058 0.0639353 0.529702
0.608789 0.0618753 0.577249
0.626505 0.0598306 0.624796
0.644221 0.0577707 0.672328
0.661936 0.0557259 0.719875
0.679667 0.053666 0.767407
0.697383 0.0516213 0.814954
0.715099 0.0495613 0.862486
0.732815 0.0475166 0.910033
0.75053 0.0454566 0.957565
0.768261 0.0434119 1
0.785977 0.0413519 1
0.803693 0.0393072 1
0.821408 0.0372473 1
0.839124 0.0352026 1
0.856855 0.0331426 1
0.874571 0.0310979 1
0.892287 0.0290379 1
0.910002 0.026978 1
0.927733 0.0249332 1
0.420859 0.10573 0
0.43856 0.10367 0
0.456275 0.101625 0
0.474006 0.0995651 0.0395972
0.491722 0.0975204 0.087129
0.509438 0.0954604 0.134676
0.527153 0.0934157 0.182208
0.544869 0.0913558 0.229755
0.5626 0.0892958 0.277287
0.580316 0.0872511 0.324834
0.598032 0.0851911 0.372366
0.615747 0.0831464 0.419913
0.633478 0.0810864 0.467445
0.651194 0.0790417 0.514992
0.66891 0.0769818 0.562539
0.686625 0.0749371 0.610071
0.704341 0.0728771 0.657618
0.722072 0.0708324 0.70515
0.739788 0.0687724 0.752697
0.757504 0.0667277 0.800229
0.775219 0.0646677 0.847776
0.79295 0.062623 0.895308
0.810666 0.0605631 0.942855
0.828382 0.0585184 0.990402
0.846098 0.0564584 1
0.863813 0.0543984 1
0.881544 0.0523537 1
0.89926 0.0502937 1
0.916976 0.048249 1
0.934691 0.0461891 1
0.952407 0.0441444 1
0.970138 0.0420844 1
0.987854 0.0400397 1
0.48098 0.120836 0
0.498695 0.118776 0
0.516411 0.116732 0
0.534127 0.114672 0.0248722
0.551843 0.112612 0.0724193
0.569558 0.110567 0.119951
0.587289 0.108507 0.167498
0.605005 0.106462 0.21503
0.622721 0.104402 0.262577
0.640436 0.102358 0.310109
0.658152 0.100298 0.357656
0.675883 0.0982528 0.405188
0.693599 0.0961929 0.452735
0.711315 0.0941482 0.500282
0.72903 0.0920882 0.547814
0.746761 0.0900435 0.595361
0.764477 0.0879835 0.642893
0.782193 0.0859388 0.69044
0.799908 0.0838788 0.737972
0.817624 0.0818341 0.785519
0.835355 0.0797742 0.833051
0.853071 0.0777142 0.880598
0.870787 0.0756695 0.928145
0.888502 0.0736095 0.975677
0.906233 0.0715648 1
0.923949 0.0695048 1
0.941665 0.0674601 1
0.959381 0.0654002 1
0.977096 0.0633555 1
0.994827 0.0612955 1
1 0.0592508 1
1 0.0571908 1
1 0.0551461 1
0.5411 0.135927 0
0.558816 0.133883 0
0.576532 0.131823 0
0.594247 0.129778 0.0101625
0.611978 0.127718 0.0576944
0.629694 0.125673 0.105241
0.64741 0.123613 0.152773
0.665125 0.121569 0.20032
0.682841 0.119509 0.247852
0.700572 0.117464 0.295399
0.718288 0.115404 0.342931
0.736004 0.113359 0.390478
0.753719 0.111299 0.438025
0.771435 0.109255 0.485557
0.789166 0.107195 0.533104
0.806882 0.10515 0.580636
0.824598 0.10309 0.628183
0.842313 0.10103 0.675715
0.860044 0.0989853 0.723262
0.87776 0.0969253 0.770794
0.895476 0.0948806 0.818341
0.913191 0.0928206 0.865888
0.930907 0.0907759 0.91342
0.948638 0.088716 0.960967
0.966354 0.0866712 1
0.98407 0.0846113 1
1 0.0825666 1
1 0.0805066 1
1 0.0784619 1
1 0.0764019 1
1 0.0743572 1
1 0.0722972 1
1 0.0702525 1
0.601236 0.151034 0
0.618936 0.148989 0
0.636652 0.146929 0
0.654383 0.144884 0
0.672099 0.142824 0.0429847
0.689815 0.14078 0.0905165
0.70753 0.13872 0.138064
0.725261 0.136675 0.185595
0.742977 0.134615 0.233143
0.760693 0.13257 0.28069
0.778408 0.13051 0.328222
0.796124 0.128466 0.375769
0.813855 0.126406 0.423301
0.831571 0.124346 0.470848
0.849287 0.122301 0.51838
0.867002 0.120241 0.565927
0.884718 0.118196 0.613458
0.902449 0.116136 0.661006
0.920165 0.114092 0.708537
0.937881 0.112032 0.756085
0.955596 0.109987 0.803632
0.973327 0.107927 0.851164
0.991043 0.105882 0.898711
1 0.103822 0.946242
1 0.101778 0.99379
1 0.0997177 1
1 0.097673 1
1 0.095613 1
1 0.0935683 1
1 0.0915084 1
1 0.0894484 1
1 0.0874037 1
1 0.0853437 1
0.661357 0.16614 0
0.679072 0.164096 0
0.696788 0.162036 0
0.714504 0.159991 0
0.732219 0.157931 0.0282597
0.749935 0.155886 0.0758068
0.767666 0.153826 0.123339
0.785382 0.151766 0.170886
0.803098 0.149722 0.218433
0.820813 0.147662 0.265965
0.838544 0.145617 0.313512
0.85626 0.143557 0.361044
0.873976 0.141512 0.408591
0.891691 0.139452 0.456123
0.909407 0.137407 0.50367
0.927138 0.135348 0.551202
0.944854 0.133303 0.598749
0.96257 0.131243 0.646281
0.980285 0.129198 0.693828
0.998001 0.127138 0.741375
1 0.125093 0.788907
1 0.123033 0.836454
1 0.120989 0.883986
1 0.118929 0.931533
1 0.116884 0.979065
1 0.114824 1
1 0.112764 1
1 0.110719 1
1 0.108659 1
1 0.106615 1
1 0.104555 1
1 0.10251 1
1 0.10045 1
0.721477 0.181247 0
0.739193 0.179202 0
0.756909 0.177142 0
0.774624 0.175082 0
0.792355 0.173037 0.01355
0.810071 0.170977 0.0610819
0.827787 0.168933 0.108629
0.845502 0.166873 0.156176
0.863218 0.164828 0.203708
0.880949 0.162768 0.251255
0.898665 0.160723 0.298787
0.916381 0.158663 0.346334
0.934096 0.156619 0.393866
0.951827 0.154559 0.441413
0.969543 0.152514 0.488945
0.987259 0.150454 0.536492
1 0.148409 0.584024
1 0.146349 0.631571
1 0.144305 0.679118
1 0.142245 0.72665
1 0.140185 0.774197
1 0.13814 0.821729
1 0.13608 0.869276
1 0.134035 0.916808
1 0.131975 0.964355
1 0.129931 1
1 0.127871 1
1 0.125826 1
1 0.123766 1
1 0.121721 1
1 0.119661 1
1 0.117617 1
1 0.115557 1
0.781613 0.196353 0
0.799313 0.194293 0
0.817044 0.192248 0
0.83476 0.190188 0
0.852476 0.188144 0
0.870192 0.186084 0.0463722
0.887907 0.184039 0.0939193
0.905638 0.181979 0.141451
0.923354 0.179934 0.188998
0.94107 0.177874 0.23653
0.958785 0.17583 0.284077
0.976501 0.17377 0.331609
0.994232 0.171725 0.379156
1 0.169665 0.426688
1 0.16762 0.474235
1 0.16556 0.521767
1 0.1635 0.569314
1 0.161456 0.616861
1 0.159396 0.664393
1 0.157351 0.71194
1 0.155291 0.759472
1 0.153246 0.807019
1 0.151186 0.854551
1 0.149142 0.902098
1 0.147082 0.94963
1 0.145037 0.997177
1 0.142977 1
1 0.140932 1
1 0.138872 1
1 0.136828 1
1 0.134768 1
1 0.132723 1
1 0.130663 1
0.841733 0.21146 0
0.859449 0.2094 0
0.877165 0.207355 0
0.894881 0.205295 0
0.912596 0.20325 0
0.930327 0.20119 0.0316625
0.948043 0.199145 0.0791943
0.965759 0.197086 0.126741
0.983474 0.195041 0.174273
1 0.192981 0.22182
1 0.190936 0.269352
1 0.188876 0.316899
1 0.186816 0.364431
1 0.184771 0.411978
1 0.182712 0.45951
1 0.180667 0.507057
1 0.178607 0.554604
1 0.176562 0.602136
1 0.174502 0.649683
1 0.172457 0.697215
1 0.170397 0.744762
1 0.168353 0.792294
1 0.166293 0.839841
1 0.164248 0.887373
1 0.162188 0.93492
1 0.160143 0.982467
1 0.158083 1
1 0.156039 1
1 0.153979 1
1 0.151919 1
1 0.149874 1
1 0.147814 1
1 0.145769 1
0.901854 0.226566 0
0.91957 0.224506 0
0.937285 0.222461 0
0.955001 0.220401 0
0.972732 0.218357 0
0.990448 0.216297 0.0169375
1 0.214252 0.0644846
1 0.212192 0.112016
1 0.210132 0.159564
1 0.208087 0.207095
1 0.206027 0.254643
1 0.203983 0.302174
1 0.201923 0.349722
1 0.199878 0.397269
1 0.197818 0.4448
1 0.195773 0.492348
1 0.193713 0.539879
1 0.191669 0.587427
1 0.189609 0.634958
1 0.187564 0.682506
1 0.185504 0.730037
1 0.183459 0.777584
1 0.181399 0.825116
1 0.179355 0.872663
1 0.177295 0.920211
1 0.175235 0.967742
1 0.17319 1
1 0.17113 1
1 0.169085 1
1 0.167025 1
1 0.164981 1
1 0.162921 1
1 0.160876 1
0.96199 0.241657 0
0.97969 0.239612 0
0.997421 0.237552 0
1 0.235508 0
1 0.233448 0
1 0.231403 0.00222782
1 0.229343 0.0497597
1 0.227298 0.0973068
1 0.225238 0.144839
1 0.223194 0.192386
1 0.221134 0.239918
1 0.219089 0.287465
1 0.217029 0.335012
1 0.214984 0.382544
1 0.212924 0.430091
1 0.21088 0.477623
1 0.20882 0.52517
1 0.206775 0.572702
1 0.204715 0.620249
1 0.20267 0.667781
1 0.20061 0.715328
1 0.19855 0.76286
1 0.196506 0.810407
1 0.194446 0.857954
1 0.192401 0.905486
1 0.190341 0.953033
1 0.188296 1
1 0.186236 1
1 0.184192 1
1 0.182132 1
1 0.180087 1
1 0.178027 1
1 0.175982 1
1 0.256764 0
1 0.254719 0
1 0.252659 0
1 0.250614 0
1 0.248554 0
1 0.246509 0
1 0.24445 0.03505
1 0.242405 0.0825818
1 0.240345 0.130129
1 0.2383 0.177661
1 0.23624 0.225208
1 0.234195 0.272755
1 0.232136 0.320287
1 0.230091 0.367834
1 0.228031 0.415366
1 0.225986 0.462913
1 0.223926 0.510445
1 0.221866 0.557992
1 0.219821 0.605524
1 0.217762 0.653071
1 0.215717 0.700603
1 0.213657 0.74815
1 0.211612 0.795697
1 0.209552 0.843229
1 0.207507 0.890776
1 0.205447 0.938308
1 0.203403 0.985855
1 0.201343 1
1 0.199298 1
1 0.197238 1
1 0.195193 1
1 0.193133 1
1 0.191089 1
1 0.27187 0
1 0.269825 0
1 0.267765 0
1 0.265721 0
1 0.263661 0
1 0.261616 0
1 0.259556 0.020325
1 0.257511 0.0678721
1 0.255451 0.115404
1 0.253407 0.162951
1 0.251347 0.210498
1 0.249287 0.25803
1 0.247242 0.305577
1 0.245182 0.353109
1 0.243137 0.400656
1 0.241077 0.448188
1 0.239033 0.495735
1 0.236973 0.543267
1 0.234928 0.590814
1 0.232868 0.638346
1 0.230823 0.685893
1 0.228763 0.73344
1 0.226719 0.780972
1 0.224659 0.828519
1 0.222614 0.876051
1 0.220554 0.923598
1 0.218509 0.97113
1 0.216449 1
1 0.214405 1
1 0.212345 1
1 0.210285 1
1 0.20824 1
1 0.20618 1
1 0.286976 0
1 0.284932 0
1 0.282872 0
1 0.280827 0
1 0.278767 0
1 0.276722 0
1 0.274662 0.00561532
1 0.272602 0.0531472
1 0.270558 0.100694
1 0.268498 0.148241
1 0.266453 0.195773
1 0.264393 0.24332
1 0.262348 0.290852
1 0.260288 0.338399
1 0.258244 0.385931
1 0.256184 0.433478
1 0.254139 0.48101
1 0.252079 0.528557
1 0.250034 0.576104
1 0.247974 0.623636
1 0.24593 0.671183
1 0.24387 0.718715
1 0.241825 0.766262
1 0.239765 0.813794
1 0.237705 0.861341
1 0.23566 0.908873
1 0.2336 0.95642
1 0.231556 1
1 0.229496 1
1 0.227451 1
1 0.225391 1
1 0.223346 1
1 0.221286 1
1 0.302083 0
1 0.300038 0
1 0.297978 0
1 0.295918 0
1 0.293873 0
1 0.291814 0
1 0.289769 0
1 0.287709 0.0384375
1 0.285664 0.0859846
1 0.283604 0.133516
1 0.281559 0.181064
1 0.2795 0.228595
1 0.277455 0.276143
1 0.275395 0.323674
1 0.27335 0.371221
1 0.27129 0.418753
1 0.269245 0.4663
1 0.267185 0.513848
1 0.265141 0.561379
1 0.263081 0.608927
1 0.261021 0.656458
1 0.258976 0.704005
1 0.256916 0.751537
1 0.254871 0.799084
1 0.252811 0.846616
1 0.250767 0.894163
1 0.248707 0.941695
1 0.246662 0.989242
1 0.244602 1
1 0.242557 1
1 0.240497 1
1 0.238453 1
1 0.236393 1
1 0.317189 0
1 0.315129 0
1 0.313085 0
1 0.311025 0
1 0.30898 0
1 0.30692 0
1 0.304875 0
1 0.302815 0.0237278
1 0.300771 0.0712596
1 0.298711 0.118807
1 0.296666 0.166339
1 0.294606 0.213886
1 0.292561 0.261418
1 0.290501 0.308965
1 0.288457 0.356497
1 0.286397 0.404044
1 0.284337 0.451591
1 0.282292 0.499123
1 0.280232 0.54667
1 0.278187 0.594202
1 0.276127 0.641749
1 0.274083 0.689281
1 0.272023 0.736828
1 0.269978 0.78436
1 0.267918 0.831907
1 0.265873 0.879438
1 0.263813 0.926986
1 0.261769 0.974533
1 0.259709 1
1 0.257664 1
1 0.255604 1
1 0.253559 1
1 0.251499 1
1 0.332296 0
1 0.330236 0
1 0.328191 0
1 0.326131 0
1 0.324086 0
1 0.322026 0
1 0.319982 0
1 0.317922 0.00900282
1 0.315877 0.0565499
1 0.313817 0.104082
1 0.311772 0.151629
1 0.309712 0.199161
1 0.307652 0.246708
1 0.305608 0.29424
1 0.303548 0.341787
1 0.301503 0.389334
1 0.299443 0.436866
1 0.297398 0.484413
1 0.295338 0.531945
1 0.293294 0.579492
1 0.291234 0.627024
1 0.289189 0.674571
1 0.287129 0.722103
1 0.285084 0.76965
1 0.283024 0.817182
1 0.28098 0.864729
1 0.27892 0.912276
1 0.276875 0.959808
1 0.274815 1
1 0.272755 1
1 0.27071 1
1 0.26865 1
1 0.266606 1
1 0.347402 0
1 0.345342 0
1 0.343297 0
1 0.341238 0
1 0.339193 0
1 0.337133 0
1 0.335088 0
1 0.333028 0
1 0.330968 0.041825
1 0.328923 0.0893721
1 0.326863 0.136904
1 0.324819 0.184451
1 0.322759 0.231983
1 0.320714 0.27953
1 0.318654 0.327077
1 0.316609 0.374609
1 0.314549 0.422156
1 0.312505 0.469688
1 0.310445 0.517235
1 0.3084 0.564767
1 0.30634 0.612314
1 0.304295 0.659846
1 0.302235 0.707393
1 0.300191 0.754925
1 0.298131 0.802472
1 0.296071 0.850019
1 0.294026 0.897551
1 0.291966 0.945098
1 0.289921 0.99263
1 0.287861 1
1 0.285817 1
1 0.283757 1
1 0.281712 1
1 0.362493 0
1 0.360449 0
1 0.358389 0
1 0.356344 0
1 0.354284 0
1 0.352239 0
1 0.350179 0
1 0.348135 0
1 0.346075 0.0271153
1 0.34403 0.0746471
1 0.34197 0.122194
1 0.339925 0.169726
1 0.337865 0.217273
1 0.335821 0.26482
1 0.333761 0.312352
1 0.331716 0.359899
1 0.329656 0.407431
1 0.327611 0.454978
1 0.325551 0.50251
1 0.323507 0.550057
1 0.321447 0.597589
1 0.319387 0.645136
1 0.317342 0.692668
1 0.315282 0.740215
1 0.313237 0.787762
1 0.311177 0.835294
1 0.309133 0.882841
1 0.307073 0.930373
1 0.305028 0.97792
1 0.302968 1
1 0.300923 1
1 0.298863 1
1 0.296818 1
1 0.3776 0
1 0.375555 0
1 0.373495 0
1 0.37145 0
1 0.36939 0
1 0.367346 0
1 0.365286 0
1 0.363241 0
1 0.361181 0.0123903
1 0.359136 0.0599374
1 0.357076 0.107469
1 0.355032 0.155016
1 0.352972 0.202564
1 0.350927 0.250095
1 0.348867 0.297642
1 0.346807 0.345174
1 0.344762 0.392721
1 0.342702 0.440253
1 0.340658 0.4878
1 0.338598 0.535332
1 0.336553 0.582879
1 0.334493 0.630426
1 0.332448 0.677958
1 0.330388 0.725505
1 0.328344 0.773037
1 0.326284 0.820584
1 0.324239 0.868116
1 0.322179 0.915663
1 0.320134 0.963195
1 0.318074 1
1 0.31603 1
1 0.31397 1
1 0.311925 1
1 0.392706 0
1 0.390661 0
1 0.388602 0
1 0.386557 0
1 0.384497 0
1 0.382452 0
1 0.380392 0
1 0.378347 0
1 0.376287 0
1 0.374243 0.0452125
1 0.372183 0.0927596
1 0.370123 0.140307
1 0.368078 0.187839
1 0.366018 0.235386
1 0.363973 0.282918
1 0.361913 0.330465
1 0.359869 0.377997
1 0.357809 0.425544
1 0.355764 0.473075
1 0.353704 0.520623
1 0.351659 0.56817
1 0.349599 0.615702
1 0.347555 0.663249
1 0.345495 0.710781
1 0.34345 0.758328
1 0.34139 0.805859
1 0.339345 0.853407
1 0.337285 0.900938
1 0.335241 0.948486
1 0.333181 0.996017
1 0.331121 1
1 0.329076 1
1 0.327016 1
1 0.407813 0
1 0.405768 0
1 0.403708 0
1 0.401663 0
1 0.399603 0
1 0.397559 0
1 0.395499 0
1 0.393439 0
1 0.391394 0
