public/LUTS/Color Shift/ColorShift_35.cube
TITLE "Generated by Resolve"
LUT_3D_SIZE 5
0 0 0
0.129335 0.00569162 0.237217
0.258671 0.0113985 0.474464
0.388022 0.0170901 0.711696
0.517357 0.0227817 0.948928
0.33164 0.152789 0
0.46096 0.15848 0.219455
0.590311 0.164172 0.456687
0.719646 0.169879 0.693919
0.848997 0.17557 0.931167
0.663279 0.305577 0
0.792615 0.311269 0.201678
0.921965 0.31696 0.438926
1 0.322667 0.676158
1 0.328359 0.91339
0.994934 0.458366 0
1 0.464057 0.183917
1 0.469764 0.421149
1 0.475456 0.658381
1 0.481147 0.895628
1 0.611154 0
1 0.616846 0.16614
1 0.622553 0.403372
1 0.628244 0.64062
1 0.633951 0.877852
0 0.0915084 0.0305333
0 0.0972 0.26775
0.0476997 0.102907 0.504997
0.177035 0.108598 0.742229
0.306386 0.114305 0.979461
0.120653 0.244297 0.0127718
0.249989 0.249989 0.249989
0.379324 0.25568 0.487221
0.508675 0.261387 0.724468
0.63801 0.267079 0.9617
0.452308 0.397086 0
0.581643 0.402777 0.232212
0.710979 0.408484 0.469459
0.84033 0.414176 0.706691
0.969665 0.419867 0.943923
0.783963 0.549874 0
0.913298 0.555566 0.21445
1 0.561273 0.451682
1 0.566964 0.688914
1 0.572656 0.926162
1 0.702663 0
1 0.70837 0.196674
1 0.714061 0.433921
1 0.719753 0.671153
1 0.72546 0.908385
0 0.183032 0.0610666
0 0.188724 0.298299
0 0.194415 0.535531
0 0.200122 0.772763
0.0953841 0.205814 1
0 0.335805 0.0433051
0.0390021 0.341497 0.280522
0.168338 0.347204 0.517769
0.297688 0.352895 0.755001
0.427024 0.358602 0.992233
0.241321 0.488594 0.0255283
0.370657 0.494301 0.26276
0.499992 0.499992 0.499992
0.629328 0.505684 0.737224
0.758679 0.511391 0.974472
0.572976 0.641382 0.00776684
0.702296 0.647089 0.244984
0.831647 0.652781 0.482216
0.960983 0.658488 0.719463
1 0.664179 0.956695
0.904616 0.794186 0
1 0.799878 0.227222
1 0.80557 0.464454
1 0.811276 0.701686
1 0.816968 0.938918
0 0.27454 0.0916152
0 0.280232 0.328832
0 0.285939 0.566064
0 0.29163 0.803311
0 0.297322 1
0 0.427329 0.0738384
0 0.433021 0.31107
0 0.438712 0.548302
0.0866865 0.444419 0.785534
0.216037 0.450111 1
0.0303349 0.580118 0.0560769
0.159655 0.585809 0.293294
0.289006 0.591501 0.530526
0.418341 0.597208 0.767773
0.547692 0.602899 1
0.361975 0.732906 0.0383001
0.49131 0.738598 0.275517
0.620661 0.744305 0.512764
0.749996 0.749996 0.749996
0.879332 0.755688 0.987228
0.693629 0.885695 0.0205386
0.822965 0.891386 0.257755
0.9523 0.897093 0.494987
1 0.902785 0.732219
1 0.908492 0.969467
0 0.366049 0.122148
0 0.371756 0.359365
0 0.377447 0.596613
0 0.383154 0.833844
0 0.388846 1
0 0.518837 0.104372
0 0.524529 0.341604
0 0.530236 0.578836
0 0.535927 0.816068
0.00503548 0.541619 1
0 0.671626 0.0866102
0 0.677333 0.323827
0.0780194 0.683024 0.561074
0.207355 0.688716 0.798306
0.33669 0.694423 1
0.150988 0.824414 0.0688334
0.280324 0.830121 0.306065
0.409659 0.835813 0.543297
0.53901 0.841505 0.780529
0.668345 0.847211 1
0.482643 0.977218 0.0510719
0.611978 0.98291 0.288289
0.741314 0.988602 0.525521
0.870665 0.994308 0.762768
1 1 1
