public/LUTS/Color Shift/ColorShift_02.cube
TITLE "Generated by Resolve"
LUT_3D_SIZE 9
0 0 0
0 0.0558328 0.0339666
0 0.111666 0.0679332
0 0.167498 0.1019
0 0.223331 0.135866
0 0.279164 0.169848
0 0.334997 0.203815
0 0.390845 0.237781
0 0.446677 0.271748
0.156573 0.0536507 0.189563
0.0809033 0.109468 0.223529
0.00523384 0.165301 0.257496
0 0.221149 0.291463
0 0.276982 0.325429
0 0.332815 0.359411
0 0.388647 0.393378
0 0.44448 0.427344
0 0.500313 0.461311
0.313161 0.107301 0.379156
0.237491 0.163119 0.413108
0.161822 0.218952 0.447089
0.0861524 0.274784 0.481056
0.0104829 0.330632 0.515023
0 0.386465 0.548989
0 0.442298 0.582956
0 0.498131 0.616922
0 0.553964 0.650904
0.469749 0.160937 0.568734
0.39408 0.21677 0.602701
0.31841 0.272602 0.636667
0.242741 0.328435 0.670634
0.167071 0.384283 0.704601
0.0914015 0.440116 0.738582
0.0157321 0.495949 0.772549
0 0.551781 0.806516
0 0.607614 0.840482
0.626337 0.214588 0.758328
0.550668 0.27042 0.792294
0.474998 0.326253 0.826261
0.399329 0.382086 0.860227
0.323659 0.437934 0.894194
0.24799 0.493767 0.928161
0.17232 0.549599 0.962127
0.0966506 0.605432 0.996094
0.0209812 0.661265 1
0.782925 0.268238 0.947906
0.707256 0.324071 0.981872
0.631586 0.379904 1
0.555917 0.435737 1
0.480247 0.491569 1
0.404578 0.547417 1
0.328908 0.60325 1
0.253239 0.659083 1
0.177569 0.714916 1
0.939513 0.321889 1
0.863844 0.377722 1
0.788174 0.433555 1
0.712505 0.489387 1
0.636835 0.54522 1
0.561166 0.601068 1
0.485496 0.656901 1
0.409827 0.712734 1
0.334157 0.768566 1
1 0.37554 1
1 0.431373 1
0.944762 0.487205 1
0.869093 0.543038 1
0.793423 0.598871 1
0.717754 0.654719 1
0.642084 0.710552 1
0.566415 0.766384 1
0.490745 0.822217 1
1 0.429191 1
1 0.485023 1
1 0.540856 1
1 0.596689 1
0.950011 0.652522 1
0.874342 0.70837 1
0.798672 0.764202 1
0.723003 0.820035 1
0.647334 0.875868 1
0.0440833 0.0155184 0
0 0.0713359 0
0 0.127184 0
0 0.183017 0.00335698
0 0.238849 0.0373236
0 0.294682 0.0713054
0 0.350515 0.105272
0 0.406348 0.139239
0 0.462181 0.173205
0.200641 0.0691539 0.0910201
0.124987 0.124987 0.124987
0.0493172 0.180819 0.158953
0 0.236652 0.19292
0 0.292485 0.226886
0 0.348333 0.260868
0 0.404166 0.294835
0 0.459998 0.328801
0 0.515831 0.362768
0.357229 0.122805 0.280613
0.281575 0.178637 0.31458
0.205905 0.23447 0.348547
0.130236 0.290303 0.382513
0.0545663 0.346136 0.41648
0 0.401984 0.450446
0 0.457816 0.484413
0 0.513649 0.51838
0 0.569482 0.552361
0.513817 0.176455 0.470192
0.438163 0.232288 0.504158
0.362493 0.288121 0.538125
0.286824 0.343954 0.572091
0.211154 0.399786 0.606073
0.135485 0.455619 0.64004
0.0598154 0.511467 0.674006
0 0.5673 0.707973
0 0.623133 0.741939
0.67042 0.230106 0.659785
0.594751 0.285939 0.693751
0.519081 0.341772 0.727718
0.443412 0.397604 0.761685
0.367742 0.453437 0.795651
0.292073 0.50927 0.829618
0.216403 0.565118 0.863584
0.140734 0.620951 0.897566
0.0650492 0.676783 0.931533
0.827008 0.283757 0.849363
0.751339 0.33959 0.88333
0.675669 0.395422 0.917296
0.6 0.451255 0.951263
0.52433 0.507088 0.985245
0.448661 0.562921 1
0.372992 0.618769 1
0.297322 0.674601 1
0.221637 0.730434 1
0.983597 0.337407 1
0.907927 0.39324 1
0.832258 0.449073 1
0.756588 0.504906 1
0.680919 0.560739 1
0.605249 0.616571 1
0.52958 0.672404 1
0.45391 0.728252 1
0.378225 0.784085 1
1 0.391058 1
1 0.446891 1
0.988846 0.502724 1
0.913176 0.558556 1
0.837507 0.614389 1
0.761837 0.670222 1
0.686168 0.726055 1
0.610498 0.781903 1
0.534813 0.837736 1
1 0.444709 1
1 0.500542 1
1 0.556374 1
1 0.612207 1
0.994095 0.66804 1
0.918425 0.723873 1
0.842756 0.779706 1
0.767086 0.835554 1
0.691402 0.891386 1
0.0881666 0.0310369 0
0.0124971 0.0868544 0
0 0.142702 0
0 0.198535 0
0 0.254368 0
0 0.310201 0
0 0.366033 0.00671397
0 0.421866 0.0406806
0 0.477699 0.0746471
0.244739 0.0846723 0
0.16907 0.140505 0.0264286
0.0934005 0.196338 0.0603952
0.017731 0.252171 0.094377
0 0.308003 0.128344
0 0.363836 0.16231
0 0.419684 0.196277
0 0.475517 0.230243
0 0.53135 0.26421
0.401328 0.138323 0.182055
0.325658 0.194156 0.216022
0.249989 0.249989 0.249989
0.174319 0.305821 0.283955
0.0986496 0.361654 0.317922
0.0229801 0.417487 0.351888
0 0.473335 0.38587
0 0.529168 0.419837
0 0.585 0.453803
0.557916 0.191974 0.371633
0.482246 0.247807 0.4056
0.406577 0.303639 0.439582
0.330907 0.359472 0.473548
0.255238 0.415305 0.507515
0.179568 0.471138 0.541482
0.103899 0.526986 0.575448
0.0282292 0.582818 0.609415
0 0.638651 0.643381
0.714504 0.245624 0.561227
0.638834 0.301457 0.595193
0.563165 0.35729 0.62916
0.487495 0.413123 0.663127
0.411826 0.468956 0.697093
0.336156 0.524788 0.731075
0.260487 0.580621 0.765042
0.184817 0.636469 0.799008
0.109148 0.692302 0.832975
0.871092 0.299275 0.75082
0.795422 0.355108 0.784772
0.719753 0.410941 0.818753
0.644083 0.466773 0.85272
0.568414 0.522606 0.886687
0.492744 0.578439 0.920653
0.417075 0.634272 0.95462
0.341405 0.69012 0.988586
0.265736 0.745953 1
1 0.352926 0.940398
0.95201 0.408759 0.974365
0.876341 0.464591 1
0.800671 0.520424 1
0.725002 0.576257 1
0.649332 0.63209 1
0.573663 0.687922 1
0.497993 0.74377 1
0.422324 0.799603 1
1 0.406577 1
1 0.462409 1
1 0.518242 1
0.957259 0.574075 1
0.88159 0.629908 1
0.80592 0.68574 1
0.730251 0.741573 1
0.654582 0.797421 1
0.578912 0.853254 1
1 0.460227 1
1 0.51606 1
1 0.571893 1
1 0.627726 1
1 0.683558 1
0.962509 0.739391 1
0.886839 0.795224 1
0.81117 0.851057 1
0.7355 0.906905 1
0.13225 0.0465553 0
0.0565805 0.102373 0
0 0.158206 0
0 0.214054 0
0 0.269886 0
0 0.325719 0
0 0.381552 0
0 0.437385 0
0 0.493217 0
0.288823 0.100191 0
0.213153 0.156024 0
0.137484 0.211856 0
0.0618143 0.267689 0
0 0.323522 0.0297856
0 0.379355 0.0637522
0 0.435187 0.0977188
0 0.491035 0.131701
0 0.546868 0.165667
0.445411 0.153841 0.0834974
0.369741 0.209674 0.117464
0.294072 0.265507 0.151431
0.218402 0.32134 0.185397
0.142733 0.377172 0.219379
0.0670634 0.433005 0.253346
0 0.488838 0.287312
0 0.544686 0.321279
0 0.600519 0.355245
0.601999 0.207492 0.273091
0.526329 0.263325 0.307057
0.45066 0.319158 0.341024
0.37499 0.37499 0.37499
0.299321 0.430823 0.408957
0.223651 0.486656 0.442924
0.147982 0.542489 0.47689
0.0723125 0.598337 0.510872
0 0.654169 0.544839
0.758587 0.261143 0.462669
0.682918 0.316976 0.496635
0.607248 0.372808 0.530602
0.531579 0.428641 0.564584
0.455909 0.484474 0.59855
0.38024 0.540307 0.632517
0.30457 0.596139 0.666484
0.228901 0.651987 0.70045
0.153231 0.70782 0.734417
0.915175 0.314794 0.652262
0.839506 0.370626 0.686229
0.763836 0.426459 0.720195
0.688167 0.482292 0.754162
0.612497 0.538125 0.788128
0.536828 0.593957 0.822095
0.461158 0.64979 0.856077
0.385489 0.705623 0.890043
0.309819 0.761471 0.92401
1 0.368444 0.84184
0.996094 0.424277 0.875807
0.920424 0.48011 0.909773
0.844755 0.535943 0.943755
0.769085 0.591775 0.977722
0.693416 0.647608 1
0.617746 0.703441 1
0.542077 0.759274 1
0.466407 0.815122 1
1 0.422095 1
1 0.477928 1
1 0.533761 1
1 0.589593 1
0.925673 0.645426 1
0.850004 0.701259 1
0.774334 0.757092 1
0.698665 0.812924 1
0.622995 0.868772 1
1 0.475746 1
1 0.531579 1
1 0.587411 1
1 0.643244 1
1 0.699077 1
1 0.75491 1
0.930922 0.810742 1
0.855253 0.866575 1
0.779583 0.922423 1
0.176333 0.0620584 0
0.100664 0.117891 0
0.0249943 0.173724 0
0 0.229557 0
0 0.285405 0
0 0.341238 0
0 0.39707 0
0 0.452903 0
0 0.508736 0
0.332906 0.115709 0
0.257237 0.171542 0
0.181567 0.227375 0
0.105898 0.283207 0
0.0302281 0.33904 0
0 0.394873 0
0 0.450706 0
0 0.506554 0.0331426
0 0.562387 0.0671092
0.489494 0.16936 0
0.413825 0.225193 0.0189059
0.338155 0.281025 0.0528878
0.262486 0.336858 0.0868544
0.186816 0.392691 0.120821
0.111147 0.448524 0.154788
0.0354772 0.504356 0.188754
0 0.560189 0.222721
0 0.616037 0.256703
0.646082 0.223011 0.174533
0.570413 0.278843 0.208499
0.494743 0.334676 0.242466
0.419074 0.390509 0.276432
0.343404 0.446342 0.310399
0.267735 0.502174 0.344381
0.192065 0.558007 0.378347
0.116396 0.61384 0.412314
0.0407263 0.669688 0.446281
0.80267 0.276661 0.364126
0.727001 0.332494 0.398093
0.651331 0.388327 0.432059
0.575662 0.44416 0.466026
0.499992 0.499992 0.499992
0.424323 0.555825 0.533959
0.348653 0.611658 0.567926
0.272984 0.667491 0.601892
0.197314 0.723339 0.635874
0.959258 0.330312 0.553704
0.883589 0.386145 0.587671
0.807919 0.441978 0.621637
0.73225 0.49781 0.655604
0.65658 0.553643 0.689586
0.580911 0.609476 0.723552
0.505241 0.665309 0.757519
0.429572 0.721141 0.791485
0.353902 0.776989 0.825452
1 0.383963 0.743297
1 0.439796 0.777264
0.964508 0.495628 0.811231
0.888838 0.551461 0.845197
0.813169 0.607294 0.879164
0.737499 0.663127 0.91313
0.66183 0.718959 0.947097
0.58616 0.774792 0.981079
0.510491 0.830625 1
1 0.437613 0.932876
1 0.493431 0.966842
1 0.549279 1
1 0.605112 1
0.969757 0.660945 1
0.894087 0.716777 1
0.818418 0.77261 1
0.742748 0.828443 1
0.667079 0.884276 1
1 0.491264 1
1 0.547082 1
1 0.60293 1
1 0.658763 1
1 0.714595 1
1 0.770428 1
0.975006 0.826261 1
0.899336 0.882094 1
0.823667 0.937926 1
0.220417 0.0775769 0
0.144762 0.13341 0
0.0690776 0.189242 0
0 0.245075 0
0 0.300908 0
0 0.356756 0
0 0.412589 0
0 0.468421 0
0 0.524254 0
0.376989 0.131228 0
0.30132 0.18706 0
0.22565 0.242893 0
0.149981 0.298726 0
0.0743114 0.354559 0
0 0.410391 0
0 0.466224 0
0 0.522057 0
0 0.577905 0
0.533578 0.184878 0
0.457908 0.240711 0
0.382239 0.296544 0
0.306569 0.352377 0
0.2309 0.408209 0.0222629
0.15523 0.464042 0.0562295
0.0795605 0.519875 0.0902113
0.00389105 0.575708 0.124178
0 0.631556 0.158145
0.690166 0.238529 0.0759747
0.614496 0.294362 0.109941
0.538827 0.350195 0.143908
0.463157 0.406027 0.17789
0.387488 0.46186 0.211856
0.311818 0.517693 0.245823
0.236149 0.573526 0.279789
0.160479 0.629358 0.313756
0.0848096 0.685191 0.347723
0.846754 0.29218 0.265568
0.771084 0.347997 0.299535
0.695415 0.403845 0.333501
0.619745 0.459678 0.367468
0.544076 0.515511 0.401434
0.468406 0.571344 0.435401
0.392737 0.627176 0.469383
0.317067 0.683009 0.503349
0.241398 0.738842 0.537316
1 0.34583 0.455146
0.927672 0.401648 0.489113
0.852003 0.457496 0.523095
0.776333 0.513329 0.557061
0.700664 0.569162 0.591028
0.624994 0.624994 0.624994
0.549325 0.680827 0.658961
0.473655 0.73666 0.692927
0.397986 0.792493 0.726894
1 0.399481 0.644739
1 0.455299 0.678706
1 0.511147 0.712673
0.932921 0.566979 0.746639
0.857252 0.622812 0.780606
0.781582 0.678645 0.814588
0.705913 0.734478 0.848554
0.630243 0.790311 0.882521
0.554574 0.846143 0.916487
1 0.453132 0.834333
1 0.508949 0.868284
1 0.564797 0.902266
1 0.62063 0.936233
1 0.676463 0.970199
0.93817 0.732296 1
0.862501 0.788128 1
0.786831 0.843961 1
0.711162 0.899794 1
1 0.506783 1
1 0.5626 1
1 0.618433 1
1 0.674281 1
1 0.730114 1
1 0.785946 1
1 0.841779 1
0.94342 0.897612 1
0.86775 0.953445 1
0.2645 0.0930953 0
0.188846 0.148928 0
0.113176 0.204761 0
0.0374914 0.260594 0
0 0.316426 0
0 0.372274 0
0 0.428107 0
0 0.48394 0
0 0.539773 0
0.421073 0.146746 0
0.345403 0.202579 0
0.269734 0.258412 0
0.194064 0.314244 0
0.118395 0.370077 0
0.0427253 0.42591 0
0 0.481743 0
0 0.537575 0
0 0.593408 0
0.577661 0.200397 0
0.501991 0.256214 0
0.426322 0.312062 0
0.350652 0.367895 0
0.274983 0.423728 0
0.199313 0.479561 0
0.123644 0.535393 0
0.0479744 0.591226 0.0256199
0 0.647059 0.0595865
0.734249 0.254047 0
0.658579 0.309865 0.0113985
0.58291 0.365713 0.0453651
0.50724 0.421546 0.0793317
0.431571 0.477378 0.113298
0.355901 0.533211 0.147265
0.280232 0.589044 0.181231
0.204562 0.644877 0.215213
0.128893 0.70071 0.24918
0.890837 0.307698 0.16701
0.815167 0.363516 0.200977
0.739498 0.419364 0.234943
0.663828 0.475196 0.26891
0.588159 0.531029 0.302892
0.512489 0.586862 0.336858
0.43682 0.642695 0.370825
0.361151 0.698528 0.404791
0.285481 0.75436 0.438758
1 0.361349 0.356603
0.971756 0.417166 0.39057
0.896086 0.472999 0.424536
0.820417 0.528847 0.458503
0.744747 0.58468 0.49247
0.669078 0.640513 0.526436
0.593408 0.696345 0.560403
0.517739 0.752178 0.594385
0.442069 0.808011 0.628351
1 0.415 0.546181
1 0.470817 0.580148
1 0.52665 0.614115
0.977005 0.582498 0.648096
0.901335 0.638331 0.682063
0.825666 0.694163 0.71603
0.749996 0.749996 0.749996
0.674327 0.805829 0.783963
0.598657 0.861662 0.817929
1 0.46865 0.735775
1 0.524468 0.769741
1 0.580301 0.803708
1 0.636149 0.837674
1 0.691981 0.871641
0.982254 0.747814 0.905608
0.906584 0.803647 0.93959
0.830915 0.85948 0.973556
0.755245 0.915312 1
1 0.522301 0.925353
1 0.578119 0.959319
1 0.633951 0.993286
1 0.689799 1
1 0.745632 1
1 0.801465 1
1 0.857298 1
0.987503 0.91313 1
0.911833 0.968963 1
0.308583 0.108614 0
0.232929 0.164446 0
0.157259 0.220279 0
0.08159 0.276112 0
0.00590524 0.331945 0
0 0.387778 0
0 0.443626 0
0 0.499458 0
0 0.555291 0
0.465156 0.162264 0
0.389487 0.218082 0
0.313817 0.27393 0
0.238148 0.329763 0
0.162478 0.385595 0
0.0868086 0.441428 0
0.0111391 0.497261 0
0 0.553094 0
0 0.608927 0
0.621744 0.215915 0
0.546075 0.271733 0
0.470405 0.327565 0
0.394736 0.383413 0
0.319066 0.439246 0
0.243397 0.495079 0
0.167727 0.550912 0
0.0920577 0.606744 0
0.0163882 0.662577 0
0.778332 0.269566 0
0.702663 0.325383 0
0.626993 0.381216 0
0.551324 0.437064 0
0.475654 0.492897 0.0147402
0.399985 0.54873 0.0487221
0.324315 0.604562 0.0826886
0.248646 0.660395 0.116655
0.172976 0.716228 0.150622
0.93492 0.323217 0.0684672
0.859251 0.379034 0.102419
0.783581 0.434867 0.1364
0.707912 0.490715 0.170367
0.632242 0.546548 0.204334
0.556573 0.60238 0.2383
0.480903 0.658213 0.272267
0.405234 0.714046 0.306233
0.329564 0.769879 0.340215
1 0.376867 0.258045
1 0.432685 0.292012
0.940169 0.488518 0.325978
0.8645 0.544366 0.359945
0.78883 0.600198 0.393912
0.713161 0.656031 0.427893
0.637491 0.711864 0.46186
0.561822 0.767697 0.495827
0.486152 0.823529 0.529793
1 0.430518 0.447639
1 0.486336 0.481605
1 0.542168 0.515572
1 0.598001 0.549538
0.945418 0.653849 0.583505
0.869749 0.709682 0.617472
0.794079 0.765515 0.651438
0.71841 0.821347 0.685405
0.642741 0.87718 0.719387
1 0.484154 0.637217
1 0.539986 0.671183
1 0.595819 0.70515
1 0.651652 0.739116
1 0.7075 0.773098
1 0.763333 0.807065
0.950668 0.819165 0.841031
0.874998 0.874998 0.874998
0.799329 0.930831 0.908965
1 0.537804 0.82681
1 0.593637 0.860777
1 0.64947 0.894743
1 0.705303 0.92871
1 0.761151 0.962676
1 0.816983 0.996643
1 0.872816 1
1 0.928649 1
0.955917 0.984482 1
0.352667 0.124132 0
0.277012 0.179965 0
0.201343 0.235798 0
0.125673 0.29163 0
0.0500038 0.347463 0
0 0.403296 0
0 0.459129 0
0 0.514977 0
0 0.570809 0
0.509239 0.177783 0
0.433585 0.2336 0
0.3579 0.289433 0
0.282231 0.345281 0
0.206561 0.401114 0
0.130892 0.456947 0
0.0552224 0.512779 0
0 0.568612 0
0 0.624445 0
0.665827 0.231434 0
0.590173 0.287251 0
0.514488 0.343084 0
0.438819 0.398932 0
0.363149 0.454765 0
0.28748 0.510597 0
0.21181 0.56643 0
0.136141 0.622263 0
0.0604715 0.678096 0
0.822416 0.285084 0
0.746761 0.340902 0
0.671077 0.396735 0
0.595407 0.452583 0
0.519738 0.508415 0
0.444068 0.564248 0
0.368399 0.620081 0
0.292729 0.675914 0.0180972
0.21706 0.731746 0.0520638
0.979004 0.338735 0
0.903349 0.394553 0.00387579
0.827665 0.450385 0.0378424
0.751995 0.506218 0.071809
0.676326 0.562066 0.105776
0.600656 0.617899 0.139742
0.524987 0.673732 0.173724
0.449317 0.729564 0.207691
0.373648 0.785397 0.241657
1 0.39237 0.159487
1 0.448203 0.193454
0.984253 0.504036 0.22742
0.908583 0.559869 0.261402
0.832914 0.615717 0.295369
0.757244 0.67155 0.329335
0.681575 0.727382 0.363302
0.605905 0.783215 0.397269
0.530236 0.839048 0.431235
1 0.446021 0.349081
1 0.501854 0.383047
1 0.557687 0.417014
1 0.613519 0.45098
0.989502 0.669367 0.484947
0.913832 0.7252 0.518914
0.838163 0.781033 0.552895
0.762493 0.836866 0.586862
0.686824 0.892699 0.620829
1 0.499672 0.538659
1 0.555505 0.572625
1 0.611337 0.606607
1 0.66717 0.640574
1 0.723003 0.67454
1 0.778851 0.708507
0.994751 0.834684 0.742473
0.919081 0.890517 0.77644
0.843412 0.946349 0.810407
1 0.553323 0.728252
1 0.609155 0.762219
1 0.664988 0.796185
1 0.720821 0.830152
1 0.776654 0.864118
1 0.832502 0.8981
1 0.888334 0.932067
1 0.944167 0.966033
1 1 1
