public/LUTS/Color Shift/ColorShift_27.cube
TITLE "Generated by Resolve"
LUT_3D_SIZE 5
0 0 0
0.253544 0 0.0870985
0.507103 0 0.174197
0.760662 0 0.261295
1 0 0.348409
0.0932937 0.229282 0
0.346838 0.217014 0.0304417
0.600397 0.204746 0.11754
0.853956 0.192493 0.204639
1 0.180224 0.291737
0.186587 0.458579 0
0.440131 0.446326 0
0.69369 0.434058 0.0608835
0.94725 0.42179 0.147982
1 0.409522 0.23508
0.279881 0.687877 0
0.533425 0.675624 0
0.786984 0.663355 0.00421149
1 0.651087 0.09131
1 0.638819 0.178424
0.373175 0.917189 0
0.626734 0.904921 0
0.880293 0.892653 0
1 0.880385 0.0346532
1 0.868116 0.121752
0 0.0329747 0.219547
0.156695 0.0207065 0.306645
0.410254 0.00843824 0.393744
0.663813 0 0.480858
0.917372 0 0.567956
0 0.262257 0.16289
0.249989 0.249989 0.249989
0.503548 0.23772 0.337087
0.757107 0.225452 0.424186
1 0.213184 0.511299
0.0897383 0.491554 0.106233
0.343282 0.479286 0.193332
0.596841 0.467018 0.28043
0.850401 0.454749 0.367529
1 0.442481 0.454627
0.183032 0.720851 0.0495613
0.436576 0.708583 0.13666
0.69015 0.696315 0.223758
0.943709 0.684047 0.310872
1 0.671794 0.397971
0.276341 0.950149 0
0.529885 0.937881 0.0800031
0.783444 0.925628 0.167102
1 0.913359 0.2542
1 0.901091 0.341314
0 0.0659342 0.439109
0.0598459 0.0536812 0.526207
0.313405 0.041413 0.613321
0.566964 0.0291447 0.70042
0.820523 0.0168765 0.787518
0 0.295232 0.382452
0.15314 0.282963 0.469551
0.406699 0.270695 0.556649
0.660258 0.258427 0.643763
0.913817 0.246159 0.730861
0 0.524529 0.325795
0.246433 0.512261 0.412894
0.499992 0.499992 0.499992
0.753552 0.487724 0.587091
1 0.475456 0.674189
0.086183 0.753826 0.269123
0.339727 0.741558 0.356222
0.593286 0.72929 0.443336
0.846845 0.717021 0.530434
1 0.704753 0.617533
0.179477 0.983124 0.212467
0.433021 0.970855 0.299565
0.68658 0.958587 0.386664
0.940154 0.946319 0.473762
1 0.934051 0.560876
0 0.098909 0.658686
0 0.0866407 0.745769
0.216556 0.0743725 0.832883
0.470115 0.0621195 0.919982
0.723674 0.0498512 1
0 0.328191 0.602014
0.0562753 0.315938 0.689113
0.309834 0.30367 0.776226
0.563409 0.291402 0.863325
0.816968 0.279133 0.950423
0 0.557488 0.545357
0.149584 0.545235 0.632456
0.403143 0.532967 0.719554
0.656703 0.520699 0.806653
0.910262 0.508431 0.893767
0 0.786801 0.488701
0.242878 0.774533 0.575799
0.496437 0.762264 0.662898
0.749996 0.749996 0.749996
1 0.737728 0.837095
0.0826276 1 0.432029
0.336172 1 0.519127
0.589731 0.991562 0.606226
0.84329 0.979294 0.693339
1 0.967025 0.780438
0 0.131884 0.878248
0 0.119615 0.965347
0.119692 0.107347 1
0.373251 0.095079 1
0.626825 0.0828107 1
0 0.361166 0.821591
0 0.348898 0.908675
0.212985 0.336629 0.995789
0.466545 0.324361 1
0.720104 0.312108 1
0 0.590463 0.76492
0.0527199 0.578195 0.852018
0.306279 0.565942 0.939116
0.559838 0.553674 1
0.813413 0.541405 1
0 0.81976 0.708263
0.146014 0.807507 0.795361
0.399588 0.795239 0.88246
0.653147 0.782971 0.969558
0.906706 0.770703 1
0 1 0.651591
0.239322 1 0.738689
0.492882 1 0.825803
0.746441 1 0.912902
1 1 1
