public/LUTS/Color Shift/ColorShift_08.cube
TITLE "Generated by Resolve"
LUT_3D_SIZE 5
0 0 0
0 0.116152 0
0 0.232319 0
0 0.34847 0
0 0.464637 0
0.132235 0.15668 0.417151
0.0261845 0.272847 0.344503
0 0.388998 0.271855
0 0.505165 0.199207
0 0.621317 0.126558
0.264469 0.313375 0.834333
0.158419 0.429541 0.761685
0.0523537 0.545693 0.689036
0 0.66186 0.616388
0 0.778012 0.54374
0.396719 0.470069 1
0.290654 0.586236 1
0.184604 0.702388 1
0.0785382 0.818555 1
0 0.934707 0.960922
0.528954 0.62678 1
0.422904 0.742931 1
0.316838 0.859083 1
0.210773 0.97525 1
0.104707 1 1
0.223804 0 0
0.117754 0.0933089 0
0.0116884 0.209461 0
0 0.325628 0
0 0.441779 0
0.356039 0.133837 0.322637
0.249989 0.249989 0.249989
0.143923 0.366155 0.17734
0.0378576 0.482307 0.104692
0 0.598474 0.0320439
0.488289 0.290532 0.739803
0.382223 0.406683 0.66717
0.276173 0.52285 0.594522
0.170108 0.639002 0.521874
0.0640421 0.755169 0.449226
0.620523 0.447227 1
0.514473 0.563378 1
0.408408 0.679545 1
0.302342 0.795697 0.93904
0.196277 0.911864 0.866407
0.752773 0.603922 1
0.646708 0.720073 1
0.540658 0.83624 1
0.434592 0.952392 1
0.328527 1 1
0.447639 0 0
0.341573 0.0704509 0
0.235523 0.186618 0
0.129458 0.30277 0
0.0233921 0.418936 0
0.579873 0.110979 0.228107
0.473808 0.227131 0.155459
0.367758 0.343297 0.0828107
0.261692 0.459464 0.0101625
0.155627 0.575616 0
0.712108 0.267674 0.645289
0.606058 0.383825 0.572641
0.499992 0.499992 0.499992
0.393927 0.616159 0.427344
0.287861 0.732311 0.354696
0.844358 0.424369 1
0.738293 0.54052 0.989822
0.632227 0.656687 0.917174
0.526177 0.772854 0.844526
0.420111 0.889006 0.771878
0.976593 0.581064 1
0.870542 0.69723 1
0.764477 0.813382 1
0.658412 0.929549 1
0.552346 1 1
0.671458 0 0
0.565408 0.0475929 0
0.459342 0.16376 0
0.353277 0.279927 0
0.247211 0.396078 0
0.803693 0.0881361 0.133577
0.697643 0.204288 0.0609445
0.591577 0.320439 0
0.485512 0.436606 0
0.379446 0.552773 0
0.935943 0.244831 0.550759
0.829877 0.360983 0.478111
0.723812 0.477134 0.405463
0.617761 0.593301 0.332815
0.511696 0.709468 0.260166
1 0.401526 0.967941
0.962127 0.517678 0.895293
0.856062 0.633829 0.822644
0.749996 0.749996 0.749996
0.643931 0.866163 0.677348
1 0.558221 1
1 0.674372 1
0.988296 0.790524 1
0.882231 0.906691 1
0.776181 1 1
0.895293 0 0
0.789227 0.0247501 0
0.683162 0.140902 0
0.577111 0.257069 0
0.471046 0.37322 0
1 0.0652781 0.0390478
0.921462 0.18143 0
0.815396 0.297597 0
0.709331 0.413748 0
0.603281 0.529915 0
1 0.221973 0.45623
1 0.338125 0.383581
0.947646 0.454292 0.310948
0.841581 0.570443 0.2383
0.735515 0.68661 0.165652
1 0.378668 0.873411
1 0.49482 0.800763
1 0.610986 0.728115
0.973816 0.727138 0.655467
0.867765 0.843305 0.582818
1 0.535363 1
1 0.651514 1
1 0.767681 1
1 0.883833 1
1 1 1
