public/LUTS/Color Shift/ColorShift_30.cube
TITLE "Generated by Resolve"
LUT_3D_SIZE 9
0 0 0
0.112978 0 0.0785534
0.225956 0 0.157122
0.338949 0 0.235691
0.451926 0 0.31426
0.56492 0 0.392828
0.677897 0 0.471382
0.79089 0 0.54995
0.903868 0 0.628519
0.0932021 0.101549 0
0.206165 0.0950484 0.0433967
0.319158 0.0885481 0.121965
0.432151 0.082063 0.200534
0.545129 0.0755627 0.279103
0.658122 0.0690623 0.357671
0.771099 0.062562 0.43624
0.884092 0.0560616 0.514794
0.99707 0.0495766 0.593362
0.186404 0.203113 0
0.299382 0.196612 0.00823987
0.412375 0.190112 0.0868086
0.525353 0.183612 0.165377
0.638346 0.177111 0.243946
0.751324 0.170626 0.322499
0.864317 0.164126 0.401068
0.977295 0.157626 0.479637
1 0.151125 0.558206
0.279622 0.304662 0
0.392599 0.298161 0
0.505577 0.291676 0.0516518
0.61857 0.285176 0.130205
0.731548 0.278676 0.208774
0.844541 0.272175 0.287343
0.957519 0.26569 0.365911
1 0.25919 0.44448
1 0.252689 0.523049
0.372839 0.406226 0
0.485801 0.399725 0
0.598795 0.393225 0.0164797
0.711772 0.38674 0.0950484
0.824765 0.38024 0.173617
0.937743 0.373739 0.252186
1 0.367239 0.330755
1 0.360739 0.409323
1 0.354253 0.487877
0.466041 0.507774 0
0.579019 0.501289 0
0.691997 0.494789 0
0.80499 0.488289 0.0598917
0.917967 0.481788 0.13846
1 0.475303 0.217029
1 0.468803 0.295598
1 0.462303 0.374151
1 0.455802 0.45272
0.559258 0.609339 0
0.672221 0.602838 0
0.785214 0.596353 0
0.898192 0.589853 0.0247349
1 0.583352 0.103304
1 0.576852 0.181857
1 0.570367 0.260426
1 0.563867 0.338994
1 0.557366 0.417563
0.652461 0.710903 0
0.765438 0.704402 0
0.878416 0.697902 0
0.991409 0.691417 0
1 0.684916 0.0681315
1 0.678416 0.1467
1 0.671916 0.225269
1 0.665415 0.303838
1 0.65893 0.382406
0.745678 0.812451 0
0.85864 0.805966 0
0.971633 0.799466 0
1 0.792966 0
1 0.786465 0.0329747
1 0.77998 0.111543
1 0.77348 0.190112
1 0.766979 0.268681
1 0.760479 0.347234
0 0.0299382 0.08159
0.0317845 0.0234379 0.160143
0.144778 0.0169375 0.238712
0.257755 0.0104524 0.317281
0.370748 0.00395209 0.39585
0.483726 0 0.474403
0.596719 0 0.552972
0.709697 0 0.63154
0.82269 0 0.710109
0.0120089 0.131487 0.0464332
0.124987 0.124987 0.124987
0.23798 0.118486 0.203555
0.350958 0.111986 0.282124
0.463951 0.105501 0.360693
0.576928 0.0990005 0.439246
0.689921 0.0925002 0.517815
0.802899 0.0859998 0.596384
0.915892 0.0795148 0.674952
0.105226 0.233036 0.0112764
0.218204 0.226551 0.0898299
0.331182 0.22005 0.168399
0.444175 0.21355 0.246952
0.557153 0.20705 0.325521
0.670146 0.200565 0.404089
0.783123 0.194064 0.482658
0.896117 0.187564 0.561227
1 0.181064 0.639796
0.198428 0.3346 0
0.311406 0.328099 0.0546731
0.424399 0.321614 0.133227
0.537377 0.315114 0.211795
0.65037 0.308614 0.290364
0.763348 0.302113 0.368933
0.876341 0.295613 0.447501
0.989319 0.289128 0.52607
1 0.282628 0.604623
0.291646 0.436164 0
0.404623 0.429664 0.019501
0.517601 0.423163 0.0980697
0.630594 0.416663 0.176638
0.743572 0.410178 0.255207
0.856565 0.403677 0.333776
0.969543 0.397177 0.412345
1 0.390677 0.490898
1 0.384192 0.569467
0.384863 0.537713 0
0.497826 0.531228 0
0.610819 0.524727 0.0629129
0.723796 0.518227 0.141482
0.836789 0.511727 0.22005
0.949767 0.505241 0.298604
1 0.498741 0.377172
1 0.492241 0.455741
1 0.48574 0.53431
0.478065 0.639277 0
0.591043 0.632776 0
0.704021 0.626291 0.0277562
0.817014 0.619791 0.10631
0.929992 0.613291 0.184878
1 0.60679 0.263447
1 0.60029 0.342016
1 0.593805 0.420584
1 0.587304 0.499153
0.571283 0.740841 0
0.684245 0.73434 0
0.797238 0.72784 0
0.910216 0.72134 0.0711528
1 0.714855 0.149722
1 0.708354 0.22829
1 0.701854 0.306859
1 0.695354 0.385428
1 0.688869 0.463981
0.664485 0.84239 0
0.777462 0.835904 0
0.890455 0.829404 0
1 0.822904 0.035996
1 0.816403 0.114565
1 0.809918 0.193133
1 0.803418 0.271702
1 0.796918 0.350256
1 0.790417 0.428824
0 0.0598764 0.16318
0 0.0533761 0.241733
0.0635843 0.0468757 0.320302
0.176562 0.0403906 0.398871
0.289555 0.0338903 0.47744
0.402533 0.0273899 0.556008
0.515526 0.0208896 0.634577
0.628504 0.0144045 0.71313
0.741497 0.00790417 0.791699
0 0.161425 0.128023
0.0437934 0.154925 0.206577
0.156771 0.148425 0.285145
0.269764 0.141939 0.363714
0.382757 0.135439 0.442283
0.495735 0.128939 0.520851
0.608728 0.122438 0.59942
0.721706 0.115938 0.677989
0.834699 0.109453 0.756542
0.024033 0.262974 0.0928664
0.136995 0.256489 0.17142
0.249989 0.249989 0.249989
0.362982 0.243488 0.328557
0.475959 0.236988 0.407126
0.588952 0.230503 0.485695
0.70193 0.224002 0.564248
0.814923 0.217502 0.642817
0.927901 0.211002 0.721386
0.117235 0.364538 0.0577096
0.230213 0.358038 0.136263
0.343206 0.351553 0.214832
0.456184 0.345052 0.2934
0.569177 0.338552 0.371954
0.682155 0.332052 0.450523
0.795148 0.325567 0.529091
0.908125 0.319066 0.60766
1 0.312566 0.686229
0.210452 0.466102 0.0225376
0.32343 0.459602 0.101106
0.436408 0.453101 0.179675
0.549401 0.446616 0.258228
0.662379 0.440116 0.336797
0.775372 0.433616 0.415366
0.88835 0.427115 0.493935
1 0.420615 0.572503
1 0.41413 0.651072
0.303655 0.567651 0
0.416632 0.561166 0.0659342
0.529625 0.554665 0.144503
0.642603 0.548165 0.223072
0.755596 0.541665 0.30164
0.868574 0.53518 0.380209
0.981567 0.528679 0.458778
1 0.522179 0.537346
1 0.515679 0.6159
0.396872 0.669215 0
0.50985 0.662715 0.0307774
0.622827 0.656229 0.109346
0.735821 0.649729 0.187915
0.848798 0.643229 0.266484
0.961791 0.636728 0.345052
1 0.630243 0.423606
1 0.623743 0.502174
1 0.617243 0.580743
0.490089 0.770779 0
0.603052 0.764279 0
0.716045 0.757778 0.0741894
0.829023 0.751293 0.152758
0.942016 0.744793 0.231312
1 0.738293 0.30988
1 0.731792 0.388449
1 0.725292 0.467018
1 0.718807 0.545586
0.583291 0.872328 0
0.696269 0.865843 0
0.809247 0.859342 0.0390326
0.92224 0.852842 0.117586
1 0.846342 0.196155
1 0.839857 0.274723
1 0.833356 0.353292
1 0.826856 0.431861
1 0.820356 0.51043
0 0.0898146 0.244785
0 0.0833143 0.323339
0 0.0768292 0.401907
0.0953689 0.0703288 0.480461
0.208362 0.0638285 0.55903
0.32134 0.0573281 0.637598
0.434333 0.0508431 0.716167
0.547311 0.0443427 0.794736
0.660304 0.0378424 0.873304
0 0.191363 0.209628
0 0.184863 0.288182
0.0755779 0.178363 0.366751
0.188571 0.171878 0.445319
0.301549 0.165377 0.523873
0.414542 0.158877 0.602441
0.527535 0.152377 0.68101
0.640513 0.145892 0.759579
0.753506 0.139391 0.838148
0 0.292927 0.174456
0.0558022 0.286427 0.253025
0.168795 0.279927 0.331579
0.281773 0.273426 0.410147
0.394766 0.266941 0.488716
0.507759 0.260441 0.567285
0.620737 0.253941 0.645853
0.73373 0.24744 0.724422
0.846708 0.24094 0.802991
0.0360418 0.394476 0.1393
0.14902 0.387991 0.217853
0.261997 0.381491 0.296422
0.37499 0.37499 0.37499
0.487984 0.36849 0.453559
0.600961 0.36199 0.532128
0.713954 0.355505 0.610697
0.826932 0.349004 0.68925
0.939925 0.342504 0.767819
0.129259 0.49604 0.104143
0.242222 0.48954 0.182696
0.355215 0.48304 0.261265
0.468208 0.476555 0.339834
0.581186 0.470054 0.418402
0.694179 0.463554 0.496956
0.807157 0.457053 0.575525
0.92015 0.450568 0.654093
1 0.444068 0.732662
0.222461 0.597604 0.068986
0.335439 0.591104 0.147539
0.448432 0.584604 0.226108
0.56141 0.578103 0.304677
0.674403 0.571618 0.38323
0.787381 0.565118 0.461799
0.900374 0.558618 0.540368
1 0.552117 0.618936
1 0.545617 0.697505
0.315679 0.699153 0.033814
0.428656 0.692668 0.112383
0.541634 0.686168 0.190936
0.654627 0.679667 0.269505
0.767605 0.673167 0.348074
0.880598 0.666667 0.426642
0.993576 0.660182 0.505211
1 0.653681 0.58378
1 0.647181 0.662348
0.408896 0.800717 0
0.521859 0.794217 0.0772106
0.634852 0.787717 0.155779
0.747829 0.781231 0.234348
0.860822 0.774731 0.312917
0.9738 0.768231 0.391485
1 0.76173 0.470054
1 0.755245 0.548608
1 0.748745 0.627176
0.502098 0.902281 0
0.615076 0.895781 0.0420539
0.728054 0.889281 0.120623
0.841047 0.88278 0.199191
0.954025 0.876295 0.27776
1 0.869795 0.356313
1 0.863294 0.434882
1 0.856794 0.513451
1 0.850294 0.59202
0 0.119753 0.326375
0 0.113252 0.404929
0 0.106767 0.483497
0.0141756 0.100267 0.562066
0.127153 0.0937667 0.640635
0.240146 0.0872663 0.719203
0.35314 0.0807813 0.797757
0.466117 0.0742809 0.876326
0.57911 0.0677806 0.954894
0 0.221302 0.291218
0 0.214801 0.369772
0 0.208316 0.448341
0.107378 0.201816 0.526909
0.220356 0.195315 0.605478
0.333349 0.188815 0.684047
0.446326 0.182315 0.7626
0.559319 0.17583 0.841169
0.672312 0.169329 0.919738
0 0.322866 0.256062
0 0.316365 0.334615
0.087602 0.309865 0.413184
0.20058 0.303365 0.491753
0.313573 0.29688 0.570321
0.426551 0.290379 0.648875
0.539544 0.283879 0.727443
0.652537 0.277378 0.806012
0.765515 0.270893 0.884581
0 0.424414 0.22089
0.0678264 0.417929 0.299458
0.180804 0.411429 0.378027
0.293797 0.404929 0.45658
0.406775 0.398428 0.535149
0.519768 0.391943 0.613718
0.632761 0.385443 0.692287
0.745739 0.378943 0.770855
0.858732 0.372442 0.849424
0.0480659 0.525979 0.185733
0.161028 0.519478 0.264286
0.274022 0.512993 0.342855
0.386999 0.506493 0.421424
0.499992 0.499992 0.499992
0.612985 0.493492 0.578561
0.725963 0.486992 0.65713
0.838956 0.480507 0.735698
0.951934 0.474006 0.814252
0.141268 0.627543 0.150576
0.254246 0.621042 0.229129
0.367224 0.614542 0.307698
0.480217 0.608042 0.386267
0.59321 0.601556 0.464836
0.706188 0.595056 0.543404
0.819181 0.588556 0.621958
0.932158 0.582055 0.700526
1 0.57557 0.779095
0.234485 0.729091 0.115419
0.347448 0.722606 0.193973
0.460441 0.716106 0.272541
0.573434 0.709606 0.35111
0.686412 0.703105 0.429679
0.799405 0.69662 0.508232
0.912383 0.69012 0.586801
1 0.683619 0.66537
1 0.677119 0.743938
0.327688 0.830655 0.0802472
0.440665 0.824155 0.158816
0.553658 0.81767 0.237385
0.666636 0.81117 0.315938
0.779629 0.804669 0.394507
0.892607 0.798169 0.473075
1 0.791669 0.551644
1 0.785183 0.630213
1 0.778683 0.708782
0.420905 0.932219 0.0450904
0.533883 0.925719 0.123644
0.64686 0.919219 0.202213
0.759854 0.912718 0.280781
0.872831 0.906233 0.35935
0.985824 0.899733 0.437919
1 0.893233 0.516487
1 0.886732 0.595056
1 0.880247 0.673609
0 0.149691 0.407965
0 0.143206 0.486534
0 0.136706 0.565087
0 0.130205 0.643656
0.0459602 0.123705 0.722225
0.158953 0.11722 0.800793
0.271931 0.110719 0.879362
0.384924 0.104219 0.957931
0.497917 0.0977188 1
0 0.25124 0.372808
0 0.244739 0.451377
0 0.238254 0.529931
0.0261845 0.231754 0.608499
0.139162 0.225254 0.687068
0.252155 0.218753 0.765637
0.365133 0.212268 0.844205
0.478126 0.205768 0.922774
0.591104 0.199268 1
0 0.352804 0.337652
0 0.346303 0.416205
0.00640879 0.339803 0.494774
0.119387 0.333318 0.573343
0.23238 0.326818 0.651911
0.345357 0.320317 0.73048
0.458351 0.313817 0.809049
0.571328 0.307317 0.887602
0.684321 0.300832 0.966171
0 0.454353 0.302495
0 0.447868 0.381048
0.0996109 0.441367 0.459617
0.212604 0.434867 0.538186
0.325582 0.428367 0.616754
0.438575 0.421881 0.695323
0.551553 0.415381 0.773877
0.664546 0.408881 0.852445
0.777539 0.40238 0.931014
0 0.555917 0.267338
0.0798352 0.549416 0.345892
0.192828 0.542931 0.42446
0.305806 0.536431 0.503029
0.418799 0.529931 0.581582
0.531777 0.52343 0.660151
0.64477 0.516945 0.73872
0.757763 0.510445 0.817288
0.870741 0.503944 0.895857
0.0600748 0.657481 0.232166
0.173053 0.65098 0.310735
0.28603 0.64448 0.389288
0.399023 0.637995 0.467857
0.512001 0.631495 0.546426
0.624994 0.624994 0.624994
0.737987 0.618494 0.703563
0.850965 0.611994 0.782132
0.963958 0.605509 0.8607
0.153292 0.75903 0.197009
0.266255 0.752544 0.275563
0.379248 0.746044 0.354131
0.492226 0.739544 0.4327
0.605219 0.733043 0.511269
0.718212 0.726558 0.589837
0.831189 0.720058 0.668406
0.944183 0.713558 0.74696
1 0.707057 0.825528
0.246494 0.860594 0.161852
0.359472 0.854093 0.240406
0.47245 0.847608 0.318975
0.585443 0.841108 0.397543
0.698436 0.834607 0.476112
0.811414 0.828107 0.554681
0.924407 0.821622 0.633234
1 0.815122 0.711803
1 0.808621 0.790372
0.339712 0.962158 0.126696
0.452674 0.955657 0.205249
0.565667 0.949157 0.283818
0.67866 0.942672 0.362387
0.791638 0.936172 0.44094
0.904631 0.929671 0.519509
1 0.923171 0.598077
1 0.916671 0.676646
1 0.910185 0.755215
0 0.179629 0.48957
0 0.173144 0.568124
0 0.166644 0.646693
0 0.160143 0.725261
0 0.153643 0.80383
0.07776 0.147158 0.882383
0.190738 0.140658 0.960952
0.303731 0.134157 1
0.416709 0.127657 1
0 0.281178 0.454414
0 0.274693 0.532967
0 0.268193 0.611536
0 0.261692 0.690105
0.057969 0.255192 0.768673
0.170962 0.248692 0.847227
0.28394 0.242206 0.925795
0.396933 0.235706 1
0.509911 0.229206 1
0 0.382742 0.419257
0 0.376242 0.49781
0 0.369741 0.576379
0.0381933 0.363256 0.654932
0.151186 0.356756 0.733501
0.264164 0.350256 0.81207
0.377157 0.343755 0.890639
0.490135 0.33727 0.969207
0.603128 0.33077 1
0 0.484306 0.384085
0 0.477806 0.462638
0.0184176 0.471305 0.541207
0.131411 0.464805 0.619776
0.244388 0.45832 0.698344
0.357382 0.45182 0.776913
0.470359 0.445319 0.855482
0.583352 0.438819 0.934051
0.69633 0.432319 1
0 0.585855 0.348928
0 0.57937 0.427482
0.111635 0.572869 0.50605
0.224613 0.566369 0.584619
0.337606 0.559869 0.663188
0.450584 0.553368 0.741756
0.563577 0.546883 0.820325
0.676555 0.540383 0.898878
0.789548 0.533883 0.977447
0 0.687419 0.313771
0.0918593 0.680919 0.392325
0.204837 0.674418 0.470893
0.31783 0.667933 0.549462
0.430808 0.661433 0.628031
0.543801 0.654932 0.706584
0.656779 0.648432 0.785153
0.769772 0.641947 0.863722
0.882765 0.635447 0.94229
0.0720989 0.788983 0.278614
0.185061 0.782483 0.357168
0.298054 0.775982 0.435737
0.411032 0.769482 0.51429
0.524025 0.762997 0.592859
0.637003 0.756497 0.671427
0.749996 0.749996 0.749996
0.862989 0.743496 0.828565
0.975967 0.736996 0.907134
0.165301 0.890532 0.243442
0.278279 0.884047 0.321996
0.391257 0.877546 0.400565
0.50425 0.871046 0.479133
0.617227 0.864546 0.557702
0.73022 0.858045 0.636271
0.843214 0.85156 0.714839
0.956191 0.84506 0.793408
1 0.83856 0.871962
0.258518 0.992096 0.208286
0.371481 0.985595 0.286839
0.484474 0.979095 0.365408
0.597452 0.97261 0.443976
0.710445 0.96611 0.522545
0.823438 0.959609 0.601114
0.936416 0.953109 0.679683
1 0.946624 0.758236
1 0.940124 0.836805
0 0.209583 0.57116
0 0.203082 0.649714
0 0.196582 0.728283
0 0.190082 0.806851
0 0.183597 0.88542
0 0.177096 0.963989
0.109545 0.170596 1
0.222538 0.164096 1
0.335515 0.157595 1
0 0.311116 0.536004
0 0.304631 0.614557
0 0.298131 0.693126
0 0.29163 0.771695
0 0.28513 0.850263
0.0897688 0.278645 0.928832
0.202747 0.272145 1
0.31574 0.265644 1
0.428717 0.259144 1
0 0.41268 0.500847
0 0.40618 0.5794
0 0.399695 0.657969
0 0.393194 0.736538
0.0699931 0.386694 0.815106
0.182971 0.380194 0.893675
0.295964 0.373693 0.972229
0.408942 0.367208 1
0.521935 0.360708 1
0 0.514244 0.46569
0 0.507744 0.544244
0 0.501244 0.622812
0.0502174 0.494743 0.701381
0.163195 0.488258 0.779934
0.276188 0.481758 0.858503
0.389166 0.475257 0.937072
0.502159 0.468757 1
0.615137 0.462272 1
0 0.615793 0.430518
0 0.609308 0.509087
0.0304417 0.602808 0.58764
0.14342 0.596307 0.666209
0.256413 0.589807 0.744778
0.36939 0.583322 0.823346
0.482383 0.576822 0.901915
0.595361 0.570321 0.980484
0.708354 0.563821 1
0 0.717357 0.395361
0.0106661 0.710857 0.473915
0.123644 0.704372 0.552483
0.236637 0.697871 0.631052
0.349615 0.691371 0.709621
0.462608 0.684871 0.78819
0.575586 0.67837 0.866758
0.688579 0.671885 0.945327
0.801556 0.665385 1
0 0.818921 0.360204
0.103868 0.812421 0.438758
0.216861 0.80592 0.517327
0.329839 0.79942 0.595895
0.442832 0.792935 0.674464
0.55581 0.786435 0.753033
0.668803 0.779934 0.831586
0.781781 0.773434 0.910155
0.894774 0.766949 0.988724
0.0841077 0.92047 0.325048
0.197086 0.913985 0.403601
0.310063 0.907485 0.48217
0.423056 0.900984 0.560739
0.536034 0.894484 0.639292
0.649027 0.887999 0.717861
0.762005 0.881498 0.796429
0.874998 0.874998 0.874998
0.987991 0.868498 0.953567
0.177325 1 0.289876
0.290288 1 0.368444
0.403281 1 0.446998
0.516258 1 0.525567
0.629252 0.996048 0.604135
0.742229 0.989548 0.682704
0.855222 0.983047 0.761273
0.968215 0.976562 0.839841
1 0.970062 0.91841
0 0.239521 0.652766
0 0.233021 0.731319
0 0.22652 0.809888
0 0.22002 0.888441
0 0.213535 0.96701
0 0.207034 1
0.0283513 0.200534 1
0.141344 0.194034 1
0.254322 0.187549 1
0 0.34107 0.617609
0 0.334569 0.696162
0 0.328069 0.774731
0 0.321569 0.853284
0 0.315068 0.931853
0.00856031 0.308583 1
0.121553 0.302083 1
0.234531 0.295583 1
0.347524 0.289082 1
0 0.442618 0.582437
0 0.436118 0.661006
0 0.429633 0.739559
0 0.423133 0.818128
0 0.416632 0.896696
0.101778 0.410132 0.975265
0.214771 0.403647 1
0.327749 0.397147 1
0.440742 0.390646 1
0 0.544182 0.54728
0 0.537682 0.625834
0 0.531182 0.704402
0 0.524697 0.782971
0.082002 0.518196 0.86154
0.194995 0.511696 0.940108
0.307973 0.505196 1
0.420966 0.498695 1
0.533944 0.49221 1
0 0.645731 0.512123
0 0.639246 0.590677
0 0.632746 0.669245
0.0622263 0.626245 0.747814
0.175219 0.619745 0.826383
0.288197 0.61326 0.904936
0.40119 0.60676 0.983505
0.514168 0.600259 1
0.627161 0.593759 1
0 0.747295 0.476967
0 0.740795 0.55552
0.0424506 0.73431 0.634089
0.155444 0.72781 0.712642
0.268421 0.721309 0.791211
0.381415 0.714809 0.86978
0.494392 0.708324 0.948348
0.607385 0.701823 1
0.720363 0.695323 1
0 0.848859 0.441794
0.0226749 0.842359 0.520363
0.135668 0.835859 0.598917
0.248646 0.829374 0.677485
0.361639 0.822873 0.756054
0.474617 0.816373 0.834623
0.58761 0.809873 0.913191
0.700587 0.803372 0.99176
0.813581 0.796887 1
0.00291447 0.950408 0.406638
0.115892 0.943923 0.485191
0.22887 0.937423 0.56376
0.341863 0.930922 0.642329
0.454841 0.924422 0.720897
0.567834 0.917937 0.799466
0.680812 0.911437 0.878035
0.793805 0.904936 0.956588
0.906783 0.898436 1
0.0961318 1 0.371481
0.209094 1 0.450034
0.322087 1 0.528603
0.435065 1 0.607172
0.548058 1 0.68574
0.661036 1 0.764294
0.774029 1 0.842863
0.887007 1 0.921431
1 1 1
