public/LUTS/Color Shift/ColorShift_31.cube
TITLE "Generated by Resolve"
LUT_3D_SIZE 9
0 0 0
0.105516 0 0.0888075
0.211048 0 0.177646
0.316579 0 0.266468
0.42211 0 0.355291
0.527642 0 0.444114
0.633173 0 0.532937
0.738705 0 0.621759
0.844251 0 0.710582
0.108873 0.0966506 0
0.214389 0.0910658 0.0552377
0.319921 0.085481 0.14406
0.425452 0.0799115 0.232883
0.530983 0.0743267 0.321706
0.636515 0.0687419 0.410529
0.742046 0.0631723 0.499352
0.847578 0.0575875 0.588174
0.953109 0.0520027 0.676997
0.217746 0.193301 0
0.323262 0.187716 0.0216526
0.428809 0.182147 0.110475
0.53434 0.176562 0.199298
0.639872 0.170977 0.288121
0.745403 0.165408 0.376944
0.850935 0.159823 0.465766
0.956466 0.154238 0.554589
1 0.148669 0.643412
0.326635 0.289952 0
0.432151 0.284367 0
0.537682 0.278798 0.0768902
0.643214 0.273213 0.165713
0.748745 0.267643 0.254536
0.854276 0.262058 0.343359
0.959808 0.256474 0.432181
1 0.250904 0.521004
1 0.245319 0.609827
0.435508 0.386603 0
0.541039 0.381033 0
0.646571 0.375448 0.0433051
0.752102 0.369863 0.132128
0.857633 0.364294 0.220951
0.963165 0.358709 0.309773
1 0.353124 0.398596
1 0.347555 0.487419
1 0.34197 0.576242
0.544396 0.483268 0
0.649912 0.477684 0
0.755444 0.472099 0.00972
0.860975 0.466529 0.0985428
0.966506 0.460945 0.187366
1 0.45536 0.276188
1 0.44979 0.365011
1 0.444205 0.453834
1 0.438621 0.542657
0.653284 0.579919 0
0.758801 0.574334 0
0.864332 0.568765 0
0.969863 0.56318 0.0649577
1 0.557595 0.15378
1 0.552026 0.242603
1 0.546441 0.331426
1 0.540856 0.420249
1 0.535286 0.509071
0.762158 0.67657 0
0.867674 0.671 0
0.973205 0.665415 0
1 0.659831 0.0313726
1 0.654261 0.120195
1 0.648676 0.209018
1 0.643091 0.297841
1 0.637522 0.386664
1 0.631937 0.475486
0.871046 0.77322 0
0.976562 0.767651 0
1 0.762066 0
1 0.756497 0
1 0.750912 0.0866102
1 0.745327 0.175433
1 0.739757 0.264256
1 0.734173 0.353079
1 0.728588 0.441901
0 0.0339208 0.069749
0.0161135 0.028336 0.158572
0.121645 0.0227665 0.247395
0.227176 0.0171817 0.336217
0.332708 0.0116121 0.42504
0.438239 0.00602731 0.513863
0.543786 0.000442512 0.602686
0.649317 0 0.691508
0.754849 0 0.780346
0.0194705 0.130571 0.0361791
0.124987 0.124987 0.124987
0.230518 0.119402 0.213809
0.336049 0.113832 0.302632
0.441581 0.108248 0.391455
0.547112 0.102663 0.480278
0.652644 0.0970932 0.569116
0.758175 0.0915084 0.657938
0.863706 0.0859236 0.746761
0.128344 0.227222 0.00259403
0.233875 0.221637 0.0914015
0.339406 0.216068 0.180224
0.444938 0.210483 0.269047
0.550469 0.204898 0.35787
0.656001 0.199329 0.446693
0.761532 0.193744 0.535531
0.867063 0.188159 0.624353
0.972595 0.182589 0.713176
0.237232 0.323873 0
0.342748 0.318303 0.0578164
0.44828 0.312718 0.146639
0.553811 0.307134 0.235462
0.659342 0.301564 0.324285
0.764874 0.295979 0.413108
0.870405 0.290394 0.501945
0.975937 0.284825 0.590768
1 0.27924 0.679591
0.34612 0.420523 0
0.451637 0.414954 0.0242313
0.557168 0.409369 0.113054
0.662699 0.4038 0.201877
0.768231 0.398215 0.2907
0.873762 0.39263 0.379522
0.979294 0.38706 0.468345
1 0.381476 0.557183
1 0.375891 0.646006
0.454994 0.517189 0
0.56051 0.511604 0
0.666041 0.50602 0.079469
0.771572 0.50045 0.168292
0.877104 0.494865 0.257115
0.982651 0.489296 0.345937
1 0.483711 0.43476
1 0.478126 0.523598
1 0.472557 0.612421
0.563882 0.61384 0
0.669398 0.608255 0
0.774929 0.602686 0.0458839
0.880461 0.597101 0.134707
0.985992 0.591516 0.223529
1 0.585946 0.312352
1 0.580362 0.401175
1 0.574792 0.489998
1 0.569207 0.578836
0.672755 0.710491 0
0.778271 0.704921 0
0.883818 0.699336 0.0122988
0.989349 0.693751 0.101122
1 0.688182 0.189944
1 0.682597 0.278767
1 0.677012 0.36759
1 0.671443 0.456413
1 0.665858 0.545251
0.781643 0.807157 0
0.88716 0.801572 0
0.992691 0.795987 0
1 0.790417 0.0675364
1 0.784833 0.156359
1 0.779248 0.245182
1 0.773678 0.334005
1 0.768093 0.422827
1 0.762509 0.511666
0 0.0678416 0.139513
0 0.0622721 0.228336
0.0322423 0.0566873 0.317159
0.137774 0.0511177 0.405982
0.243305 0.0455329 0.494804
0.348837 0.0399481 0.583627
0.454368 0.0343786 0.67245
0.559899 0.0287938 0.761273
0.665431 0.023209 0.850111
0 0.164492 0.105943
0.0355688 0.158907 0.194751
0.1411 0.153338 0.283574
0.246632 0.147753 0.372396
0.352178 0.142168 0.461219
0.45771 0.136599 0.550042
0.563241 0.131014 0.63888
0.668772 0.125429 0.727703
0.774304 0.11986 0.816526
0.038941 0.261143 0.072343
0.144457 0.255573 0.161166
0.249989 0.249989 0.249989
0.35552 0.244404 0.338811
0.461051 0.238834 0.427634
0.566583 0.233249 0.516457
0.672114 0.227665 0.60528
0.777646 0.222095 0.694118
0.883177 0.21651 0.78294
0.147814 0.357809 0.0387579
0.253346 0.352224 0.127581
0.358877 0.346639 0.216403
0.464408 0.34107 0.305226
0.56994 0.335485 0.394049
0.675471 0.3299 0.482872
0.781003 0.324331 0.571694
0.886534 0.318746 0.660533
0.992065 0.313161 0.749355
0.256703 0.454459 0.00517281
0.362219 0.448875 0.0939956
0.46775 0.443305 0.182818
0.573281 0.43772 0.271641
0.678813 0.432135 0.360464
0.784344 0.426566 0.449287
0.889876 0.420981 0.538109
0.995407 0.415396 0.626947
1 0.409827 0.71577
0.365576 0.55111 0
0.471107 0.545525 0.0604105
0.576638 0.539956 0.149233
0.68217 0.534371 0.238056
0.787701 0.528801 0.326879
0.893233 0.523217 0.415702
0.998764 0.517632 0.504524
1 0.512062 0.593347
1 0.506477 0.682185
0.474464 0.647761 0
0.57998 0.642191 0.0268254
0.685512 0.636606 0.115648
0.791043 0.631022 0.204471
0.896574 0.625452 0.293294
1 0.619867 0.382116
1 0.614298 0.470939
1 0.608713 0.559762
1 0.603128 0.6486
0.583352 0.744427 0
0.688869 0.738842 0
0.7944 0.733257 0.082063
0.899931 0.727687 0.170886
1 0.722103 0.259709
1 0.716518 0.348531
1 0.710948 0.437354
1 0.705364 0.526177
1 0.699794 0.615
0.692226 0.841077 0
0.797742 0.835492 0
0.903273 0.829923 0.0484779
1 0.824338 0.137301
1 0.818753 0.226123
1 0.813184 0.314946
1 0.807599 0.403769
1 0.802014 0.492592
1 0.796445 0.581415
0 0.101778 0.209277
0 0.0961929 0.2981
0 0.0906233 0.386923
0.0483558 0.0850385 0.475746
0.153887 0.0794537 0.564569
0.259419 0.0738842 0.653391
0.36495 0.0682994 0.742214
0.470481 0.0627146 0.831037
0.576013 0.057145 0.91986
0 0.198413 0.175692
0 0.192844 0.264515
0.0516976 0.187259 0.353338
0.157229 0.181674 0.442161
0.26276 0.176104 0.530983
0.368292 0.17052 0.619806
0.473823 0.164935 0.708629
0.579355 0.159365 0.797467
0.684886 0.15378 0.88629
0 0.295079 0.142107
0.0550393 0.289494 0.23093
0.160571 0.283909 0.319753
0.266102 0.27834 0.408576
0.371633 0.272755 0.497398
0.47718 0.26717 0.586221
0.582712 0.261601 0.675044
0.688243 0.256016 0.763882
0.793774 0.250431 0.852705
0.0584115 0.39173 0.108522
0.163928 0.386145 0.197345
0.269459 0.380575 0.286168
0.37499 0.37499 0.37499
0.480522 0.369406 0.463813
0.586053 0.363836 0.552636
0.691585 0.358251 0.641459
0.797116 0.352667 0.730282
0.902647 0.347097 0.81912
0.167285 0.48838 0.0749371
0.272801 0.482811 0.16376
0.378347 0.477226 0.252583
0.483879 0.471641 0.341405
0.58941 0.466072 0.430228
0.694942 0.460487 0.519051
0.800473 0.454902 0.607874
0.906004 0.449332 0.696696
1 0.443748 0.785534
0.276173 0.585031 0.0413519
0.381689 0.579461 0.130175
0.487221 0.573877 0.218997
0.592752 0.568307 0.30782
0.698283 0.562722 0.396643
0.803815 0.557137 0.485466
0.909346 0.551568 0.574289
1 0.545983 0.663111
1 0.540398 0.751949
0.385046 0.681697 0.00776684
0.490578 0.676112 0.0965896
0.596109 0.670527 0.185412
0.70164 0.664958 0.274235
0.807172 0.659373 0.363058
0.912703 0.653803 0.451881
1 0.648219 0.540703
1 0.642634 0.629526
1 0.637064 0.718349
0.493935 0.778347 0
0.599451 0.772763 0.0630045
0.704982 0.767193 0.151827
0.810513 0.761608 0.24065
0.916045 0.756024 0.329473
1 0.750454 0.418296
1 0.744869 0.507118
1 0.7393 0.595941
1 0.733715 0.684764
0.602823 0.874998 0
0.708339 0.869429 0.0294194
0.81387 0.863844 0.118242
0.919402 0.858259 0.207065
1 0.852689 0.295888
1 0.847105 0.38471
1 0.84152 0.473533
1 0.83595 0.562356
1 0.830365 0.651179
0 0.135698 0.279042
0 0.130129 0.367864
0 0.124544 0.456687
0 0.118959 0.54551
0.0644846 0.11339 0.634333
0.170016 0.107805 0.723156
0.275547 0.10222 0.811978
0.381079 0.0966506 0.900801
0.48661 0.0910658 0.989624
0 0.232349 0.245457
0 0.226764 0.334279
0 0.22118 0.423102
0.0678111 0.21561 0.511925
0.173342 0.210025 0.600748
0.278874 0.204456 0.68957
0.384405 0.198871 0.778393
0.489937 0.193286 0.867216
0.595468 0.187716 0.956054
0 0.329 0.211872
0 0.323415 0.300694
0.0711681 0.317845 0.389517
0.176699 0.312261 0.47834
0.282231 0.306676 0.567163
0.387762 0.301106 0.655985
0.493294 0.295521 0.744808
0.598825 0.289937 0.833631
0.704356 0.284367 0.922469
0 0.42565 0.178286
0.0745098 0.420081 0.267109
0.180041 0.414496 0.355932
0.285573 0.408911 0.444755
0.391104 0.403342 0.533578
0.496635 0.397757 0.6224
0.602182 0.392172 0.711223
0.707713 0.386603 0.800046
0.813245 0.381018 0.888884
0.0778821 0.522316 0.144701
0.183398 0.516732 0.233524
0.28893 0.511147 0.322347
0.394461 0.505577 0.41117
0.499992 0.499992 0.499992
0.605524 0.494408 0.588815
0.711055 0.488838 0.677638
0.816587 0.483253 0.766461
0.922118 0.477668 0.855283
0.186755 0.618967 0.111116
0.292271 0.613382 0.199939
0.397803 0.607813 0.288762
0.503349 0.602228 0.377584
0.608881 0.596643 0.466407
0.714412 0.591073 0.55523
0.819944 0.585489 0.644053
0.925475 0.579904 0.732876
1 0.574334 0.821698
0.295644 0.715618 0.0775311
0.40116 0.710048 0.166354
0.506691 0.704463 0.255177
0.612222 0.698878 0.343999
0.717754 0.693309 0.432822
0.823285 0.687724 0.521645
0.928817 0.682139 0.610468
1 0.67657 0.69929
1 0.670985 0.788113
0.404517 0.812268 0.043946
0.510048 0.806699 0.132769
0.615579 0.801114 0.221592
0.721111 0.795529 0.310414
0.826642 0.78996 0.399237
0.932174 0.784375 0.48806
1 0.778805 0.576883
1 0.77322 0.665705
1 0.767636 0.754528
0.513405 0.908934 0.0103609
0.618921 0.903349 0.0991684
0.724453 0.897765 0.188006
0.829984 0.892195 0.276829
0.935515 0.88661 0.365652
1 0.881025 0.454475
1 0.875456 0.543297
1 0.869871 0.63212
1 0.864302 0.720943
0 0.169635 0.348806
0 0.16405 0.437613
0 0.158465 0.526452
0 0.152895 0.615274
0 0.147311 0.704097
0.0805982 0.141726 0.79292
0.18613 0.136156 0.881743
0.291661 0.130571 0.970565
0.397192 0.124987 1
0 0.26627 0.315221
0 0.260685 0.404044
0 0.255116 0.492866
0 0.249531 0.581689
0.0839399 0.243961 0.670512
0.189471 0.238376 0.759335
0.295003 0.232792 0.848157
0.400534 0.227222 0.93698
0.506065 0.221637 1
0 0.362921 0.281636
0 0.357351 0.370459
0 0.351766 0.459281
0.0872816 0.346181 0.548104
0.192813 0.340612 0.636927
0.298344 0.335027 0.72575
0.403876 0.329458 0.814572
0.509407 0.323873 0.903395
0.614939 0.318288 0.992218
0 0.459586 0.248051
0 0.454002 0.336873
0.0906386 0.448417 0.425696
0.19617 0.442847 0.514519
0.301701 0.437263 0.603342
0.407233 0.431678 0.692164
0.512764 0.426108 0.780987
0.618296 0.420523 0.86981
0.723827 0.414939 0.958633
0 0.556237 0.214466
0.0939803 0.550652 0.303288
0.199512 0.545083 0.392111
0.305043 0.539498 0.480934
0.410574 0.533913 0.569757
0.516106 0.528344 0.658579
0.621637 0.522759 0.747402
0.727184 0.517174 0.836225
0.832715 0.511604 0.925048
0.0973526 0.652888 0.18088
0.202869 0.647318 0.269703
0.3084 0.641733 0.358526
0.413931 0.636149 0.447349
0.519463 0.630579 0.536171
0.624994 0.624994 0.624994
0.730526 0.61941 0.713817
0.836057 0.61384 0.80264
0.941588 0.608255 0.891463
0.206226 0.749538 0.147295
0.311742 0.743969 0.236103
0.417273 0.738384 0.324941
0.522805 0.732815 0.413764
0.628351 0.72723 0.502586
0.733883 0.721645 0.591409
0.839414 0.716075 0.680232
0.944945 0.710491 0.769055
1 0.704906 0.857877
0.315114 0.846204 0.11371
0.42063 0.84062 0.202518
0.526162 0.83505 0.291356
0.631693 0.829465 0.380179
0.737224 0.82388 0.469001
0.842756 0.818311 0.557824
0.948287 0.812726 0.646647
1 0.807141 0.73547
1 0.801572 0.824292
0.423987 0.942855 0.0801251
0.529519 0.93727 0.168933
0.63505 0.931701 0.257771
0.740581 0.926116 0.346593
0.846113 0.920531 0.435416
0.951644 0.914961 0.524239
1 0.909377 0.613062
1 0.903807 0.701885
1 0.898222 0.790707
0 0.203555 0.41857
0 0.197971 0.507378
0 0.192401 0.596216
0 0.186816 0.685039
0 0.181231 0.773861
0 0.175662 0.862684
0.0967117 0.170077 0.951507
0.202243 0.164492 1
0.307774 0.158923 1
0 0.300191 0.384985
0 0.294621 0.473808
0 0.289036 0.562631
0 0.283467 0.651453
0 0.277882 0.740276
0.100053 0.272297 0.829099
0.205585 0.266728 0.917922
0.311116 0.261143 1
0.416648 0.255558 1
0 0.396857 0.3514
0 0.391272 0.440223
0 0.385687 0.529046
0 0.380118 0.617868
0.10341 0.374533 0.706691
0.208942 0.368963 0.795514
0.314473 0.363378 0.884337
0.420005 0.357794 0.973159
0.525536 0.352224 1
0 0.493507 0.317815
0 0.487922 0.406638
0.00122072 0.482353 0.49546
0.106752 0.476768 0.584283
0.212284 0.471183 0.673106
0.317815 0.465614 0.761929
0.423346 0.460029 0.850752
0.528878 0.454459 0.939574
0.634409 0.448875 1
0 0.590158 0.28423
0.00457771 0.584588 0.373037
0.110109 0.579004 0.461875
0.215641 0.573419 0.550698
0.321172 0.567849 0.639521
0.426703 0.562264 0.728344
0.532235 0.55668 0.817166
0.637766 0.55111 0.905989
0.743297 0.545525 0.994812
0.00793469 0.686824 0.250645
0.113451 0.681239 0.339452
0.218982 0.675654 0.42829
0.324514 0.670085 0.517113
0.430045 0.6645 0.605936
0.535576 0.658915 0.694759
0.641108 0.653346 0.783581
0.746639 0.647761 0.872404
0.852186 0.642176 0.961227
0.116823 0.783475 0.21706
0.222339 0.77789 0.305867
0.327871 0.77232 0.394705
0.433402 0.766735 0.483528
0.538933 0.761151 0.572351
0.644465 0.755581 0.661173
0.749996 0.749996 0.749996
0.855528 0.744411 0.838819
0.961059 0.738842 0.927642
0.225696 0.880125 0.183474
0.331212 0.874556 0.272282
0.436744 0.868971 0.361105
0.542275 0.863386 0.449943
0.647807 0.857816 0.538766
0.753353 0.852232 0.627588
0.858885 0.846647 0.716411
0.964416 0.841077 0.805234
1 0.835492 0.894057
0.334585 0.976776 0.149889
0.440101 0.971206 0.238697
0.545632 0.965621 0.32752
0.651164 0.960052 0.416358
0.756695 0.954467 0.50518
0.862226 0.948882 0.594003
0.967758 0.943313 0.682826
1 0.937728 0.771649
1 0.932143 0.860471
0 0.237476 0.488334
0 0.231907 0.577142
0 0.226322 0.665965
0 0.220737 0.754803
0 0.215167 0.843626
0 0.209583 0.932448
0.00730907 0.203998 1
0.11284 0.198428 1
0.218372 0.192844 1
0 0.334127 0.454749
0 0.328542 0.543572
0 0.322972 0.632395
0 0.317388 0.721218
0 0.311803 0.81004
0.0106355 0.306233 0.898863
0.116167 0.300649 0.987686
0.221714 0.295064 1
0.327245 0.289494 1
0 0.430777 0.421164
0 0.425208 0.509987
0 0.419623 0.59881
0 0.414038 0.687633
0.0139925 0.408469 0.776455
0.119524 0.402884 0.865278
0.225055 0.397299 0.954101
0.330587 0.39173 1
0.436118 0.386145 1
0 0.527428 0.387579
0 0.521859 0.476387
0 0.516274 0.565225
0.0173342 0.510689 0.654047
0.122881 0.505119 0.74287
0.228412 0.499535 0.831693
0.333944 0.493965 0.920516
0.439475 0.48838 1
0.545007 0.482795 1
0 0.624094 0.353994
0 0.618509 0.442802
0.0206912 0.612924 0.53164
0.126223 0.607355 0.620462
0.231754 0.60177 0.709285
0.337285 0.596185 0.798108
0.442817 0.590616 0.886931
0.548348 0.585031 0.975753
0.65388 0.579461 1
0 0.720745 0.320409
0.0240482 0.71516 0.409216
0.12958 0.70959 0.498054
0.235111 0.704005 0.586877
0.340642 0.698421 0.6757
0.446174 0.692851 0.764523
0.551705 0.687266 0.853346
0.657237 0.681682 0.942168
0.762768 0.676112 1
0.0274052 0.817395 0.286824
0.132921 0.811826 0.375631
0.238453 0.806241 0.464454
0.343984 0.800656 0.553292
0.449516 0.795087 0.642115
0.555047 0.789502 0.730938
0.660578 0.783917 0.81976
0.76611 0.778347 0.908583
0.871641 0.772763 0.997406
0.136294 0.914061 0.253239
0.24181 0.908476 0.342046
0.347341 0.902892 0.430869
0.452873 0.897322 0.519707
0.558404 0.891737 0.60853
0.663935 0.886152 0.697353
0.769467 0.880583 0.786175
0.874998 0.874998 0.874998
0.980529 0.869413 0.963821
0.245167 1 0.219654
0.350683 1 0.308461
0.456214 0.999557 0.397284
0.561746 0.993973 0.486107
0.667277 0.988388 0.574945
0.772808 0.982818 0.663767
0.878355 0.977234 0.75259
0.983886 0.971649 0.841413
1 0.966079 0.930236
0 0.271412 0.558099
0 0.265827 0.646906
0 0.260243 0.735729
0 0.254673 0.824567
0 0.249088 0.91339
0 0.243503 1
0 0.237934 1
0.0234226 0.232349 1
0.128954 0.22678 1
0 0.368048 0.524514
0 0.362478 0.613321
0 0.356893 0.702159
0 0.351308 0.790982
0 0.345739 0.879805
0 0.340154 0.968627
0.0267643 0.334569 1
0.132296 0.329 1
0.237827 0.323415 1
0 0.464698 0.490929
0 0.459129 0.579736
0 0.453544 0.668574
0 0.447974 0.757397
0 0.44239 0.84622
0.0301061 0.436805 0.935042
0.135637 0.431235 1
0.241169 0.42565 1
0.346716 0.420066 1
0 0.561364 0.457343
0 0.555779 0.546151
0 0.55021 0.634989
0 0.544625 0.723812
0.033463 0.53904 0.812634
0.138994 0.533471 0.901457
0.244526 0.527886 0.99028
0.350057 0.522301 1
0.455589 0.516732 1
0 0.658015 0.423758
0 0.65243 0.512566
0 0.64686 0.601389
0.0368048 0.641276 0.690227
0.142336 0.635691 0.779049
0.247883 0.630121 0.867872
0.353414 0.624537 0.956695
0.458946 0.618967 1
0.564477 0.613382 1
0 0.754665 0.390173
0 0.749096 0.478981
0.0401617 0.743511 0.567803
0.145693 0.737926 0.656641
0.251225 0.732357 0.745464
0.356756 0.726772 0.834287
0.462287 0.721187 0.92311
0.567819 0.715618 1
0.67335 0.710033 1
0 0.851331 0.356588
0.0435187 0.845747 0.445396
0.14905 0.840162 0.534218
0.254582 0.834592 0.623041
0.360113 0.829007 0.711879
0.465644 0.823423 0.800702
0.571176 0.817853 0.889525
0.676707 0.812268 0.978347
0.782238 0.806683 1
0.0468757 0.947982 0.323003
0.152392 0.942397 0.41181
0.257923 0.936828 0.500633
0.363455 0.931243 0.589456
0.468986 0.925658 0.678294
0.574517 0.920089 0.767117
0.680049 0.914504 0.85594
0.78558 0.908919 0.944762
0.891112 0.903349 1
0.155749 1 0.289418
0.26128 1 0.378225
0.366812 1 0.467048
0.472343 1 0.555871
0.577874 1 0.644709
0.683406 1 0.733532
0.788937 1 0.822354
0.894469 1 0.911177
1 1 1
