public/LUTS/Color Shift/ColorShift_52.cube
TITLE "Generated by Resolve"
LUT_3D_SIZE 33
0 0 0
0 0.0203098 0
0 0.0406348 0
0 0.0609598 0
0 0.0813001 0
0 0.101625 0
0 0.12195 0
0 0.142275 0
0 0.1626 0
0 0.182925 0
0 0.20325 0
0 0.223575 0
0 0.2439 0
0 0.264225 0
0 0.28455 0
0 0.304875 0
0 0.3252 0
0 0.345525 0
0 0.36585 0
0 0.386175 0
0 0.4065 0
0 0.426825 0
0 0.44715 0
0 0.467475 0
0 0.4878 0
0 0.508125 0
0 0.52845 0
0 0.548791 0
0 0.569116 0
0 0.589441 0
0 0.609766 0
0 0.630091 0
0 0.650416 0
0.0392157 0.0103304 0.0710765
0.00306706 0.0306554 0.0702831
0 0.0509804 0.0694896
0 0.0713054 0.0686961
0 0.0916304 0.0679026
0 0.111955 0.0671244
0 0.13228 0.066331
0 0.152605 0.0655375
0 0.17293 0.064744
0 0.193256 0.0639658
0 0.213581 0.0631723
0 0.233906 0.0623789
0 0.254231 0.0615854
0 0.274556 0.0607919
0 0.294881 0.0600137
0 0.315206 0.0592203
0 0.335531 0.0584268
0 0.355856 0.0576333
0 0.376181 0.0568399
0 0.396506 0.0560616
0 0.416831 0.0552682
0 0.437156 0.0544747
0 0.457481 0.0536812
0 0.477806 0.052903
0 0.498146 0.0521096
0 0.518471 0.0513161
0 0.538796 0.0505226
0 0.559121 0.0497292
0 0.579446 0.0489509
0 0.599771 0.0481575
0 0.620096 0.047364
0 0.640421 0.0465705
0 0.660746 0.0457771
0.0784619 0.020676 0.142168
0.0423133 0.0409857 0.14139
0.00614939 0.0613107 0.140597
0 0.0816358 0.139803
0 0.101961 0.13901
0 0.122286 0.138216
0 0.142611 0.137438
0 0.162936 0.136645
0 0.183261 0.135851
0 0.203586 0.135058
0 0.223911 0.134279
0 0.244236 0.133486
0 0.264561 0.132692
0 0.284886 0.131899
0 0.305226 0.131106
0 0.325551 0.130327
0 0.345876 0.129534
0 0.366201 0.12874
0 0.386526 0.127947
0 0.406851 0.127153
0 0.427176 0.126375
0 0.447501 0.125582
0 0.467826 0.124788
0 0.488151 0.123995
0 0.508476 0.123217
0 0.528801 0.122423
0 0.549126 0.12163
0 0.569451 0.120836
0 0.589776 0.120043
0 0.610101 0.119265
0 0.630426 0.118471
0 0.650752 0.117678
0 0.671077 0.116884
0.117693 0.0310063 0.213275
0.0815442 0.0513161 0.212482
0.0453803 0.0716411 0.211704
0.00921645 0.0919814 0.21091
0 0.112306 0.210117
0 0.132631 0.209323
0 0.152956 0.20853
0 0.173281 0.207752
0 0.193606 0.206958
0 0.213931 0.206165
0 0.234257 0.205371
0 0.254582 0.204593
0 0.274907 0.2038
0 0.295232 0.203006
0 0.315557 0.202213
0 0.335882 0.201419
0 0.356207 0.200641
0 0.376532 0.199847
0 0.396857 0.199054
0 0.417182 0.19826
0 0.437507 0.197482
0 0.457832 0.196689
0 0.478157 0.195895
0 0.498482 0.195102
0 0.518807 0.194308
0 0.539132 0.19353
0 0.559472 0.192737
0 0.579797 0.191943
0 0.600122 0.19115
0 0.620447 0.190356
0 0.640772 0.189578
0 0.661097 0.188785
0 0.681422 0.187991
0.156939 0.0413367 0.284382
0.12079 0.0616617 0.283589
0.0846265 0.0819867 0.282795
0.0484627 0.102312 0.282017
0.0122988 0.122637 0.281224
0 0.142962 0.28043
0 0.163287 0.279637
0 0.183612 0.278859
0 0.203937 0.278065
0 0.224262 0.277272
0 0.244587 0.276478
0 0.264912 0.275685
0 0.285237 0.274907
0 0.305562 0.274113
0 0.325887 0.27332
0 0.346212 0.272526
0 0.366552 0.271733
0 0.386877 0.270954
0 0.407202 0.270161
0 0.427527 0.269368
0 0.447852 0.268574
0 0.468177 0.267796
0 0.488502 0.267002
0 0.508827 0.266209
0 0.529152 0.265415
0 0.549477 0.264622
0 0.569802 0.263844
0 0.590127 0.26305
0 0.610452 0.262257
0 0.630777 0.261463
0 0.651102 0.26067
0 0.671427 0.259892
0 0.691752 0.259098
0.19617 0.0516823 0.355489
0.160021 0.0719921 0.354696
0.123857 0.0923171 0.353902
0.0876936 0.112642 0.353109
0.0515297 0.132967 0.352331
0.0153811 0.153307 0.351537
0 0.173632 0.350744
0 0.193957 0.34995
0 0.214282 0.349172
0 0.234607 0.348379
0 0.254932 0.347585
0 0.275257 0.346792
0 0.295583 0.345998
0 0.315908 0.34522
0 0.336233 0.344427
0 0.356558 0.343633
0 0.376883 0.34284
0 0.397208 0.342061
0 0.417533 0.341268
0 0.437858 0.340475
0 0.458183 0.339681
0 0.478508 0.338888
0 0.498833 0.338109
0 0.519158 0.337316
0 0.539483 0.336522
0 0.559808 0.335729
0 0.580133 0.334936
0 0.600458 0.334157
0 0.620798 0.333364
0 0.641123 0.33257
0 0.661448 0.331777
0 0.681773 0.330999
0 0.702098 0.330205
0.235401 0.0620127 0.426596
0.199268 0.0823377 0.425803
0.163104 0.102663 0.42501
0.12694 0.122988 0.424216
0.0907759 0.143313 0.423438
0.054612 0.163638 0.422644
0.0184482 0.183963 0.421851
0 0.204288 0.421057
0 0.224613 0.420264
0 0.244938 0.419486
0 0.265263 0.418692
0 0.285588 0.417899
0 0.305913 0.417105
0 0.326238 0.416312
0 0.346563 0.415534
0 0.366888 0.41474
0 0.387213 0.413947
0 0.407538 0.413153
0 0.427878 0.412375
0 0.448203 0.411582
0 0.468528 0.410788
0 0.488853 0.409995
0 0.509178 0.409201
0 0.529503 0.408423
0 0.549828 0.40763
0 0.570153 0.406836
0 0.590478 0.406043
0 0.610803 0.405249
0 0.631128 0.404471
0 0.651453 0.403677
0 0.671778 0.402884
0 0.692103 0.40209
0 0.712428 0.401312
0.274647 0.0723583 0.497688
0.238499 0.092668 0.49691
0.202335 0.112993 0.496117
0.166171 0.133318 0.495323
0.130007 0.153643 0.49453
0.093843 0.173968 0.493751
0.0576944 0.194293 0.492958
0.0215305 0.214633 0.492164
0 0.234958 0.491371
0 0.255283 0.490578
0 0.275608 0.489799
0 0.295933 0.489006
0 0.316258 0.488212
0 0.336583 0.487419
0 0.356909 0.486625
0 0.377234 0.485847
0 0.397559 0.485054
0 0.417884 0.48426
0 0.438209 0.483467
0 0.458534 0.482689
0 0.478859 0.481895
0 0.499184 0.481102
0 0.519509 0.480308
0 0.539834 0.479515
0 0.560159 0.478737
0 0.580484 0.477943
0 0.600809 0.47715
0 0.621134 0.476356
0 0.641459 0.475578
0 0.661784 0.474784
0 0.682109 0.473991
0 0.702449 0.473198
0 0.722774 0.472404
0.313878 0.0826886 0.568795
0.277745 0.103014 0.568002
0.241581 0.123339 0.567224
0.205417 0.143664 0.56643
0.169253 0.163989 0.565637
0.133089 0.184314 0.564843
0.0969253 0.204639 0.564065
0.0607614 0.224964 0.563272
0.0245975 0.245289 0.562478
0 0.265614 0.561685
0 0.285939 0.560891
0 0.306264 0.560113
0 0.326589 0.559319
0 0.346914 0.558526
0 0.367239 0.557733
0 0.387564 0.556954
0 0.407889 0.556161
0 0.428214 0.555367
0 0.448539 0.554574
0 0.468864 0.55378
0 0.489204 0.553002
0 0.509529 0.552209
0 0.529854 0.551415
0 0.550179 0.550622
0 0.570504 0.549828
0 0.590829 0.54905
0 0.611154 0.548257
0 0.631479 0.547463
0 0.651804 0.54667
0 0.672129 0.545892
0 0.692454 0.545098
0 0.712779 0.544305
0 0.733104 0.543511
0.353124 0.0930343 0.639902
0.316976 0.113344 0.639109
0.280812 0.133669 0.638331
0.244648 0.153994 0.637537
0.208484 0.174319 0.636744
0.17232 0.194644 0.63595
0.136156 0.214969 0.635157
0.100008 0.235294 0.634379
0.0638437 0.255619 0.633585
0.0276799 0.275944 0.632792
0 0.296284 0.631998
0 0.316609 0.631205
0 0.336934 0.630426
0 0.357259 0.629633
0 0.377584 0.62884
0 0.39791 0.628046
0 0.418235 0.627268
0 0.43856 0.626474
0 0.458885 0.625681
0 0.47921 0.624887
0 0.499535 0.624094
0 0.51986 0.623316
0 0.540185 0.622522
0 0.56051 0.621729
0 0.580835 0.620935
0 0.60116 0.620142
0 0.621485 0.619364
0 0.64181 0.61857
0 0.662135 0.617777
0 0.68246 0.616983
0 0.702785 0.616205
0 0.72311 0.615412
0 0.743435 0.614618
0.392355 0.103365 0.711009
0.356207 0.12369 0.710216
0.320058 0.144015 0.709422
0.283894 0.16434 0.708644
0.24773 0.184665 0.707851
0.211566 0.20499 0.707057
0.175402 0.225315 0.706264
0.139239 0.24564 0.70547
0.103075 0.265965 0.704692
0.0669108 0.28629 0.703899
0.0307469 0.306615 0.703105
0 0.32694 0.702312
0 0.347265 0.701518
0 0.36759 0.70074
0 0.387915 0.699947
0 0.40824 0.699153
0 0.428565 0.69836
0 0.44889 0.697581
0 0.469215 0.696788
0 0.48954 0.695994
0 0.509865 0.695201
0 0.53019 0.694408
0 0.55053 0.693629
0 0.570855 0.692836
0 0.59118 0.692042
0 0.611505 0.691249
0 0.63183 0.690471
0 0.652155 0.689677
0 0.67248 0.688884
0 0.692805 0.68809
0 0.71313 0.687297
0 0.733455 0.686519
0 0.75378 0.685725
0.431601 0.11371 0.782116
0.395453 0.13402 0.781323
0.359289 0.154345 0.780529
0.323125 0.17467 0.779736
0.286961 0.194995 0.778958
0.250797 0.21532 0.778164
0.214633 0.235645 0.777371
0.17847 0.25597 0.776577
0.142321 0.276295 0.775784
0.106157 0.29662 0.775006
0.0699931 0.316945 0.774212
0.0338293 0.33727 0.773419
0 0.35761 0.772625
0 0.377935 0.771847
0 0.39826 0.771054
0 0.418585 0.77026
0 0.438911 0.769467
0 0.459236 0.768673
0 0.479561 0.767895
0 0.499886 0.767102
0 0.520211 0.766308
0 0.540536 0.765515
0 0.560861 0.764721
0 0.581186 0.763943
0 0.601511 0.763149
0 0.621836 0.762356
0 0.642161 0.761563
0 0.662486 0.760784
0 0.682811 0.759991
0 0.703136 0.759197
0 0.723461 0.758404
0 0.743786 0.75761
0 0.764111 0.756832
0.470832 0.124041 0.853223
0.434684 0.144366 0.85243
0.39852 0.164691 0.851637
0.362371 0.185016 0.850843
0.326207 0.205341 0.85005
0.290044 0.225666 0.849271
0.25388 0.245991 0.848478
0.217716 0.266316 0.847684
0.181552 0.286641 0.846891
0.145388 0.306966 0.846098
0.109224 0.327291 0.845319
0.0730602 0.347616 0.844526
0.0368963 0.367941 0.843732
0.000732433 0.388266 0.842939
0 0.408591 0.842161
0 0.428916 0.841367
0 0.449241 0.840574
0 0.469566 0.83978
0 0.489891 0.838987
0 0.510216 0.838209
0 0.530541 0.837415
0 0.550866 0.836622
0 0.571191 0.835828
0 0.591516 0.83505
0 0.611856 0.834257
0 0.632181 0.833463
0 0.652506 0.83267
0 0.672831 0.831876
0 0.693156 0.831098
0 0.713481 0.830304
0 0.733806 0.829511
0 0.754131 0.828717
0 0.774456 0.827924
0.510079 0.134386 0.924315
0.47393 0.154696 0.923537
0.437766 0.175021 0.922744
0.401602 0.195346 0.92195
0.365438 0.215671 0.921157
0.329274 0.235996 0.920363
0.293111 0.256321 0.919585
0.256947 0.276646 0.918791
0.220783 0.296971 0.917998
0.184619 0.317296 0.917205
0.14847 0.337621 0.916426
0.112306 0.357946 0.915633
0.0761425 0.378271 0.914839
0.0399786 0.398596 0.914046
0.00381476 0.418936 0.913252
0 0.439261 0.912474
0 0.459586 0.911681
0 0.479912 0.910887
0 0.500237 0.910094
0 0.520562 0.9093
0 0.540887 0.908522
0 0.561212 0.907729
0 0.581537 0.906935
0 0.601862 0.906142
0 0.622187 0.905364
0 0.642512 0.90457
0 0.662837 0.903777
0 0.683162 0.902983
0 0.703487 0.90219
0 0.723812 0.901411
0 0.744137 0.900618
0 0.764462 0.899825
0 0.784787 0.899031
0.54931 0.144717 0.995422
0.513161 0.165026 0.994629
0.476997 0.185351 0.993851
0.440833 0.205692 0.993057
0.404685 0.226017 0.992264
0.368521 0.246342 0.99147
0.332357 0.266667 0.990677
0.296193 0.286992 0.989899
0.260029 0.307317 0.989105
0.223865 0.327642 0.988312
0.187701 0.347967 0.987518
0.151537 0.368292 0.98674
0.115373 0.388617 0.985946
0.0792096 0.408942 0.985153
0.0430457 0.429267 0.98436
0.00688182 0.449592 0.983566
0 0.469917 0.982788
0 0.490242 0.981994
0 0.510567 0.981201
0 0.530892 0.980407
0 0.551217 0.979614
0 0.571542 0.978836
0 0.591867 0.978042
0 0.612192 0.977249
0 0.632517 0.976455
0 0.652842 0.975677
0 0.673182 0.974884
0 0.693507 0.97409
0 0.713832 0.973297
0 0.734157 0.972503
0 0.754482 0.971725
0 0.774807 0.970932
0 0.795132 0.970138
0.58854 0.155047 1
0.552407 0.175372 1
0.516243 0.195697 1
0.480079 0.216022 1
0.443915 0.236347 1
0.407752 0.256672 1
0.371588 0.276997 1
0.335424 0.297322 1
0.29926 0.317647 1
0.263096 0.337972 1
0.226932 0.358297 1
0.190784 0.378622 1
0.15462 0.398947 1
0.118456 0.419272 1
0.0822919 0.439597 1
0.046128 0.459922 1
0.00996414 0.480262 1
0 0.500587 1
0 0.520912 1
0 0.541238 1
0 0.561563 1
0 0.581888 1
0 0.602213 1
0 0.622538 1
0 0.642863 1
0 0.663188 1
0 0.683513 1
0 0.703838 1
0 0.724163 1
0 0.744488 1
0 0.764813 1
0 0.785138 1
0 0.805463 1
0.627787 0.165393 1
0.591638 0.185702 1
0.555474 0.206027 1
0.51931 0.226352 1
0.483146 0.246677 1
0.446998 0.267002 1
0.410834 0.287343 1
0.37467 0.307668 1
0.338506 0.327993 1
0.302342 0.348318 1
0.266178 0.368643 1
0.230015 0.388968 1
0.193851 0.409293 1
0.157687 0.429618 1
0.121523 0.449943 1
0.085359 0.470268 1
0.0491951 0.490593 1
0.0130465 0.510918 1
0 0.531243 1
0 0.551568 1
0 0.571893 1
0 0.592218 1
0 0.612543 1
0 0.632868 1
0 0.653193 1
0 0.673518 1
0 0.693843 1
0 0.714168 1
0 0.734508 1
0 0.754833 1
0 0.775158 1
0 0.795483 1
0 0.815808 1
0.667018 0.175723 1
0.630884 0.196048 1
0.59472 0.216373 1
0.558556 0.236698 1
0.522393 0.257023 1
0.486229 0.277348 1
0.450065 0.297673 1
0.413901 0.317998 1
0.377737 0.338323 1
0.341573 0.358648 1
0.305409 0.378973 1
0.269245 0.399298 1
0.233097 0.419623 1
0.196933 0.439948 1
0.160769 0.460273 1
0.124605 0.480598 1
0.0884413 0.500923 1
0.0522774 0.521248 1
0.0161135 0.541588 1
0 0.561913 1
0 0.582238 1
0 0.602564 1
0 0.622889 1
0 0.643214 1
0 0.663539 1
0 0.683864 1
0 0.704189 1
0 0.724514 1
0 0.744839 1
0 0.765164 1
0 0.785489 1
0 0.805814 1
0 0.826139 1
0.706264 0.186069 1
0.670115 0.206378 1
0.633951 0.226703 1
0.597787 0.247028 1
0.561624 0.267353 1
0.52546 0.287678 1
0.489296 0.308003 1
0.453147 0.328328 1
0.416983 0.348669 1
0.380819 0.368994 1
0.344656 0.389319 1
0.308492 0.409644 1
0.272328 0.429969 1
0.236164 0.450294 1
0.2 0.470619 1
0.163836 0.490944 1
0.127672 0.511269 1
0.0915084 0.531594 1
0.0553445 0.551919 1
0.0191958 0.572244 1
0 0.592569 1
0 0.612894 1
0 0.633219 1
0 0.653544 1
0 0.673869 1
0 0.694194 1
0 0.714519 1
0 0.734844 1
0 0.755169 1
0 0.775494 1
0 0.795819 1
0 0.816159 1
0 0.836484 1
0.745495 0.196399 1
0.709361 0.216724 1
0.673198 0.237049 1
0.637034 0.257374 1
0.60087 0.277699 1
0.564706 0.298024 1
0.528542 0.318349 1
0.492378 0.338674 1
0.456214 0.358999 1
0.42005 0.379324 1
0.383886 0.399649 1
0.347723 0.419974 1
0.311559 0.440299 1
0.27541 0.460624 1
0.239246 0.480949 1
0.203082 0.501274 1
0.166918 0.521599 1
0.130755 0.541924 1
0.0945907 0.562249 1
0.0584268 0.582574 1
0.0222629 0.602914 1
0 0.62324 1
0 0.643565 1
0 0.66389 1
0 0.684215 1
0 0.70454 1
0 0.724865 1
0 0.74519 1
0 0.765515 1
0 0.78584 1
0 0.806165 1
0 0.82649 1
0 0.846815 1
0.784741 0.206744 1
0.748592 0.227054 1
0.712428 0.247379 1
0.676265 0.267704 1
0.640101 0.288029 1
0.603937 0.308354 1
0.567773 0.328679 1
0.531609 0.349004 1
0.49546 0.369329 1
0.459297 0.389654 1
0.423133 0.409995 1
0.386969 0.43032 1
0.350805 0.450645 1
0.314641 0.47097 1
0.278477 0.491295 1
0.242313 0.51162 1
0.206149 0.531945 1
0.169986 0.55227 1
0.133822 0.572595 1
0.0976577 0.59292 1
0.0615091 0.613245 1
0.0253452 0.63357 1
0 0.653895 1
0 0.67422 1
0 0.694545 1
0 0.71487 1
0 0.735195 1
0 0.75552 1
0 0.775845 1
0 0.79617 1
0 0.816495 1
0 0.83682 1
0 0.857145 1
0.823972 0.217075 1
0.787823 0.2374 1
0.751675 0.257725 1
0.715511 0.27805 1
0.679347 0.298375 1
0.643183 0.3187 1
0.607019 0.339025 1
0.570855 0.35935 1
0.534691 0.379675 1
0.498527 0.4 1
0.462364 0.420325 1
0.4262 0.44065 1
0.390036 0.460975 1
0.353872 0.4813 1
0.317708 0.501625 1
0.281559 0.52195 1
0.245396 0.542275 1
0.209232 0.5626 1
0.173068 0.582925 1
0.136904 0.60325 1
0.10074 0.623575 1
0.0645762 0.6439 1
0.0284123 0.66424 1
0 0.684565 1
0 0.70489 1
0 0.725216 1
0 0.745541 1
0 0.765866 1
0 0.786191 1
0 0.806516 1
0 0.826841 1
0 0.847166 1
0 0.867491 1
0.863218 0.22742 1
0.82707 0.24773 1
0.790906 0.268055 1
0.754742 0.28838 1
0.718578 0.308705 1
0.682414 0.32903 1
0.64625 0.349355 1
0.610086 0.36968 1
0.573922 0.390005 1
0.537774 0.41033 1
0.50161 0.430655 1
0.465446 0.45098 1
0.429282 0.471321 1
0.393118 0.491646 1
0.356954 0.511971 1
0.32079 0.532296 1
0.284627 0.552621 1
0.248463 0.572946 1
0.212299 0.593271 1
0.176135 0.613596 1
0.139971 0.633921 1
0.103822 0.654246 1
0.0676585 0.674571 1
0.0314946 0.694896 1
0 0.715221 1
0 0.735546 1
0 0.755871 1
0 0.776196 1
0 0.796521 1
0 0.816846 1
0 0.837171 1
0 0.857496 1
0 0.877821 1
0.902449 0.237751 1
0.8663 0.258076 1
0.830137 0.278401 1
0.793973 0.298726 1
0.757824 0.319051 1
0.72166 0.339376 1
0.685496 0.359701 1
0.649332 0.380026 1
0.613169 0.400351 1
0.577005 0.420676 1
0.540841 0.441001 1
0.504677 0.461326 1
0.468513 0.481651 1
0.432349 0.501976 1
0.396185 0.522301 1
0.360021 0.542626 1
0.323873 0.562951 1
0.287709 0.583276 1
0.251545 0.603601 1
0.215381 0.623926 1
0.179217 0.644251 1
0.143053 0.664576 1
0.106889 0.684901 1
0.0707256 0.705226 1
0.0345617 0.725551 1
0 0.745892 1
0 0.766217 1
0 0.786542 1
0 0.806867 1
0 0.827192 1
0 0.847517 1
0 0.867842 1
0 0.888167 1
0.941695 0.248096 1
0.905547 0.268406 1
0.869383 0.288731 1
0.833219 0.309056 1
0.797055 0.329381 1
0.760891 0.349706 1
0.724727 0.370031 1
0.688563 0.390356 1
0.652399 0.410681 1
0.616236 0.431006 1
0.580087 0.451331 1
0.543923 0.471656 1
0.507759 0.491981 1
0.471595 0.512306 1
0.435431 0.532647 1
0.399268 0.552972 1
0.363104 0.573297 1
0.32694 0.593622 1
0.290776 0.613947 1
0.254612 0.634272 1
0.218448 0.654597 1
0.182284 0.674922 1
0.146136 0.695247 1
0.109972 0.715572 1
0.0738079 0.735897 1
0.037644 0.756222 1
0.00148013 0.776547 1
0 0.796872 1
0 0.817197 1
0 0.837522 1
0 0.857847 1
0 0.878172 1
0 0.898497 1
0.980926 0.258427 1
0.944778 0.278737 1
0.908614 0.299062 1
0.87245 0.319387 1
0.836286 0.339727 1
0.800137 0.360052 1
0.763973 0.380377 1
0.72781 0.400702 1
0.691646 0.421027 1
0.655482 0.441352 1
0.619318 0.461677 1
0.583154 0.482002 1
0.54699 0.502327 1
0.510826 0.522652 1
0.474662 0.542977 1
0.438499 0.563302 1
0.402335 0.583627 1
0.366186 0.603952 1
0.330022 0.624277 1
0.293858 0.644602 1
0.257694 0.664927 1
0.22153 0.685252 1
0.185367 0.705577 1
0.149203 0.725902 1
0.113039 0.746227 1
0.0768749 0.766552 1
0.0407111 0.786892 1
0.00454719 0.807218 1
0 0.827543 1
0 0.847868 1
0 0.868193 1
0 0.888518 1
0 0.908843 1
1 0.268757 1
0.984024 0.289082 1
0.94786 0.309407 1
0.911696 0.329732 1
0.875532 0.350057 1
0.839368 0.370382 1
0.803204 0.390707 1
0.76704 0.411032 1
0.730877 0.431357 1
0.694713 0.451682 1
0.658549 0.472007 1
0.622385 0.492332 1
0.586236 0.512657 1
0.550072 0.532982 1
0.513909 0.553307 1
0.477745 0.573632 1
0.441581 0.593973 1
0.405417 0.614298 1
0.369253 0.634623 1
0.333089 0.654948 1
0.296925 0.675273 1
0.260761 0.695598 1
0.224598 0.715923 1
0.188434 0.736248 1
0.152285 0.756573 1
0.116121 0.776898 1
0.0799573 0.797223 1
0.0437934 0.817548 1
0.00762951 0.837873 1
0 0.858198 1
0 0.878523 1
0 0.898848 1
0 0.919173 1
1 0.279103 1
1 0.299413 1
0.987091 0.319738 1
0.950927 0.340063 1
0.914763 0.360388 1
0.878599 0.380713 1
0.842451 0.401053 1
0.806287 0.421378 1
0.770123 0.441703 1
