public/LUTS/Color Shift/ColorShift_01.cube
TITLE "Generated by Resolve"
LUT_3D_SIZE 9
0 0 0
0 0.0537118 0.0463874
0 0.107439 0.0927901
0 0.161166 0.139178
0 0.214878 0.18558
0 0.268605 0.231968
0 0.322332 0.27837
0 0.376043 0.324758
0 0.42977 0.37116
0.169162 0.0510719 0.180209
0.0952163 0.104784 0.226596
0.0212558 0.158511 0.272999
0 0.212222 0.319387
0 0.265949 0.365789
0 0.319677 0.412177
0 0.373404 0.458579
0 0.427115 0.504967
0 0.480842 0.551369
0.338338 0.102144 0.360449
0.264393 0.155856 0.406836
0.190433 0.209583 0.453239
0.116487 0.26331 0.499626
0.0425269 0.317021 0.546029
0 0.370748 0.592416
0 0.424475 0.638819
0 0.478187 0.685206
0 0.531914 0.731609
0.507515 0.153216 0.540688
0.43357 0.206928 0.587076
0.359609 0.260655 0.633478
0.285664 0.314382 0.679866
0.211704 0.368109 0.726268
0.137758 0.42182 0.772656
0.063798 0.475547 0.819059
0 0.529274 0.865446
0 0.582986 0.911849
0.676692 0.204288 0.720928
0.602747 0.258015 0.767315
0.528801 0.311727 0.813703
0.454841 0.365454 0.860105
0.38088 0.419181 0.906493
0.306935 0.472892 0.952895
0.232975 0.526619 0.999283
0.159014 0.580346 1
0.085069 0.634073 1
0.845869 0.255375 0.901167
0.771923 0.309087 0.947555
0.697978 0.362814 0.993942
0.624018 0.416526 1
0.550057 0.470253 1
0.476112 0.52398 1
0.402152 0.577691 1
0.328206 0.631418 1
0.254246 0.685145 1
1 0.306447 1
0.9411 0.360159 1
0.867155 0.413886 1
0.793194 0.467597 1
0.719249 0.521324 1
0.645289 0.575051 1
0.571328 0.628779 1
0.497383 0.68249 1
0.423423 0.736217 1
1 0.357519 1
1 0.411231 1
1 0.464958 1
0.962371 0.518685 1
0.888426 0.572396 1
0.814466 0.626123 1
0.740505 0.67985 1
0.66656 0.733562 1
0.592599 0.787289 1
1 0.408591 1
1 0.462303 1
1 0.51603 1
1 0.569757 1
1 0.623484 1
0.983642 0.677195 1
0.909697 0.730922 1
0.835737 0.784649 1
0.761776 0.838361 1
0.0297704 0.0202029 0
0 0.0739147 0
0 0.127642 0
0 0.181369 0.0375677
0 0.23508 0.0839551
0 0.288808 0.130358
0 0.342535 0.176745
0 0.396246 0.223148
0 0.449973 0.269535
0.198932 0.0712749 0.0785992
0.124987 0.124987 0.124987
0.0510262 0.178714 0.171374
0 0.232425 0.217777
0 0.286152 0.264164
0 0.339879 0.310567
0 0.393591 0.356954
0 0.447318 0.403357
0 0.501045 0.449744
0.368109 0.122347 0.258839
0.294163 0.176059 0.305226
0.220218 0.229786 0.351614
0.146258 0.283513 0.398016
0.0722972 0.337224 0.444404
0 0.390951 0.490806
0 0.444678 0.537194
0 0.49839 0.583597
0 0.552117 0.629984
0.537285 0.173419 0.439063
0.46334 0.227131 0.485466
0.389395 0.280858 0.531853
0.315435 0.334585 0.578256
0.241474 0.388296 0.624643
0.167529 0.442023 0.671046
0.0935683 0.49575 0.717433
0.0196231 0.549477 0.763836
0 0.603189 0.810224
0.706462 0.224491 0.619303
0.632517 0.278218 0.66569
0.558572 0.33193 0.712093
0.484611 0.385657 0.75848
0.410666 0.439384 0.804883
0.336706 0.493095 0.85127
0.262745 0.546822 0.897673
0.1888 0.600549 0.94406
0.114839 0.654261 0.990463
0.875654 0.275578 0.799542
0.801709 0.32929 0.84593
0.727749 0.383017 0.892332
0.653788 0.436728 0.93872
0.579843 0.490455 0.985122
0.505882 0.544182 1
0.431922 0.597894 1
0.357977 0.651621 1
0.284016 0.705348 1
1 0.32665 0.979782
0.970886 0.380362 1
0.896925 0.434089 1
0.822965 0.4878 1
0.74902 0.541527 1
0.675059 0.595254 1
0.601114 0.648966 1
0.527153 0.702693 1
0.453193 0.75642 1
1 0.377722 1
1 0.431434 1
1 0.485161 1
0.992157 0.538888 1
0.918196 0.592599 1
0.844236 0.646326 1
0.770291 0.700053 1
0.69633 0.753765 1
0.622385 0.807492 1
1 0.428794 1
1 0.482506 1
1 0.536233 1
1 0.58996 1
1 0.643687 1
1 0.697398 1
0.939467 0.751125 1
0.865507 0.804852 1
0.791562 0.858564 1
0.059556 0.0404059 0
0 0.0941176 0
0 0.147845 0
0 0.201572 0
0 0.255283 0
0 0.30901 0.0287175
0 0.362737 0.0751202
0 0.416449 0.121508
0 0.470176 0.16791
0.228702 0.0914778 0
0.154757 0.14519 0.0233616
0.0808118 0.198917 0.069749
0.0068513 0.252628 0.116152
0 0.306355 0.162539
0 0.360082 0.208942
0 0.413809 0.255329
0 0.467521 0.301732
0 0.521248 0.348119
0.397894 0.14255 0.157198
0.323949 0.196262 0.203601
0.249989 0.249989 0.249989
0.176028 0.303716 0.296376
0.102083 0.357427 0.342779
0.0281224 0.411154 0.389166
0 0.464881 0.435569
0 0.518593 0.481956
0 0.57232 0.528359
0.567071 0.193622 0.337438
0.493126 0.247349 0.383825
0.419165 0.30106 0.430228
0.34522 0.354788 0.476616
0.27126 0.408515 0.523018
0.197299 0.462226 0.569406
0.123354 0.515953 0.615808
0.0493935 0.56968 0.662196
0 0.623392 0.708598
0.736248 0.244694 0.517678
0.662303 0.298421 0.564065
0.588342 0.352132 0.610468
0.514397 0.405859 0.656855
0.440436 0.459586 0.703258
0.366476 0.513298 0.749645
0.292531 0.567025 0.796048
0.21857 0.620752 0.842435
0.144625 0.674479 0.888838
0.905425 0.295781 0.697917
0.831479 0.349493 0.744305
0.757519 0.40322 0.790692
0.683574 0.456931 0.837095
0.609613 0.510658 0.883482
0.535668 0.564385 0.929885
0.461707 0.618097 0.976272
0.387747 0.671824 1
0.313802 0.725551 1
1 0.346853 0.878157
1 0.400565 0.924544
0.926711 0.454292 0.970932
0.85275 0.508019 1
0.77879 0.56173 1
0.704845 0.615457 1
0.630884 0.669184 1
0.556924 0.722896 1
0.482979 0.776623 1
1 0.397925 1
1 0.451637 1
1 0.505364 1
1 0.559091 1
0.947967 0.612802 1
0.874022 0.666529 1
0.800061 0.720256 1
0.726116 0.773968 1
0.652155 0.827695 1
1 0.448997 1
1 0.502724 1
1 0.556435 1
1 0.610162 1
1 0.66389 1
1 0.717601 1
0.969238 0.771328 1
0.895293 0.825055 1
0.821332 0.878767 1
0.0893263 0.0606088 0
0.0153811 0.114321 0
0 0.168048 0
0 0.221775 0
0 0.275502 0
0 0.329213 0
0 0.38294 0
0 0.436667 0.0198825
0 0.490379 0.0662852
0.258488 0.111681 0
0.184543 0.165393 0
0.110582 0.21912 0
0.0366369 0.272847 0.0145113
0 0.326558 0.060914
0 0.380285 0.107301
0 0.434012 0.153704
0 0.487724 0.200092
0 0.541451 0.246494
0.427665 0.162753 0.0555734
0.353719 0.216464 0.101961
0.279759 0.270191 0.148363
0.205814 0.323919 0.194751
0.131853 0.37763 0.241154
0.057908 0.431357 0.287541
0 0.485084 0.333944
0 0.538811 0.380331
0 0.592523 0.426734
0.596841 0.213825 0.235813
0.522896 0.267552 0.2822
0.448951 0.321263 0.328603
0.37499 0.37499 0.37499
0.30103 0.428717 0.421378
0.227085 0.482429 0.467781
0.153124 0.536156 0.514168
0.0791791 0.589883 0.560571
0.00521859 0.643595 0.606958
0.766018 0.264912 0.416052
0.692073 0.318624 0.46244
0.618128 0.372351 0.508827
0.544167 0.426062 0.55523
0.470222 0.479789 0.601617
0.396262 0.533516 0.64802
0.322301 0.587228 0.694408
0.248356 0.640955 0.74081
0.174395 0.694682 0.787198
0.93521 0.315984 0.596277
0.86125 0.369696 0.64268
0.787305 0.423423 0.689067
0.713344 0.477134 0.73547
0.639399 0.530861 0.781857
0.565438 0.584588 0.82826
0.491478 0.6383 0.874647
0.417533 0.692027 0.92105
0.343572 0.745754 0.967437
1 0.367056 0.776516
1 0.420768 0.822904
0.956481 0.474495 0.869307
0.882521 0.528222 0.915694
0.808576 0.581933 0.962097
0.734615 0.63566 1
0.66067 0.689387 1
0.586709 0.743099 1
0.512749 0.796826 1
1 0.418128 0.956756
1 0.471839 1
1 0.525567 1
1 0.579293 1
0.977752 0.633021 1
0.903792 0.686732 1
0.829847 0.740459 1
0.755886 0.794186 1
0.681926 0.847898 1
1 0.4692 1
1 0.522927 1
1 0.576638 1
1 0.630365 1
1 0.684092 1
1 0.737804 1
0.999023 0.791531 1
0.925063 0.845258 1
0.851118 0.89897 1
0.119112 0.0808118 0
0.0451667 0.134539 0
0 0.188251 0
0 0.241978 0
0 0.295705 0
0 0.349416 0
0 0.403143 0
0 0.45687 0
0 0.510582 0
0.288258 0.131884 0
0.214313 0.185595 0
0.140368 0.239322 0
0.0664073 0.29305 0
0 0.346761 0
0 0.400488 0.00567636
0 0.454215 0.052079
0 0.507927 0.0984665
0 0.561654 0.144869
0.45745 0.182956 0
0.383505 0.236683 0.000335698
0.309545 0.290394 0.0467231
0.235584 0.344121 0.0931258
0.161639 0.397848 0.139513
0.0876783 0.45156 0.185916
0.0137331 0.505287 0.232303
0 0.559014 0.278706
0 0.612726 0.325093
0.626627 0.234028 0.134188
0.552682 0.287755 0.180575
0.478721 0.341466 0.226963
0.404761 0.395193 0.273365
0.330816 0.44892 0.319753
0.256855 0.502632 0.366155
0.18291 0.556359 0.412543
0.108949 0.610086 0.458946
0.0349889 0.663813 0.505333
0.795804 0.285115 0.314412
0.721859 0.338827 0.360815
0.647898 0.392554 0.407202
0.573953 0.446265 0.453605
0.499992 0.499992 0.499992
0.426032 0.553719 0.54638
0.352087 0.607431 0.592782
0.278126 0.661158 0.63917
0.204181 0.714885 0.685573
0.964981 0.336187 0.494652
0.891035 0.389899 0.541039
0.817075 0.443626 0.587442
0.74313 0.497353 0.633829
0.669169 0.551064 0.680232
0.595224 0.604791 0.726619
0.521263 0.658518 0.773022
0.447303 0.71223 0.819409
0.373358 0.765957 0.865812
1 0.387259 0.674891
1 0.44097 0.721279
0.986252 0.494697 0.767681
0.912306 0.548424 0.814069
0.838346 0.602136 0.860471
0.764401 0.655863 0.906859
0.69044 0.70959 0.953262
0.61648 0.763302 0.999649
0.542535 0.817029 1
1 0.438331 0.855131
1 0.492058 0.901518
1 0.545769 0.947906
1 0.599496 0.994308
1 0.653223 1
0.933577 0.706935 1
0.859617 0.760662 1
0.785672 0.814389 1
0.711711 0.868101 1
1 0.489403 1
1 0.54313 1
1 0.596841 1
1 0.650568 1
1 0.704295 1
1 0.758022 1
1 0.811734 1
0.954849 0.865461 1
0.880888 0.919188 1
0.148882 0.101015 0
0.0749371 0.154742 0
0.000991836 0.208453 0
0 0.262181 0
0 0.315908 0
0 0.369619 0
0 0.423346 0
0 0.477073 0
0 0.530785 0
0.318044 0.152087 0
0.244099 0.205798 0
0.170138 0.259525 0
0.0961929 0.313252 0
0.0222324 0.366964 0
0 0.420691 0
0 0.474418 0
0 0.528145 0
0 0.581857 0.0432288
0.487221 0.203159 0
0.413275 0.256886 0
0.339315 0.310597 0
0.26537 0.364324 0
0.191409 0.418051 0.0378882
0.117464 0.471763 0.0842908
0.0435035 0.52549 0.130678
0 0.579217 0.177081
0 0.632929 0.223468
0.656397 0.254246 0.0325475
0.582452 0.307958 0.0789349
0.508507 0.361685 0.125338
0.434546 0.415396 0.171725
0.360586 0.469123 0.218128
0.286641 0.52285 0.264515
0.21268 0.576562 0.310918
0.138735 0.630289 0.357305
0.0647746 0.684016 0.403708
0.825574 0.305318 0.212787
0.751629 0.35903 0.259174
0.677684 0.412757 0.305577
0.603723 0.466468 0.351965
0.529763 0.520195 0.398367
0.455817 0.573922 0.444755
0.381857 0.627634 0.491157
0.307912 0.681361 0.537545
0.233951 0.735088 0.583947
0.994751 0.35639 0.393027
0.920806 0.410101 0.439414
0.84686 0.463828 0.485817
0.7729 0.517555 0.532204
0.698955 0.571267 0.578607
0.624994 0.624994 0.624994
0.551034 0.678721 0.671382
0.477089 0.732433 0.717784
0.403128 0.78616 0.764172
1 0.407462 0.573266
1 0.461173 0.619654
1 0.5149 0.666041
0.942077 0.568627 0.712444
0.868132 0.622354 0.758831
0.794171 0.676066 0.805234
0.720226 0.729793 0.851621
0.646265 0.78352 0.898024
0.572305 0.837232 0.944411
1 0.458534 0.753506
1 0.512261 0.799893
1 0.565972 0.846281
1 0.619699 0.892683
1 0.673426 0.939071
0.963348 0.727138 0.985473
0.889403 0.780865 1
0.815442 0.834592 1
0.741482 0.888304 1
1 0.509621 0.93373
1 0.563333 0.980117
1 0.61706 1
1 0.670771 1
1 0.724498 1
1 0.778225 1
1 0.831937 1
0.984619 0.885664 1
0.910674 0.939391 1
0.178668 0.121218 0
0.104723 0.174945 0
0.0307622 0.228656 0
0 0.282383 0
0 0.33611 0
0 0.389838 0
0 0.443549 0
0 0.497276 0
0 0.551003 0
0.347814 0.17229 0
0.273869 0.226017 0
0.199924 0.279728 0
0.125963 0.333455 0
0.052018 0.387182 0
0 0.440894 0
0 0.494621 0
0 0.548348 0
0 0.60206 0
0.517006 0.223362 0
0.443061 0.277089 0
0.3691 0.3308 0
0.29514 0.384527 0
0.221195 0.438254 0
0.147234 0.491966 0
0.0732738 0.545693 0.0290532
0 0.59942 0.0754406
0 0.653147 0.121843
0.686183 0.274449 0
0.612238 0.328161 0
0.538277 0.381888 0.0237125
0.464317 0.435599 0.0700999
0.390372 0.489326 0.116503
0.316411 0.543053 0.16289
0.242466 0.596765 0.209293
0.168505 0.650492 0.25568
0.0945449 0.704219 0.302083
0.85536 0.325521 0.111162
0.781415 0.379232 0.157549
0.707454 0.432959 0.203937
0.633509 0.486686 0.25034
0.559548 0.540398 0.296727
0.485588 0.594125 0.34313
0.411643 0.647852 0.389517
0.337682 0.701564 0.43592
0.263737 0.755291 0.482307
1 0.376593 0.291402
0.950591 0.430304 0.337789
0.876631 0.484031 0.384176
0.802686 0.537758 0.430579
0.728725 0.59147 0.476967
0.654765 0.645197 0.523369
0.580819 0.698924 0.569757
0.506859 0.752636 0.616159
0.432914 0.806363 0.662547
1 0.427665 0.471626
1 0.481392 0.518029
1 0.535103 0.564416
0.971862 0.58883 0.610819
0.897902 0.642557 0.657206
0.823957 0.696269 0.703609
0.749996 0.749996 0.749996
0.676036 0.803723 0.796384
0.60209 0.857435 0.842786
1 0.478737 0.651865
1 0.532464 0.698253
1 0.586175 0.744656
1 0.639902 0.791043
1 0.693629 0.837446
0.993133 0.747356 0.883833
0.919173 0.801068 0.930236
0.845228 0.854795 0.976623
0.771267 0.908522 1
1 0.529824 0.832105
1 0.583535 0.878492
1 0.637263 0.924895
1 0.690974 0.971283
1 0.744701 1
1 0.798428 1
1 0.85214 1
1 0.905867 1
0.940444 0.959594 1
0.208438 0.141436 0
0.134493 0.195148 0
0.0605325 0.248875 0
0 0.302586 0
0 0.356313 0
0 0.41004 0
0 0.463752 0
0 0.517479 0
0 0.571206 0
0.3776 0.192493 0
0.303655 0.24622 0
0.229694 0.299931 0
0.155749 0.353658 0
0.0817884 0.407385 0
0.00782788 0.461097 0
0 0.514824 0
0 0.568551 0
0 0.622263 0
0.546777 0.24358 0
0.472831 0.297292 0
0.398871 0.351019 0
0.324926 0.40473 0
0.250965 0.458457 0
0.17702 0.512184 0
0.103059 0.565896 0
0.029099 0.619623 0
0 0.67335 0.0202182
0.715953 0.294652 0
0.642008 0.348363 0
0.568063 0.40209 0
0.494102 0.455802 0
0.420142 0.509529 0.0148623
0.346197 0.563256 0.061265
0.272236 0.616983 0.107652
0.198276 0.670695 0.154055
0.124331 0.724422 0.200443
0.88513 0.345724 0.00953689
0.811185 0.399435 0.0559243
0.73724 0.453162 0.102312
0.663279 0.506889 0.148714
0.589319 0.560601 0.195102
0.515373 0.614328 0.241505
0.441413 0.668055 0.287892
0.367468 0.721767 0.334295
0.293507 0.775494 0.380682
1 0.396796 0.189761
0.980362 0.450507 0.236149
0.906416 0.504234 0.282551
0.832456 0.557961 0.328939
0.758511 0.611688 0.375341
0.68455 0.6654 0.421729
0.61059 0.719127 0.468132
0.536645 0.772854 0.514519
0.462684 0.826566 0.560922
1 0.447868 0.370001
1 0.501595 0.416388
1 0.555306 0.462791
1 0.609033 0.509178
0.927687 0.66276 0.555581
0.853727 0.716472 0.601968
0.779767 0.770199 0.648371
0.705821 0.823926 0.694759
0.631861 0.877638 0.741161
1 0.498955 0.55024
1 0.552666 0.596628
1 0.606394 0.64303
1 0.660105 0.689418
1 0.713832 0.735821
1 0.767559 0.782208
0.948959 0.821271 0.828611
0.874998 0.874998 0.874998
0.801038 0.928725 0.921386
1 0.550027 0.73048
1 0.603738 0.776867
1 0.657465 0.823255
1 0.711177 0.869657
1 0.764904 0.916045
1 0.818631 0.962448
1 0.872358 1
1 0.92607 1
0.97023 0.979797 1
0.238224 0.161639 0
0.164279 0.215351 0
0.0903182 0.269078 0
0.0163577 0.322789 0
0 0.376516 0
0 0.430243 0
0 0.483955 0
0 0.537682 0
0 0.591409 0
0.40737 0.212696 0
0.333425 0.266423 0
0.25948 0.320134 0
0.185519 0.373861 0
0.111574 0.427588 0
0.0376135 0.481315 0
0 0.535027 0
0 0.588754 0
0 0.642481 0
0.576547 0.263783 0
0.502602 0.317494 0
0.428656 0.371221 0
0.354696 0.424933 0
0.280751 0.47866 0
0.20679 0.532387 0
0.13283 0.586099 0
0.0588846 0.639826 0
0 0.693553 0
0.745739 0.314855 0
0.671794 0.368566 0
0.597833 0.422293 0
0.523873 0.47602 0
0.449928 0.529732 0
0.375967 0.583459 0
0.302022 0.637186 0.00602731
0.228061 0.690898 0.05243
0.154101 0.744625 0.0988174
0.914916 0.365927 0
0.84097 0.419638 0
0.76701 0.473365 0.000686656
0.693065 0.527092 0.0470741
0.619104 0.580804 0.0934768
0.545144 0.634531 0.139864
0.471199 0.688258 0.186267
0.397238 0.741985 0.232654
0.323278 0.795697 0.279057
1 0.416999 0.0881361
1 0.470726 0.134524
0.936187 0.524437 0.180926
0.862242 0.578164 0.227314
0.788281 0.631891 0.273716
0.714321 0.685603 0.320104
0.640375 0.73933 0.366506
0.566415 0.793057 0.412894
0.49247 0.846769 0.459297
1 0.468071 0.268376
1 0.521798 0.314763
1 0.575509 0.361151
1 0.629236 0.407553
0.957458 0.682963 0.453941
0.883513 0.73669 0.500343
0.809552 0.790402 0.546731
0.735592 0.844129 0.593133
0.661646 0.897856 0.639521
1 0.519158 0.448615
1 0.572869 0.495003
1 0.626596 0.54139
1 0.680308 0.587793
1 0.734035 0.63418
1 0.787762 0.680583
0.978729 0.841474 0.72697
0.904768 0.895201 0.773373
0.830823 0.948928 0.81976
1 0.57023 0.62884
1 0.623941 0.675242
1 0.677668 0.72163
1 0.731395 0.768032
1 0.785107 0.81442
1 0.838834 0.860822
1 0.892561 0.90721
1 0.946273 0.953613
1 1 1
