public/LUTS/Color Shift/ColorShift_04.cube
TITLE "Generated by Resolve"
LUT_3D_SIZE 9
0 0 0
0 0.0586252 0.00894179
0 0.117266 0.0178988
0 0.175891 0.0268406
0 0.234531 0.0357977
0 0.293156 0.0447547
0 0.351797 0.0536965
0 0.410437 0.0626535
0 0.469062 0.0715953
0.128344 0.0603494 0.203311
0.0540627 0.118975 0.212253
0 0.1776 0.22121
0 0.23624 0.230152
0 0.294881 0.239109
0 0.353506 0.248051
0 0.412146 0.257008
0 0.470771 0.265949
0 0.529412 0.274907
0.256687 0.120699 0.406638
0.182422 0.179324 0.415595
0.108141 0.237964 0.424536
0.0338598 0.29659 0.433494
0 0.35523 0.442435
0 0.413855 0.451392
0 0.472496 0.460334
0 0.531136 0.469291
0 0.589761 0.478233
0.385046 0.181048 0.609979
0.31078 0.239673 0.618921
0.2365 0.298314 0.627878
0.162219 0.356954 0.63682
0.0879377 0.415579 0.645777
0.0136568 0.47422 0.654719
0 0.532845 0.663676
0 0.591485 0.672618
0 0.650111 0.681575
0.513405 0.241398 0.813306
0.439124 0.300038 0.822263
0.364858 0.358663 0.831205
0.290578 0.417304 0.840162
0.216297 0.475929 0.849104
0.142016 0.534569 0.858061
0.0677348 0.593194 0.867002
0 0.651835 0.875959
0 0.710475 0.884901
0.641749 0.301762 1
0.567483 0.360388 1
0.493202 0.419013 1
0.418921 0.477653 1
0.34464 0.536294 1
0.270359 0.594919 1
0.196094 0.653559 1
0.121813 0.712184 1
0.0475319 0.770825 1
0.770108 0.362112 1
0.695842 0.420737 1
0.621561 0.479377 1
0.54728 0.538003 1
0.472999 0.596643 1
0.398718 0.655268 1
0.324437 0.713909 1
0.250156 0.772549 1
0.175875 0.831174 1
0.898466 0.422461 1
0.824201 0.481086 1
0.74992 0.539727 1
0.675639 0.598352 1
0.601358 0.656992 1
0.527077 0.715633 1
0.452796 0.774258 1
0.378515 0.832898 1
0.304234 0.891524 1
1 0.482811 1
0.952544 0.541436 1
0.878264 0.600076 1
0.803983 0.658717 1
0.729702 0.717342 1
0.655436 0.775982 1
0.581155 0.834607 1
0.506874 0.893248 1
0.432593 0.951888 1
0.0709239 0.00601205 0
0 0.0646372 0
0 0.123278 0
0 0.181903 0
0 0.240543 0
0 0.299184 0
0 0.357809 0
0 0.416449 0
0 0.475074 0
0.199252 0.0663615 0.116045
0.124987 0.124987 0.124987
0.0507057 0.183627 0.133944
0 0.242252 0.142885
0 0.300893 0.151843
0 0.359518 0.160784
0 0.418158 0.169741
0 0.476799 0.178683
0 0.535424 0.18764
0.327611 0.126711 0.319371
0.253346 0.185336 0.328328
0.179065 0.243977 0.33727
0.104784 0.302602 0.346227
0.0305028 0.361242 0.355169
0 0.419883 0.364126
0 0.478508 0.373068
0 0.537148 0.382025
0 0.595773 0.390967
0.45597 0.18706 0.522713
0.381689 0.245686 0.531655
0.307408 0.304326 0.540612
0.233143 0.362966 0.549554
0.158862 0.421592 0.558511
0.0845808 0.480232 0.567452
0.0102998 0.538857 0.57641
0 0.597498 0.585351
0 0.656138 0.594308
0.584314 0.247425 0.72604
0.510048 0.30605 0.734981
0.435767 0.364675 0.743938
0.361486 0.423316 0.752895
0.287205 0.481941 0.761837
0.212924 0.540581 0.770794
0.138659 0.599222 0.779736
0.0643778 0.657847 0.788693
0 0.716487 0.797635
0.712673 0.307774 0.929381
0.638407 0.3664 0.938323
0.564126 0.42504 0.94728
0.489845 0.483665 0.956222
0.415564 0.542306 0.965179
0.341283 0.600931 0.974121
0.267002 0.659571 0.983078
0.192721 0.718196 0.99202
0.118441 0.776837 1
0.841031 0.368124 1
0.766751 0.426749 1
0.692485 0.48539 1
0.618204 0.544015 1
0.543923 0.602655 1
0.469642 0.661295 1
0.395361 0.719921 1
0.32108 0.778561 1
0.246799 0.837186 1
0.969375 0.428473 1
0.895109 0.487098 1
0.820829 0.545739 1
0.746548 0.604379 1
0.672267 0.663005 1
0.598001 0.721645 1
0.52372 0.78027 1
0.449439 0.838911 1
0.375158 0.897551 1
1 0.488838 1
1 0.547463 1
0.949187 0.606088 1
0.874907 0.664729 1
0.800626 0.723354 1
0.726345 0.781994 1
0.652064 0.840635 1
0.577783 0.89926 1
0.503502 0.9579 1
0.141848 0.0120241 0
0.0675822 0.0706493 0
0 0.12929 0
0 0.18793 0
0 0.246555 0
0 0.305196 0
0 0.363821 0
0 0.422461 0
0 0.481102 0
0.270191 0.0723735 0.0287633
0.195911 0.130999 0.037705
0.12163 0.189639 0.0466621
0.0473487 0.248264 0.0556039
0 0.306905 0.0645609
0 0.365545 0.0735027
0 0.42417 0.0824598
0 0.482811 0.0914015
0 0.541436 0.100359
0.398535 0.132723 0.23209
0.324269 0.191348 0.241032
0.249989 0.249989 0.249989
0.175708 0.308629 0.258946
0.101427 0.367254 0.267887
0.0271458 0.425895 0.276844
0 0.48452 0.285786
0 0.54316 0.294743
0 0.601801 0.303685
0.526894 0.193088 0.435431
0.452628 0.251713 0.444373
0.378347 0.310338 0.453315
0.304067 0.368978 0.462272
0.229786 0.427604 0.471229
0.155505 0.486244 0.480171
0.0812238 0.544884 0.489128
0.00694286 0.60351 0.49807
0 0.66215 0.507027
0.655253 0.253437 0.638758
0.580972 0.312062 0.6477
0.506691 0.370687 0.656657
0.43241 0.429328 0.665614
0.358144 0.487968 0.674556
0.283864 0.546593 0.683513
0.209583 0.605234 0.692454
0.135302 0.663859 0.701411
0.0610208 0.722499 0.710353
0.783597 0.313787 0.8421
0.709331 0.372412 0.851041
0.63505 0.431052 0.859983
0.560769 0.489677 0.86894
0.486488 0.548318 0.877897
0.412207 0.606943 0.886839
0.337926 0.665583 0.895796
0.263661 0.724224 0.904738
0.18938 0.782849 0.913695
0.911955 0.374136 1
0.83769 0.432761 1
0.763409 0.491402 1
0.689128 0.550042 1
0.614847 0.608667 1
0.540566 0.667308 1
0.466285 0.725933 1
0.392004 0.784573 1
0.317723 0.843198 1
1 0.434485 1
0.966033 0.493126 1
0.891752 0.551751 1
0.817487 0.610391 1
0.743206 0.669017 1
0.668925 0.727657 1
0.594644 0.786297 1
0.520363 0.844923 1
0.446082 0.903563 1
1 0.49485 1
1 0.553475 1
1 0.6121 1
0.94583 0.670741 1
0.87155 0.729381 1
0.797269 0.788006 1
0.723003 0.846647 1
0.648722 0.905272 1
0.574441 0.963912 1
0.212772 0.0180362 0
0.138506 0.0766766 0
0.0642252 0.135302 0
0 0.193942 0
0 0.252567 0
0 0.311208 0
0 0.369848 0
0 0.428473 0
0 0.487114 0
0.341115 0.0783856 0
0.266835 0.137011 0
0.192569 0.195651 0
0.118288 0.254292 0
0.044007 0.312917 0
0 0.371557 0
0 0.430182 0
0 0.488823 0.00411994
0 0.547448 0.013077
0.469459 0.138735 0.144808
0.395193 0.197375 0.15375
0.320912 0.256001 0.162707
0.246632 0.314641 0.171664
0.172351 0.373266 0.180606
0.0980697 0.431907 0.189563
0.0238041 0.490547 0.198505
0 0.549172 0.207462
0 0.607813 0.216403
0.597818 0.1991 0.34815
0.523552 0.257725 0.357092
0.449271 0.31635 0.366033
0.37499 0.37499 0.37499
0.30071 0.433631 0.383948
0.226429 0.492256 0.392889
0.152148 0.550896 0.401846
0.0778668 0.609522 0.410788
0.00358587 0.668162 0.419745
0.726177 0.259449 0.551476
0.651911 0.318074 0.560418
0.57763 0.376715 0.569375
0.503349 0.43534 0.578317
0.429068 0.49398 0.587274
0.354788 0.552605 0.596231
0.280507 0.611246 0.605173
0.206226 0.669886 0.61413
0.131945 0.728511 0.623072
0.854536 0.319799 0.754803
0.780255 0.378424 0.76376
0.705974 0.437064 0.772702
0.631693 0.495689 0.781659
0.557412 0.55433 0.790616
0.483146 0.61297 0.799558
0.408865 0.671595 0.808515
0.334585 0.730236 0.817456
0.260304 0.788861 0.826413
0.982879 0.380148 0.958144
0.908614 0.438788 0.967086
0.834333 0.497414 0.976043
0.760052 0.556054 0.984985
0.685771 0.614679 0.993942
0.61149 0.67332 1
0.537209 0.731945 1
0.462928 0.790585 1
0.388663 0.849226 1
1 0.440513 1
1 0.499138 1
0.962692 0.557763 1
0.888411 0.616403 1
0.81413 0.675044 1
0.739849 0.733669 1
0.665568 0.792309 1
0.591287 0.850935 1
0.517006 0.909575 1
1 0.500862 1
1 0.559487 1
1 0.618128 1
1 0.676753 1
0.942489 0.735393 1
0.868208 0.794018 1
0.793927 0.852659 1
0.719646 0.911299 1
0.645365 0.969924 1
0.283696 0.0240635 0
0.20943 0.0826886 0
0.135149 0.141314 0
0.0608682 0.199954 0
0 0.258595 0
0 0.31722 0
0 0.37586 0
0 0.434485 0
0 0.493126 0
0.412039 0.0843977 0
0.337774 0.143038 0
0.263493 0.201663 0
0.189212 0.260304 0
0.114931 0.318929 0
0.04065 0.377569 0
0 0.436194 0
0 0.494835 0
0 0.553475 0
0.540398 0.144762 0.0575265
0.466117 0.203387 0.0664683
0.391836 0.262013 0.0754253
0.317571 0.320653 0.0843671
0.24329 0.379294 0.0933242
0.169009 0.437919 0.102281
0.094728 0.496559 0.111223
0.0204471 0.555184 0.12018
0 0.613825 0.129122
0.668742 0.205112 0.260853
0.594476 0.263737 0.26981
0.520195 0.322377 0.278752
0.445914 0.381003 0.287709
0.371633 0.439643 0.296666
0.297353 0.498268 0.305608
0.223072 0.556909 0.314565
0.148806 0.615549 0.323507
0.0745251 0.674174 0.332464
0.797101 0.265461 0.464195
0.722835 0.324086 0.473136
0.648554 0.382727 0.482094
0.574273 0.441352 0.491035
0.499992 0.499992 0.499992
0.425711 0.558633 0.508949
0.351431 0.617258 0.517891
0.27715 0.675898 0.526848
0.202869 0.734524 0.53579
0.92546 0.325811 0.667521
0.851179 0.384436 0.676478
0.776913 0.443076 0.68542
0.702632 0.501717 0.694377
0.628351 0.560342 0.703319
0.55407 0.618982 0.712276
0.479789 0.677607 0.721233
0.405509 0.736248 0.730175
0.331228 0.794888 0.739132
1 0.386175 0.870863
0.979538 0.4448 0.879805
0.905257 0.503426 0.888762
0.830976 0.562066 0.897704
0.756695 0.620691 0.906661
0.682414 0.679332 0.915618
0.608148 0.737972 0.924559
0.533867 0.796597 0.933516
0.459586 0.855238 0.942458
1 0.446525 1
1 0.50515 1
1 0.56379 1
0.959335 0.622415 1
0.885054 0.681056 1
0.810773 0.739681 1
0.736492 0.798321 1
0.662211 0.856947 1
0.58793 0.915587 1
1 0.506874 1
1 0.565499 1
1 0.62414 1
1 0.682765 1
1 0.741405 1
0.939132 0.800046 1
0.864851 0.858671 1
0.79057 0.917311 1
0.716289 0.975937 1
0.354635 0.0300755 0
0.280354 0.0887007 0
0.206073 0.147341 0
0.131792 0.205966 0
0.0575113 0.264607 0
0 0.323232 0
0 0.381872 0
0 0.440497 0
0 0.499138 0
0.482963 0.090425 0
0.408698 0.14905 0
0.334417 0.207675 0
0.260136 0.266316 0
0.185855 0.324941 0
0.111574 0.383581 0
0.0372931 0.442222 0
0 0.500847 0
0 0.559487 0
0.611322 0.150774 0
0.537057 0.2094 0
0.462776 0.26804 0
0.388495 0.326665 0
0.314214 0.385306 0.00604257
0.239933 0.443931 0.0149996
0.165652 0.502571 0.0239414
0.091371 0.561196 0.0328985
0.0170901 0.619837 0.0418402
0.739681 0.211124 0.173571
0.6654 0.269749 0.182528
0.591119 0.328389 0.19147
0.516838 0.387015 0.200427
0.442573 0.445655 0.209369
0.368292 0.504295 0.218326
0.294011 0.562921 0.227283
0.21973 0.621561 0.236225
0.145449 0.680186 0.245182
0.868025 0.271473 0.376913
0.793759 0.330098 0.385855
0.719478 0.388739 0.394812
0.645197 0.447379 0.403754
0.570916 0.506004 0.412711
0.496635 0.564645 0.421668
0.422354 0.62327 0.43061
0.348074 0.68191 0.439567
0.273808 0.740551 0.448508
0.996384 0.331838 0.58024
0.922118 0.390463 0.589197
0.847837 0.449088 0.598138
0.773556 0.507729 0.607095
0.699275 0.566354 0.616037
0.624994 0.624994 0.624994
0.550713 0.683635 0.633951
0.476432 0.74226 0.642893
0.402152 0.8009 0.65185
1 0.392187 0.783581
1 0.450813 0.792523
0.976181 0.509438 0.80148
0.901915 0.568078 0.810422
0.827634 0.626719 0.819379
0.753353 0.685344 0.828336
0.679072 0.743984 0.837278
0.604791 0.802609 0.846235
0.53051 0.86125 0.855177
1 0.452537 0.986908
1 0.511162 0.995865
1 0.569802 1
1 0.628428 1
0.955978 0.687068 1
0.881697 0.745693 1
0.807416 0.804334 1
0.73315 0.862974 1
0.658869 0.921599 1
1 0.512886 1
1 0.571511 1
1 0.630152 1
1 0.688792 1
1 0.747417 1
1 0.806058 1
0.935775 0.864683 1
0.861494 0.923323 1
0.787213 0.981949 1
0.425559 0.0360876 0
0.351278 0.0947127 0
0.277012 0.153353 0
0.202731 0.211978 0
0.12845 0.270619 0
0.0541695 0.329259 0
0 0.387884 0
0 0.446525 0
0 0.50515 0
0.553887 0.096437 0
0.479622 0.155062 0
0.405341 0.213687 0
0.33106 0.272328 0
0.256779 0.330968 0
0.182498 0.389593 0
0.108232 0.448234 0
0.0339513 0.506859 0
0 0.565499 0
0.682246 0.156786 0
0.60798 0.215412 0
0.5337 0.274052 0
0.459419 0.332677 0
0.385138 0.391318 0
0.310857 0.449943 0
0.236576 0.508583 0
0.162295 0.567224 0
0.088014 0.625849 0
0.810605 0.217136 0.0862898
0.736324 0.275761 0.0952468
0.662058 0.334401 0.104189
0.587777 0.393042 0.113146
0.513497 0.451667 0.122087
0.439216 0.510307 0.131044
0.364935 0.568933 0.140002
0.290654 0.627573 0.148943
0.216373 0.686198 0.1579
0.938949 0.277485 0.289631
0.864683 0.336126 0.298573
0.790402 0.394751 0.30753
0.716121 0.453391 0.316472
0.64184 0.512016 0.325429
0.567575 0.570657 0.334371
0.493294 0.629297 0.343328
0.419013 0.687922 0.352285
0.344732 0.746563 0.361227
1 0.33785 0.492958
0.993042 0.396475 0.501915
0.918761 0.4551 0.510857
0.84448 0.513741 0.519814
0.770199 0.572381 0.528756
0.695918 0.631006 0.537713
0.621637 0.689647 0.546654
0.547356 0.748272 0.555611
0.473075 0.806912 0.564569
1 0.398199 0.6963
1 0.456825 0.705242
1 0.515465 0.714199
0.972839 0.57409 0.72314
0.898558 0.632731 0.732097
0.824277 0.691356 0.741039
0.749996 0.749996 0.749996
0.675715 0.808637 0.758953
0.601434 0.867262 0.767895
1 0.458549 0.899626
1 0.517174 0.908583
1 0.575814 0.917525
1 0.63444 0.926482
1 0.69308 0.935424
0.952636 0.75172 0.944381
0.878355 0.810346 0.953323
0.804074 0.868986 0.96228
0.729793 0.927611 0.971237
1 0.518898 1
1 0.577539 1
1 0.636164 1
1 0.694804 1
1 0.753429 1
1 0.81207 1
1 0.870695 1
0.932418 0.929335 1
0.858152 0.987976 1
0.496483 0.0420996 0
0.422217 0.100725 0
0.347936 0.159365 0
0.273655 0.218006 0
0.199374 0.276631 0
0.125093 0.335271 0
0.0508125 0.393896 0
0 0.452537 0
0 0.511162 0
0.624826 0.102449 0
0.550546 0.161074 0
0.476265 0.219715 0
0.401984 0.27834 0
0.327718 0.33698 0
0.253437 0.395605 0
0.179156 0.454246 0
0.104875 0.512886 0
0.0305943 0.571511 0
0.75317 0.162799 0
0.678904 0.221424 0
0.604623 0.280064 0
0.530343 0.338689 0
0.456062 0.39733 0
0.381781 0.45597 0
0.3075 0.514595 0
0.233234 0.573236 0
0.158953 0.631861 0
0.881529 0.223148 0
0.807263 0.281788 0.00796521
0.732982 0.340414 0.016907
0.658701 0.399054 0.025864
0.584421 0.457679 0.0348058
0.51014 0.51632 0.0437629
0.435859 0.574945 0.0527047
0.361578 0.633585 0.0616617
0.287297 0.692226 0.0706188
1 0.283513 0.20235
0.935607 0.342138 0.211292
0.861326 0.400763 0.220249
0.78706 0.459403 0.229191
0.712779 0.518044 0.238148
0.638498 0.576669 0.247089
0.564218 0.635309 0.256046
0.489937 0.693935 0.265003
0.415656 0.752575 0.273945
1 0.343862 0.405676
1 0.402487 0.414633
0.989685 0.461128 0.423575
0.915404 0.519753 0.432532
0.841123 0.578393 0.441474
0.766842 0.637018 0.450431
0.692576 0.695659 0.459373
0.618296 0.754299 0.46833
0.544015 0.812924 0.477287
1 0.404211 0.609018
1 0.462837 0.61796
1 0.521477 0.626917
1 0.580102 0.635859
0.969482 0.638743 0.644816
0.895201 0.697383 0.653758
0.82092 0.756008 0.662715
0.746639 0.814649 0.671672
0.672358 0.873274 0.680613
1 0.464561 0.812345
1 0.523186 0.821302
1 0.581827 0.830243
1 0.640467 0.8392
1 0.699092 0.848142
1 0.757733 0.857099
0.949279 0.816358 0.866041
0.874998 0.874998 0.874998
0.800717 0.933639 0.883955
1 0.524926 1
1 0.583551 1
1 0.642176 1
1 0.700816 1
1 0.759441 1
1 0.818082 1
1 0.876722 1
1 0.935347 1
0.929076 0.993988 1
0.567407 0.0481117 0
0.493141 0.106752 0
0.41886 0.165377 0
0.344579 0.224018 0
0.270298 0.282643 0
0.196017 0.341283 0
0.121736 0.399908 0
0.0474556 0.458549 0
0 0.517189 0
0.69575 0.108461 0
0.621485 0.167086 0
0.547204 0.225727 0
0.472923 0.284352 0
0.398642 0.342992 0
0.324361 0.401633 0
0.25008 0.460258 0
0.175799 0.518898 0
0.101518 0.577523 0
0.824109 0.168811 0
0.749828 0.227436 0
0.675547 0.286076 0
0.601267 0.344717 0
0.526986 0.403342 0
0.45272 0.461982 0
0.378439 0.520607 0
0.304158 0.579248 0
0.229877 0.637888 0
0.952453 0.229175 0
0.878187 0.2878 0
0.803906 0.346426 0
0.729625 0.405066 0
0.655344 0.463691 0
0.581064 0.522332 0
0.506783 0.580972 0
0.432502 0.639597 0
0.358236 0.698238 0
1 0.289525 0.115068
1 0.34815 0.12401
0.932265 0.40679 0.132967
0.857984 0.465415 0.141909
0.783703 0.524056 0.150866
0.709422 0.582681 0.159808
0.635142 0.641321 0.168765
0.560861 0.699947 0.177707
0.48658 0.758587 0.186664
1 0.349874 0.318395
1 0.408499 0.327352
1 0.46714 0.336294
0.986328 0.525765 0.345251
0.912062 0.584405 0.354192
0.837781 0.643046 0.363149
0.7635 0.701671 0.372091
0.689219 0.760311 0.381048
0.614939 0.818936 0.390005
1 0.410224 0.521737
1 0.468849 0.530678
1 0.527489 0.539635
1 0.58613 0.548577
1 0.644755 0.557534
0.966125 0.703395 0.566476
0.891844 0.76202 0.575433
0.817578 0.820661 0.584375
0.743297 0.879301 0.593332
1 0.470588 0.725063
1 0.529213 0.73402
1 0.587839 0.742962
1 0.646479 0.751919
1 0.705104 0.760861
1 0.763745 0.769818
1 0.822385 0.778759
0.945922 0.88101 0.787717
0.871641 0.939651 0.796674
1 0.530938 0.928405
1 0.589563 0.937346
1 0.648188 0.946303
1 0.706828 0.955245
1 0.765469 0.964202
1 0.824094 0.973144
1 0.882734 0.982101
1 0.94136 0.991043
1 1 1
