public/LUTS/Color Shift/ColorShift_33.cube
TITLE "Generated by Resolve"
LUT_3D_SIZE 9
0 0 0
0.0870069 0 0.106218
0.174014 0 0.212451
0.261021 0 0.318685
0.348028 0 0.424918
0.435035 0 0.531151
0.522057 0 0.637385
0.609064 0 0.743633
0.696071 0 0.849867
0.138949 0.0864881 0
0.225956 0.0842298 0.0814679
0.312963 0.0819562 0.187701
0.399969 0.0796979 0.293935
0.486992 0.0774395 0.400168
0.573999 0.0751812 0.506401
0.661006 0.0729229 0.612634
0.748012 0.0706493 0.718868
0.835019 0.0683909 0.825101
0.277928 0.172976 0
0.36492 0.170718 0.0567025
0.451942 0.16846 0.162936
0.538949 0.166186 0.269169
0.625956 0.163928 0.375402
0.712963 0.161669 0.481636
0.799969 0.159411 0.587869
0.886992 0.157153 0.694102
0.973999 0.154894 0.800336
0.416892 0.259464 0
0.503899 0.257206 0.0319371
0.590906 0.254948 0.13817
0.677913 0.252689 0.244404
0.76492 0.250431 0.350637
0.851942 0.248157 0.45687
0.938949 0.245899 0.563104
1 0.243641 0.669337
1 0.241382 0.77557
0.555871 0.345968 0
0.642863 0.343709 0.00717174
0.729885 0.341436 0.113405
0.816892 0.339178 0.219638
0.903899 0.336919 0.325872
0.990906 0.334661 0.432105
1 0.332403 0.538338
1 0.330129 0.644587
1 0.327871 0.75082
0.694835 0.432456 0
0.781842 0.430198 0
0.868849 0.427939 0.0886397
0.955856 0.425681 0.194888
1 0.423407 0.301122
1 0.421149 0.407355
1 0.418891 0.513588
1 0.416632 0.619821
1 0.414374 0.726055
0.833814 0.518944 0
0.920806 0.516686 0
1 0.514427 0.0638895
1 0.512169 0.170123
1 0.509911 0.276356
1 0.507652 0.382589
1 0.505379 0.488823
1 0.50312 0.595056
1 0.500862 0.701289
0.972778 0.605447 0
1 0.603189 0
1 0.600916 0.0391241
1 0.598657 0.145357
1 0.596399 0.251591
1 0.594141 0.357824
1 0.591882 0.464057
1 0.589624 0.570291
1 0.58735 0.676524
1 0.691936 0
1 0.689677 0
1 0.687419 0.0143587
1 0.685161 0.120592
1 0.682887 0.226825
1 0.680629 0.333059
1 0.67837 0.439292
1 0.676112 0.545525
1 0.673854 0.651759
0 0.0407568 0.0435187
0 0.0384985 0.149752
0.0730449 0.0362402 0.255985
0.160052 0.0339818 0.362219
0.247059 0.0317235 0.468452
0.334081 0.0294652 0.574685
0.421088 0.0271916 0.680919
0.508095 0.0249332 0.787152
0.595102 0.0226749 0.893385
0.0379797 0.127245 0.0187686
0.124987 0.124987 0.124987
0.211994 0.122728 0.23122
0.299001 0.12047 0.337453
0.386023 0.118196 0.443687
0.47303 0.115938 0.54992
0.560037 0.11368 0.656153
0.647044 0.111421 0.762387
0.734066 0.109163 0.86862
0.176959 0.213748 0
0.263951 0.211475 0.100221
0.350973 0.209216 0.206455
0.43798 0.206958 0.312688
0.524987 0.2047 0.418921
0.611994 0.202441 0.525154
0.699016 0.200168 0.631388
0.786023 0.19791 0.737636
0.87303 0.195651 0.84387
0.315923 0.300237 0
0.40293 0.297978 0.0754559
0.489937 0.29572 0.181689
0.576944 0.293446 0.287938
0.663966 0.291188 0.394171
0.750973 0.28893 0.500404
0.83798 0.286671 0.606638
0.924987 0.284413 0.712871
1 0.282139 0.819104
0.454902 0.386725 0
0.541894 0.384466 0.0507057
0.628916 0.382208 0.156939
0.715923 0.37995 0.263172
0.80293 0.377691 0.369406
0.889937 0.375418 0.475639
0.976959 0.373159 0.581872
1 0.370901 0.688106
1 0.368643 0.794339
0.593866 0.473228 0
0.680873 0.470954 0.0259403
0.76788 0.468696 0.132174
0.854887 0.466438 0.238407
0.941909 0.464179 0.34464
1 0.461921 0.450874
1 0.459663 0.557107
1 0.457389 0.66334
1 0.455131 0.769574
0.732845 0.559716 0
0.819837 0.557458 0.00117494
0.906859 0.5552 0.107408
0.993866 0.552926 0.213642
1 0.550668 0.319875
1 0.548409 0.426108
1 0.546151 0.532341
1 0.543893 0.638575
1 0.541634 0.744808
0.871809 0.646204 0
0.958816 0.643946 0
1 0.641688 0.0826429
1 0.639429 0.188876
1 0.637171 0.295109
1 0.634897 0.401343
1 0.632639 0.507576
1 0.630381 0.613825
1 0.628122 0.720058
1 0.732708 0
1 0.730449 0
1 0.728176 0.0578775
1 0.725917 0.164126
1 0.723659 0.270359
1 0.721401 0.376593
1 0.719142 0.482826
1 0.716869 0.589059
1 0.714611 0.695293
0 0.081529 0.0870527
0 0.0792706 0.193271
0 0.0770123 0.299504
0.0590677 0.0747539 0.405737
0.14609 0.0724956 0.511986
0.233097 0.070222 0.618219
0.320104 0.0679637 0.724453
0.407111 0.0657054 0.830686
0.494118 0.063447 0.936919
0 0.168017 0.0623026
0.0240024 0.165759 0.168521
0.111025 0.1635 0.274754
0.198032 0.161227 0.380987
0.285039 0.158968 0.487221
0.372045 0.15671 0.593454
0.459052 0.154452 0.699687
0.546075 0.152193 0.80592
0.633082 0.149935 0.912154
0.0759747 0.254505 0.0375372
0.162982 0.252247 0.143755
0.249989 0.249989 0.249989
0.336996 0.24773 0.356222
0.424002 0.245472 0.462455
0.511025 0.243198 0.568689
0.598032 0.24094 0.674922
0.685039 0.238682 0.781155
0.772045 0.236423 0.887388
0.214954 0.341009 0.0127718
0.301946 0.33875 0.11899
0.388952 0.336477 0.225223
0.475975 0.334218 0.331456
0.562982 0.33196 0.43769
0.649989 0.329702 0.543923
0.736996 0.327443 0.650156
0.824018 0.32517 0.75639
0.911025 0.322911 0.862638
0.353918 0.427497 0
0.440925 0.425238 0.0942245
0.527932 0.42298 0.200458
0.614939 0.420722 0.306691
0.701946 0.418448 0.41294
0.788968 0.41619 0.519173
0.875975 0.413931 0.625406
0.962982 0.411673 0.73164
1 0.409415 0.837873
0.492897 0.513985 0
0.579889 0.511727 0.0694743
0.666896 0.509468 0.175708
0.753918 0.50721 0.281941
0.840925 0.504952 0.388174
0.927932 0.502693 0.494408
1 0.50042 0.600641
1 0.498161 0.706874
1 0.495903 0.813107
0.631861 0.600488 0
0.718868 0.59823 0.0447089
0.805875 0.595956 0.150942
0.892882 0.593698 0.257176
0.979889 0.59144 0.363409
1 0.589181 0.469642
1 0.586923 0.575875
1 0.584665 0.682109
1 0.582391 0.788342
0.77084 0.686976 0
0.857832 0.684718 0.0199435
0.944839 0.68246 0.126177
1 0.680201 0.23241
1 0.677928 0.338643
1 0.675669 0.444877
1 0.673411 0.55111
1 0.671153 0.657343
1 0.668894 0.763577
0.909804 0.77348 0
0.996811 0.771206 0
1 0.768948 0.101411
1 0.76669 0.207645
1 0.764431 0.313878
1 0.762173 0.420111
1 0.759899 0.526345
1 0.757641 0.632578
1 0.755383 0.738827
0 0.122301 0.130587
0 0.120043 0.236805
0 0.117784 0.343038
0 0.115526 0.449271
0.0451057 0.113252 0.555505
0.132113 0.110994 0.661738
0.21912 0.108736 0.767971
0.306142 0.106477 0.874205
0.393149 0.104219 0.980438
0 0.208789 0.105821
0 0.206531 0.212039
0.0100404 0.204257 0.318288
0.0970474 0.201999 0.424521
0.184054 0.199741 0.530755
0.271061 0.197482 0.636988
0.358083 0.195224 0.743221
0.44509 0.192966 0.849454
0.532097 0.190692 0.955688
0 0.295277 0.0810559
0.0619974 0.293019 0.187289
0.149004 0.290761 0.293523
0.236027 0.288502 0.399756
0.323033 0.286229 0.505989
0.41004 0.28397 0.612222
0.497047 0.281712 0.718456
0.584054 0.279454 0.824689
0.671077 0.277195 0.930922
0.11397 0.381781 0.0563058
0.200977 0.379507 0.162524
0.287984 0.377249 0.268757
0.37499 0.37499 0.37499
0.461997 0.372732 0.481224
0.549004 0.370474 0.587457
0.636027 0.3682 0.69369
0.723033 0.365942 0.799924
0.81004 0.363684 0.906157
0.252949 0.468269 0.0315404
0.33994 0.466011 0.137758
0.426947 0.463752 0.243992
0.513954 0.461479 0.350225
0.600977 0.45922 0.456458
0.687984 0.456962 0.562692
0.77499 0.454704 0.668925
0.861997 0.452445 0.775158
0.94902 0.450172 0.881392
0.391913 0.554757 0.00677501
0.47892 0.552499 0.112993
0.565927 0.55024 0.219226
0.652934 0.547982 0.32546
0.73994 0.545724 0.431693
0.826947 0.54345 0.537942
0.91397 0.541192 0.644175
1 0.538933 0.750408
1 0.536675 0.856641
0.530877 0.64126 0
0.617884 0.638987 0.0882277
0.70489 0.636728 0.194476
0.791897 0.63447 0.30071
0.87892 0.632212 0.406943
0.965927 0.629953 0.513176
1 0.627695 0.61941
1 0.625422 0.725643
1 0.623163 0.831876
0.669856 0.727749 0
0.756848 0.72549 0.0634775
0.84387 0.723232 0.169711
0.930877 0.720958 0.275944
1 0.7187 0.382177
1 0.716442 0.488411
1 0.714183 0.594644
1 0.711925 0.700877
1 0.709667 0.807111
0.80882 0.814237 0
0.895827 0.811978 0.0387121
0.982834 0.80972 0.144945
1 0.807462 0.251179
1 0.805203 0.357412
1 0.80293 0.463645
1 0.800671 0.569879
1 0.798413 0.676112
1 0.796155 0.782345
0 0.163073 0.174121
0 0.160815 0.280339
0 0.158556 0.386572
0 0.156283 0.492805
0 0.154025 0.599039
0.0311284 0.151766 0.705272
0.118151 0.149508 0.811505
0.205158 0.14725 0.917739
0.292165 0.144991 1
0 0.249561 0.149355
0 0.247288 0.255573
0 0.245029 0.361807
0 0.242771 0.46804
0.0830854 0.240513 0.574273
0.170092 0.238254 0.680507
0.257099 0.235996 0.786755
0.344106 0.233722 0.892989
0.431113 0.231464 0.999222
0 0.336049 0.12459
0 0.333791 0.230808
0.0480354 0.331533 0.337041
0.135042 0.329259 0.44329
0.222049 0.327001 0.549523
0.309056 0.324742 0.655756
0.396063 0.322484 0.76199
0.483085 0.320226 0.868223
0.570092 0.317968 0.974456
0.0129854 0.422538 0.0998245
0.0999924 0.420279 0.206058
0.186999 0.418021 0.312291
0.274006 0.415763 0.418524
0.361028 0.413504 0.524758
0.448035 0.411231 0.630991
0.535042 0.408972 0.737224
0.622049 0.406714 0.843458
0.709056 0.404456 0.949691
0.151965 0.509041 0.0750744
0.238956 0.506783 0.181292
0.325978 0.504509 0.287526
0.412985 0.502251 0.393759
0.499992 0.499992 0.499992
0.586999 0.497734 0.606226
0.674006 0.495476 0.712459
0.761028 0.493202 0.818692
0.848035 0.490944 0.924926
0.290929 0.595529 0.050309
0.377935 0.593271 0.156527
0.464942 0.591012 0.26276
0.551949 0.588754 0.368994
0.638956 0.58648 0.475227
0.725978 0.584222 0.58146
0.812985 0.581964 0.687694
0.899992 0.579705 0.793927
0.986999 0.577447 0.90016
0.429908 0.682017 0.0255436
0.516899 0.679759 0.131762
0.603922 0.677501 0.237995
0.690929 0.675242 0.344228
0.777935 0.672984 0.450462
0.864942 0.670726 0.556695
0.951949 0.668452 0.662943
1 0.666194 0.769177
1 0.663935 0.87541
0.568872 0.768521 0.00077821
0.655879 0.766262 0.106996
0.742885 0.763989 0.21323
0.829892 0.76173 0.319478
0.916899 0.759472 0.425711
1 0.757214 0.531945
1 0.754955 0.638178
1 0.752697 0.744411
1 0.750423 0.850645
0.707851 0.855009 0
0.794842 0.85275 0.0822461
0.881849 0.850492 0.188479
0.968872 0.848234 0.294713
1 0.84596 0.400946
1 0.843702 0.507179
1 0.841443 0.613413
1 0.839185 0.719646
1 0.836927 0.825879
0 0.203845 0.217639
0 0.201587 0.323873
0 0.199313 0.430106
0 0.197055 0.536339
0 0.194797 0.642573
0 0.192538 0.748806
0.0171664 0.19028 0.855039
0.104173 0.188022 0.961273
0.19118 0.185748 1
0 0.290318 0.192889
0 0.28806 0.299107
0 0.285801 0.405341
0 0.283543 0.511574
0 0.281285 0.617807
0.0691081 0.279026 0.724041
0.156115 0.276753 0.830274
0.243137 0.274495 0.936507
0.330144 0.272236 1
0 0.376822 0.168124
0 0.374563 0.274342
0 0.37229 0.380575
0.0340581 0.370031 0.486809
0.121065 0.367773 0.593042
0.208087 0.365515 0.699275
0.295094 0.363256 0.805508
0.382101 0.360998 0.911757
0.469108 0.358724 1
0 0.46331 0.143359
0 0.461051 0.249577
0.0860151 0.458793 0.35581
0.173037 0.456535 0.462043
0.260044 0.454261 0.568292
0.347051 0.452003 0.674525
0.434058 0.449744 0.780758
0.521065 0.447486 0.886992
0.608087 0.445228 0.993225
0.0509804 0.549813 0.118593
0.137987 0.547539 0.224826
0.224994 0.545281 0.33106
0.312001 0.543023 0.437293
0.399008 0.540764 0.543526
0.48603 0.538506 0.64976
0.573037 0.536233 0.755993
0.660044 0.533974 0.862226
0.747051 0.531716 0.96846
0.18996 0.636301 0.093843
0.276951 0.634043 0.200061
0.363958 0.631785 0.306294
0.45098 0.629511 0.412528
0.537987 0.627253 0.518761
0.624994 0.624994 0.624994
0.712001 0.622736 0.731228
0.799008 0.620478 0.837461
0.88603 0.618204 0.943694
0.328923 0.722789 0.0690776
0.41593 0.720531 0.175296
0.502937 0.718273 0.281529
0.589944 0.716014 0.387762
0.676951 0.713756 0.493996
0.763958 0.711482 0.600229
0.85098 0.709224 0.706462
0.937987 0.706966 0.812696
1 0.704707 0.918929
0.467903 0.809293 0.0443122
0.554894 0.807019 0.15053
0.641901 0.804761 0.256764
0.728923 0.802502 0.362997
0.81593 0.800244 0.46923
0.902937 0.797986 0.575463
0.989944 0.795727 0.681697
1 0.793454 0.787945
1 0.791196 0.894179
0.606867 0.895781 0.0195468
0.693874 0.893523 0.125765
0.78088 0.891264 0.231998
0.867887 0.888991 0.338231
0.954894 0.886732 0.44448
1 0.884474 0.550713
1 0.882216 0.656947
1 0.879957 0.76318
1 0.877699 0.869413
0 0.244617 0.261173
0 0.242344 0.367391
0 0.240085 0.473625
0 0.237827 0.579858
0 0.235569 0.686091
0 0.23331 0.79234
0 0.231052 0.898573
0.00318914 0.228779 1
0.0902113 0.22652 1
0 0.33109 0.236423
0 0.328832 0.342641
0 0.326574 0.448875
0 0.324315 0.555108
0 0.322057 0.661341
0 0.319783 0.767575
0.0551461 0.317525 0.873808
0.142153 0.315267 0.980041
0.22916 0.313008 1
0 0.417594 0.211658
0 0.41532 0.317876
0 0.413062 0.424109
0 0.410803 0.530343
0.0200961 0.408545 0.636576
0.107103 0.406287 0.742809
0.19411 0.404028 0.849042
0.281117 0.401755 0.955276
0.368139 0.399496 1
0 0.504082 0.186892
0 0.501823 0.293111
0 0.499565 0.399344
0.0720531 0.497292 0.505577
0.15906 0.495033 0.611811
0.246067 0.492775 0.718044
0.333089 0.490517 0.824277
0.420096 0.488258 0.93051
0.507103 0.486 1
0 0.59057 0.162127
0.0370031 0.588312 0.268345
0.12401 0.586053 0.374578
0.211017 0.583795 0.480812
0.298039 0.581537 0.587045
0.385046 0.579263 0.693294
0.472053 0.577005 0.799527
0.55906 0.574746 0.90576
0.646067 0.572488 1
0.0889754 0.677073 0.137362
0.175967 0.674815 0.243595
0.262989 0.672541 0.349828
0.349996 0.670283 0.456062
0.437003 0.668025 0.562295
0.52401 0.665766 0.668528
0.611032 0.663508 0.774762
0.698039 0.661234 0.880995
0.785046 0.658976 0.987228
0.227939 0.763561 0.112612
0.314946 0.761303 0.21883
0.401953 0.759045 0.325063
0.48896 0.756786 0.431296
0.575982 0.754513 0.53753
0.662989 0.752255 0.643763
0.749996 0.749996 0.749996
0.837003 0.747738 0.856229
0.92401 0.74548 0.962463
0.366918 0.85005 0.0878462
0.45391 0.847791 0.194064
0.540932 0.845533 0.300298
0.627939 0.843275 0.406531
0.714946 0.841016 0.512764
0.801953 0.838758 0.618997
0.88896 0.836484 0.725231
0.975982 0.834226 0.831464
1 0.831968 0.937697
0.505882 0.936553 0.0630808
0.592889 0.934295 0.169299
0.679896 0.932021 0.275532
0.766903 0.929763 0.381765
0.853925 0.927504 0.487999
0.940932 0.925246 0.594232
1 0.922988 0.700465
1 0.920729 0.806699
1 0.918456 0.912947
0 0.285374 0.304707
0 0.283116 0.410925
0 0.280858 0.517159
0 0.278599 0.623392
0 0.276341 0.729625
0 0.274083 0.835859
0 0.271809 0.942092
0 0.269551 1
0 0.267292 1
0 0.371862 0.279942
0 0.369604 0.38616
0 0.367346 0.492409
0 0.365087 0.598642
0 0.362814 0.704875
0 0.360555 0.811109
0 0.358297 0.917342
0.0411688 0.356039 1
0.128176 0.35378 1
0 0.458351 0.255177
0 0.456092 0.36141
0 0.453834 0.467643
0 0.451575 0.573877
0 0.449317 0.68011
0.00611887 0.447059 0.786343
0.0931258 0.444785 0.892576
0.180148 0.442527 0.99881
0.267155 0.440269 1
0 0.544854 0.230426
0 0.542596 0.336645
0 0.540322 0.442878
0 0.538064 0.549111
0.0580758 0.535805 0.655344
0.145098 0.533547 0.761578
0.232105 0.531289 0.867811
0.319112 0.52903 0.974044
0.406119 0.526757 1
0 0.631342 0.205661
0 0.629084 0.311879
0.0230259 0.626825 0.418112
0.110048 0.624567 0.524346
0.197055 0.622293 0.630579
0.284062 0.620035 0.736812
0.371069 0.617777 0.843046
0.458091 0.615518 0.949279
0.545098 0.61326 1
0 0.717845 0.180896
0.0749981 0.715572 0.287114
0.162005 0.713314 0.393347
0.249012 0.711055 0.49958
0.336019 0.708797 0.605814
0.423041 0.706538 0.712047
0.510048 0.704265 0.818296
0.597055 0.702007 0.924529
0.684062 0.699748 1
0.12697 0.804334 0.15613
0.213962 0.802075 0.262348
0.300969 0.799817 0.368597
0.387991 0.797543 0.47483
0.474998 0.795285 0.581064
0.562005 0.793027 0.687297
0.649012 0.790768 0.79353
0.736034 0.78851 0.899763
0.823041 0.786236 1
0.265934 0.890822 0.131365
0.352941 0.888563 0.237598
0.439948 0.886305 0.343832
0.526955 0.884047 0.450065
0.613962 0.881788 0.556298
0.700984 0.879515 0.662531
0.787991 0.877256 0.768765
0.874998 0.874998 0.874998
0.962005 0.87274 0.981231
0.404913 0.977325 0.106615
0.491905 0.975052 0.212833
0.578912 0.972793 0.319066
0.665934 0.970535 0.425299
0.752941 0.968277 0.531533
0.839948 0.966018 0.637766
0.926955 0.96376 0.743999
1 0.961486 0.850233
1 0.959228 0.956466
0 0.326146 0.348241
0 0.323888 0.454459
0 0.32163 0.560693
0 0.319371 0.666926
0 0.317113 0.773159
0 0.314839 0.879393
0 0.312581 0.985626
0 0.310323 1
0 0.308064 1
0 0.412634 0.323476
0 0.410376 0.429694
0 0.408118 0.535927
0 0.405844 0.642161
0 0.403586 0.748394
0 0.401328 0.854627
0 0.399069 0.960861
0 0.396811 1
0.0272068 0.394537 1
0 0.499123 0.298711
0 0.496864 0.404929
0 0.494606 0.511162
0 0.492348 0.617411
0 0.490089 0.723644
0 0.487816 0.829877
0 0.485557 0.93611
0.0791638 0.483299 1
0.166171 0.481041 1
0 0.585626 0.273945
0 0.583352 0.380179
0 0.581094 0.486412
0 0.578836 0.592645
0 0.576577 0.698878
0.0441138 0.574319 0.805112
0.131121 0.572061 0.911345
0.218128 0.569787 1
0.30515 0.567529 1
0 0.672114 0.249195
0 0.669856 0.355413
0 0.667597 0.461646
0.00906386 0.665324 0.56788
0.0960708 0.663066 0.674113
0.183078 0.660807 0.780346
0.2701 0.658549 0.88658
0.357107 0.656291 0.992813
0.444114 0.654032 1
0 0.758602 0.22443
0 0.756344 0.330648
0.0610208 0.754086 0.436881
0.148028 0.751827 0.543114
0.23505 0.749569 0.649348
0.322057 0.747295 0.755581
0.409064 0.745037 0.861814
0.496071 0.742779 0.968048
0.583093 0.74052 1
0.0259861 0.845106 0.199664
0.112993 0.842847 0.305882
0.2 0.840574 0.412116
0.287007 0.838315 0.518349
0.374014 0.836057 0.624582
0.461021 0.833799 0.730816
0.548043 0.83154 0.837049
0.63505 0.829267 0.943297
0.722057 0.827008 1
0.16495 0.931594 0.174899
0.251957 0.929335 0.281117
0.338964 0.927077 0.38735
0.425971 0.924819 0.493599
0.512993 0.922545 0.599832
0.6 0.920287 0.706065
0.687007 0.918029 0.812299
0.774014 0.91577 0.918532
0.861036 0.913512 1
0.303929 1 0.150134
0.390921 1 0.256367
0.477943 1 0.3626
0.56495 1 0.468833
0.651957 1 0.575067
0.738964 1 0.6813
0.825986 1 0.787533
0.912993 1 0.893767
1 1 1
