public/LUTS/Color Shift/ColorShift_89.cube
TITLE "Generated by Resolve"
LUT_3D_SIZE 33
0 0 0
0.00148013 0.00265507 0.0487526
0.00297551 0.00531014 0.0975204
0.00445563 0.00798047 0.146288
0.00593576 0.0106355 0.195056
0.00743114 0.0132906 0.243824
0.00891127 0.0159609 0.292592
0.0103914 0.018616 0.34136
0.0118868 0.0212711 0.390127
0.0133669 0.0239261 0.438911
0.0148623 0.0265965 0.487678
0.0163424 0.0292515 0.536446
0.0178225 0.0319066 0.585214
0.0193179 0.0345617 0.633982
0.020798 0.037232 0.68275
0.0222782 0.0398871 0.731517
0.0237736 0.0425422 0.780285
0.0252537 0.0452125 0.829053
0.0267338 0.0478676 0.877836
0.0282292 0.0505226 0.926604
0.0297093 0.0531777 0.975372
0.0312047 0.055848 1
0.0326848 0.0585031 1
0.034165 0.0611582 1
0.0356603 0.0638285 1
0.0371405 0.0664836 1
0.0386206 0.0691386 1
0.040116 0.0717937 1
0.0415961 0.074464 1
0.0430762 0.0771191 1
0.0445716 0.0797742 1
0.0460517 0.0824292 1
0.0475319 0.0850996 1
0.0710918 0.00970474 0.00154116
0.0725872 0.0123598 0.0502937
0.0740673 0.0150301 0.0990616
0.0755474 0.0176852 0.147829
0.0770428 0.0203403 0.196597
0.0785229 0.0230106 0.245365
0.0800031 0.0256657 0.294133
0.0814984 0.0283207 0.342901
0.0829786 0.0309758 0.391669
0.0844587 0.0336461 0.440452
0.0859541 0.0363012 0.489219
0.0874342 0.0389563 0.537987
0.0889143 0.0416114 0.586755
0.0904097 0.0442817 0.635523
0.0918898 0.0469368 0.684291
0.0933852 0.0495918 0.733059
0.0948653 0.0522621 0.781826
0.0963455 0.0549172 0.83061
0.0978408 0.0575723 0.879377
0.099321 0.0602274 0.928145
0.100801 0.0628977 0.976913
0.102296 0.0655528 1
0.103777 0.0682078 1
0.105257 0.0708629 1
0.106752 0.0735332 1
0.108232 0.0761883 1
0.109728 0.0788434 1
0.111208 0.0815137 1
0.112688 0.0841688 1
0.114183 0.0868238 1
0.115663 0.0894789 1
0.117144 0.0921492 1
0.118639 0.0948043 1
0.142229 0.0194247 0.00308232
0.143709 0.0220798 0.0518349
0.14519 0.0247349 0.100603
0.146685 0.0273899 0.149371
0.148165 0.0300603 0.198138
0.149645 0.0327153 0.246906
0.151141 0.0353704 0.295674
0.152621 0.0380407 0.344442
0.154116 0.0406958 0.393225
0.155596 0.0433509 0.441993
0.157076 0.0460059 0.490761
0.158572 0.0486763 0.539528
0.160052 0.0513313 0.588296
0.161532 0.0539864 0.637064
0.163027 0.0566567 0.685832
0.164508 0.0593118 0.7346
0.165988 0.0619669 0.783383
0.167483 0.064622 0.832151
0.168963 0.0672923 0.880919
0.170443 0.0699474 0.929686
0.171939 0.0726024 0.978454
0.173419 0.0752575 1
0.174914 0.0779278 1
0.176394 0.0805829 1
0.177874 0.083238 1
0.17937 0.0859083 1
0.18085 0.0885634 1
0.18233 0.0912184 1
0.183825 0.0938735 1
0.185306 0.0965438 1
0.186786 0.0991989 1
0.188281 0.101854 1
0.189761 0.104509 1
0.213352 0.0291295 0.00462348
0.214832 0.0317845 0.0533761
0.216327 0.0344549 0.102144
0.217807 0.0371099 0.150912
0.219303 0.039765 0.19968
0.220783 0.0424353 0.248447
0.222263 0.0450904 0.297215
0.223758 0.0477455 0.345998
0.225238 0.0504005 0.394766
0.226719 0.0530709 0.443534
0.228214 0.0557259 0.492302
0.229694 0.058381 0.54107
0.231174 0.0610513 0.589837
0.23267 0.0637064 0.638605
0.23415 0.0663615 0.687373
0.235645 0.0690166 0.736156
0.237125 0.0716869 0.784924
0.238605 0.074342 0.833692
0.240101 0.076997 0.88246
0.241581 0.0796521 0.931228
0.243061 0.0823224 0.979995
0.244556 0.0849775 1
0.246036 0.0876326 1
0.247517 0.0903029 1
0.249012 0.092958 1
0.250492 0.095613 1
0.251972 0.0982681 1
0.253468 0.100938 1
0.254948 0.103593 1
0.256443 0.106249 1
0.257923 0.108904 1
0.259403 0.111574 1
0.260899 0.114229 1
0.284489 0.0388495 0.00616464
0.285969 0.0415045 0.0549172
0.287449 0.0441596 0.103685
0.288945 0.0468299 0.152453
0.290425 0.049485 0.201221
0.291905 0.0521401 0.249989
0.2934 0.0547951 0.298772
0.294881 0.0574655 0.347539
0.296361 0.0601205 0.396307
0.297856 0.0627756 0.445075
0.299336 0.0654307 0.493843
0.300832 0.068101 0.542611
0.302312 0.0707561 0.591379
0.303792 0.0734112 0.640146
0.305287 0.0760815 0.68893
0.306767 0.0787366 0.737697
0.308248 0.0813916 0.786465
0.309743 0.0840467 0.835233
0.311223 0.086717 0.884001
0.312703 0.0893721 0.932769
0.314199 0.0920272 0.981537
0.315679 0.0946975 1
0.317174 0.0973526 1
0.318654 0.100008 1
0.320134 0.102663 1
0.32163 0.105333 1
0.32311 0.107988 1
0.32459 0.110643 1
0.326085 0.113298 1
0.327565 0.115969 1
0.329046 0.118624 1
0.330541 0.121279 1
0.332021 0.123949 1
0.355612 0.0485542 0.00772107
0.357092 0.0512245 0.0564584
0.358587 0.0538796 0.105226
0.360067 0.0565347 0.153994
0.361563 0.0591897 0.202762
0.363043 0.0618601 0.251545
0.364523 0.0645151 0.300313
0.366018 0.0671702 0.349081
0.367498 0.0698253 0.397848
0.368978 0.0724956 0.446616
0.370474 0.0751507 0.495384
0.371954 0.0778058 0.544152
0.373434 0.0804761 0.59292
0.374929 0.0831311 0.641703
0.37641 0.0857862 0.690471
0.37789 0.0884413 0.739239
0.379385 0.0911116 0.788006
0.380865 0.0937667 0.836774
0.382361 0.0964218 0.885542
0.383841 0.0990768 0.93431
0.385321 0.101747 0.983078
0.386816 0.104402 1
0.388296 0.107057 1
0.389776 0.109728 1
0.391272 0.112383 1
0.392752 0.115038 1
0.394232 0.117693 1
0.395727 0.120363 1
0.397208 0.123018 1
0.398703 0.125673 1
0.400183 0.128344 1
0.401663 0.130999 1
0.403159 0.133654 1
0.426749 0.0582742 0.00926223
0.428229 0.0609293 0.0579995
0.429709 0.0635843 0.106767
0.431205 0.0662547 0.155535
0.432685 0.0689097 0.204318
0.434165 0.0715648 0.253086
0.43566 0.0742199 0.301854
0.43714 0.0768902 0.350622
0.438621 0.0795453 0.39939
0.440116 0.0822003 0.448157
0.441596 0.0848707 0.496925
0.443091 0.0875257 0.545693
0.444572 0.0901808 0.594476
0.446052 0.0928359 0.643244
0.447547 0.0955062 0.692012
0.449027 0.0981613 0.74078
0.450507 0.100816 0.789548
0.452003 0.103471 0.838315
0.453483 0.106142 0.887083
0.454963 0.108797 0.935851
0.456458 0.111452 0.984619
0.457938 0.114122 1
0.459419 0.116777 1
0.460914 0.119432 1
0.462394 0.122087 1
0.46389 0.124758 1
0.46537 0.127413 1
0.46685 0.130068 1
0.468345 0.132738 1
0.469825 0.135393 1
0.471305 0.138048 1
0.472801 0.140703 1
0.474281 0.143374 1
0.497871 0.0679789 0.0108034
0.499352 0.0706493 0.0595407
0.500847 0.0733043 0.108309
0.502327 0.0759594 0.157092
0.503822 0.0786145 0.205859
0.505302 0.0812848 0.254627
0.506783 0.0839399 0.303395
0.508278 0.0865949 0.352163
0.509758 0.0892653 0.400931
0.511238 0.0919203 0.449699
0.512734 0.0945754 0.498466
0.514214 0.0972305 0.54725
0.515694 0.0999008 0.596017
0.517189 0.102556 0.644785
0.518669 0.105211 0.693553
0.52015 0.107866 0.742321
0.521645 0.110536 0.791089
0.523125 0.113191 0.839857
0.52462 0.115846 0.888624
0.526101 0.118517 0.937407
0.527581 0.121172 0.986175
0.529076 0.123827 1
0.530556 0.126482 1
0.532036 0.129152 1
0.533532 0.131807 1
0.535012 0.134463 1
0.536492 0.137118 1
0.537987 0.139788 1
0.539467 0.142443 1
0.540948 0.145098 1
0.542443 0.147768 1
0.543923 0.150423 1
0.545419 0.153079 1
0.569009 0.0776989 0.0123445
0.570489 0.080354 0.0610971
0.571969 0.0830091 0.109865
0.573465 0.0856794 0.158633
0.574945 0.0883345 0.207401
0.576425 0.0909895 0.256168
0.57792 0.0936599 0.304936
0.5794 0.0963149 0.353704
0.58088 0.09897 0.402472
0.582376 0.101625 0.45124
0.583856 0.104295 0.500023
0.585351 0.10695 0.548791
0.586831 0.109606 0.597559
0.588312 0.112261 0.646326
0.589807 0.114931 0.695094
0.591287 0.117586 0.743862
0.592767 0.120241 0.79263
0.594263 0.122911 0.841398
0.595743 0.125566 0.890181
0.597223 0.128222 0.938949
0.598718 0.130877 0.987716
0.600198 0.133547 1
0.601678 0.136202 1
0.603174 0.138857 1
0.604654 0.141512 1
0.606149 0.144183 1
0.60763 0.146838 1
0.60911 0.149493 1
0.610605 0.152163 1
0.612085 0.154818 1
0.613565 0.157473 1
0.615061 0.160128 1
0.616541 0.162799 1
0.640131 0.0874037 0.0138857
0.641611 0.090074 0.0626383
0.643107 0.0927291 0.111406
0.644587 0.0953841 0.160174
0.646067 0.0980545 0.208942
0.647562 0.10071 0.25771
0.649042 0.103365 0.306477
0.650538 0.10602 0.355245
0.652018 0.10869 0.404013
0.653498 0.111345 0.452796
0.654994 0.114 0.501564
0.656474 0.116655 0.550332
0.657954 0.119326 0.5991
0.659449 0.121981 0.647868
0.660929 0.124636 0.696635
0.662409 0.127306 0.745403
0.663905 0.129961 0.794171
0.665385 0.132616 0.842954
0.666865 0.135271 0.891722
0.66836 0.137942 0.94049
0.669841 0.140597 0.989258
0.671336 0.143252 1
0.672816 0.145907 1
0.674296 0.148577 1
0.675792 0.151232 1
0.677272 0.153887 1
0.678752 0.156558 1
0.680247 0.159213 1
0.681727 0.161868 1
0.683207 0.164523 1
0.684703 0.167193 1
0.686183 0.169848 1
0.687678 0.172503 1
0.711269 0.0971237 0.0154269
0.712749 0.0997787 0.0641794
0.714229 0.102434 0.112947
0.715724 0.105104 0.161715
0.717205 0.107759 0.210483
0.718685 0.110414 0.259251
0.72018 0.113085 0.308019
0.72166 0.11574 0.356786
0.72314 0.118395 0.40557
0.724636 0.12105 0.454337
0.726116 0.12372 0.503105
0.727596 0.126375 0.551873
0.729091 0.12903 0.600641
0.730571 0.131701 0.649409
0.732067 0.134356 0.698177
0.733547 0.137011 0.746944
0.735027 0.139666 0.795727
0.736522 0.142336 0.844495
0.738003 0.144991 0.893263
0.739483 0.147646 0.942031
0.740978 0.150301 0.990799
0.742458 0.152972 1
0.743938 0.155627 1
0.745434 0.158282 1
0.746914 0.160952 1
0.748409 0.163607 1
0.749889 0.166262 1
0.751369 0.168917 1
0.752865 0.171588 1
0.754345 0.174243 1
0.755825 0.176898 1
0.757321 0.179553 1
0.758801 0.182223 1
0.782391 0.106844 0.016968
0.783871 0.109499 0.0657206
0.785367 0.112154 0.114488
0.786847 0.114809 0.163256
0.788327 0.117479 0.212024
0.789822 0.120134 0.260792
0.791302 0.122789 0.30956
0.792798 0.125444 0.358343
0.794278 0.128115 0.407111
0.795758 0.13077 0.455879
0.797253 0.133425 0.504646
0.798733 0.136095 0.553414
0.800214 0.13875 0.602182
0.801709 0.141405 0.65095
0.803189 0.14406 0.699718
0.804669 0.146731 0.748501
0.806165 0.149386 0.797269
0.807645 0.152041 0.846036
0.809125 0.154696 0.894804
0.81062 0.157366 0.943572
0.8121 0.160021 0.99234
0.813596 0.162676 1
0.815076 0.165347 1
0.816556 0.168002 1
0.818051 0.170657 1
0.819532 0.173312 1
0.821012 0.175982 1
0.822507 0.178637 1
0.823987 0.181292 1
0.825467 0.183948 1
0.826963 0.186618 1
0.828443 0.189273 1
0.829938 0.191928 1
0.853529 0.116548 0.0185092
0.855009 0.119203 0.0672618
0.856489 0.121874 0.11603
0.857984 0.124529 0.164797
0.859464 0.127184 0.213565
0.860945 0.129839 0.262333
0.86244 0.132509 0.311116
0.86392 0.135164 0.359884
0.8654 0.137819 0.408652
0.866896 0.140475 0.45742
0.868376 0.143145 0.506188
0.869856 0.1458 0.554955
0.871351 0.148455 0.603723
0.872831 0.151125 0.652491
0.874327 0.15378 0.701274
0.875807 0.156435 0.750042
0.877287 0.159091 0.79881
0.878782 0.161761 0.847578
0.880262 0.164416 0.896345
0.881743 0.167071 0.945113
0.883238 0.169741 0.993881
0.884718 0.172396 1
0.886198 0.175051 1
0.887694 0.177707 1
0.889174 0.180377 1
0.890654 0.183032 1
0.892149 0.185687 1
0.893629 0.188342 1
0.895125 0.191012 1
0.896605 0.193668 1
0.898085 0.196323 1
0.89958 0.198993 1
0.901061 0.201648 1
0.924651 0.126268 0.0200656
0.926131 0.128923 0.0688029
0.927626 0.131579 0.117571
0.929107 0.134234 0.166339
0.930587 0.136904 0.215106
0.932082 0.139559 0.26389
0.933562 0.142214 0.312657
0.935042 0.144869 0.361425
0.936538 0.147539 0.410193
0.938018 0.150195 0.458961
0.939513 0.15285 0.507729
0.940993 0.15552 0.556497
0.942473 0.158175 0.605264
0.943969 0.16083 0.654047
0.945449 0.163485 0.702815
0.946929 0.166155 0.751583
0.948425 0.168811 0.800351
0.949905 0.171466 0.849119
0.951385 0.174121 0.897887
0.95288 0.176791 0.946654
0.95436 0.179446 0.995422
0.955856 0.182101 1
0.957336 0.184771 1
0.958816 0.187427 1
0.960311 0.190082 1
0.961791 0.192737 1
0.963272 0.195407 1
0.964767 0.198062 1
0.966247 0.200717 1
0.967727 0.203387 1
0.969223 0.206043 1
0.970703 0.208698 1
0.972183 0.211353 1
0.995773 0.135973 0.0216068
0.997269 0.138628 0.0703441
0.998749 0.141299 0.119112
1 0.143954 0.16788
1 0.146609 0.216663
1 0.149264 0.265431
1 0.151934 0.314199
1 0.154589 0.362966
1 0.157244 0.411734
1 0.159915 0.460502
1 0.16257 0.50927
1 0.165225 0.558038
1 0.16788 0.606821
1 0.17055 0.655589
1 0.173205 0.704356
1 0.17586 0.753124
1 0.178515 0.801892
1 0.181186 0.85066
1 0.183841 0.899428
1 0.186496 0.948196
1 0.189166 0.996963
1 0.191821 1
1 0.194476 1
1 0.197131 1
1 0.199802 1
1 0.202457 1
1 0.205112 1
1 0.207782 1
1 0.210437 1
1 0.213092 1
1 0.215747 1
1 0.218418 1
1 0.221073 1
1 0.145693 0.0231479
1 0.148348 0.0718853
1 0.151003 0.120653
1 0.153658 0.169436
1 0.156329 0.218204
1 0.158984 0.266972
1 0.161639 0.31574
1 0.164309 0.364508
1 0.166964 0.413275
1 0.169619 0.462043
1 0.172274 0.510811
1 0.174945 0.559594
1 0.1776 0.608362
1 0.180255 0.65713
1 0.18291 0.705898
1 0.18558 0.754665
1 0.188235 0.803433
1 0.19089 0.852201
1 0.193561 0.900969
1 0.196216 0.949737
1 0.198871 0.99852
1 0.201526 1
1 0.204196 1
1 0.206851 1
1 0.209506 1
1 0.212161 1
1 0.214832 1
1 0.217487 1
1 0.220142 1
1 0.222812 1
1 0.225467 1
1 0.228122 1
1 0.230777 1
1 0.155398 0.0246891
1 0.158053 0.0734264
1 0.160723 0.12221
1 0.163378 0.170977
1 0.166033 0.219745
1 0.168704 0.268513
1 0.171359 0.317281
1 0.174014 0.366049
1 0.176669 0.414816
1 0.179339 0.463584
1 0.181994 0.512367
1 0.184649 0.561135
1 0.187304 0.609903
1 0.189975 0.658671
1 0.19263 0.707439
1 0.195285 0.756207
1 0.197955 0.804974
1 0.20061 0.853742
1 0.203265 0.902525
1 0.205921 0.951293
1 0.208591 1
1 0.211246 1
1 0.213901 1
1 0.216556 1
1 0.219226 1
1 0.221881 1
1 0.224537 1
1 0.227207 1
1 0.229862 1
1 0.232517 1
1 0.235172 1
1 0.237842 1
1 0.240497 1
1 0.165118 0.0262303
1 0.167773 0.0749828
1 0.170428 0.123751
1 0.173098 0.172519
1 0.175753 0.221286
1 0.178408 0.270054
1 0.181064 0.318822
1 0.183734 0.36759
1 0.186389 0.416358
1 0.189044 0.465141
1 0.191699 0.513909
1 0.194369 0.562676
1 0.197024 0.611444
1 0.19968 0.660212
1 0.20235 0.70898
1 0.205005 0.757748
1 0.20766 0.806516
1 0.210315 0.855299
1 0.212985 0.904067
1 0.215641 0.952834
1 0.218296 1
1 0.220951 1
1 0.223621 1
1 0.226276 1
1 0.228931 1
1 0.231601 1
1 0.234257 1
1 0.236912 1
1 0.239567 1
1 0.242237 1
1 0.244892 1
1 0.247547 1
1 0.250202 1
1 0.174823 0.0277714
1 0.177478 0.076524
1 0.180148 0.125292
1 0.182803 0.17406
1 0.185458 0.222827
1 0.188128 0.271595
1 0.190784 0.320363
1 0.193439 0.369131
1 0.196094 0.417914
1 0.198764 0.466682
1 0.201419 0.51545
1 0.204074 0.564218
1 0.206744 0.612985
1 0.2094 0.661753
1 0.212055 0.710521
1 0.21471 0.759289
1 0.21738 0.808072
1 0.220035 0.85684
1 0.22269 0.905608
1 0.225345 0.954376
1 0.228016 1
1 0.230671 1
1 0.233326 1
1 0.235996 1
1 0.238651 1
1 0.241306 1
1 0.243961 1
1 0.246632 1
1 0.249287 1
1 0.251942 1
1 0.254597 1
1 0.257267 1
1 0.259922 1
1 0.184543 0.0293126
1 0.187198 0.0780652
1 0.189853 0.126833
1 0.192523 0.175601
1 0.195178 0.224369
1 0.197833 0.273136
1 0.200488 0.321904
1 0.203159 0.370687
1 0.205814 0.419455
1 0.208469 0.468223
1 0.211139 0.516991
1 0.213794 0.565759
1 0.216449 0.614527
1 0.219104 0.663294
1 0.221775 0.712062
1 0.22443 0.760845
1 0.227085 0.809613
1 0.22974 0.858381
1 0.23241 0.907149
1 0.235065 0.955917
1 0.23772 1
1 0.240391 1
1 0.243046 1
1 0.245701 1
1 0.248356 1
1 0.251026 1
1 0.253681 1
1 0.256336 1
1 0.258991 1
1 0.261662 1
1 0.264317 1
1 0.266972 1
1 0.269642 1
1 0.194247 0.0308537
1 0.196918 0.0796063
1 0.199573 0.128374
1 0.202228 0.177142
1 0.204883 0.22591
1 0.207553 0.274678
1 0.210208 0.323461
1 0.212863 0.372229
1 0.215518 0.420996
1 0.218189 0.469764
1 0.220844 0.518532
1 0.223499 0.5673
1 0.226169 0.616068
1 0.228824 0.664836
1 0.231479 0.713619
1 0.234134 0.762387
1 0.236805 0.811154
1 0.23946 0.859922
1 0.242115 0.90869
1 0.244785 0.957458
1 0.24744 1
1 0.250095 1
1 0.25275 1
1 0.255421 1
1 0.258076 1
1 0.260731 1
1 0.263386 1
1 0.266056 1
1 0.268711 1
1 0.271366 1
1 0.274037 1
1 0.276692 1
1 0.279347 1
1 0.203967 0.0324102
1 0.206622 0.0811475
1 0.209277 0.129915
1 0.211948 0.178683
1 0.214603 0.227451
1 0.217258 0.276234
1 0.219913 0.325002
1 0.222583 0.37377
1 0.225238 0.422538
1 0.227893 0.471305
1 0.230564 0.520073
1 0.233219 0.568841
1 0.235874 0.617609
1 0.238529 0.666392
1 0.241199 0.71516
1 0.243854 0.763928
1 0.246509 0.812696
1 0.249165 0.861463
1 0.251835 0.910231
1 0.25449 0.958999
1 0.257145 1
1 0.259815 1
1 0.26247 1
1 0.265126 1
1 0.267781 1
1 0.270451 1
1 0.273106 1
1 0.275761 1
1 0.278431 1
1 0.281086 1
1 0.283742 1
1 0.286397 1
1 0.289067 1
1 0.213672 0.0339513
1 0.216342 0.0826886
1 0.218997 0.131456
1 0.221653 0.180224
1 0.224308 0.229007
1 0.226978 0.277775
1 0.229633 0.326543
1 0.232288 0.375311
1 0.234958 0.424079
1 0.237613 0.472847
1 0.240269 0.521614
1 0.242924 0.570382
1 0.245594 0.619165
1 0.248249 0.667933
1 0.250904 0.716701
1 0.253559 0.765469
1 0.256229 0.814237
1 0.258885 0.863005
1 0.26154 0.911772
1 0.26421 0.96054
1 0.266865 1
1 0.26952 1
1 0.272175 1
1 0.274846 1
1 0.277501 1
1 0.280156 1
1 0.282826 1
1 0.285481 1
1 0.288136 1
1 0.290791 1
1 0.293462 1
1 0.296117 1
1 0.298772 1
1 0.223392 0.0354925
1 0.226047 0.0842298
1 0.228702 0.132998
1 0.231373 0.181781
1 0.234028 0.230549
1 0.236683 0.279316
1 0.239353 0.328084
1 0.242008 0.376852
1 0.244663 0.42562
1 0.247318 0.474388
1 0.249989 0.523156
1 0.252644 0.571939
1 0.255299 0.620706
1 0.257954 0.669474
1 0.260624 0.718242
1 0.263279 0.76701
1 0.265934 0.815778
1 0.268605 0.864546
1 0.27126 0.913314
1 0.273915 0.962081
1 0.27657 1
1 0.27924 1
1 0.281895 1
1 0.28455 1
1 0.287205 1
1 0.289876 1
1 0.292531 1
1 0.295186 1
1 0.297856 1
1 0.300511 1
1 0.303166 1
1 0.305821 1
1 0.308492 1
1 0.233112 0.0370336
1 0.235767 0.085771
1 0.238422 0.134554
1 0.241077 0.183322
1 0.243748 0.23209
1 0.246403 0.280858
1 0.249058 0.329625
1 0.251713 0.378393
1 0.254383 0.427161
1 0.257038 0.475929
1 0.259693 0.524712
1 0.262348 0.57348
1 0.265019 0.622248
1 0.267674 0.671016
1 0.270329 0.719783
1 0.272999 0.768551
1 0.275654 0.817319
1 0.278309 0.866087
1 0.280964 0.914855
1 0.283635 0.963638
1 0.28629 1
1 0.288945 1
1 0.2916 1
1 0.29427 1
1 0.296925 1
1 0.29958 1
1 0.302251 1
1 0.304906 1
1 0.307561 1
1 0.310216 1
1 0.312886 1
1 0.315541 1
1 0.318196 1
1 0.242817 0.0385748
1 0.245472 0.0873274
1 0.248142 0.136095
1 0.250797 0.184863
1 0.253452 0.233631
1 0.256107 0.282399
1 0.258778 0.331167
1 0.261433 0.379934
1 0.264088 0.428702
1 0.266743 0.477485
1 0.269413 0.526253
1 0.272068 0.575021
1 0.274723 0.623789
1 0.277394 0.672557
1 0.280049 0.721325
1 0.282704 0.770092
1 0.285359 0.81886
1 0.288029 0.867643
1 0.290684 0.916411
1 0.293339 0.965179
1 0.295995 1
1 0.298665 1
1 0.30132 1
1 0.303975 1
1 0.306645 1
1 0.3093 1
1 0.311955 1
1 0.314611 1
1 0.317281 1
1 0.319936 1
1 0.322591 1
1 0.325246 1
1 0.327916 1
1 0.252537 0.040116
1 0.255192 0.0888685
1 0.257847 0.137636
1 0.260502 0.186404
1 0.263172 0.235172
1 0.265827 0.28394
1 0.268482 0.332708
1 0.271138 0.381476
1 0.273808 0.430259
1 0.276463 0.479026
1 0.279118 0.527794
1 0.281788 0.576562
1 0.284443 0.62533
1 0.287098 0.674098
1 0.289754 0.722866
1 0.292424 0.771634
1 0.295079 0.820417
1 0.297734 0.869184
1 0.300389 0.917952
1 0.303059 0.96672
1 0.305715 1
1 0.30837 1
1 0.31104 1
1 0.313695 1
1 0.31635 1
1 0.319005 1
1 0.321675 1
1 0.324331 1
1 0.326986 1
1 0.329641 1
1 0.332311 1
1 0.334966 1
1 0.337621 1
1 0.262242 0.0416571
1 0.264897 0.0904097
1 0.267567 0.139178
1 0.270222 0.187945
1 0.272877 0.236713
1 0.275532 0.285481
1 0.278202 0.334249
1 0.280858 0.383032
1 0.283513 0.4318
