public/LUTS/Color Shift/ColorShift_21.cube
TITLE "Generated by Resolve"
LUT_3D_SIZE 5
0 0 0
0.191119 0.0298924 0
0.382239 0.0597848 0
0.573373 0.0896925 0
0.764492 0.119585 0
0 0.25539 0.119509
0.12192 0.285283 0.0243534
0.313039 0.315175 0
0.504158 0.345068 0
0.695293 0.374975 0
0 0.510781 0.239017
0.0527047 0.540688 0.143862
0.243839 0.570581 0.0487068
0.434958 0.600473 0
0.626078 0.630365 0
0 0.766186 0.358526
0 0.796078 0.263371
0.174624 0.825986 0.168215
0.365743 0.855879 0.0730602
0.556878 0.885771 0
0 1 0.478035
0 1 0.382879
0.105425 1 0.287724
0.296544 1 0.192584
0.487663 1 0.0974289
0.128069 0 0.225635
0.319188 0 0.13048
0.510323 0.024506 0.0353246
0.701442 0.0543984 0
0.892576 0.0842908 0
0.0588693 0.220096 0.345144
0.249989 0.249989 0.249989
0.441108 0.279881 0.154833
0.632242 0.309773 0.059678
0.823362 0.339681 0
0 0.475502 0.464652
0.180789 0.505394 0.369497
0.371908 0.535286 0.274342
0.563027 0.565179 0.179187
0.754162 0.595071 0.0840314
0 0.730892 0.584161
0.111574 0.760784 0.489006
0.302708 0.790692 0.393851
0.493828 0.820584 0.298695
0.684947 0.850477 0.20354
0 0.986297 0.70367
0.0423743 1 0.608515
0.233494 1 0.513359
0.424613 1 0.418204
0.615747 1 0.323064
0.256168 0 0.451286
0.447272 0 0.35613
0.638407 0 0.260975
0.829526 0.0191043 0.16582
1 0.0489967 0.0706645
0.186954 0.184802 0.570779
0.378073 0.214694 0.475639
0.569192 0.244587 0.380484
0.760327 0.274495 0.285328
0.951446 0.304387 0.190173
0.117754 0.440208 0.690288
0.308873 0.4701 0.595148
0.499992 0.499992 0.499992
0.691112 0.529885 0.404837
0.882246 0.559777 0.309682
0.0485389 0.695598 0.809812
0.239658 0.72549 0.714656
0.430793 0.755398 0.619501
0.621912 0.78529 0.524346
0.813031 0.815183 0.429191
0 0.951003 0.92932
0.170459 0.980896 0.834165
0.361578 1 0.73901
0.552712 1 0.643854
0.743832 1 0.548699
0.384253 0 0.676936
0.575357 0 0.581781
0.766491 0 0.486625
0.95761 0 0.39147
1 0.0137026 0.296315
0.315038 0.149508 0.796429
0.506157 0.1794 0.701289
0.697292 0.209293 0.606134
0.888411 0.2392 0.510979
1 0.269093 0.415824
0.245838 0.404913 0.915938
0.436957 0.434806 0.820798
0.628077 0.464698 0.725643
0.819211 0.494591 0.630488
1 0.524498 0.535332
0.176623 0.660304 1
0.367742 0.690211 0.940307
0.558877 0.720104 0.845151
0.749996 0.749996 0.749996
0.941115 0.779889 0.654841
0.107424 0.915709 1
0.298543 0.945602 1
0.489662 0.975494 0.96466
0.680797 1 0.869505
0.871916 1 0.77435
0.512337 0 0.902571
0.703441 0 0.807431
0.894575 0 0.712276
1 0 0.617121
1 0 0.521965
0.443122 0.114214 1
0.634241 0.144106 0.926925
0.825376 0.173999 0.831785
1 0.203906 0.736629
1 0.233799 0.641474
0.373922 0.369619 1
0.565042 0.399512 1
0.756161 0.429404 0.951293
0.947295 0.459297 0.856138
1 0.489204 0.760983
0.304707 0.62501 1
0.495827 0.654917 1
0.686961 0.68481 1
0.87808 0.714702 0.975647
1 0.744595 0.880491
0.235508 0.880415 1
0.426627 0.910307 1
0.617746 0.940215 1
0.808881 0.970108 1
1 1 1
