public/LUTS/Color Shift/ColorShift_68.cube
TITLE "Generated by Resolve"
LUT_3D_SIZE 9
0 0 0
0.127138 0.0138247 0
0.254292 0.0276646 0
0.38146 0.0414893 0
0.508614 0.0553292 0
0.635767 0.0691539 0
0.762921 0.0829938 0
0.890089 0.0968185 0
1 0.110658 0
0 0.153872 0.0661784
0.00251774 0.167697 0
0.129671 0.181521 0
0.256825 0.195361 0
0.383978 0.209186 0
0.511147 0.223026 0
0.6383 0.236851 0
0.765454 0.25069 0
0.892607 0.264515 0
0 0.307759 0.132357
0 0.321584 0.0197604
0.00503548 0.335409 0
0.132189 0.349248 0
0.259342 0.363073 0
0.386496 0.376913 0
0.513664 0.390738 0
0.640818 0.404578 0
0.767971 0.418402 0
0 0.461646 0.198535
0 0.475471 0.0859388
0 0.489296 0
0.00753796 0.503136 0
0.134707 0.51696 0
0.26186 0.5308 0
0.389013 0.544625 0
0.516167 0.558465 0
0.643336 0.57229 0
0 0.615518 0.264729
0 0.629358 0.152117
0 0.643183 0.0395056
0 0.657023 0
0.0100557 0.670848 0
0.137224 0.684688 0
0.264378 0.698512 0
0.391531 0.712352 0
0.518685 0.726177 0
0 0.769406 0.330907
0 0.783246 0.218311
0 0.79707 0.105699
0 0.81091 0
0 0.824735 0
0.0125734 0.838575 0
0.139727 0.852399 0
0.266896 0.866224 0
0.394049 0.880064 0
0 0.923293 0.397086
0 0.937133 0.284489
0 0.950957 0.171878
0 0.964797 0.059266
0 0.978622 0
0 0.992447 0
0.0150912 1 0
0.142245 1 0
0.269398 1 0
0 1 0.463279
0 1 0.350668
0 1 0.238056
0 1 0.125444
0 1 0.0128328
0 1 0
0 1 0
0.0176089 1 0
0.144762 1 0
0 1 0.529458
0 1 0.416861
0 1 0.304234
0 1 0.191623
0 1 0.0790112
0 1 0
0 1 0
0 1 0
0.0201267 1 0
0.122469 0 0.17142
0.249607 0 0.0588083
0.376776 0 0
0.503929 0 0
0.631083 0.0126192 0
0.758236 0.0264439 0
0.885405 0.0402838 0
1 0.0541085 0
1 0.0679332 0
0 0.111162 0.237583
0.124987 0.124987 0.124987
0.25214 0.138811 0.0123751
0.379294 0.152651 0
0.506462 0.166476 0
0.633616 0.180316 0
0.760769 0.194141 0
0.887922 0.20798 0
1 0.221805 0
0 0.265049 0.303777
0.000350958 0.278874 0.191165
0.127504 0.292699 0.0785534
0.254658 0.306538 0
0.381811 0.320363 0
0.508965 0.334203 0
0.636133 0.348028 0
0.763287 0.361868 0
0.89044 0.375692 0
0 0.418921 0.369955
0 0.432761 0.257359
0.00285344 0.446586 0.144732
0.130022 0.460426 0.0321202
0.257176 0.47425 0
0.384329 0.48809 0
0.511482 0.501915 0
0.638651 0.515755 0
0.765805 0.52958 0
0 0.572808 0.436133
0 0.586648 0.323537
0 0.600473 0.210925
0.00537118 0.614313 0.0983139
0.132525 0.628138 0
0.259693 0.641978 0
0.386847 0.655802 0
0.514 0.669627 0
0.641154 0.683467 0
0 0.726696 0.502327
0 0.740536 0.389715
0 0.75436 0.277104
0 0.7682 0.164492
0.00788891 0.782025 0.0518807
0.135042 0.79585 0
0.262211 0.809689 0
0.389364 0.823514 0
0.516518 0.837354 0
0 0.880583 0.568505
0 0.894423 0.455909
0 0.908248 0.343282
0 0.922072 0.230671
0 0.935912 0.118059
0.0104067 0.949737 0.00544747
0.13756 0.963577 0
0.264714 0.977401 0
0.391882 0.991241 0
0 1 0.634684
0 1 0.522087
0 1 0.409476
0 1 0.296849
0 1 0.184237
0 1 0.0716259
0.0129244 1 0
0.140078 1 0
0.267231 1 0
0 1 0.700877
0 1 0.588266
0 1 0.475654
0 1 0.363043
0 1 0.250431
0 1 0.137804
0 1 0.0251926
0.0154421 1 0
0.142596 1 0
0.244953 0 0.34284
0.372107 0 0.230243
0.49926 0 0.117632
0.626413 0 0.00502022
0.753567 0 0
0.88072 0 0
1 0 0
1 0.0113985 0
1 0.0252232 0
0.120333 0.0684367 0.409018
0.247471 0.0822766 0.296422
0.374624 0.0961013 0.18381
0.501793 0.109941 0.0711833
0.628946 0.123766 0
0.7561 0.137591 0
0.883253 0.151431 0
1 0.165255 0
1 0.179095 0
0 0.222324 0.475212
0.122835 0.236164 0.3626
0.249989 0.249989 0.249989
0.377142 0.263813 0.137377
0.504295 0.277653 0.0247654
0.631464 0.291478 0
0.758618 0.305318 0
0.885771 0.319142 0
1 0.332982 0
0 0.376211 0.54139
0 0.390036 0.428794
0.125353 0.403876 0.316167
0.252506 0.4177 0.203555
0.37966 0.43154 0.0909438
0.506813 0.445365 0
0.633982 0.459205 0
0.761135 0.47303 0
0.888289 0.48687 0
0 0.530098 0.607569
0 0.543923 0.494972
0.000701915 0.557763 0.382361
0.127855 0.571588 0.269734
0.255024 0.585428 0.157122
0.382177 0.599252 0.0445106
0.509331 0.613092 0
0.636484 0.626917 0
0.763653 0.640757 0
0 0.683986 0.673762
0 0.69781 0.561151
0 0.71165 0.448539
0.00321965 0.725475 0.335927
0.130373 0.739315 0.223316
0.257542 0.75314 0.110689
0.384695 0.766979 0
0.511849 0.780804 0
0.639002 0.794629 0
0 0.837873 0.73994
0 0.851698 0.627329
0 0.865538 0.514717
0 0.879362 0.402106
0.00573739 0.893202 0.289494
0.132891 0.907027 0.176883
0.260044 0.920851 0.0642557
0.387213 0.934691 0
0.514366 0.948516 0
0 0.99176 0.806119
0 1 0.693523
0 1 0.580911
0 1 0.468284
0 1 0.355673
0.00825513 1 0.243061
0.135409 1 0.130449
0.262562 1 0.0178225
0.389715 1 0
0 1 0.872297
0 1 0.759701
0 1 0.647089
0 1 0.534478
0 1 0.421851
0 1 0.309239
0.0107729 1 0.196628
0.137926 1 0.0840162
0.26508 1 0
0.367453 0 0.514275
0.494591 0 0.401679
0.621744 0 0.289067
0.748898 0 0.176455
0.876051 0 0.0638285
1 0 0
1 0 0
1 0 0
1 0 0
0.242817 0.0257267 0.580453
0.369955 0.0395514 0.467857
0.497124 0.0533913 0.355245
0.624277 0.067216 0.242618
0.751431 0.0810559 0.130007
0.878584 0.0948806 0.0173953
1 0.108721 0
1 0.122545 0
1 0.13637 0
0.118181 0.179614 0.646632
0.245319 0.193439 0.534035
0.372473 0.207279 0.421424
0.499626 0.221103 0.308812
0.626795 0.234943 0.196185
0.753948 0.248768 0.0835737
0.881102 0.262592 0
1 0.276432 0
1 0.290257 0
0 0.333501 0.712825
0.120684 0.347326 0.600214
0.247837 0.361166 0.487602
0.37499 0.37499 0.37499
0.502144 0.388815 0.262379
0.629297 0.402655 0.149767
0.756466 0.41648 0.0371405
0.883619 0.43032 0
1 0.444144 0
0 0.487388 0.779004
0 0.501213 0.666407
0.123186 0.515038 0.553796
0.250355 0.528878 0.441169
0.377508 0.542702 0.328557
0.504662 0.556542 0.215946
0.631815 0.570367 0.103334
0.758984 0.584207 0
0.886137 0.598032 0
0 0.641276 0.845182
0 0.6551 0.732586
0 0.668925 0.619974
0.125704 0.682765 0.507362
0.252857 0.69659 0.394736
0.380026 0.71043 0.282124
0.507179 0.724254 0.169512
0.634333 0.738094 0.0569009
0.761486 0.751919 0
0 0.795163 0.911376
0 0.808988 0.798764
0 0.822812 0.686152
0.00106813 0.836652 0.573541
0.128222 0.850477 0.460929
0.255375 0.864317 0.348318
0.382528 0.878141 0.235691
0.509697 0.891981 0.123079
0.636851 0.905806 0.0104677
0 0.949035 0.977554
0 0.962875 0.864958
0 0.976699 0.752331
0 0.990539 0.639719
0.00358587 1 0.527108
0.130739 1 0.414496
0.257893 1 0.301885
0.385046 1 0.189258
0.512215 1 0.0766461
0 1 1
0 1 0.931136
0 1 0.818524
0 1 0.705913
0 1 0.593286
0.00610361 1 0.480674
0.133257 1 0.368063
0.26041 1 0.255451
0.387564 1 0.142824
0.489937 0 0.68571
0.617075 0 0.573114
0.744228 0 0.460502
0.871382 0 0.347875
0.99855 0 0.235264
1 0 0.122652
1 0 0.0100404
1 0 0
1 0 0
0.365301 0 0.751888
0.492454 0 0.639292
0.619608 0.0106661 0.526665
0.746761 0.024506 0.414054
0.873915 0.0383307 0.301442
1 0.0521706 0.18883
1 0.0659953 0.0762188
1 0.0798352 0
1 0.0936599 0
0.240665 0.136889 0.818067
0.367803 0.150729 0.70547
0.494957 0.164553 0.592859
0.622126 0.178393 0.480247
0.749279 0.192218 0.36762
0.876432 0.206058 0.255009
1 0.219883 0.142397
1 0.233722 0.0297856
1 0.247547 0
0.11603 0.290776 0.88426
0.243168 0.304616 0.771649
0.370321 0.318441 0.659037
0.497475 0.33228 0.546426
0.624628 0.346105 0.433814
0.751797 0.359945 0.321187
0.87895 0.37377 0.208576
1 0.387594 0.095964
1 0.401434 0
0 0.444663 0.950439
0.118517 0.458503 0.837842
0.245686 0.472328 0.725216
0.372839 0.486168 0.612604
0.499992 0.499992 0.499992
0.627146 0.513817 0.387381
0.754299 0.527657 0.274769
0.881468 0.541482 0.162142
1 0.555322 0.0495308
0 0.59855 1
0 0.61239 0.904021
0.121035 0.626215 0.791409
0.248188 0.64004 0.678798
0.375357 0.65388 0.566171
0.50251 0.667704 0.453559
0.629664 0.681544 0.340948
0.756817 0.695369 0.228336
0.883986 0.709209 0.115709
0 0.752438 1
0 0.766262 0.970199
0 0.780102 0.857588
0.123552 0.793927 0.744976
0.250706 0.807767 0.632364
0.377859 0.821591 0.519738
0.505028 0.835431 0.407126
0.632181 0.849256 0.294514
0.759335 0.863096 0.181903
0 0.906325 1
0 0.92015 1
0 0.933989 0.923766
0 0.947814 0.811154
0.12607 0.961654 0.698543
0.253223 0.975479 0.585931
0.380377 0.989319 0.47332
0.507546 1 0.360693
0.634699 1 0.248081
0 1 1
0 1 1
0 1 0.98996
0 1 0.877333
0.00141909 1 0.764721
0.128588 1 0.65211
0.255741 1 0.539498
0.382895 1 0.426886
0.510048 1 0.31426
0.612421 0 0.857145
0.739559 0 0.744549
0.866712 0 0.631937
0.993881 0 0.51931
1 0 0.406699
1 0 0.294087
1 0 0.181476
1 0 0.0688487
1 0 0
0.487785 0 0.923323
0.614939 0 0.810727
0.742092 0 0.6981
0.869245 0 0.585489
0.996399 0 0.472877
1 0.00944533 0.360265
1 0.0232853 0.247654
1 0.0371099 0.135027
1 0.0509499 0.0224155
0.363149 0.0941787 0.989502
0.490288 0.108003 0.876905
0.617456 0.121843 0.764294
0.74461 0.135668 0.651667
0.871763 0.149508 0.539055
0.998917 0.163333 0.426444
1 0.177172 0.313832
1 0.190997 0.201221
1 0.204837 0.0885939
0.238514 0.248066 1
0.365652 0.261891 0.943084
0.492805 0.275731 0.830472
0.619959 0.289555 0.717861
0.747127 0.303395 0.605249
0.874281 0.31722 0.492622
1 0.33106 0.380011
1 0.344884 0.267399
1 0.358724 0.154788
0.113863 0.401953 1
0.241016 0.415778 1
0.36817 0.429618 0.896651
0.495323 0.443442 0.784039
0.622477 0.457282 0.671427
0.74963 0.471107 0.558816
0.876799 0.484947 0.446189
1 0.498772 0.333577
1 0.512596 0.220966
0 0.55584 1
0.116365 0.569665 1
0.243519 0.583505 0.962844
0.370687 0.59733 0.850217
0.497841 0.61117 0.737606
0.624994 0.624994 0.624994
0.752148 0.638819 0.512383
0.879301 0.652659 0.399771
1 0.666484 0.287144
0 0.709728 1
0 0.723552 1
0.118883 0.737392 1
0.246036 0.751217 0.916411
0.37319 0.765042 0.8038
0.500359 0.778881 0.691173
0.627512 0.792706 0.578561
0.754665 0.806546 0.46595
0.881819 0.820371 0.353338
0 0.863615 1
0 0.87744 1
0 0.891264 1
0.121401 0.905104 0.982589
0.248554 0.918929 0.869978
0.375708 0.932769 0.757366
0.502861 0.946593 0.644739
0.63003 0.960433 0.532128
0.757183 0.974258 0.419516
0 1 1
0 1 1
0 1 1
0 1 1
0.123919 1 0.936156
0.251072 1 0.823545
0.378225 1 0.710933
0.505379 1 0.598321
0.632547 1 0.485695
0.734905 0 1
0.862043 0 0.915984
0.989197 0 0.803372
1 0 0.690745
1 0 0.578134
1 0 0.465522
1 0 0.352911
1 0 0.240284
1 0 0.127672
0.610285 0 1
0.737423 0 0.982162
0.864576 0 0.869535
0.99173 0 0.756924
1 0 0.644312
1 0 0.531701
1 0 0.419074
1 0 0.306462
1 0.00822461 0.193851
0.485634 0.0514687 1
0.612772 0.0652934 1
0.73994 0.0791333 0.935729
0.867094 0.092958 0.823102
0.994247 0.106783 0.710491
1 0.120623 0.597879
1 0.134447 0.485267
1 0.148287 0.372656
1 0.162112 0.260029
0.360998 0.205356 1
0.488136 0.219181 1
0.61529 0.233005 1
0.742458 0.246845 0.889296
0.869612 0.26067 0.776669
0.996765 0.27451 0.664057
1 0.288334 0.551446
1 0.302174 0.438834
1 0.315999 0.326223
0.236347 0.359243 1
0.3635 0.373068 1
0.490654 0.386892 1
0.617807 0.400732 0.955474
0.744961 0.414557 0.842863
0.872129 0.428397 0.730251
0.999283 0.442222 0.617624
1 0.456062 0.505013
1 0.469886 0.392401
0.111711 0.513115 1
0.238849 0.526955 1
0.366018 0.54078 1
0.493172 0.55462 1
0.620325 0.568444 0.909041
0.747478 0.582284 0.796429
0.874632 0.596109 0.683818
1 0.609949 0.571191
1 0.623774 0.458579
0 0.667002 1
0.114214 0.680842 1
0.241367 0.694667 1
0.368521 0.708507 1
0.495689 0.722332 0.975219
0.622843 0.736171 0.862608
0.749996 0.749996 0.749996
0.87715 0.763821 0.637385
1 0.777661 0.524773
0 0.82089 1
0 0.83473 1
0.116732 0.848554 1
0.243885 0.862394 1
0.371038 0.876219 1
0.498192 0.890043 0.928801
0.62536 0.903883 0.816175
0.752514 0.917708 0.703563
0.879667 0.931548 0.590951
0 0.974777 1
0 0.988617 1
0 1 1
0.119249 1 1
0.246403 1 1
0.373556 1 0.99498
0.50071 1 0.882368
0.627863 1 0.769741
0.755032 1 0.65713
0.857389 0 1
0.984527 0 1
1 0 0.974792
1 0 0.862181
1 0 0.749569
1 0 0.636957
1 0 0.524346
1 0 0.411719
1 0 0.299107
0.732769 0 1
0.859907 0 1
0.98706 0 1
1 0 0.928359
1 0 0.815747
1 0 0.703136
1 0 0.590509
1 0 0.477897
1 0 0.365286
0.608118 0.00874342 1
0.735271 0.0225834 1
0.862425 0.036408 1
0.989578 0.050248 0.994537
1 0.0640726 0.881926
1 0.0779126 0.769314
1 0.0917372 0.656703
1 0.105562 0.544076
1 0.119402 0.431464
0.483482 0.162631 1
0.61062 0.176471 1
0.737774 0.190295 1
0.864942 0.204135 1
0.992096 0.21796 0.948104
1 0.231785 0.835492
1 0.245624 0.722881
1 0.259449 0.610269
1 0.273289 0.497658
0.358846 0.316518 1
0.485985 0.330358 1
0.613138 0.344182 1
0.740291 0.358007 1
0.86746 0.371847 1
0.994614 0.385672 0.901671
1 0.399512 0.789059
1 0.413336 0.676448
1 0.427176 0.563836
0.234195 0.470405 1
0.361334 0.48423 1
0.488502 0.49807 1
0.615656 0.511894 1
0.742809 0.525734 1
0.869963 0.539559 0.967865
0.997131 0.553399 0.855253
1 0.567224 0.742626
1 0.581064 0.630014
0.10956 0.624292 1
0.236698 0.638117 1
0.363851 0.651957 1
0.491005 0.665782 1
0.618173 0.679622 1
0.745327 0.693446 1
0.87248 0.707286 0.921431
0.999634 0.721111 0.80882
1 0.734951 0.696193
0 0.77818 1
0.112062 0.792004 1
0.239216 0.805844 1
0.366369 0.819669 1
0.493523 0.833509 1
0.620691 0.847333 1
0.747845 0.861173 0.98761
0.874998 0.874998 0.874998
1 0.888823 0.762387
0 0.932067 1
0 0.945891 1
0.11458 0.959731 1
0.241733 0.973556 1
0.368887 0.987396 1
0.49604 1 1
0.623194 1 1
0.750362 1 0.941176
0.877516 1 0.828565
0.979873 0 1
1 0 1
1 0 1
1 0 1
1 0 0.921004
1 0 0.808392
1 0 0.695766
1 0 0.583154
1 0 0.470542
0.855253 0 1
0.982391 0 1
1 0 1
1 0 1
1 0 0.987182
1 0 0.874556
1 0 0.761944
1 0 0.649332
1 0 0.536721
0.730617 0 1
0.857755 0 1
0.984909 0 1
1 0.0075227 1
1 0.0213626 1
1 0.0351873 0.940749
1 0.0490272 0.828138
1 0.0628519 0.715511
1 0.0766918 0.602899
0.605966 0.119921 1
0.733104 0.133745 1
0.860273 0.147585 1
0.987427 0.16141 1
1 0.17525 1
1 0.189075 1
1 0.202914 0.894316
1 0.216739 0.781704
1 0.230564 0.669078
0.481331 0.273808 1
0.608469 0.287633 1
0.735622 0.301472 1
0.862776 0.315297 1
0.989944 0.329137 1
1 0.342962 1
1 0.356786 0.960494
1 0.370626 0.847883
1 0.384451 0.735271
0.35668 0.427695 1
0.483833 0.44152 1
0.610986 0.45536 1
0.73814 0.469184 1
0.865293 0.483009 1
0.992462 0.496849 1
1 0.510674 1
1 0.524514 0.914061
1 0.538338 0.80145
0.232044 0.581582 1
0.359182 0.595407 1
0.486336 0.609232 1
0.613504 0.623072 1
0.740658 0.636896 1
0.867811 0.650736 1
0.994965 0.664561 1
1 0.678401 0.980255
1 0.692226 0.867628
0.107408 0.73547 1
0.234546 0.749294 1
0.3617 0.763119 1
0.488853 0.776959 1
0.616022 0.790784 1
0.743175 0.804623 1
0.870329 0.818448 1
0.997482 0.832288 1
1 0.846113 0.933822
0 0.889342 1
0.109895 0.903181 1
0.237064 0.917006 1
0.364218 0.930846 1
0.491371 0.944671 1
0.618524 0.958511 1
0.745693 0.972335 1
0.872847 0.986175 1
1 1 1
