public/LUTS/Color Shift/ColorShift_34.cube
TITLE "Generated by Resolve"
LUT_3D_SIZE 9
0 0 0
0.0762188 9.15541e-05 0.1131
0.152453 0.000167849 0.226215
0.228687 0.000259403 0.339315
0.304936 0.000350958 0.45243
0.38117 0.000442512 0.565545
0.457404 0.000518807 0.678645
0.533639 0.000610361 0.79176
0.609873 0.000701915 0.904875
0.152895 0.0813916 0
0.229114 0.0814679 0.0954452
0.305348 0.0815595 0.20856
0.381598 0.081651 0.321675
0.457832 0.0817426 0.434775
0.534066 0.0818189 0.54789
0.6103 0.0819104 0.661006
0.686534 0.082002 0.774105
0.762768 0.0820935 0.887221
0.305806 0.162783 0
0.38204 0.162875 0.0777905
0.458274 0.162951 0.190906
0.534508 0.163043 0.304021
0.610742 0.163134 0.417121
0.686976 0.163226 0.530236
0.76321 0.163302 0.643351
0.839445 0.163394 0.756466
0.915679 0.163485 0.869566
0.458732 0.244175 0
0.534951 0.244266 0.0601358
0.611185 0.244358 0.173251
0.687419 0.24445 0.286366
0.763653 0.244526 0.399481
0.839887 0.244617 0.512581
0.916121 0.244709 0.625696
0.992355 0.244785 0.738811
1 0.244877 0.851911
0.611643 0.325582 0
0.687861 0.325658 0.0424811
0.764096 0.32575 0.155596
0.84033 0.325841 0.268711
0.916564 0.325933 0.381826
0.992798 0.326009 0.494926
1 0.326101 0.608042
1 0.326192 0.721157
1 0.326268 0.834272
0.764553 0.406973 0
0.840772 0.407065 0.0248417
0.917006 0.407141 0.137942
0.993255 0.407233 0.251057
1 0.407324 0.364172
1 0.407416 0.477287
1 0.407492 0.590387
1 0.407584 0.703502
1 0.407675 0.816617
0.917464 0.488365 0
0.993698 0.488457 0.007187
1 0.488548 0.120287
1 0.488624 0.233402
1 0.488716 0.346517
1 0.488807 0.459632
1 0.488899 0.572732
1 0.488975 0.685847
1 0.489067 0.798962
1 0.569772 0
1 0.569848 0
1 0.56994 0.102647
1 0.570031 0.215747
1 0.570123 0.328862
1 0.570199 0.441978
1 0.570291 0.555093
1 0.570382 0.668193
1 0.570459 0.781308
1 0.651164 0
1 0.651255 0
1 0.651331 0.0849928
1 0.651423 0.198093
1 0.651514 0.311208
1 0.651606 0.424323
1 0.651682 0.537438
1 0.651774 0.650538
1 0.651865 0.763653
0 0.0435187 0.0295415
0 0.043595 0.142641
0.0483253 0.0436866 0.255741
0.124559 0.0437781 0.368856
0.200793 0.0438697 0.481971
0.277028 0.043946 0.595087
0.353262 0.0440375 0.708186
0.429496 0.0441291 0.821302
0.50573 0.0442054 0.934417
0.0487678 0.124895 0.0118868
0.124987 0.124987 0.124987
0.201221 0.125078 0.238102
0.277455 0.125154 0.351202
0.353689 0.125246 0.464317
0.429923 0.125338 0.577432
0.506157 0.125429 0.690547
0.582391 0.125505 0.803647
0.658625 0.125597 0.916762
0.201678 0.206302 0
0.277897 0.206378 0.107332
0.354131 0.20647 0.220447
0.430365 0.206561 0.333562
0.5066 0.206653 0.446662
0.582834 0.206729 0.559777
0.659068 0.206821 0.672892
0.735302 0.206912 0.786007
0.811536 0.206989 0.899107
0.354589 0.287694 0
0.430823 0.287785 0.0896773
0.507057 0.287861 0.202792
0.583291 0.287953 0.315908
0.659525 0.288045 0.429007
0.735759 0.288136 0.542123
0.811994 0.288212 0.655238
0.888228 0.288304 0.768353
0.964462 0.288396 0.881453
0.5075 0.369085 0
0.583734 0.369177 0.0720226
0.659968 0.369268 0.185138
0.736202 0.369345 0.298253
0.812436 0.369436 0.411368
0.88867 0.369528 0.524468
0.964904 0.369619 0.637583
1 0.369696 0.750698
1 0.369787 0.863813
0.660426 0.450492 0
0.736645 0.450568 0.0543832
0.812879 0.45066 0.167483
0.889113 0.450752 0.280598
0.965347 0.450828 0.393713
1 0.450919 0.506813
1 0.451011 0.619928
1 0.451102 0.733043
1 0.451179 0.846159
0.813336 0.531884 0
0.889555 0.531975 0.0367285
0.965789 0.532052 0.149828
1 0.532143 0.262943
1 0.532235 0.376059
1 0.532326 0.489174
1 0.532403 0.602274
1 0.532494 0.715389
1 0.532586 0.828504
0.966247 0.613275 0
1 0.613367 0.0190738
1 0.613458 0.132174
1 0.613535 0.245289
1 0.613626 0.358404
1 0.613718 0.471519
1 0.613809 0.584619
1 0.613886 0.697734
1 0.613977 0.810849
1 0.694682 0
1 0.694759 0.00141909
1 0.69485 0.114534
1 0.694942 0.227634
1 0.695018 0.340749
1 0.695109 0.453864
1 0.695201 0.566979
1 0.695293 0.680079
1 0.695369 0.793194
0 0.0870375 0.0590829
0 0.0871138 0.172183
0 0.0872053 0.285298
0.0204166 0.0872969 0.398398
0.0966506 0.0873732 0.511513
0.172885 0.0874647 0.624628
0.249119 0.0875563 0.737743
0.325353 0.0876478 0.850843
0.401587 0.0877241 0.963958
0 0.168414 0.0414282
0.0208438 0.168505 0.154528
0.0970779 0.168597 0.267643
0.173312 0.168673 0.380758
0.249546 0.168765 0.493858
0.32578 0.168856 0.606973
0.402014 0.168948 0.720088
0.478248 0.169024 0.833204
0.554482 0.169116 0.946303
0.0975357 0.249821 0.0237736
0.173754 0.249897 0.136873
0.249989 0.249989 0.249989
0.326223 0.25008 0.363104
0.402457 0.250156 0.476204
0.478691 0.250248 0.589319
0.554925 0.25034 0.702434
0.631159 0.250431 0.815549
0.707393 0.250507 0.928649
0.250446 0.331212 0.00613413
0.326665 0.331304 0.119219
0.402899 0.33138 0.232334
0.479133 0.331472 0.345449
0.555367 0.331563 0.458564
0.631601 0.331655 0.571664
0.707835 0.331731 0.684779
0.78407 0.331823 0.797894
0.860304 0.331914 0.911009
0.403357 0.412604 0
0.479576 0.412695 0.101579
0.55581 0.412787 0.214679
0.632059 0.412863 0.327794
0.708293 0.412955 0.440909
0.784527 0.413046 0.554009
0.860761 0.413138 0.667124
0.936996 0.413214 0.78024
1 0.413306 0.893355
0.556268 0.493996 0
0.632502 0.494087 0.0839246
0.708736 0.494179 0.197024
0.78497 0.49427 0.31014
0.861204 0.494347 0.423255
0.937438 0.494438 0.53637
1 0.49453 0.64947
1 0.494621 0.762585
1 0.494697 0.8757
0.709194 0.575402 0
0.785412 0.575494 0.0662699
0.861646 0.57557 0.179385
0.937881 0.575662 0.292485
1 0.575753 0.4056
1 0.57583 0.518715
1 0.575921 0.631815
1 0.576013 0.74493
1 0.576104 0.858045
0.862104 0.656794 0
0.938323 0.656886 0.0486152
1 0.656977 0.16173
1 0.657053 0.27483
1 0.657145 0.387945
1 0.657237 0.50106
1 0.657328 0.614176
1 0.657404 0.727275
1 0.657496 0.840391
1 0.738186 0
1 0.738277 0.0309606
1 0.738369 0.144076
1 0.73846 0.257176
1 0.738537 0.370291
1 0.738628 0.483406
1 0.73872 0.596521
1 0.738811 0.709621
1 0.738888 0.822736
0 0.130541 0.0886244
0 0.130632 0.201724
0 0.130724 0.314839
0 0.130816 0.427939
0 0.130892 0.541054
0.0687419 0.130983 0.654169
0.144976 0.131075 0.767285
0.22121 0.131167 0.880385
0.297444 0.131243 0.9935
0 0.211933 0.0709697
0 0.212024 0.18407
0 0.212116 0.297185
0.0691691 0.212192 0.4103
0.145403 0.212284 0.5234
0.221637 0.212375 0.636515
0.297871 0.212467 0.74963
0.374105 0.212543 0.862745
0.45034 0.212634 0.975845
0 0.293324 0.0533303
0.0696117 0.293416 0.166415
0.145846 0.293507 0.27953
0.22208 0.293599 0.392645
0.298314 0.293675 0.50576
0.374548 0.293767 0.61886
0.450782 0.293858 0.731975
0.527016 0.29395 0.84509
0.60325 0.294026 0.958206
0.146304 0.374731 0.0356756
0.222522 0.374823 0.148775
0.298756 0.374899 0.261875
0.37499 0.37499 0.37499
0.451225 0.375082 0.488106
0.527459 0.375158 0.601205
0.603693 0.37525 0.714321
0.679927 0.375341 0.827436
0.756161 0.375433 0.940551
0.299214 0.456123 0.0180209
0.375433 0.456214 0.131121
0.451667 0.456306 0.244221
0.527901 0.456382 0.357336
0.604135 0.456474 0.470451
0.680369 0.456565 0.583566
0.756603 0.456657 0.696666
0.832837 0.456733 0.809781
0.909072 0.456825 0.922896
0.452125 0.537514 0.000366217
0.528344 0.537606 0.113466
0.604578 0.537697 0.226581
0.680812 0.537789 0.339681
0.757061 0.537865 0.452796
0.833295 0.537957 0.565911
0.909529 0.538048 0.679011
0.985763 0.53814 0.792126
1 0.538216 0.905241
0.605035 0.618921 0
0.68127 0.618997 0.0958114
0.757504 0.619089 0.208927
0.833738 0.619181 0.322026
0.909972 0.619272 0.435142
0.986206 0.619348 0.548257
1 0.61944 0.661372
1 0.619532 0.774472
1 0.619623 0.887587
0.757961 0.700313 0
0.83418 0.700404 0.0781567
0.910414 0.700496 0.191272
0.986648 0.700572 0.304372
1 0.700664 0.417487
1 0.700755 0.530602
1 0.700832 0.643717
1 0.700923 0.756817
1 0.701015 0.869932
0.910872 0.781704 0
0.987091 0.781796 0.060502
1 0.781888 0.173617
1 0.781979 0.286732
1 0.782055 0.399832
1 0.782147 0.512947
1 0.782238 0.626062
1 0.78233 0.739178
1 0.782406 0.852277
0 0.17406 0.118166
0 0.174151 0.231266
0 0.174243 0.344381
0 0.174334 0.457496
0 0.174411 0.570596
0 0.174502 0.683711
0.0408179 0.174594 0.796826
0.117052 0.174685 0.909941
0.193286 0.174762 1
0 0.255451 0.100526
0 0.255543 0.213611
0 0.255634 0.326726
0 0.255711 0.439841
0.0412451 0.255802 0.552956
0.117479 0.255894 0.666056
0.193713 0.255985 0.779171
0.269947 0.256062 0.892287
0.346181 0.256153 1
0 0.336843 0.0828717
0 0.336934 0.195972
0.0416876 0.337026 0.309071
0.117922 0.337118 0.422187
0.194171 0.337194 0.535302
0.270405 0.337285 0.648402
0.346639 0.337377 0.761517
0.422873 0.337469 0.874632
0.499107 0.337545 0.987747
0.0421454 0.41825 0.0652171
0.118379 0.418326 0.178317
0.194614 0.418418 0.291417
0.270848 0.418509 0.404532
0.347082 0.418601 0.517647
0.423316 0.418677 0.630762
0.49955 0.418769 0.743862
0.575784 0.41886 0.856977
0.652018 0.418952 0.970092
0.195056 0.499641 0.0475624
0.27129 0.499733 0.160662
0.347524 0.499825 0.273777
0.423758 0.499901 0.386877
0.499992 0.499992 0.499992
0.576226 0.500084 0.613108
0.652461 0.50016 0.726207
0.728695 0.500252 0.839323
0.804929 0.500343 0.952438
0.347982 0.581033 0.0299077
0.424201 0.581125 0.143008
0.500435 0.581216 0.256123
0.576669 0.581308 0.369223
0.652903 0.581384 0.482338
0.729137 0.581476 0.595453
0.805371 0.581567 0.708568
0.881605 0.581659 0.821668
0.957839 0.581735 0.934783
0.500893 0.66244 0.012253
0.577111 0.662516 0.125353
0.653346 0.662608 0.238468
0.72958 0.662699 0.351583
0.805829 0.662791 0.464683
0.882063 0.662867 0.577798
0.958297 0.662959 0.690913
1 0.66305 0.804013
1 0.663142 0.917128
0.653803 0.743832 0
0.730037 0.743923 0.107698
0.806271 0.743999 0.220813
0.882506 0.744091 0.333928
0.95874 0.744183 0.447028
1 0.744274 0.560143
1 0.74435 0.673259
1 0.744442 0.786374
1 0.744533 0.899474
0.806714 0.825223 0
0.882948 0.825315 0.0900435
0.959182 0.825406 0.203159
1 0.825498 0.316274
1 0.825574 0.429374
1 0.825666 0.542489
1 0.825757 0.655604
1 0.825833 0.768719
1 0.825925 0.881819
0 0.217578 0.147707
0 0.21767 0.260807
0 0.217762 0.373922
0 0.217853 0.487037
0 0.217929 0.600137
0 0.218021 0.713252
0 0.218112 0.826368
0.0129091 0.218204 0.939483
0.0891432 0.21828 1
0 0.29897 0.130068
0 0.299062 0.243168
0 0.299153 0.356268
0 0.299229 0.469383
0 0.299321 0.582498
0.0133364 0.299413 0.695613
0.0895705 0.299489 0.808713
0.165805 0.29958 0.921828
0.242039 0.299672 1
0 0.380362 0.112413
0 0.380453 0.225513
0 0.380545 0.338613
0.0137789 0.380636 0.451728
0.090013 0.380713 0.564843
0.166247 0.380804 0.677958
0.242481 0.380896 0.791058
0.318715 0.380987 0.904173
0.394949 0.381064 1
0 0.461769 0.0947585
0.0142214 0.461845 0.207858
0.0904555 0.461936 0.320974
0.16669 0.462028 0.434073
0.242924 0.462119 0.547189
0.319173 0.462196 0.660304
0.395407 0.462287 0.773404
0.471641 0.462379 0.886519
0.547875 0.46247 0.999634
0.0909133 0.54316 0.0771038
0.167147 0.543252 0.190204
0.243381 0.543328 0.303319
0.319615 0.54342 0.416419
0.39585 0.543511 0.529534
0.472084 0.543603 0.642649
0.548318 0.543679 0.755764
0.624552 0.54377 0.868864
0.700786 0.543862 0.981979
0.243824 0.624552 0.0594492
0.320058 0.624643 0.172549
0.396292 0.624735 0.285664
0.472526 0.624826 0.398779
0.54876 0.624903 0.511879
0.624994 0.624994 0.624994
0.701228 0.625086 0.738109
0.777462 0.625162 0.851209
0.853697 0.625254 0.964324
0.39675 0.705959 0.0417945
0.472969 0.706035 0.154894
0.549203 0.706127 0.268009
0.625437 0.706218 0.381125
0.701671 0.70631 0.494224
0.777905 0.706386 0.60734
0.854139 0.706477 0.720455
0.930373 0.706569 0.83357
1 0.706661 0.94667
0.549661 0.78735 0.0241398
0.625879 0.787442 0.13724
0.702113 0.787518 0.250355
0.778347 0.78761 0.36347
0.854582 0.787701 0.476585
0.930816 0.787793 0.589685
1 0.787869 0.7028
1 0.787961 0.815915
1 0.788052 0.929015
0.702571 0.868742 0.00650034
0.778805 0.868833 0.119585
0.855039 0.868925 0.2327
0.931273 0.869001 0.345815
1 0.869093 0.45893
1 0.869184 0.57203
1 0.869276 0.685145
1 0.869352 0.79826
1 0.869444 0.911376
0 0.261097 0.177264
0 0.261189 0.290349
0 0.26128 0.403464
0 0.261372 0.516579
0 0.261448 0.629694
0 0.26154 0.742794
0 0.261631 0.855909
0 0.261707 0.969024
0 0.261799 1
0 0.342489 0.159609
0 0.34258 0.272709
0 0.342657 0.385809
0 0.342748 0.498924
0 0.34284 0.612039
0 0.342931 0.725155
0 0.343008 0.838254
0.0616617 0.343099 0.95137
0.137896 0.343191 1
0 0.42388 0.141955
0 0.423972 0.255055
0 0.424063 0.36817
0 0.424155 0.48127
0 0.424231 0.594385
0.0621042 0.424323 0.7075
0.138338 0.424414 0.820615
0.214572 0.424491 0.933715
0.290806 0.424582 1
0 0.505287 0.1243
0 0.505364 0.2374
0 0.505455 0.350515
0.0625467 0.505547 0.463615
0.138781 0.505638 0.57673
0.215015 0.505714 0.689845
0.291249 0.505806 0.80296
0.367483 0.505898 0.91606
0.443717 0.505989 1
0 0.586679 0.106645
0.0629892 0.58677 0.219745
0.139223 0.586847 0.33286
0.215457 0.586938 0.445975
0.291691 0.58703 0.559075
0.367926 0.587121 0.67219
0.44416 0.587198 0.785306
0.520409 0.587289 0.898405
0.596643 0.587381 1
0.139681 0.66807 0.0889906
0.215915 0.668162 0.20209
0.292149 0.668254 0.315206
0.368383 0.66833 0.428321
0.444617 0.668421 0.541421
0.520851 0.668513 0.654536
0.597086 0.668605 0.767651
0.67332 0.668681 0.880766
0.749554 0.668772 0.993866
0.292592 0.749477 0.0713512
0.368826 0.749554 0.184436
0.44506 0.749645 0.297551
0.521294 0.749737 0.410666
0.597528 0.749828 0.523781
0.673762 0.749905 0.636881
0.749996 0.749996 0.749996
0.82623 0.750088 0.863111
0.902464 0.750164 0.976211
0.445518 0.830869 0.0536965
0.521737 0.830961 0.166781
0.597971 0.831037 0.279896
0.674205 0.831128 0.393011
0.750439 0.83122 0.506127
0.826673 0.831312 0.619226
0.902907 0.831388 0.732341
0.979141 0.831479 0.845457
1 0.831571 0.958572
0.598428 0.912261 0.0360418
0.674647 0.912352 0.149142
0.750881 0.912444 0.262242
0.827115 0.91252 0.375357
0.903349 0.912612 0.488472
0.979583 0.912703 0.601587
1 0.912795 0.714687
1 0.912871 0.827802
1 0.912963 0.940917
0 0.304616 0.206806
0 0.304707 0.319905
0 0.304799 0.433005
0 0.304875 0.54612
0 0.304967 0.659236
0 0.305058 0.772351
0 0.30515 0.885451
0 0.305226 0.998566
0 0.305318 1
0 0.386007 0.189151
0 0.386099 0.302251
0 0.386175 0.415366
0 0.386267 0.528466
0 0.386358 0.641581
0 0.38645 0.754696
0 0.386526 0.867811
0 0.386618 0.980911
0.033753 0.386709 1
0 0.467399 0.171496
0 0.467491 0.284596
0 0.467582 0.397711
0 0.467658 0.510811
0 0.46775 0.623926
0 0.467842 0.737041
0.0341955 0.467933 0.850156
0.11043 0.468009 0.963256
0.186664 0.468101 1
0 0.548806 0.153841
0 0.548882 0.266941
0 0.548974 0.380056
0 0.549065 0.493172
0.034638 0.549157 0.606271
0.110872 0.549233 0.719387
0.187106 0.549325 0.832502
0.26334 0.549416 0.945617
0.339574 0.549493 1
0 0.630198 0.136187
0 0.630289 0.249287
0.0350805 0.630365 0.362402
0.111315 0.630457 0.475517
0.187549 0.630549 0.588617
0.263783 0.63064 0.701732
0.340017 0.630716 0.814847
0.416251 0.630808 0.927962
0.492485 0.6309 1
0.0355383 0.711589 0.118547
0.111757 0.711681 0.231632
0.187991 0.711772 0.344747
0.264225 0.711849 0.457862
0.340459 0.71194 0.570977
0.416693 0.712032 0.684077
0.492927 0.712123 0.797192
0.569177 0.7122 0.910307
0.645411 0.712291 1
0.188449 0.792996 0.100893
0.264683 0.793072 0.213977
0.340917 0.793164 0.327092
0.417151 0.793256 0.440208
0.493385 0.793332 0.553323
0.569619 0.793423 0.666423
0.645853 0.793515 0.779538
0.722087 0.793606 0.892653
0.798321 0.793683 1
0.34136 0.874388 0.083238
0.417594 0.874479 0.196338
0.493828 0.874556 0.309438
0.570062 0.874647 0.422553
0.646296 0.874739 0.535668
0.72253 0.87483 0.648783
0.798764 0.874907 0.761883
0.874998 0.874998 0.874998
0.951232 0.87509 0.988113
0.494285 0.955779 0.0655833
0.570504 0.955871 0.178683
0.646738 0.955962 0.291783
0.722972 0.956039 0.404898
0.799207 0.95613 0.518013
0.875441 0.956222 0.631128
0.951675 0.956313 0.744228
1 0.95639 0.857343
1 0.956481 0.970459
0 0.348135 0.236347
0 0.348226 0.349447
0 0.348318 0.462547
0 0.348394 0.575662
0 0.348486 0.688777
0 0.348577 0.801892
0 0.348669 0.914992
0 0.348745 1
0 0.348837 1
0 0.429526 0.218692
0 0.429618 0.331792
0 0.429694 0.444907
0 0.429786 0.558007
0 0.429877 0.671122
0 0.429969 0.784237
0 0.430045 0.897353
0 0.430137 1
0 0.430228 1
0 0.510918 0.201038
0 0.511009 0.314137
0 0.511101 0.427253
0 0.511177 0.540368
0 0.511269 0.653468
0 0.51136 0.766583
0 0.511452 0.879698
0.00627146 0.511528 0.992813
0.0825208 0.51162 1
0 0.592325 0.183383
0 0.592401 0.296483
0 0.592493 0.409598
0 0.592584 0.522713
0 0.59266 0.635813
0.00672923 0.592752 0.748928
0.0829633 0.592844 0.862043
0.159197 0.592935 0.975158
0.235431 0.593011 1
0 0.673716 0.165743
0 0.673808 0.278828
0 0.673884 0.391943
0.00717174 0.673976 0.505058
0.0834058 0.674067 0.618173
0.15964 0.674159 0.731273
0.235874 0.674235 0.844388
0.312108 0.674327 0.957504
0.388342 0.674418 1
0 0.755108 0.148089
0.00761425 0.755199 0.261173
0.0838483 0.755291 0.374289
0.160082 0.755367 0.487404
0.236316 0.755459 0.600519
0.312551 0.75555 0.713619
0.388785 0.755642 0.826734
0.465019 0.755718 0.939849
0.541253 0.75581 1
0.0843061 0.836515 0.130434
0.160525 0.836591 0.243534
0.236759 0.836683 0.356634
0.312993 0.836774 0.469749
0.389227 0.836851 0.582864
0.465461 0.836942 0.695979
0.541695 0.837034 0.809079
0.617929 0.837125 0.922194
0.694179 0.837201 1
0.237217 0.917906 0.112779
0.313451 0.917998 0.225879
0.389685 0.918074 0.338979
0.465919 0.918166 0.452094
0.542153 0.918257 0.565209
0.618387 0.918334 0.678325
0.694621 0.918425 0.791424
0.770855 0.918517 0.90454
0.847089 0.918608 1
0.390127 0.999298 0.0951247
0.466361 0.99939 0.208225
0.542596 0.999481 0.32134
0.61883 0.999557 0.43444
0.695064 0.999649 0.547555
0.771298 0.999741 0.66067
0.847532 0.999832 0.773785
0.923766 0.999908 0.886885
1 1 1
