public/LUTS/Color Shift/ColorShift_48.cube
TITLE "Generated by Resolve"
LUT_3D_SIZE 33
0 0 0
0 0.0127871 0.0146181
0 0.0255894 0.0292515
0 0.0383764 0.0438697
0 0.0511635 0.0585031
0 0.0639658 0.0731212
0 0.0767529 0.0877546
0 0.0895552 0.102373
0 0.102342 0.117006
0 0.115145 0.131624
0 0.127932 0.146258
0 0.140734 0.160876
0 0.153521 0.175509
0 0.166323 0.190127
0 0.17911 0.204761
0 0.191913 0.219379
0 0.2047 0.234012
0 0.217502 0.248631
0 0.230289 0.263264
0 0.243076 0.277882
0 0.255879 0.292515
0 0.268666 0.307134
0 0.281468 0.321767
0 0.294255 0.336385
0 0.307057 0.351019
0 0.319844 0.365637
0 0.332647 0.38027
0 0.345434 0.394888
0 0.358236 0.409522
0 0.371023 0.42414
0 0.383825 0.438773
0 0.396612 0.453391
0 0.4094 0.468025
0.0451057 0.0122683 0.0423285
0.0274357 0.0250553 0.0569467
0.00978103 0.0378424 0.0715801
0 0.0506447 0.0861982
0 0.0634318 0.100832
0 0.0762341 0.11545
0 0.0890211 0.130083
0 0.101808 0.144701
0 0.114611 0.159335
0 0.127398 0.173953
0 0.1402 0.188586
0 0.152987 0.20322
0 0.165789 0.217838
0 0.178576 0.232471
0 0.191379 0.247089
0 0.204166 0.261723
0 0.216968 0.276341
0 0.229755 0.290974
0 0.242557 0.305592
0 0.255344 0.320226
0 0.268147 0.334844
0 0.280934 0.349477
0 0.293721 0.364096
0 0.306523 0.378729
0 0.31931 0.393347
0 0.332113 0.40798
0 0.3449 0.422599
0 0.357702 0.437232
0 0.370489 0.45185
0 0.383291 0.466484
0 0.396078 0.481102
0 0.408881 0.495735
0 0.421668 0.510353
0.0902113 0.0245365 0.0846876
0.0725567 0.0373236 0.0993057
0.054902 0.0501106 0.113939
0.037232 0.0629129 0.128557
0.0195621 0.0757 0.143191
0.00190738 0.0885023 0.157809
0 0.101289 0.172442
0 0.114092 0.18706
0 0.126879 0.201694
0 0.139666 0.216312
0 0.152468 0.230945
0 0.165255 0.245563
0 0.178058 0.260197
0 0.190845 0.274815
0 0.203647 0.289448
0 0.216434 0.304067
0 0.229236 0.3187
0 0.242023 0.333318
0 0.254826 0.347951
0 0.267613 0.36257
0 0.280415 0.377203
0 0.293202 0.391821
0 0.305989 0.406455
0 0.318791 0.421073
0 0.331579 0.435706
0 0.344381 0.450324
0 0.357168 0.464958
0 0.36997 0.479576
0 0.382757 0.494209
0 0.39556 0.508827
0 0.408347 0.523461
0 0.421149 0.538079
0 0.433936 0.552712
0.135332 0.0368048 0.127047
0.117678 0.0495918 0.141665
0.100023 0.0623789 0.156298
0.0823529 0.0751812 0.170916
0.064683 0.0879683 0.18555
0.0470283 0.100771 0.200168
0.0293584 0.113558 0.214801
0.0117037 0.12636 0.229419
0 0.139147 0.244053
0 0.151934 0.258671
0 0.164736 0.273304
0 0.177523 0.287922
0 0.190326 0.302556
0 0.203113 0.317174
0 0.215915 0.331807
0 0.228702 0.346426
0 0.241505 0.361059
0 0.254292 0.375677
0 0.267094 0.390311
0 0.279881 0.404929
0 0.292683 0.419562
0 0.30547 0.43418
0 0.318273 0.448814
0 0.33106 0.463432
0 0.343847 0.478065
0 0.356649 0.492683
0 0.369436 0.507317
0 0.382239 0.521935
0 0.395026 0.536568
0 0.407828 0.551186
0 0.420615 0.56582
0 0.433417 0.580438
0 0.446204 0.595071
0.180453 0.049073 0.169406
0.162799 0.0618601 0.184024
0.145144 0.0746471 0.198642
0.127474 0.0874495 0.213275
0.109804 0.100237 0.227893
0.0921492 0.113039 0.242527
0.0744793 0.125826 0.257145
0.0568093 0.138628 0.271778
0.0391546 0.151415 0.286397
0.0214847 0.164202 0.30103
0.00383001 0.177005 0.315648
0 0.189792 0.330282
0 0.202594 0.3449
0 0.215381 0.359533
0 0.228183 0.374151
0 0.24097 0.388785
0 0.253773 0.403403
0 0.26656 0.418036
0 0.279362 0.432654
0 0.292149 0.447288
0 0.304952 0.461906
0 0.317739 0.476539
0 0.330541 0.491157
0 0.343328 0.505791
0 0.356115 0.520409
0 0.368917 0.535042
0 0.381704 0.549661
0 0.394507 0.564294
0 0.407294 0.578912
0 0.420096 0.593545
0 0.432883 0.608164
0 0.445686 0.622797
0 0.458473 0.637415
0.225574 0.0613413 0.211765
0.207919 0.0741283 0.226383
0.190265 0.0869154 0.241001
0.172595 0.0997177 0.255634
0.154925 0.112505 0.270253
0.13727 0.125307 0.284886
0.1196 0.138094 0.299504
0.10193 0.150896 0.314137
0.0842756 0.163684 0.328756
0.0666056 0.176471 0.343389
0.0489357 0.189273 0.358007
0.031281 0.20206 0.372641
0.013611 0.214862 0.387259
0 0.227649 0.401892
0 0.240452 0.41651
0 0.253239 0.431144
0 0.266041 0.445762
0 0.278828 0.460395
0 0.29163 0.475013
0 0.304417 0.489647
0 0.31722 0.504265
0 0.330007 0.518898
0 0.342809 0.533516
0 0.355596 0.54815
0 0.368383 0.562768
0 0.381186 0.577401
0 0.393973 0.59202
0 0.406775 0.606653
0 0.419562 0.621271
0 0.432364 0.635904
0 0.445151 0.650523
0 0.457954 0.665156
0 0.470741 0.679774
0.270695 0.0736095 0.254108
0.25304 0.0863966 0.268727
0.235386 0.0991836 0.28336
0.217716 0.111986 0.297993
0.200046 0.124773 0.312612
0.182391 0.137575 0.327245
0.164721 0.150362 0.341863
0.147051 0.163165 0.356497
0.129397 0.175952 0.371115
0.111727 0.188754 0.385748
0.0940566 0.201541 0.400366
0.0764019 0.214328 0.415
0.058732 0.227131 0.429618
0.0410773 0.239918 0.444251
0.0234073 0.25272 0.458869
0.00573739 0.265507 0.473503
0 0.278309 0.488121
0 0.291096 0.502754
0 0.303899 0.517372
0 0.316686 0.532006
0 0.329488 0.546624
0 0.342275 0.561257
0 0.355077 0.575875
0 0.367864 0.590509
0 0.380667 0.605127
0 0.393454 0.61976
0 0.406241 0.634379
0 0.419043 0.649012
0 0.43183 0.66363
0 0.444633 0.678264
0 0.45742 0.692882
0 0.470222 0.707515
0 0.483009 0.722133
0.315816 0.0858778 0.296468
0.298161 0.0986648 0.311086
0.280507 0.111452 0.325719
0.262837 0.124254 0.340337
0.245167 0.137041 0.354971
0.227512 0.149844 0.369589
0.209842 0.162631 0.384222
0.192172 0.175433 0.39884
0.174517 0.18822 0.413474
0.156847 0.201022 0.428092
0.139178 0.213809 0.442725
0.121523 0.226596 0.457343
0.103853 0.239399 0.471977
0.086183 0.252186 0.486595
0.0685283 0.264988 0.501228
0.0508583 0.277775 0.515846
0.0332036 0.290578 0.53048
0.0155337 0.303365 0.545098
0 0.316167 0.559731
0 0.328954 0.57435
0 0.341756 0.588983
0 0.354543 0.603601
0 0.367346 0.618235
0 0.380133 0.632853
0 0.392935 0.647486
0 0.405722 0.662104
0 0.418509 0.676738
0 0.431312 0.691356
0 0.444099 0.705989
0 0.456901 0.720607
0 0.469688 0.735241
0 0.48249 0.749859
0 0.495277 0.764492
0.360937 0.098146 0.338827
0.343282 0.110933 0.353445
0.325628 0.12372 0.368078
0.307958 0.136522 0.382696
0.290288 0.14931 0.39733
0.272633 0.162112 0.411948
0.254963 0.174899 0.426581
0.237293 0.187701 0.441199
0.219638 0.200488 0.455833
0.201968 0.213291 0.470451
0.184298 0.226078 0.485084
0.166644 0.238865 0.499702
0.148974 0.251667 0.514336
0.131304 0.264454 0.528954
0.113649 0.277256 0.543587
0.0959793 0.290044 0.558206
0.0783246 0.302846 0.572839
0.0606546 0.315633 0.587457
0.0429847 0.328435 0.60209
0.02533 0.341222 0.616709
0.00766003 0.354025 0.631342
0 0.366812 0.64596
0 0.379614 0.660594
0 0.392401 0.675212
0 0.405203 0.689845
0 0.41799 0.704463
0 0.430777 0.719097
0 0.44358 0.733715
0 0.456367 0.748348
0 0.469169 0.762966
0 0.481956 0.7776
0 0.494759 0.792218
0 0.507546 0.806851
0.406058 0.110414 0.381186
0.388403 0.123201 0.395804
0.370733 0.135988 0.410422
0.353079 0.148791 0.425055
0.335409 0.161578 0.439673
0.317754 0.17438 0.454307
0.300084 0.187167 0.468925
0.282414 0.199969 0.483558
0.264759 0.212757 0.498177
0.247089 0.225559 0.51281
0.229419 0.238346 0.527428
0.211765 0.251148 0.542062
0.194095 0.263935 0.55668
0.176425 0.276722 0.571313
0.15877 0.289525 0.585931
0.1411 0.302312 0.600565
0.12343 0.315114 0.615183
0.105776 0.327901 0.629816
0.0881056 0.340703 0.644434
0.0704509 0.353491 0.659068
0.052781 0.366293 0.673686
0.035111 0.37908 0.688319
0.0174563 0.391882 0.702937
0 0.404669 0.717571
0 0.417472 0.732189
0 0.430259 0.746822
0 0.443061 0.76144
0 0.455848 0.776074
0 0.468635 0.790692
0 0.481437 0.805325
0 0.494224 0.819944
0 0.507027 0.834577
0 0.519814 0.849195
0.451179 0.122683 0.423545
0.433524 0.13547 0.438163
0.415854 0.148257 0.452781
0.398199 0.161059 0.467414
0.380529 0.173846 0.482033
0.362875 0.186648 0.496666
0.345205 0.199435 0.511284
0.327535 0.212238 0.525917
0.30988 0.225025 0.540536
0.29221 0.237827 0.555169
0.27454 0.250614 0.569787
0.256886 0.263416 0.584421
0.239216 0.276204 0.599039
0.221546 0.288991 0.613672
0.203891 0.301793 0.62829
0.186221 0.31458 0.642924
0.168551 0.327382 0.657542
0.150896 0.340169 0.672175
0.133227 0.352972 0.686793
0.115572 0.365759 0.701427
0.0979019 0.378561 0.716045
0.0802319 0.391348 0.730678
0.0625772 0.40415 0.745296
0.0449073 0.416938 0.75993
0.0272374 0.42974 0.774548
0.00958267 0.442527 0.789181
0 0.455329 0.8038
0 0.468116 0.818433
0 0.480903 0.833051
0 0.493706 0.847684
0 0.506493 0.862303
0 0.519295 0.876936
0 0.532082 0.891554
0.4963 0.134951 0.465888
0.478645 0.147738 0.480522
0.460975 0.160525 0.49514
0.44332 0.173327 0.509773
0.42565 0.186114 0.524392
0.40798 0.198917 0.539025
0.390326 0.211704 0.553643
0.372656 0.224506 0.568276
0.355001 0.237293 0.582895
0.337331 0.250095 0.597528
0.319661 0.262882 0.612146
0.302007 0.275685 0.62678
0.284337 0.288472 0.641398
0.266667 0.301259 0.656031
0.249012 0.314061 0.670649
0.231342 0.326848 0.685283
0.213672 0.339651 0.699901
0.196017 0.352438 0.714534
0.178347 0.36524 0.729152
0.160678 0.378027 0.743786
0.143023 0.390829 0.758404
0.125353 0.403616 0.773037
0.107698 0.416419 0.787655
0.0900282 0.429206 0.802289
0.0723583 0.442008 0.816907
0.0547036 0.454795 0.83154
0.0370336 0.467597 0.846159
0.0193637 0.480385 0.860792
0.00170901 0.493172 0.87541
0 0.505974 0.890043
0 0.518761 0.904662
0 0.531563 0.919295
0 0.54435 0.933913
0.541421 0.147219 0.508247
0.523766 0.160006 0.522866
0.506096 0.172793 0.537499
0.488441 0.185595 0.552117
0.470771 0.198383 0.566751
0.453101 0.211185 0.581369
0.435447 0.223972 0.596002
0.417777 0.236774 0.61062
0.400107 0.249561 0.625254
0.382452 0.262364 0.639872
0.364782 0.275151 0.654505
0.347127 0.287953 0.669123
0.329458 0.30074 0.683757
0.311788 0.313542 0.698375
0.294133 0.326329 0.713008
0.276463 0.339117 0.727626
0.258793 0.351919 0.74226
0.241138 0.364706 0.756878
0.223468 0.377508 0.771511
0.205798 0.390295 0.78613
0.188144 0.403098 0.800763
0.170474 0.415885 0.815381
0.152819 0.428687 0.830014
0.135149 0.441474 0.844633
0.117479 0.454276 0.859266
0.0998245 0.467063 0.873884
0.0821546 0.479866 0.888518
0.0644846 0.492653 0.903136
0.0468299 0.505455 0.917769
0.02916 0.518242 0.932387
0.01149 0.531029 0.947021
0 0.543832 0.961639
0 0.556619 0.976272
0.586542 0.159487 0.550607
0.568887 0.172274 0.565225
0.551217 0.185061 0.579858
0.533562 0.197864 0.594476
0.515892 0.210651 0.60911
0.498222 0.223453 0.623728
0.480568 0.23624 0.638361
0.462898 0.249042 0.652979
0.445228 0.26183 0.667613
0.427573 0.274632 0.682231
0.409903 0.287419 0.696864
0.392248 0.300221 0.711482
0.374578 0.313008 0.726116
0.356909 0.325811 0.740734
0.339254 0.338598 0.755367
0.321584 0.351385 0.769985
0.303914 0.364187 0.784619
0.286259 0.376974 0.799237
0.268589 0.389776 0.81387
0.250919 0.402564 0.828489
0.233265 0.415366 0.843122
0.215595 0.428153 0.85774
0.197925 0.440955 0.872374
0.18027 0.453742 0.886992
0.1626 0.466545 0.901625
0.144945 0.479332 0.916243
0.127275 0.492134 0.930877
0.109606 0.504921 0.945495
0.0919509 0.517723 0.960128
0.0742809 0.53051 0.974746
0.056611 0.543297 0.98938
0.0389563 0.5561 1
0.0212863 0.568887 1
0.631662 0.171756 0.592966
0.614008 0.184543 0.607584
0.596338 0.19733 0.622202
0.578683 0.210132 0.636835
0.561013 0.222919 0.651453
0.543343 0.235721 0.666087
0.525689 0.248508 0.680705
0.508019 0.261311 0.695338
0.490349 0.274098 0.709957
0.472694 0.2869 0.72459
0.455024 0.299687 0.739208
0.437354 0.31249 0.753841
0.419699 0.325277 0.76846
0.402029 0.338079 0.783093
0.384375 0.350866 0.797711
0.366705 0.363653 0.812345
0.349035 0.376455 0.826963
0.33138 0.389242 0.841596
0.31371 0.402045 0.856214
0.29604 0.414832 0.870848
0.278386 0.427634 0.885466
0.260716 0.440421 0.900099
0.243046 0.453223 0.914717
0.225391 0.466011 0.929351
0.207721 0.478813 0.943969
0.190051 0.4916 0.958602
0.172396 0.504402 0.97322
0.154726 0.517189 0.987854
0.137072 0.529992 1
0.119402 0.542779 1
0.101732 0.555566 1
0.0840772 0.568368 1
0.0664073 0.581155 1
0.676783 0.184024 0.635325
0.659129 0.196811 0.649943
0.641459 0.209598 0.664561
0.623804 0.2224 0.679194
0.606134 0.235187 0.693812
0.588464 0.24799 0.708446
0.570809 0.260777 0.723064
0.55314 0.273579 0.737697
0.53547 0.286366 0.752316
0.517815 0.299168 0.766949
0.500145 0.311955 0.781567
0.482475 0.324758 0.796201
0.46482 0.337545 0.810819
0.44715 0.350347 0.825452
0.429496 0.363134 0.84007
0.411826 0.375937 0.854704
0.394156 0.388724 0.869322
0.376501 0.401511 0.883955
0.358831 0.414313 0.898573
0.341161 0.4271 0.913207
0.323507 0.439902 0.927825
0.305837 0.452689 0.942458
0.288167 0.465492 0.957076
0.270512 0.478279 0.97171
0.252842 0.491081 0.986328
0.235172 0.503868 1
0.217517 0.51667 1
0.199847 0.529458 1
0.182193 0.54226 1
0.164523 0.555047 1
0.146853 0.567849 1
0.129198 0.580636 1
0.111528 0.593423 1
0.721904 0.196292 0.677668
0.70425 0.209079 0.692302
0.68658 0.221866 0.70692
0.668925 0.234668 0.721553
0.651255 0.247456 0.736171
0.633585 0.260258 0.750805
0.61593 0.273045 0.765423
0.59826 0.285847 0.780056
0.580591 0.298634 0.794675
0.562936 0.311437 0.809308
0.545266 0.324224 0.823926
0.527596 0.337026 0.83856
0.509941 0.349813 0.853178
0.492271 0.362615 0.867811
0.474601 0.375402 0.882429
0.456947 0.388205 0.897063
0.439277 0.400992 0.911681
0.421622 0.413779 0.926314
0.403952 0.426581 0.940932
0.386282 0.439368 0.955566
0.368627 0.452171 0.970184
0.350958 0.464958 0.984817
0.333288 0.47776 0.999435
0.315633 0.490547 1
0.297963 0.503349 1
0.280293 0.516136 1
0.262638 0.528939 1
0.244968 0.541726 1
0.227298 0.554528 1
0.209644 0.567315 1
0.191974 0.580118 1
0.174319 0.592905 1
0.156649 0.605692 1
0.767025 0.20856 0.720027
0.749371 0.221347 0.734646
0.731701 0.234134 0.749279
0.714046 0.246937 0.763897
0.696376 0.259724 0.778531
0.678706 0.272526 0.793149
0.661051 0.285313 0.807782
0.643381 0.298116 0.8224
0.625711 0.310903 0.837034
0.608057 0.323705 0.851652
0.590387 0.336492 0.866285
0.572717 0.349294 0.880903
0.555062 0.362081 0.895537
0.537392 0.374884 0.910155
0.519722 0.387671 0.924788
0.502068 0.400473 0.939406
0.484398 0.41326 0.95404
0.466743 0.426047 0.968658
0.449073 0.438849 0.983291
0.431403 0.451637 0.997909
0.413748 0.464439 1
0.396078 0.477226 1
0.378408 0.490028 1
0.360754 0.502815 1
0.343084 0.515618 1
0.325414 0.528405 1
0.307759 0.541207 1
0.290089 0.553994 1
0.272419 0.566796 1
0.254765 0.579583 1
0.237095 0.592386 1
0.21944 0.605173 1
0.20177 0.61796 1
0.812146 0.220829 0.762387
0.794491 0.233616 0.777005
0.776822 0.246418 0.791638
0.759152 0.259205 0.806256
0.741497 0.271992 0.82089
0.723827 0.284794 0.835508
0.706172 0.297581 0.850141
0.688502 0.310384 0.864759
0.670832 0.323171 0.879393
0.653178 0.335973 0.894011
0.635508 0.34876 0.908644
0.617838 0.361563 0.923262
0.600183 0.37435 0.937896
0.582513 0.387152 0.952514
0.564843 0.399939 0.967147
0.547189 0.412741 0.981765
0.529519 0.425528 0.996399
0.511849 0.438331 1
0.494194 0.451118 1
0.476524 0.463905 1
0.458869 0.476707 1
0.441199 0.489494 1
0.423529 0.502297 1
0.405875 0.515084 1
0.388205 0.527886 1
0.370535 0.540673 1
0.35288 0.553475 1
0.33521 0.566262 1
0.31754 0.579065 1
0.299886 0.591852 1
0.282216 0.604654 1
0.264546 0.617441 1
0.246891 0.630243 1
0.857267 0.233097 0.804746
0.839612 0.245884 0.819364
0.821942 0.258686 0.833982
0.804273 0.271473 0.848615
0.786618 0.28426 0.863233
0.768948 0.297063 0.877867
0.751293 0.30985 0.892485
0.733623 0.322652 0.907118
0.715953 0.335439 0.921736
0.698299 0.348241 0.93637
0.680629 0.361028 0.950988
0.662959 0.373831 0.965621
0.645304 0.386618 0.98024
0.627634 0.39942 0.994873
0.609964 0.412207 1
0.592309 0.42501 1
0.574639 0.437797 1
0.55697 0.450599 1
0.539315 0.463386 1
0.521645 0.476173 1
0.50399 0.488975 1
0.48632 0.501762 1
0.46865 0.514565 1
0.450996 0.527352 1
0.433326 0.540154 1
0.415656 0.552941 1
0.398001 0.565744 1
0.380331 0.578531 1
0.362661 0.591333 1
0.345006 0.60412 1
0.327337 0.616922 1
0.309667 0.629709 1
0.292012 0.642512 1
0.902388 0.245365 0.847105
0.884733 0.258152 0.861723
0.867063 0.270954 0.876341
0.849393 0.283742 0.890974
0.831739 0.296529 0.905592
0.814069 0.309331 0.920226
0.796399 0.322118 0.934844
0.778744 0.33492 0.949477
0.761074 0.347707 0.964096
0.74342 0.36051 0.978729
0.72575 0.373297 0.993347
0.70808 0.386099 1
0.690425 0.398886 1
0.672755 0.411688 1
0.655085 0.424475 1
0.63743 0.437278 1
0.61976 0.450065 1
0.60209 0.462867 1
0.584436 0.475654 1
0.566766 0.488441 1
0.549096 0.501244 1
0.531441 0.514031 1
0.513771 0.526833 1
0.496117 0.53962 1
0.478447 0.552422 1
0.460777 0.565209 1
0.443122 0.578012 1
0.425452 0.590799 1
0.407782 0.603601 1
0.390127 0.616388 1
0.372457 0.629191 1
0.354788 0.641978 1
0.337133 0.65478 1
0.947509 0.257633 0.889464
0.929854 0.27042 0.904082
0.912184 0.283223 0.9187
0.894514 0.29601 0.933333
0.87686 0.308812 0.947951
0.85919 0.321599 0.962585
0.84152 0.334386 0.977203
0.823865 0.347189 0.991836
0.806195 0.359976 1
0.788525 0.372778 1
0.770871 0.385565 1
0.753201 0.398367 1
0.735546 0.411154 1
0.717876 0.423957 1
0.700206 0.436744 1
0.682551 0.449546 1
0.664881 0.462333 1
0.647211 0.475135 1
0.629557 0.487922 1
0.611887 0.500725 1
0.594217 0.513512 1
0.576562 0.526299 1
0.558892 0.539101 1
0.541222 0.551888 1
0.523568 0.564691 1
0.505898 0.577478 1
0.488243 0.59028 1
0.470573 0.603067 1
0.452903 0.615869 1
0.435248 0.628656 1
0.417578 0.641459 1
0.399908 0.654246 1
0.382254 0.667048 1
0.99263 0.269902 0.931807
0.974975 0.282689 0.946426
0.957305 0.295491 0.961059
0.939635 0.308278 0.975677
0.921981 0.32108 0.990311
0.904311 0.333867 1
0.886641 0.346654 1
0.868986 0.359457 1
0.851316 0.372244 1
0.833646 0.385046 1
0.815991 0.397833 1
0.798321 0.410636 1
0.780667 0.423423 1
0.762997 0.436225 1
0.745327 0.449012 1
0.727672 0.461814 1
0.710002 0.474601 1
0.692332 0.487404 1
0.674678 0.500191 1
0.657008 0.512993 1
0.639338 0.52578 1
0.621683 0.538567 1
0.604013 0.551369 1
0.586343 0.564157 1
0.568689 0.576959 1
0.551019 0.589746 1
0.533364 0.602548 1
0.515694 0.615335 1
0.498024 0.628138 1
0.480369 0.640925 1
0.462699 0.653727 1
0.445029 0.666514 1
0.427375 0.679316 1
1 0.28217 0.974166
1 0.294957 0.988785
1 0.307759 1
0.984756 0.320546 1
0.967102 0.333349 1
0.949432 0.346136 1
0.931762 0.358923 1
0.914107 0.371725 1
0.896437 0.384512 1
0.878767 0.397314 1
0.861112 0.410101 1
0.843442 0.422904 1
0.825772 0.435691 1
0.808118 0.448493 1
0.790448 0.46128 1
0.772793 0.474083 1
0.755123 0.48687 1
0.737453 0.499672 1
0.719799 0.512459 1
0.702129 0.525261 1
0.684459 0.538048 1
0.666804 0.550835 1
0.649134 0.563638 1
0.631464 0.576425 1
0.613809 0.589227 1
0.596139 0.602014 1
0.57847 0.614816 1
0.560815 0.627604 1
0.543145 0.640406 1
0.52549 0.653193 1
0.50782 0.665995 1
0.49015 0.678782 1
0.472496 0.691585 1
1 0.294438 1
1 0.307225 1
1 0.320027 1
1 0.332815 1
1 0.345617 1
0.994553 0.358404 1
0.976883 0.371206 1
0.959228 0.383993 1
0.941558 0.39678 1
0.923888 0.409583 1
0.906233 0.42237 1
0.888563 0.435172 1
0.870893 0.447959 1
0.853239 0.460761 1
0.835569 0.473548 1
0.817914 0.486351 1
0.800244 0.499138 1
0.782574 0.51194 1
0.76492 0.524727 1
0.74725 0.53753 1
0.72958 0.550317 1
0.711925 0.563119 1
0.694255 0.575906 1
0.676585 0.588693 1
0.65893 0.601495 1
0.64126 0.614282 1
0.62359 0.627085 1
0.605936 0.639872 1
0.588266 0.652674 1
0.570611 0.665461 1
0.552941 0.678264 1
0.535271 0.691051 1
0.517617 0.703853 1
1 0.306706 1
1 0.319493 1
1 0.332296 1
1 0.345083 1
1 0.357885 1
1 0.370672 1
1 0.383474 1
1 0.396262 1
0.986679 0.409049 1
0.969009 0.421851 1
0.951354 0.434638 1
0.933684 0.44744 1
0.916014 0.460227 1
0.89836 0.47303 1
0.88069 0.485817 1
0.86302 0.498619 1
0.845365 0.511406 1
0.827695 0.524208 1
0.81004 0.536995 1
0.79237 0.549798 1
0.774701 0.562585 1
0.757046 0.575387 1
0.739376 0.588174 1
0.721706 0.600961 1
0.704051 0.613764 1
0.686381 0.626551 1
0.668711 0.639353 1
0.651057 0.65214 1
0.633387 0.664942 1
0.615717 0.677729 1
0.598062 0.690532 1
0.580392 0.703319 1
0.562737 0.716121 1
1 0.318975 1
1 0.331762 1
1 0.344564 1
1 0.357351 1
1 0.370153 1
1 0.38294 1
1 0.395743 1
1 0.40853 1
1 0.421317 1
1 0.434119 1
0.996475 0.446906 1
0.978805 0.459709 1
0.961135 0.472496 1
0.943481 0.485298 1
0.925811 0.498085 1
0.908141 0.510887 1
0.890486 0.523674 1
0.872816 0.536477 1
0.855161 0.549264 1
0.837491 0.562066 1
0.819821 0.574853 1
0.802167 0.587655 1
0.784497 0.600443 1
0.766827 0.61323 1
0.749172 0.626032 1
0.731502 0.638819 1
0.713832 0.651621 1
0.696178 0.664408 1
0.678508 0.677211 1
0.660838 0.689998 1
0.643183 0.7028 1
0.625513 0.715587 1
0.607858 0.728389 1
1 0.331243 1
1 0.34403 1
1 0.356832 1
1 0.369619 1
1 0.382422 1
1 0.395209 1
1 0.408011 1
1 0.420798 1
1 0.4336 1
