public/LUTS/Color Shift/ColorShift_18.cube
TITLE "Generated by Resolve"
LUT_3D_SIZE 9
0 0 0
0.0630503 0.0272221 0
0.126116 0.0544442 0
0.189166 0.081651 0
0.252232 0.108873 0
0.315282 0.136095 0
0.378347 0.163317 0
0.441398 0.190539 0
0.504463 0.217762 0
0 0.122423 0.105715
0.0263066 0.14963 0.038529
0.0893721 0.176852 0
0.152422 0.204074 0
0.215488 0.231296 0
0.278538 0.258518 0
0.341604 0.28574 0
0.404654 0.312963 0
0.46772 0.340185 0
0 0.244846 0.211429
0 0.272068 0.144259
0.0526284 0.29929 0.0770733
0.115679 0.326513 0.00988785
0.178744 0.353735 0
0.241794 0.380941 0
0.30486 0.408164 0
0.36791 0.435386 0
0.430976 0.462608 0
0 0.367285 0.317159
0 0.394507 0.249989
0.0158846 0.421714 0.182803
0.0789349 0.448936 0.115618
0.142 0.476158 0.0484321
0.205051 0.50338 0
0.268116 0.530602 0
0.331167 0.557824 0
0.394232 0.585046 0
0 0.489708 0.422889
0 0.51693 0.355703
0 0.544152 0.288533
0.0421912 0.571374 0.221347
0.105257 0.598596 0.154162
0.168307 0.625818 0.0869764
0.231373 0.65304 0.019791
0.294423 0.680247 0
0.357488 0.707469 0
0 0.612146 0.528603
0 0.639368 0.461433
0 0.66659 0.394247
0.00544747 0.693812 0.327062
0.068513 0.721019 0.259876
0.131563 0.748241 0.192706
0.194629 0.775464 0.125521
0.257679 0.802686 0.0583352
0.320745 0.829908 0
0 0.734585 0.634333
0 0.761791 0.567163
0 0.789014 0.499977
0 0.816236 0.432792
0.0317693 0.843458 0.365606
0.0948196 0.87068 0.298421
0.157885 0.897902 0.231235
0.220951 0.925124 0.164065
0.284001 0.952346 0.0968795
0 0.857008 0.740063
0 0.88423 0.672877
0 0.911452 0.605692
0 0.938674 0.538521
0 0.965896 0.471336
0.0580911 0.993118 0.40415
0.121141 1 0.336965
0.184207 1 0.26978
0.247257 1 0.202594
0 0.979446 0.845777
0 1 0.778607
0 1 0.711421
0 1 0.644236
0 1 0.57705
0.0213474 1 0.50988
0.0843977 1 0.442695
0.147463 1 0.375509
0.210513 1 0.308324
0.0986801 0 0.0864576
0.16173 0.00256352 0.0192721
0.224781 0.0297856 0
0.287846 0.0570077 0
0.350896 0.0842298 0
0.413962 0.111452 0
0.477012 0.138674 0
0.540078 0.165896 0
0.603128 0.193118 0
0.0619364 0.0977646 0.192157
0.124987 0.124987 0.124987
0.188052 0.152209 0.0578012
0.251102 0.179431 0
0.314168 0.206653 0
0.377218 0.233875 0
0.440284 0.261082 0
0.503334 0.288304 0
0.5664 0.315526 0
0.0251926 0.220203 0.297887
0.0882429 0.247425 0.230716
0.151308 0.274647 0.163531
0.214359 0.301854 0.0963455
0.277424 0.329076 0.02916
0.340475 0.356298 0
0.40354 0.38352 0
0.46659 0.410742 0
0.529656 0.437964 0
0 0.342641 0.403616
0.0514992 0.369848 0.336431
0.114565 0.39707 0.269245
0.177615 0.424292 0.202075
0.240681 0.451514 0.13489
0.303731 0.478737 0.0677043
0.366796 0.505959 0.000518807
0.429847 0.533181 0
0.492912 0.560388 0
0 0.465064 0.509331
0.0147555 0.492287 0.442161
0.077821 0.519509 0.374975
0.140871 0.546731 0.30779
0.203937 0.573953 0.240604
0.266987 0.60116 0.173434
0.330053 0.628382 0.106249
0.393103 0.655604 0.0390631
0.456168 0.682826 0
0 0.587503 0.615061
0 0.61471 0.54789
0.0410773 0.641932 0.480705
0.104128 0.669154 0.41352
0.167193 0.696376 0.346334
0.230243 0.723598 0.279149
0.293309 0.75082 0.211963
0.356359 0.778042 0.144778
0.419425 0.805264 0.0776074
0 0.709926 0.720775
0 0.737148 0.653605
0.00433356 0.76437 0.586419
0.0673838 0.791592 0.519234
0.130449 0.818814 0.452064
0.1935 0.846036 0.384878
0.256565 0.873243 0.317693
0.319615 0.900465 0.250507
0.382681 0.927687 0.183322
0 0.832364 0.826505
0 0.859586 0.759335
0 0.886809 0.692149
0.0306401 0.914015 0.624964
0.0937057 0.941238 0.557778
0.156756 0.96846 0.490593
0.219821 0.995682 0.423423
0.282872 1 0.356237
0.345937 1 0.289052
0 0.954803 0.932235
0 0.98201 0.865049
0 1 0.797879
0 1 0.730694
0.0569619 1 0.663508
0.120012 1 0.596323
0.183078 1 0.529137
0.246128 1 0.461952
0.309194 1 0.394781
0.19736 0 0.172915
0.26041 0 0.10573
0.323476 0.00514229 0.0385595
0.386526 0.0323644 0
0.449592 0.0595865 0
0.512642 0.0867933 0
0.575708 0.114015 0
0.638758 0.141238 0
0.701823 0.16846 0
0.160616 0.0731212 0.27863
0.223667 0.100343 0.211444
0.286732 0.12755 0.144259
0.349783 0.154772 0.0770886
0.412848 0.181994 0.0099031
0.475914 0.209216 0
0.538964 0.236439 0
0.602029 0.263661 0
0.66508 0.290883 0
0.123873 0.195544 0.384344
0.186923 0.222766 0.317174
0.249989 0.249989 0.249989
0.313054 0.277211 0.182803
0.376104 0.304433 0.115618
0.43917 0.331655 0.0484321
0.50222 0.358877 0
0.565286 0.386084 0
0.628336 0.413306 0
0.0871443 0.317983 0.490074
0.150195 0.345205 0.422889
0.213245 0.372427 0.355718
0.27631 0.399649 0.288533
0.339361 0.426856 0.221347
0.402426 0.454078 0.154162
0.465476 0.4813 0.0869764
0.528542 0.508522 0.019791
0.591592 0.535744 0
0.0504005 0.440421 0.595789
0.113451 0.467628 0.528618
0.176501 0.49485 0.461433
0.239567 0.522072 0.394247
0.302617 0.549294 0.327077
0.365682 0.576516 0.259892
0.428733 0.603738 0.192706
0.491798 0.630961 0.125521
0.554849 0.658183 0.0583352
0.0136568 0.562844 0.701518
0.0767071 0.590066 0.634348
0.139757 0.617288 0.567163
0.202823 0.644511 0.499977
0.265873 0.671733 0.432792
0.328939 0.698955 0.365606
0.391989 0.726162 0.298436
0.455055 0.753384 0.23125
0.518105 0.780606 0.164065
0 0.685283 0.807248
0.0399634 0.712505 0.740063
0.103014 0.739712 0.672892
0.166079 0.766934 0.605707
0.229129 0.794156 0.538521
0.292195 0.821378 0.471336
0.355245 0.8486 0.40415
0.418311 0.875822 0.336965
0.481361 0.903044 0.26978
0 0.807706 0.912963
0.00321965 0.834928 0.845792
0.0662699 0.86215 0.778607
0.129335 0.889372 0.711421
0.192386 0.916594 0.644236
0.255451 0.943816 0.577066
0.318502 0.971038 0.50988
0.381567 0.99826 0.442695
0.444617 1 0.375509
0 0.930144 1
0 0.957366 0.951522
0.0295262 0.984588 0.884337
0.0925917 1 0.817151
0.155642 1 0.749966
0.218708 1 0.68278
0.281758 1 0.615595
0.344823 1 0.548424
0.407874 1 0.481239
0.296056 0 0.259373
0.359106 0 0.192203
0.422156 0 0.125017
0.485222 0.00770581 0.0578317
0.548272 0.0349279 0
0.611337 0.06215 0
0.674388 0.0893721 0
0.737453 0.116594 0
0.800504 0.143816 0
0.259312 0.0484627 0.365087
0.322362 0.0756847 0.297902
0.385412 0.102907 0.230732
0.448478 0.130129 0.163546
0.511528 0.157351 0.0963607
0.574594 0.184573 0.0291752
0.637644 0.21178 0
0.70071 0.239002 0
0.76376 0.266224 0
0.222568 0.170901 0.470802
0.285618 0.198123 0.403632
0.348669 0.225345 0.336446
0.411734 0.252552 0.269261
0.474784 0.279774 0.20209
0.53785 0.306996 0.134905
0.6009 0.334218 0.0677195
0.663966 0.36144 0.000534066
0.727031 0.388663 0
0.185824 0.293339 0.576532
0.248875 0.320546 0.509361
0.311925 0.347768 0.442176
0.37499 0.37499 0.37499
0.438056 0.402213 0.307805
0.501106 0.429435 0.24062
0.564172 0.456657 0.173434
0.627222 0.483879 0.106264
0.690288 0.511086 0.0390784
0.149081 0.415763 0.682261
0.212131 0.442985 0.615076
0.275196 0.470207 0.54789
0.338247 0.497429 0.48072
0.401312 0.524636 0.413535
0.464363 0.551858 0.346349
0.527428 0.57908 0.279164
0.590478 0.606302 0.211978
0.653544 0.633524 0.144793
0.112337 0.538201 0.787976
0.175387 0.565408 0.720806
0.238453 0.59263 0.65362
0.301503 0.619852 0.586435
0.364569 0.647074 0.519249
0.427619 0.674296 0.452079
0.490684 0.701518 0.384894
0.553735 0.72874 0.317708
0.6168 0.755962 0.250523
0.0755932 0.660624 0.893706
0.138643 0.687846 0.826535
0.201709 0.715068 0.75935
0.264759 0.74229 0.692164
0.327825 0.769512 0.624979
0.390875 0.796735 0.557794
0.453941 0.823941 0.490608
0.516991 0.851164 0.423438
0.580056 0.878386 0.356252
0.0388495 0.783062 0.999435
0.1019 0.810285 0.93225
0.164965 0.837507 0.865064
0.228016 0.864713 0.797894
0.291081 0.891936 0.730709
0.354131 0.919158 0.663523
0.417197 0.94638 0.596338
0.480247 0.973602 0.529152
0.543313 1 0.461967
0.00210575 0.905501 1
0.065156 0.932708 1
0.128222 0.95993 0.970794
0.191272 0.987152 0.903609
0.254337 1 0.836423
0.317388 1 0.769238
0.380453 1 0.702068
0.443503 1 0.634882
0.506569 1 0.567697
0.394736 0 0.34583
0.457786 0 0.27866
0.520851 0 0.211475
0.583902 0 0.144289
0.646967 0.0102846 0.0771038
0.710018 0.0374914 0.00991836
0.773083 0.0647135 0
0.836133 0.0919356 0
0.899199 0.119158 0
0.357992 0.0238193 0.451545
0.421042 0.0510414 0.384375
0.484108 0.0782483 0.317189
0.547158 0.10547 0.250004
0.610224 0.132692 0.182818
0.673274 0.159915 0.115633
0.736339 0.187137 0.0484474
0.79939 0.214359 0
0.862455 0.241581 0
0.321248 0.146242 0.557275
0.384298 0.173465 0.490089
0.447364 0.200687 0.422904
0.510414 0.227909 0.355734
0.57348 0.255131 0.288548
0.63653 0.282353 0.221363
0.699596 0.309575 0.154177
0.762646 0.336782 0.0869917
0.825711 0.364004 0.0198062
0.284504 0.268681 0.662989
0.347555 0.295903 0.595819
0.41062 0.323125 0.528634
0.473671 0.350347 0.461448
0.536736 0.377554 0.394263
0.599786 0.404776 0.327092
0.662852 0.431998 0.259907
0.725902 0.45922 0.192721
0.788968 0.486442 0.125536
0.247761 0.391119 0.768719
0.310811 0.418326 0.701549
0.373877 0.445548 0.634363
0.436927 0.47277 0.567178
0.499992 0.499992 0.499992
0.563058 0.527214 0.432807
0.626108 0.554437 0.365621
0.689174 0.581659 0.298436
0.752224 0.608881 0.231266
0.211017 0.513542 0.874434
0.274067 0.540764 0.807263
0.337133 0.567987 0.740078
0.400198 0.595209 0.672892
0.463249 0.622431 0.605722
0.526314 0.649653 0.538537
0.589364 0.67686 0.471351
0.65243 0.704082 0.404166
0.71548 0.731304 0.33698
0.174289 0.635981 0.980163
0.237339 0.663203 0.912993
0.300389 0.69041 0.845808
0.363455 0.717632 0.778622
0.426505 0.744854 0.711437
0.48957 0.772076 0.644251
0.552621 0.799298 0.577081
0.615686 0.82652 0.509896
0.678737 0.853742 0.44271
0.137545 0.758404 1
0.200595 0.785626 1
0.263645 0.812848 0.951537
0.326711 0.84007 0.884352
0.389761 0.867292 0.817166
0.452827 0.894514 0.749981
0.515877 0.921736 0.682795
0.578943 0.948959 0.61561
0.641993 0.976165 0.54844
0.100801 0.880842 1
0.163851 0.908064 1
0.226902 0.935286 1
0.289967 0.962509 0.990066
0.353017 0.989715 0.922896
0.416083 1 0.855711
0.479133 1 0.788525
0.542199 1 0.72134
0.605249 1 0.654154
0.493431 0 0.432288
0.556481 0 0.365118
0.619532 0 0.297932
0.682597 0 0.230747
0.745647 0 0.163577
0.808713 0.0128481 0.0963912
0.871763 0.0400702 0.0292058
0.934829 0.0672923 0
0.997879 0.0945144 0
0.456687 0 0.538003
0.519738 0.0263828 0.470832
0.582788 0.0536049 0.403647
0.645853 0.080827 0.336461
0.708904 0.108049 0.269276
0.771969 0.135271 0.20209
0.835019 0.162478 0.13492
0.898085 0.1897 0.0677348
0.961135 0.216922 0.000549325
0.419944 0.121599 0.643732
0.482994 0.148821 0.576547
0.546044 0.176028 0.509377
0.60911 0.20325 0.442191
0.67216 0.230472 0.375006
0.735225 0.257694 0.30782
0.798276 0.284916 0.240635
0.861341 0.312139 0.173449
0.924392 0.339361 0.106279
0.3832 0.244038 0.749447
0.44625 0.271244 0.682277
0.5093 0.298466 0.615091
0.572366 0.325689 0.547906
0.635416 0.352911 0.480735
0.698482 0.380133 0.41355
0.761532 0.407355 0.346365
0.824598 0.434577 0.279179
0.887648 0.461784 0.211994
0.346456 0.366461 0.855177
0.409506 0.393683 0.788006
0.472557 0.420905 0.720821
0.535622 0.448127 0.653635
0.598672 0.475349 0.58645
0.661738 0.502556 0.519265
0.724788 0.529778 0.452094
0.787854 0.557 0.384909
0.850904 0.584222 0.317723
0.309712 0.488899 0.960906
0.372763 0.516106 0.893721
0.435813 0.543328 0.826551
0.498878 0.57055 0.759365
0.561929 0.597772 0.69218
0.624994 0.624994 0.624994
0.68806 0.652216 0.557809
0.75111 0.679438 0.490623
0.814176 0.706661 0.423438
0.272969 0.611322 1
0.336019 0.638544 0.999451
0.399069 0.665766 0.932265
0.462135 0.692988 0.86508
0.5252 0.720211 0.797894
0.588251 0.747433 0.730724
0.651316 0.774639 0.663539
0.714366 0.801862 0.596353
0.777432 0.829084 0.529168
0.236225 0.733761 1
0.299275 0.760983 1
0.362341 0.788205 1
0.425391 0.815412 0.97081
0.488457 0.842634 0.903624
0.551507 0.869856 0.836439
0.614572 0.897078 0.769253
0.677623 0.9243 0.702083
0.740688 0.951522 0.634897
0.199481 0.856199 1
0.262531 0.883406 1
0.325597 0.910628 1
0.388647 0.93785 1
0.451713 0.965072 1
0.514763 0.992294 0.942168
0.577829 1 0.874983
0.640879 1 0.807797
0.703944 1 0.740612
0.592111 0 0.518761
0.655161 0 0.451575
0.718227 0 0.38439
0.781277 0 0.31722
0.844343 0 0.250034
0.907393 0 0.182849
0.970459 0.0154116 0.115663
1 0.0426337 0.0484779
1 0.0698558 0
0.555367 0 0.62446
0.618418 0.00172427 0.55729
0.681483 0.0289464 0.490105
0.744533 0.0561685 0.422919
0.807599 0.0833906 0.355749
0.870649 0.110613 0.288563
0.933715 0.137835 0.221378
0.996765 0.165057 0.154192
1 0.192279 0.0870069
0.518624 0.0969406 0.73019
0.581674 0.124163 0.66302
0.644739 0.151385 0.595834
0.70779 0.178607 0.528649
0.770855 0.205829 0.461463
0.833906 0.233051 0.394278
0.896971 0.260273 0.327092
0.960021 0.28748 0.259922
1 0.314702 0.192737
0.48188 0.219379 0.83592
0.54493 0.246601 0.768734
0.607996 0.273823 0.701549
0.671046 0.30103 0.634379
0.734112 0.328252 0.567193
0.797162 0.355474 0.500008
0.860227 0.382696 0.432822
0.923278 0.409918 0.365637
0.986343 0.43714 0.298451
0.445136 0.341817 0.941634
0.508186 0.369024 0.874464
0.571252 0.396246 0.807279
0.634302 0.423468 0.740093
0.697368 0.45069 0.672908
0.760418 0.477913 0.605737
0.823484 0.505135 0.538552
0.886534 0.532357 0.471366
0.949599 0.559579 0.404181
0.408392 0.46424 1
0.471443 0.491463 0.980194
0.534508 0.518685 0.913008
0.597559 0.545907 0.845823
0.660624 0.573129 0.778637
0.723674 0.600336 0.711452
0.78674 0.627558 0.644266
0.84979 0.65478 0.577096
0.912856 0.682002 0.509911
0.371649 0.586679 1
0.434699 0.613901 1
0.497765 0.641108 1
0.560815 0.66833 0.951553
0.62388 0.695552 0.884367
0.686931 0.722774 0.817182
0.749996 0.749996 0.749996
0.813062 0.777218 0.682811
0.876112 0.80444 0.615625
0.334905 0.709102 1
0.397955 0.736324 1
0.461021 0.763546 1
0.524071 0.790768 1
0.587137 0.81799 0.990082
0.650202 0.845212 0.922896
0.713252 0.872435 0.855726
0.776318 0.899657 0.78854
0.839368 0.926863 0.721355
0.298161 0.83154 1
0.361227 0.858763 1
0.424277 0.885985 1
0.487343 0.913207 1
0.550393 0.940414 1
0.613458 0.967636 1
0.676509 0.994858 0.96144
0.739574 1 0.894255
0.802625 1 0.827085
0.690791 0 0.605219
0.753841 0 0.538033
0.816907 0 0.470863
0.879957 0 0.403677
0.943023 0 0.336492
1 0 0.269306
1 0 0.202121
1 0.0179904 0.134936
1 0.0452125 0.0677653
0.654063 0 0.710933
0.717113 0 0.643748
0.780163 0.00430304 0.576562
0.843229 0.0315251 0.509392
0.906279 0.0587472 0.442206
0.969345 0.0859693 0.375021
1 0.113176 0.307836
1 0.140398 0.24065
1 0.16762 0.173465
0.617319 0.0722972 0.816648
0.680369 0.0995193 0.749477
0.74342 0.126726 0.682292
0.806485 0.153948 0.615106
0.869535 0.18117 0.547921
0.932601 0.208392 0.480751
0.995651 0.235615 0.413565
1 0.262837 0.34638
1 0.290059 0.279194
0.580575 0.194736 0.922377
0.643626 0.221942 0.855207
0.706676 0.249165 0.788022
0.769741 0.276387 0.720836
0.832792 0.303609 0.653651
0.895857 0.330831 0.586465
0.958907 0.358053 0.51928
1 0.385275 0.452094
1 0.412482 0.384924
0.543832 0.317159 1
0.606882 0.344381 0.960922
0.669932 0.371603 0.893736
0.732998 0.398825 0.826551
0.796048 0.426047 0.75938
0.859113 0.453254 0.692195
0.922164 0.480476 0.62501
0.985229 0.507698 0.557824
1 0.53492 0.490639
0.507088 0.439597 1
0.570138 0.466804 1
0.633188 0.494026 0.999466
0.696254 0.521248 0.93228
0.759304 0.54847 0.865095
0.82237 0.575692 0.797909
0.88542 0.602914 0.730739
0.948486 0.630137 0.663554
1 0.657359 0.596368
0.470344 0.56202 1
0.533394 0.589242 1
0.596445 0.616464 1
0.65951 0.643687 1
0.72256 0.670909 0.970825
0.785626 0.698131 0.903639
0.848676 0.725338 0.836454
0.911742 0.75256 0.769268
0.974792 0.779782 0.702098
0.4336 0.684459 1
0.496651 0.711681 1
0.559701 0.738903 1
0.622766 0.76611 1
0.685817 0.793332 1
0.748882 0.820554 1
0.811933 0.847776 0.942184
0.874998 0.874998 0.874998
0.938064 0.90222 0.807813
0.396857 0.806897 1
0.459907 0.834104 1
0.522957 0.861326 1
0.586023 0.888548 1
0.649073 0.91577 1
0.712139 0.942992 1
0.775204 0.970214 1
0.838254 0.997436 0.980728
0.90132 1 0.913542
0.789487 0 0.691676
0.852537 0 0.624506
0.915587 0 0.557321
0.978653 0 0.490135
1 0 0.42295
1 0 0.355764
1 0 0.288579
1 0 0.221408
1 0.0205539 0.154223
0.752743 0 0.797391
0.815793 0 0.730205
0.878859 0 0.663035
0.941909 0.00686656 0.59585
1 0.0340887 0.528664
1 0.0613107 0.461479
1 0.0885328 0.394293
1 0.115755 0.327108
1 0.142977 0.259937
0.715999 0.0476387 0.903105
0.779049 0.0748608 0.835935
0.842115 0.102083 0.76875
0.905165 0.129305 0.701564
0.968231 0.156527 0.634394
1 0.183749 0.567208
1 0.210971 0.500023
1 0.238178 0.432837
1 0.2654 0.365652
0.679255 0.170077 1
0.742306 0.197299 0.941665
0.805371 0.224521 0.874479
0.868421 0.251743 0.807294
0.931487 0.27895 0.740108
0.994537 0.306172 0.672923
1 0.333394 0.605753
1 0.360616 0.538567
1 0.387839 0.471382
0.642512 0.292515 1
0.705562 0.319722 1
0.768627 0.346944 0.980209
0.831678 0.374166 0.913024
0.894743 0.401389 0.845838
0.957794 0.428611 0.778653
1 0.455833 0.711467
1 0.483055 0.644282
1 0.510277 0.577096
0.605768 0.414939 1
0.668818 0.442161 1
0.731884 0.469383 1
0.794934 0.496605 1
0.858 0.523827 0.951553
0.92105 0.551034 0.884382
0.984115 0.578256 0.817197
1 0.605478 0.750011
1 0.6327 0.682826
0.569024 0.537377 1
0.632074 0.564599 1
0.69514 0.591806 1
0.75819 0.619028 1
0.821256 0.64625 1
0.884306 0.673472 0.990097
0.947372 0.700694 0.922911
1 0.727916 0.855741
1 0.755138 0.788556
0.53228 0.6598 1
0.595331 0.687022 1
0.658396 0.714244 1
0.721447 0.741466 1
0.784512 0.768688 1
0.847562 0.795911 1
0.910628 0.823133 1
0.973678 0.850355 0.961456
1 0.877562 0.89427
0.495537 0.782238 1
0.558587 0.809461 1
0.621653 0.836683 1
0.684703 0.863905 1
0.747768 0.891112 1
0.810819 0.918334 1
0.873884 0.945556 1
0.936934 0.972778 1
1 1 1
