public/LUTS/Color Shift/ColorShift_87.cube
TITLE "Generated by Resolve"
LUT_3D_SIZE 5
0 0 0
0.0989548 0 0.388907
0.197925 0 0.777829
0.296895 0 1
0.395865 0 1
0.515846 0.105272 0
0.614816 0.100587 0.310765
0.713771 0.0958877 0.699687
0.812741 0.0912032 1
0.911711 0.0865034 1
1 0.210559 0
1 0.205875 0.232639
1 0.201175 0.621561
1 0.196475 1
1 0.191791 1
1 0.315847 0
1 0.311147 0.154498
1 0.306462 0.54342
1 0.301762 0.932342
1 0.297078 1
1 0.421118 0
1 0.416434 0.0763561
1 0.411734 0.465278
1 0.40705 0.854215
1 0.40235 1
0 0.149401 0
0 0.144717 0.328115
0 0.140017 0.717037
0 0.135332 1
0.0310369 0.130632 1
0.151034 0.254673 0
0.249989 0.249989 0.249989
0.348959 0.245289 0.638911
0.447929 0.240604 1
0.546883 0.235904 1
0.666911 0.35996 0
0.765866 0.355276 0.171847
0.864836 0.350576 0.560769
0.963806 0.345892 0.949706
1 0.341192 1
1 0.465248 0
1 0.460548 0.0937209
1 0.455863 0.482643
1 0.451164 0.871565
1 0.446479 1
1 0.570535 0
1 0.565835 0.0155795
1 0.561151 0.404501
1 0.556451 0.793423
1 0.551766 1
0 0.298817 0
0 0.294133 0.267338
0 0.289433 0.65626
0 0.284733 1
0 0.280049 1
0 0.404089 0
0 0.399405 0.189212
0 0.394705 0.578134
0.0830854 0.390021 0.967056
0.18204 0.385321 1
0.302068 0.509377 0
0.401022 0.504692 0.11107
0.499992 0.499992 0.499992
0.598962 0.495293 0.888914
0.697932 0.490608 1
0.817945 0.614664 0
0.916899 0.609964 0.032929
1 0.60528 0.421851
1 0.60058 0.810773
1 0.595895 1
1 0.719936 0
1 0.715251 0
1 0.710552 0.343725
1 0.705867 0.732647
1 0.701167 1
0 0.448234 0
0 0.443534 0.206546
0 0.438849 0.595468
0 0.43415 0.984405
0 0.429465 1
0 0.553506 0
0 0.548821 0.12842
0 0.544121 0.517342
0 0.539437 0.906264
0 0.534737 1
0 0.658793 0
0.0361791 0.654093 0.0502785
0.135149 0.649409 0.439216
0.234119 0.644709 0.828138
0.333074 0.640024 1
0.453101 0.76408 0
0.552056 0.75938 0
0.651026 0.754696 0.361074
0.749996 0.749996 0.749996
0.848966 0.745296 1
0.968978 0.869352 0
1 0.864668 0
1 0.859968 0.282933
1 0.855283 0.671855
1 0.850584 1
0 0.59765 0
0 0.59295 0.145769
0 0.588266 0.534691
0 0.583566 0.923613
0 0.578882 1
0 0.702922 0
0 0.698222 0.0676432
0 0.693538 0.456565
0 0.688838 0.845487
0 0.684153 1
0 0.808209 0
0 0.80351 0
0 0.798825 0.378424
0 0.794125 0.767346
0 0.789441 1
0.0882582 0.913481 0
0.187213 0.908797 0
0.286183 0.904097 0.300282
0.385153 0.899413 0.689219
0.484123 0.894713 1
0.604135 1 0
0.703105 1 0
0.80206 1 0.222156
0.90103 1 0.611078
1 1 1
