public/LUTS/Color Shift/ColorShift_61.cube
TITLE "Generated by Resolve"
LUT_3D_SIZE 5
0 0 0
0 0.121416 0
0 0.242847 0
0 0.364263 0
0 0.485695 0
0 0.22916 0.467704
0 0.350576 0.192401
0 0.471992 0
0 0.593423 0
0 0.714839 0
0 0.45832 0.935439
0 0.579736 0.660136
0 0.701167 0.384817
0 0.822583 0.109499
0 0.944015 0
0 0.687495 1
0 0.808911 1
0 0.930327 0.852552
0 1 0.577234
0 1 0.301915
0 0.916671 1
0 1 1
0 1 1
0 1 1
0 1 0.76965
0.417731 0 0.0575875
0.380987 0.0208286 0
0.344228 0.14226 0
0.307485 0.263676 0
0.270726 0.385107 0
0.286732 0.128573 0.525292
0.249989 0.249989 0.249989
0.213245 0.37142 0
0.176486 0.492836 0
0.139742 0.614267 0
0.155734 0.357748 0.993027
0.11899 0.479164 0.717723
0.0822309 0.60058 0.442405
0.0454871 0.722011 0.167086
0.00872816 0.843427 0
0.0247349 0.586908 1
0 0.708324 1
0 0.829755 0.91014
0 0.951171 0.634821
0 1 0.359503
0 0.816083 1
0 0.937499 1
0 1 1
0 1 1
0 1 0.827237
0.835492 0 0.115175
0.798733 0 0
0.76199 0.0416724 0
0.725231 0.163088 0
0.688487 0.28452 0
0.704494 0.027985 0.582879
0.66775 0.149401 0.307576
0.630991 0.270817 0.0322576
0.594247 0.392248 0
0.557488 0.513664 0
0.573495 0.257145 1
0.536736 0.378561 0.775311
0.499992 0.499992 0.499992
0.463249 0.621424 0.224674
0.42649 0.74284 0
0.442496 0.48632 1
0.405737 0.607736 1
0.368994 0.729168 0.967727
0.332235 0.850584 0.692409
0.295491 0.972015 0.41709
0.311482 0.715496 1
0.274739 0.836912 1
0.237995 0.958328 1
0.201236 1 1
0.164492 1 0.884825
1 0 0.172763
1 0 0
1 0 0
1 0.062501 0
1 0.183932 0
1 0 0.640467
1 0.0488136 0.365164
1 0.17023 0.0898451
1 0.291661 0
0.97525 0.413077 0
0.991241 0.156558 1
0.954498 0.277974 0.832898
0.917754 0.399405 0.55758
0.880995 0.520821 0.282261
0.844251 0.642252 0.00694286
0.860243 0.385733 1
0.823499 0.507149 1
0.78674 0.628565 1
0.749996 0.749996 0.749996
0.713252 0.871427 0.474678
0.729244 0.614908 1
0.6925 0.736324 1
0.655741 0.85774 1
0.618997 0.979171 1
0.582238 1 0.942412
1 0 0.23035
1 0 0
1 0 0
1 0 0
1 0.0833295 0
1 0 0.698054
1 0 0.422751
1 0.0696422 0.147433
1 0.191073 0
1 0.31249 0
1 0.0559701 1
1 0.177386 0.890486
1 0.298817 0.615167
1 0.420233 0.339849
1 0.541665 0.0645304
1 0.285145 1
1 0.406561 1
1 0.527977 1
1 0.649409 0.807584
1 0.770825 0.532265
1 0.514305 1
1 0.635721 1
1 0.757153 1
1 0.878569 1
1 1 1
