public/LUTS/Color Shift/ColorShift_63.cube
TITLE "Generated by Resolve"
LUT_3D_SIZE 9
0 0 0
0.0247807 0.0485237 0
0.049546 0.0970626 0
0.0743267 0.145586 0
0.0991073 0.194125 0
0.123873 0.242649 0
0.148653 0.291188 0
0.173434 0.339712 0
0.198199 0.388235 0
0 0.12958 0.192248
0 0.178103 0.048661
0 0.226627 0
0 0.275166 0
0.00141909 0.32369 0
0.0261997 0.372229 0
0.0509804 0.420752 0
0.075761 0.469276 0
0.100526 0.517815 0
0 0.259159 0.384527
0 0.307683 0.24094
0 0.356222 0.0973373
0 0.404746 0
0 0.453285 0
0 0.501808 0
0 0.550347 0
0 0.598871 0
0.00283818 0.64741 0
0 0.388754 0.576806
0 0.437278 0.433219
0 0.485801 0.289601
0 0.53434 0.145998
0 0.582864 0.00239567
0 0.631403 0
0 0.679927 0
0 0.728466 0
0 0.776989 0
0 0.518334 0.769085
0 0.566857 0.625498
0 0.615396 0.48188
0 0.66392 0.338277
0 0.712459 0.194659
0 0.760983 0.0510567
0 0.809522 0
0 0.858045 0
0 0.906584 0
0 0.647929 0.961364
0 0.696452 0.817761
0 0.744976 0.674159
0 0.793515 0.530556
0 0.842039 0.386938
0 0.890578 0.243336
0 0.939101 0.0997177
0 0.98764 0
0 1 0
0 0.777508 1
0 0.826032 1
0 0.874571 0.866438
0 0.923095 0.722835
0 0.971633 0.579217
0 1 0.435615
0 1 0.291997
0 1 0.148394
0 1 0.00479133
0 0.907103 1
0 0.955627 1
0 1 1
0 1 0.915099
0 1 0.771496
0 1 0.627894
0 1 0.484276
0 1 0.340673
0 1 0.197055
0 1 1
0 1 1
0 1 1
0 1 1
0 1 0.963775
0 1 0.820157
0 1 0.676555
0 1 0.532952
0 1 0.389334
0.197894 0 0.0763256
0.22266 0 0
0.24744 0.043946 0
0.272221 0.0924697 0
0.296986 0.141009 0
0.321767 0.189532 0
0.346548 0.238071 0
0.371313 0.286595 0
0.396094 0.335134 0
0.100206 0.076463 0.268574
0.124987 0.124987 0.124987
0.149767 0.17351 0
0.174533 0.222049 0
0.199313 0.270573 0
0.224094 0.319112 0
0.248875 0.367636 0
0.27364 0.416175 0
0.298421 0.464698 0
0.002533 0.206043 0.460853
0.0272984 0.254582 0.317266
0.052079 0.303105 0.173648
0.0768444 0.351644 0.030045
0.101625 0.400168 0
0.126406 0.448692 0
0.151186 0.49723 0
0.175952 0.545754 0
0.200732 0.594293 0
0 0.335637 0.653132
0 0.384161 0.509544
0 0.4327 0.365927
0 0.481224 0.222324
0.00393683 0.529763 0.0787213
0.0287175 0.578286 0
0.0534981 0.626825 0
0.0782635 0.675349 0
0.103044 0.723873 0
0 0.465232 0.845411
0 0.513756 0.701823
0 0.56228 0.558206
0 0.610819 0.414603
0 0.659342 0.270985
0 0.707881 0.127382
0 0.756405 0
0 0.804944 0
0.00535592 0.853468 0
0 0.594812 1
0 0.643336 0.894087
0 0.691875 0.750484
0 0.740398 0.606882
0 0.788937 0.463264
0 0.837461 0.319661
0 0.886 0.176043
0 0.934524 0.0324407
0 0.983063 0
0 0.724407 1
0 0.772931 1
0 0.821454 0.942763
0 0.869993 0.799146
0 0.918517 0.655543
0 0.967056 0.51194
0 1 0.368322
0 1 0.22472
0 1 0.0811017
0 0.853986 1
0 0.90251 1
0 0.951049 1
0 0.999573 0.991424
0 1 0.847822
0 1 0.704219
0 1 0.560601
0 1 0.416999
0 1 0.273381
0 0.983581 1
0 1 1
0 1 1
0 1 1
0 1 1
0 1 0.896483
0 1 0.75288
0 1 0.609277
0 1 0.46566
0.395804 0 0.152651
0.420569 0 0.00906386
0.44535 0 0
0.47013 0.039353 0
0.494911 0.087892 0
0.519677 0.136416 0
0.544457 0.184955 0
0.569238 0.233478 0
0.594003 0.282017 0
0.298131 0.0233463 0.344915
0.322896 0.07187 0.201328
0.347677 0.120394 0.0577096
0.372457 0.168933 0
0.397223 0.217456 0
0.422004 0.265995 0
0.446784 0.314519 0
0.47155 0.363058 0
0.49633 0.411582 0
0.200443 0.152926 0.537194
0.225208 0.201465 0.393591
0.249989 0.249989 0.249989
0.274769 0.298512 0.106386
0.299535 0.347051 0
0.324315 0.395575 0
0.349096 0.444114 0
0.373877 0.492638 0
0.398642 0.541176 0
0.102754 0.282521 0.729473
0.12752 0.331044 0.58587
0.1523 0.379583 0.442267
0.177081 0.428107 0.29865
0.201846 0.476646 0.155047
0.226627 0.52517 0.0114443
0.251408 0.573693 0
0.276188 0.622232 0
0.300954 0.670756 0
0.005066 0.412116 0.921736
0.0298314 0.460639 0.778149
0.054612 0.509163 0.634546
0.0793927 0.557702 0.490929
0.104173 0.606226 0.347326
0.128939 0.654765 0.203723
0.153719 0.703288 0.0601053
0.1785 0.751827 0
0.203265 0.800351 0
0 0.541695 1
0 0.590219 0.970428
0 0.638758 0.826825
0 0.687282 0.683207
0.00648508 0.735821 0.539605
0.0312505 0.784344 0.395987
0.0560311 0.832883 0.252384
0.0808118 0.881407 0.108782
0.105577 0.929946 0
0 0.67129 1
0 0.719814 1
0 0.768338 1
0 0.816876 0.875486
0 0.8654 0.731884
0 0.913939 0.588266
0 0.962463 0.444663
0 1 0.301045
0.00788891 1 0.157443
0 0.80087 1
0 0.849393 1
0 0.897932 1
0 0.946456 1
0 0.994995 0.924147
0 1 0.780545
0 1 0.636942
0 1 0.493324
0 1 0.349722
0 0.930465 1
0 0.978988 1
0 1 1
0 1 1
0 1 1
0 1 0.972824
0 1 0.829221
0 1 0.685603
0 1 0.542
0.593713 0 0.228992
0.618494 0 0.0854047
0.643259 0 0
0.66804 0 0
0.692821 0.0347753 0
0.717586 0.083299 0
0.742367 0.131838 0
0.767147 0.180362 0
0.791928 0.228901 0
0.49604 0 0.421241
0.520806 0.0187533 0.277653
0.545586 0.067277 0.134051
0.570367 0.115816 0
0.595148 0.16434 0
0.619913 0.212879 0
0.644694 0.261402 0
0.669474 0.309941 0
0.69424 0.358465 0
0.398352 0.0998093 0.613519
0.423133 0.148333 0.469932
0.447898 0.196872 0.326329
0.472679 0.245396 0.182712
0.497459 0.293935 0.0391089
0.522225 0.342458 0
0.547005 0.390997 0
0.571786 0.439521 0
0.596551 0.48806 0
0.300664 0.229404 0.805798
0.325444 0.277928 0.662211
0.35021 0.326467 0.518593
0.37499 0.37499 0.37499
0.399771 0.423514 0.231388
0.424536 0.472053 0.0877699
0.449317 0.520577 0
0.474098 0.569116 0
0.498878 0.617639 0
0.202976 0.358999 0.998077
0.227756 0.407523 0.85449
0.252522 0.456046 0.710872
0.277302 0.504585 0.567269
0.302083 0.553109 0.423651
0.326848 0.601648 0.280049
0.351629 0.650172 0.136446
0.37641 0.698695 0
0.40119 0.747234 0
0.105287 0.488579 1
0.130068 0.537102 1
0.154833 0.585641 0.903151
0.179614 0.634165 0.759548
0.204395 0.682704 0.61593
0.229175 0.731228 0.472328
0.253941 0.779767 0.328725
0.278721 0.82829 0.185107
0.303502 0.876829 0.0415045
0.00759899 0.618173 1
0.0323796 0.666697 1
0.057145 0.715221 1
0.0819257 0.76376 0.951827
0.106706 0.812284 0.808209
0.131487 0.860822 0.664607
0.156252 0.909346 0.520989
0.181033 0.957885 0.377386
0.205814 1 0.233783
0 0.747753 1
0 0.796277 1
0 0.844816 1
0 0.893339 1
0.00901808 0.941878 1
0.0337987 0.990402 0.856886
0.0585641 1 0.713268
0.0833448 1 0.569665
0.108125 1 0.426047
0 0.877348 1
0 0.925872 1
0 0.974395 1
0 1 1
0 1 1
0 1 1
0 1 0.905547
0 1 0.761944
0.0104372 1 0.618326
0.791623 0 0.305333
0.816403 0 0.16173
0.841184 0 0.0181277
0.86595 0 0
0.89073 0 0
0.915511 0.0301823 0
0.940276 0.0787213 0
0.965057 0.127245 0
0.989837 0.175784 0
0.69395 0 0.497581
0.71873 0 0.353994
0.743496 0.0141604 0.210376
0.768277 0.0626993 0.0667735
0.793057 0.111223 0
0.817838 0.159762 0
0.842603 0.208286 0
0.867384 0.256825 0
0.892164 0.305348 0
0.596262 0.0466926 0.68986
0.621042 0.0952163 0.546258
0.645808 0.143755 0.402655
0.670588 0.192279 0.259052
0.695369 0.240818 0.115434
0.72015 0.289342 0
0.744915 0.337881 0
0.769696 0.386404 0
0.794476 0.434943 0
0.498573 0.176287 0.882139
0.523354 0.224811 0.738537
0.548135 0.273335 0.594934
0.5729 0.321874 0.451331
0.597681 0.370398 0.307713
0.622461 0.418936 0.164111
0.647227 0.46746 0.0204929
0.672007 0.515999 0
0.696788 0.564523 0
0.400885 0.305867 1
0.425666 0.354406 0.930816
0.450446 0.40293 0.787213
0.475212 0.451469 0.643595
0.499992 0.499992 0.499992
0.524773 0.548516 0.35639
0.549538 0.597055 0.212772
0.574319 0.645579 0.0691691
0.5991 0.694118 0
0.303197 0.435462 1
0.327977 0.483986 1
0.352758 0.532525 0.979492
0.377523 0.581048 0.835874
0.402304 0.629587 0.692271
0.427085 0.678111 0.548653
0.45185 0.72665 0.405051
0.476631 0.775174 0.261448
0.501411 0.823697 0.11783
0.205509 0.565057 1
0.230289 0.613581 1
0.25507 0.662104 1
0.279835 0.710643 1
0.304616 0.759167 0.88455
0.329397 0.807706 0.740932
0.354177 0.856229 0.59733
0.378943 0.904768 0.453727
0.403723 0.953292 0.310109
0.107836 0.694636 1
0.132601 0.74316 1
0.157382 0.791699 1
0.182147 0.840223 1
0.206928 0.888762 1
0.231708 0.937285 0.933211
0.256489 0.985824 0.789609
0.281254 1 0.645991
0.306035 1 0.502388
0.0101472 0.824231 1
0.0349126 0.872755 1
0.0596933 0.921279 1
0.0844739 0.969818 1
0.109239 1 1
0.13402 1 1
0.158801 1 0.981888
0.183566 1 0.83827
0.208347 1 0.694667
0.989548 0 0.381659
1 0 0.238071
1 0 0.0944533
1 0 0
1 0 0
1 0 0
1 0.0256046 0
1 0.0741283 0
1 0.122667 0
0.891859 0 0.573907
0.91664 0 0.43032
0.941421 0 0.286717
0.966186 0.00958267 0.143099
0.990967 0.0581064 0
1 0.106645 0
1 0.155169 0
1 0.203708 0
1 0.252232 0
0.794171 0 0.766186
0.818952 0.0420996 0.622599
0.843732 0.0906386 0.478996
0.868498 0.139162 0.335378
0.893278 0.187701 0.191775
0.918059 0.236225 0.0481575
0.94284 0.284764 0
0.967605 0.333288 0
0.992386 0.381826 0
0.696498 0.123171 0.958465
0.721263 0.171695 0.814878
0.746044 0.220218 0.67126
0.770809 0.268757 0.527657
0.79559 0.317281 0.384054
0.820371 0.36582 0.240436
0.845151 0.414343 0.0968338
0.869917 0.462882 0
0.894697 0.511406 0
0.59881 0.25275 1
0.623575 0.301289 1
0.648356 0.349813 0.863539
0.673136 0.398337 0.719936
0.697902 0.446876 0.576333
0.722683 0.495399 0.432715
0.747463 0.543938 0.289113
0.772229 0.592462 0.145495
0.797009 0.641001 0.00189212
0.501122 0.382345 1
0.525887 0.430869 1
0.550668 0.479408 1
0.575448 0.527932 0.912215
0.600214 0.576471 0.768597
0.624994 0.624994 0.624994
0.649775 0.673518 0.481392
0.67454 0.722057 0.337774
0.699321 0.770581 0.194171
0.403433 0.51194 1
0.428199 0.560464 1
0.452979 0.608988 1
0.47776 0.657526 1
0.502525 0.70605 0.960876
0.527306 0.754589 0.817273
0.552087 0.803113 0.673655
0.576852 0.851652 0.530053
0.601633 0.900175 0.38645
0.305745 0.64152 1
0.33051 0.690044 1
0.355291 0.738582 1
0.380072 0.787106 1
0.404837 0.835645 1
0.429618 0.884169 1
0.454398 0.932708 0.865934
0.479179 0.981231 0.722332
0.503944 1 0.578729
0.208057 0.771115 1
0.232822 0.819638 1
0.257603 0.868162 1
0.282383 0.916701 1
0.307149 0.965225 1
0.33193 1 1
0.35671 1 1
0.381491 1 0.914611
0.406256 1 0.770993
1 0 0.458
1 0 0.314397
1 0 0.170794
1 0 0.0271916
1 0 0
1 0 0
1 0 0
1 0.0210117 0
1 0.0695506 0
1 0 0.650248
1 0 0.506661
1 0 0.363043
1 0 0.21944
1 0.0049897 0.0758373
1 0.0535286 0
1 0.102052 0
1 0.150591 0
1 0.199115 0
0.992096 0 0.842527
1 0 0.69894
1 0.0375219 0.555322
1 0.0860456 0.411719
1 0.134585 0.268101
1 0.183108 0.124498
1 0.231647 0
1 0.280171 0
1 0.32871 0
0.894408 0.0700542 1
0.919173 0.118578 0.891203
0.943954 0.167102 0.7476
0.968734 0.215641 0.603998
0.9935 0.264164 0.46038
1 0.312703 0.316777
1 0.361227 0.173159
1 0.409766 0.0295567
1 0.458289 0
0.796719 0.199634 1
0.821485 0.248157 1
0.846265 0.296696 0.939879
0.871046 0.34522 0.796262
0.895811 0.393759 0.652659
0.920592 0.442283 0.509056
0.945373 0.490822 0.365438
0.970153 0.539345 0.221836
0.994919 0.587884 0.0782177
0.699031 0.329229 1
0.723796 0.377752 1
0.748577 0.426291 1
0.773358 0.474815 0.98854
0.798138 0.523339 0.844938
0.822904 0.571878 0.701335
0.847684 0.620401 0.557717
0.872465 0.66894 0.414115
0.897231 0.717464 0.270497
0.601343 0.458824 1
0.626108 0.507347 1
0.650889 0.555871 1
0.675669 0.60441 1
0.70045 0.652934 1
0.725216 0.701473 0.893599
0.749996 0.749996 0.749996
0.774777 0.79852 0.606394
0.799542 0.847059 0.462776
0.503655 0.588403 1
0.528435 0.636927 1
0.553201 0.685466 1
0.577981 0.733989 1
0.602762 0.782528 1
0.627527 0.831052 1
0.652308 0.879591 0.942275
0.677089 0.928115 0.798657
0.701854 0.976654 0.655055
0.405966 0.717998 1
0.430747 0.766522 1
0.455512 0.815045 1
0.480293 0.863584 1
0.505074 0.912108 1
0.529839 0.960647 1
0.55462 1 1
0.5794 1 0.990936
0.604181 1 0.847333
1 0 0.534325
1 0 0.390738
1 0 0.247135
1 0 0.103517
1 0 0
1 0 0
1 0 0
1 0 0
1 0.016434 0
1 0 0.726589
1 0 0.582986
1 0 0.439384
1 0 0.295766
1 0 0.152163
1 0.000411994 0.00856031
1 0.0489357 0
1 0.0974746 0
1 0.145998 0
1 0 0.918853
1 0 0.775265
1 0 0.631662
1 0.032929 0.488045
1 0.0814679 0.344442
1 0.129992 0.200839
1 0.178531 0.0572213
1 0.227054 0
1 0.275593 0
1 0.0169375 1
1 0.0654612 0.967544
1 0.113985 0.823941
1 0.162524 0.680323
1 0.211048 0.536721
1 0.259586 0.393103
1 0.30811 0.2495
1 0.356649 0.105898
1 0.405173 0
0.994629 0.146517 1
1 0.195041 1
1 0.24358 1
1 0.292103 0.872602
1 0.340642 0.729
1 0.389166 0.585382
1 0.437705 0.441779
1 0.486229 0.298161
1 0.534768 0.154559
0.896941 0.276112 1
0.921721 0.324636 1
0.946487 0.373159 1
0.971267 0.421698 1
0.996048 0.470222 0.921263
1 0.518761 0.777661
1 0.567285 0.634058
1 0.615824 0.49044
1 0.664347 0.346838
0.799252 0.405692 1
0.824033 0.454231 1
0.848798 0.502754 1
0.873579 0.551293 1
0.89836 0.599817 1
0.92314 0.648341 0.96994
0.947906 0.69688 0.826337
0.972686 0.745403 0.682719
0.997467 0.793942 0.539117
0.701564 0.535286 1
0.726345 0.58381 1
0.75111 0.632349 1
0.775891 0.680873 1
0.800671 0.729412 1
0.825452 0.777935 1
0.850217 0.826474 1
0.874998 0.874998 0.874998
0.899779 0.923522 0.731395
0.603876 0.664881 1
0.628656 0.713405 1
0.653437 0.761929 1
0.678203 0.810468 1
0.702983 0.858991 1
0.727764 0.90753 1
0.752529 0.956054 1
0.77731 1 1
0.80209 1 0.923659
1 0 0.610666
1 0 0.467063
1 0 0.323461
1 0 0.179858
1 0 0.0362402
1 0 0
1 0 0
1 0 0
1 0 0
1 0 0.802915
1 0 0.659327
1 0 0.515709
1 0 0.372107
1 0 0.228504
1 0 0.0848859
1 0 0
1 0.044358 0
1 0.0928817 0
1 0 0.995193
1 0 0.851606
1 0 0.707988
1 0 0.564385
1 0.0283513 0.420768
1 0.0768749 0.277165
1 0.125414 0.133562
1 0.173938 0
1 0.222477 0
1 0 1
1 0.0123445 1
1 0.0608682 0.900267
1 0.109407 0.756664
1 0.157931 0.613046
1 0.20647 0.469444
1 0.254994 0.325841
1 0.303532 0.182223
1 0.352056 0.0386206
1 0.0934005 1
1 0.141924 1
1 0.190463 1
1 0.238987 0.948943
1 0.287526 0.805325
1 0.336049 0.661723
1 0.384588 0.518105
1 0.433112 0.374502
1 0.481651 0.2309
1 0.222995 1
1 0.271519 1
1 0.320043 1
1 0.368582 1
1 0.417105 0.997604
1 0.465644 0.854002
1 0.514168 0.710384
1 0.562707 0.566781
1 0.611231 0.423163
0.997162 0.352575 1
1 0.401114 1
1 0.449638 1
1 0.498161 1
1 0.5467 1
1 0.595224 1
1 0.643763 0.902663
1 0.692287 0.75906
1 0.740826 0.615442
0.899474 0.48217 1
0.924254 0.530694 1
0.949035 0.579232 1
0.9738 0.627756 1
0.998581 0.676295 1
1 0.724819 1
1 0.773342 1
1 0.821881 0.951339
1 0.870405 0.807721
0.801801 0.611765 1
0.826566 0.660288 1
0.851347 0.708812 1
0.876112 0.757351 1
0.900893 0.805875 1
0.925673 0.854414 1
0.950454 0.902937 1
0.975219 0.951476 1
1 1 1
