public/LUTS/Color Shift/ColorShift_49.cube
TITLE "Generated by Resolve"
LUT_3D_SIZE 5
0 0 0
0 0.145892 0.120989
0 0.291798 0.241978
0 0.437705 0.362966
0 0.583612 0.483955
0.452674 0.0511482 0.490272
0.164508 0.19704 0.611261
0 0.342947 0.73225
0 0.488853 0.853239
0 0.63476 0.974227
0.905379 0.102296 0.980575
0.617212 0.248203 1
0.329015 0.39411 1
0.0408179 0.540017 1
0 0.685924 1
1 0.15346 1
1 0.299351 1
0.78172 0.445258 1
0.493523 0.591165 1
0.205325 0.737072 1
1 0.204608 1
1 0.3505 1
1 0.496406 1
0.946227 0.642313 1
0.65803 0.78822 1
0.085481 0.0529488 0
0 0.19884 0
0 0.344747 0
0 0.490654 0.00169375
0 0.636561 0.122698
0.53817 0.104097 0.129
0.249989 0.249989 0.249989
0 0.395895 0.370977
0 0.541802 0.491966
0 0.687709 0.61297
0.990875 0.155245 0.619303
0.702693 0.301137 0.740291
0.414496 0.447044 0.86128
0.126299 0.59295 0.982269
0 0.738857 1
1 0.206394 1
1 0.3523 1
0.867201 0.498207 1
0.579004 0.644099 1
0.290806 0.790005 1
1 0.257557 1
1 0.403449 1
1 0.549355 1
1 0.695262 1
0.743511 0.841169 1
0.170977 0.105882 0
0 0.251789 0
0 0.397696 0
0 0.543587 0
0 0.689494 0
0.623667 0.157031 0
0.335485 0.302937 0
0.0472877 0.448844 0.00968948
0 0.594751 0.130678
0 0.740658 0.251682
1 0.208194 0.258015
0.78819 0.354086 0.379004
0.499992 0.499992 0.499992
0.211795 0.645899 0.620981
0 0.791806 0.74197
1 0.259342 0.748318
1 0.405234 0.869307
0.952697 0.551141 0.990295
0.6645 0.697047 1
0.376303 0.842954 1
1 0.310491 1
1 0.456397 1
1 0.602304 1
1 0.748211 1
0.829007 0.894102 1
0.256474 0.158831 0
0 0.304723 0
0 0.450629 0
0 0.596536 0
0 0.742443 0
0.709148 0.209979 0
0.420981 0.355886 0
0.132784 0.501778 0
0 0.647684 0
0 0.793591 0
1 0.261128 0
0.873686 0.407034 0.0177157
0.585489 0.552941 0.138705
0.297292 0.698848 0.259693
0.00909438 0.844755 0.380682
1 0.312291 0.38703
1 0.458183 0.508019
1 0.604089 0.629007
0.749996 0.749996 0.749996
0.461799 0.895903 0.870985
1 0.363439 0.877333
1 0.509331 0.998306
1 0.655238 1
1 0.801144 1
0.914504 0.947051 1
0.34197 0.21178 0
0.0537881 0.357671 0
0 0.503578 0
0 0.649485 0
0 0.795392 0
0.794644 0.262928 0
0.506462 0.40882 0
0.21828 0.554726 0
0 0.700633 0
0 0.84654 0
1 0.314076 0
0.959182 0.459983 0
0.670985 0.60589 0
0.382788 0.751781 0
0.0945907 0.897688 0.0193942
1 0.36524 0.025742
1 0.511131 0.146715
1 0.657038 0.26772
0.835492 0.802945 0.388708
0.547295 0.948852 0.509697
1 0.416388 0.516045
1 0.56228 0.637018
1 0.708186 0.758022
1 0.854093 0.879011
1 1 1
