public/LUTS/Color Shift/ColorShift_18.cube
TITLE "Generated by Resolve"
LUT_3D_SIZE 33
0 0 0
0.0157626 0.00680552 0
0.0315251 0.013611 0
0.0472877 0.0204166 0
0.0630503 0.0272221 0
0.0788128 0.0340276 0
0.0945754 0.0408331 0
0.110338 0.0476387 0
0.126116 0.0544442 0
0.141878 0.0612497 0
0.157641 0.0680552 0
0.173404 0.0748455 0
0.189166 0.081651 0
0.204929 0.0884565 0
0.220691 0.0952621 0
0.236454 0.102068 0
0.252232 0.108873 0
0.267994 0.115679 0
0.283757 0.122484 0
0.299519 0.12929 0
0.315282 0.136095 0
0.331044 0.142901 0
0.346807 0.149706 0
0.36257 0.156512 0
0.378347 0.163317 0
0.39411 0.170123 0
0.409873 0.176928 0
0.425635 0.183734 0
0.441398 0.190539 0
0.45716 0.197345 0
0.472923 0.20415 0
0.488685 0.210956 0
0.504463 0.217762 0
0 0.0305943 0.0264134
0.00657664 0.0373999 0.00962844
0.0223392 0.0442054 0
0.0381018 0.0510109 0
0.0538643 0.0578164 0
0.0696269 0.064622 0
0.0854047 0.0714275 0
0.101167 0.078233 0
0.11693 0.0850233 0
0.132692 0.0918288 0
0.148455 0.0986343 0
0.164218 0.10544 0
0.17998 0.112245 0
0.195743 0.119051 0
0.211521 0.125856 0
0.227283 0.132662 0
0.243046 0.139467 0
0.258808 0.146273 0
0.274571 0.153079 0
0.290333 0.159884 0
0.306096 0.16669 0
0.321859 0.173495 0
0.337636 0.180301 0
0.353399 0.187106 0
0.369162 0.193912 0
0.384924 0.200717 0
0.400687 0.207523 0
0.416449 0.214328 0
0.432212 0.221134 0
0.447974 0.227939 0
0.463752 0.234745 0
0.479515 0.24155 0
0.495277 0.248356 0
0 0.0612039 0.052842
0 0.0680095 0.0360571
0.0131533 0.074815 0.0192721
0.0289158 0.0816205 0.00247196
0.0446784 0.0884108 0
0.060441 0.0952163 0
0.0762188 0.102022 0
0.0919814 0.108827 0
0.107744 0.115633 0
0.123507 0.122438 0
0.139269 0.129244 0
0.155032 0.136049 0
0.170794 0.142855 0
0.186557 0.14966 0
0.202335 0.156466 0
0.218097 0.163272 0
0.23386 0.170077 0
0.249622 0.176883 0
0.265385 0.183688 0
0.281147 0.190494 0
0.29691 0.197299 0
0.312673 0.204105 0
0.32845 0.21091 0
0.344213 0.217716 0
0.359976 0.224521 0
0.375738 0.231327 0
0.391501 0.238132 0
0.407263 0.244938 0
0.423026 0.251743 0
0.438788 0.258549 0
0.454566 0.265354 0
0.470329 0.27216 0
0.486091 0.278965 0
0 0.0918135 0.0792859
0 0.0986038 0.0624857
0.00396735 0.105409 0.0457008
0.0197299 0.112215 0.0289006
0.0354925 0.11902 0.0121004
0.0512551 0.125826 0
0.0670329 0.132631 0
0.0827955 0.139437 0
0.098558 0.146242 0
0.114321 0.153048 0
0.130083 0.159854 0
0.145846 0.166659 0
0.161608 0.173465 0
0.177371 0.18027 0
0.193149 0.187076 0
0.208911 0.193881 0
0.224674 0.200687 0
0.240436 0.207492 0
0.256199 0.214298 0
0.271962 0.221103 0
0.287724 0.227909 0
0.303487 0.234714 0
0.319265 0.24152 0
0.335027 0.248325 0
0.35079 0.255131 0
0.366552 0.261936 0
0.382315 0.268742 0
0.398077 0.275547 0
0.41384 0.282353 0
0.429618 0.289158 0
0.44538 0.295964 0
0.461143 0.30277 0
0.476905 0.309575 0
0 0.122423 0.105715
0 0.129213 0.0889296
0 0.136019 0.0721294
0.010544 0.142824 0.0553292
0.0263066 0.14963 0.038529
0.0420691 0.156435 0.0217441
0.057847 0.163241 0.00494392
0.0736095 0.170047 0
0.0893721 0.176852 0
0.105135 0.183658 0
0.120897 0.190463 0
0.13666 0.197269 0
0.152422 0.204074 0
0.168185 0.21088 0
0.183963 0.217685 0
0.199725 0.224491 0
0.215488 0.231296 0
0.23125 0.238102 0
0.247013 0.244907 0
0.262776 0.251713 0
0.278538 0.258518 0
0.294301 0.265324 0
0.310079 0.272129 0
0.325841 0.278935 0
0.341604 0.28574 0
0.357366 0.292546 0
0.373129 0.299351 0
0.388891 0.306157 0
0.404654 0.312963 0
0.420432 0.319768 0
0.436194 0.326574 0
0.451957 0.333379 0
0.46772 0.340185 0
0 0.153033 0.132143
0 0.159823 0.115358
0 0.166629 0.098558
0.00135805 0.173434 0.0817578
0.0171206 0.18024 0.0649729
0.0328832 0.187045 0.0481727
0.048661 0.193851 0.0313726
0.0644236 0.200656 0.0145876
0.0801862 0.207462 0
0.0959487 0.214267 0
0.111711 0.221073 0
0.127474 0.227878 0
0.143236 0.234684 0
0.158999 0.241489 0
0.174777 0.248295 0
0.190539 0.2551 0
0.206302 0.261906 0
0.222065 0.268711 0
0.237827 0.275517 0
0.25359 0.282322 0
0.269352 0.289128 0
0.28513 0.295933 0
0.300893 0.302739 0
0.316655 0.309545 0
0.332418 0.31635 0
0.34818 0.323156 0
0.363943 0.329961 0
0.379705 0.336767 0
0.395468 0.343572 0
0.411246 0.350378 0
0.427008 0.357183 0
0.442771 0.363973 0
0.458534 0.370779 0
0 0.183627 0.158572
0 0.190433 0.141787
0 0.197238 0.124987
0 0.204044 0.108202
0.00793469 0.210849 0.0914015
0.0236973 0.217655 0.0746014
0.0394751 0.22446 0.0578012
0.0552377 0.231266 0.0410163
0.0710002 0.238071 0.0242161
0.0867628 0.244877 0.00741588
0.102525 0.251682 0
0.118288 0.258488 0
0.134051 0.265293 0
0.149813 0.272099 0
0.165591 0.278904 0
0.181353 0.28571 0
0.197116 0.292515 0
0.212879 0.299321 0
0.228641 0.306127 0
0.244404 0.312932 0
0.260166 0.319738 0
0.275944 0.326543 0
0.291707 0.333349 0
0.307469 0.340154 0
0.323232 0.34696 0
0.338994 0.353765 0
0.354757 0.360571 0
0.37052 0.367361 0
0.386282 0.374166 0
0.40206 0.380972 0
0.417823 0.387778 0
0.433585 0.394583 0
0.449348 0.401389 0
0 0.214237 0.185
0 0.221042 0.168215
0 0.227848 0.151415
0 0.234653 0.13463
0 0.241459 0.11783
0.0145113 0.248264 0.10103
0.0302892 0.25507 0.0842451
0.0460517 0.261875 0.0674449
0.0618143 0.268681 0.0506447
0.0775769 0.275486 0.0338445
0.0933394 0.282292 0.0170596
0.109102 0.289097 0.000259403
0.124865 0.295903 0
0.140627 0.302708 0
0.156405 0.309514 0
0.172168 0.31632 0
0.18793 0.323125 0
0.203693 0.329931 0
0.219455 0.336736 0
0.235218 0.343542 0
0.25098 0.350347 0
0.266758 0.357153 0
0.282521 0.363958 0
0.298283 0.370748 0
0.314046 0.377554 0
0.329809 0.38436 0
0.345571 0.391165 0
0.361334 0.397971 0
0.377096 0.404776 0
0.392874 0.411582 0
0.408637 0.418387 0
0.424399 0.425193 0
0.440162 0.431998 0
0 0.244846 0.211429
0 0.251652 0.194644
0 0.258457 0.177859
0 0.265263 0.161059
0 0.272068 0.144259
0.0053254 0.278874 0.127459
0.0211032 0.285679 0.110674
0.0368658 0.292485 0.0938735
0.0526284 0.29929 0.0770733
0.0683909 0.306096 0.0602884
0.0841535 0.312901 0.0434882
0.0999161 0.319707 0.026688
0.115679 0.326513 0.00988785
0.131456 0.333318 0
0.147219 0.340124 0
0.162982 0.346929 0
0.178744 0.353735 0
0.194507 0.36054 0
0.210269 0.367346 0
0.226032 0.374151 0
0.241794 0.380941 0
0.257572 0.387747 0
0.273335 0.394553 0
0.289097 0.401358 0
0.30486 0.408164 0
0.320623 0.414969 0
0.336385 0.421775 0
0.352148 0.42858 0
0.36791 0.435386 0
0.383688 0.442191 0
0.399451 0.448997 0
0.415213 0.455802 0
0.430976 0.462608 0
0 0.275456 0.237873
0 0.282261 0.221073
0 0.289067 0.204288
0 0.295872 0.187488
0 0.302678 0.170687
0 0.309483 0.153903
0.0119173 0.316289 0.137102
0.0276799 0.323095 0.120302
0.0434424 0.3299 0.103502
0.059205 0.336706 0.086717
0.0749676 0.343511 0.0699168
0.0907301 0.350317 0.0531167
0.106493 0.357122 0.0363317
0.122271 0.363928 0.0195315
0.138033 0.370733 0.00273136
0.153796 0.377539 0
0.169558 0.384329 0
0.185321 0.391135 0
0.201083 0.39794 0
0.216846 0.404746 0
0.232609 0.411551 0
0.248386 0.418357 0
0.264149 0.425162 0
0.279911 0.431968 0
0.295674 0.438773 0
0.311437 0.445579 0
0.327199 0.452384 0
0.342962 0.45919 0
0.358724 0.465995 0
0.374502 0.472801 0
0.390265 0.479606 0
0.406027 0.486412 0
0.42179 0.493217 0
0 0.306065 0.264302
0 0.312871 0.247517
0 0.319677 0.230716
0 0.326482 0.213916
0 0.333288 0.197116
0 0.340093 0.180331
0.00273136 0.346899 0.163531
0.0184939 0.353704 0.146731
0.0342565 0.36051 0.129946
0.0500191 0.367315 0.113146
0.0657816 0.374121 0.0963455
0.0815442 0.380926 0.0795453
0.0973068 0.387732 0.0627604
0.113085 0.394522 0.0459602
0.128847 0.401328 0.02916
0.14461 0.408133 0.0123751
0.160372 0.414939 0
0.176135 0.421744 0
0.191897 0.42855 0
0.20766 0.435355 0
0.223423 0.442161 0
0.2392 0.448966 0
0.254963 0.455772 0
0.270726 0.462577 0
0.286488 0.469383 0
0.302251 0.476188 0
0.318013 0.482994 0
0.333776 0.489799 0
0.349538 0.496605 0
0.365316 0.50341 0
0.381079 0.510216 0
0.396841 0.517021 0
0.412604 0.523827 0
0 0.336675 0.29073
0 0.343481 0.273945
0 0.350286 0.257145
0 0.357092 0.240345
0 0.363897 0.22356
0 0.370703 0.20676
0 0.377508 0.18996
0.009308 0.384314 0.173159
0.0250706 0.391119 0.156374
0.0408331 0.39791 0.139574
0.0565957 0.404715 0.122774
0.0723583 0.411521 0.105989
0.0881208 0.418326 0.089189
0.103899 0.425132 0.0723888
0.119661 0.431937 0.0555886
0.135424 0.438743 0.0388037
0.151186 0.445548 0.0220035
0.166949 0.452354 0.00520333
0.182712 0.459159 0
0.198474 0.465965 0
0.214237 0.47277 0
0.230015 0.479576 0
0.245777 0.486381 0
0.26154 0.493187 0
0.277302 0.499992 0
0.293065 0.506798 0
0.308827 0.513603 0
0.32459 0.520409 0
0.340352 0.527214 0
0.35613 0.53402 0
0.371893 0.540825 0
0.387655 0.547631 0
0.403418 0.554437 0
0 0.367285 0.317159
0 0.37409 0.300374
0 0.380896 0.283574
0 0.387701 0.266773
0 0.394507 0.249989
0 0.401297 0.233188
0 0.408103 0.216388
0.000122072 0.414908 0.199603
0.0158846 0.421714 0.182803
0.0316472 0.428519 0.166003
0.0474098 0.435325 0.149203
0.0631723 0.44213 0.132418
0.0789349 0.448936 0.115618
0.0947127 0.455741 0.0988174
0.110475 0.462547 0.0820325
0.126238 0.469352 0.0652323
0.142 0.476158 0.0484321
0.157763 0.482963 0.0316472
0.173526 0.489769 0.014847
0.189288 0.496574 0
0.205051 0.50338 0
0.220829 0.510185 0
0.236591 0.516991 0
0.252354 0.523796 0
0.268116 0.530602 0
0.283879 0.537408 0
0.299641 0.544213 0
0.315404 0.551019 0
0.331167 0.557824 0
0.346944 0.56463 0
0.362707 0.571435 0
0.37847 0.578241 0
0.394232 0.585046 0
0 0.397894 0.343587
0 0.4047 0.326802
0 0.41149 0.310002
0 0.418296 0.293217
0 0.425101 0.276417
0 0.431907 0.259617
0 0.438712 0.242817
0 0.445518 0.226032
0.00669871 0.452323 0.209232
0.0224613 0.459129 0.192432
0.0382239 0.465934 0.175647
0.0539864 0.47274 0.158846
0.069749 0.479545 0.142046
0.0855268 0.486351 0.125261
0.101289 0.493156 0.108461
0.117052 0.499962 0.0916609
0.132815 0.506767 0.0748608
0.148577 0.513573 0.0580758
0.16434 0.520378 0.0412757
0.180102 0.527184 0.0244755
0.195865 0.533989 0.00769055
0.211643 0.540795 0
0.227405 0.547601 0
0.243168 0.554406 0
0.25893 0.561212 0
0.274693 0.568017 0
0.290455 0.574823 0
0.306218 0.581628 0
0.321981 0.588434 0
0.337758 0.595239 0
0.353521 0.602045 0
0.369284 0.60885 0
0.385046 0.615656 0
0 0.428504 0.370016
0 0.435294 0.353231
0 0.4421 0.336431
0 0.448905 0.319646
0 0.455711 0.302846
0 0.462516 0.286046
0 0.469322 0.269261
0 0.476127 0.252461
0 0.482933 0.23566
0.0132753 0.489738 0.218875
0.0290379 0.496544 0.202075
0.0448005 0.503349 0.185275
0.0605631 0.510155 0.168475
0.0763409 0.51696 0.15169
0.0921035 0.523766 0.13489
0.107866 0.530571 0.11809
0.123629 0.537377 0.101305
0.139391 0.544182 0.0845045
0.155154 0.550988 0.0677043
0.170916 0.557794 0.0509041
0.186679 0.564599 0.0341192
0.202457 0.571405 0.017319
0.218219 0.57821 0.000518807
0.233982 0.585016 0
0.249744 0.591821 0
0.265507 0.598627 0
0.28127 0.605432 0
0.297032 0.612238 0
0.312795 0.619043 0
0.328573 0.625849 0
0.344335 0.632654 0
0.360098 0.63946 0
0.37586 0.646265 0
0 0.459113 0.39646
0 0.465904 0.37966
0 0.472709 0.362875
0 0.479515 0.346075
0 0.48632 0.329274
0 0.493126 0.31249
0 0.499931 0.295689
0 0.506737 0.278889
0 0.513542 0.262089
0.00408942 0.520348 0.245304
0.019852 0.527153 0.228504
0.0356146 0.533959 0.211704
0.0513771 0.540764 0.194919
0.067155 0.54757 0.178119
0.0829175 0.554376 0.161318
0.0986801 0.561181 0.144518
0.114443 0.567987 0.127733
0.130205 0.574792 0.110933
0.145968 0.581598 0.0941329
0.16173 0.588403 0.077348
0.177493 0.595209 0.0605478
0.193271 0.602014 0.0437476
0.209033 0.60882 0.0269474
0.224796 0.615625 0.0101625
0.240558 0.622431 0
0.256321 0.629236 0
0.272084 0.636042 0
0.287846 0.642847 0
0.303609 0.649653 0
0.319387 0.656458 0
0.335149 0.663264 0
0.350912 0.670069 0
0.366674 0.67686 0
0 0.489708 0.422889
0 0.496513 0.406104
0 0.503319 0.389303
0 0.510124 0.372503
0 0.51693 0.355703
0 0.523735 0.338918
0 0.530541 0.322118
0 0.537346 0.305318
0 0.544152 0.288533
0 0.550958 0.271733
0.0106661 0.557763 0.254932
0.0264286 0.564569 0.238132
0.0421912 0.571374 0.221347
0.057969 0.57818 0.204547
0.0737316 0.584985 0.187747
0.0894942 0.591791 0.170962
0.105257 0.598596 0.154162
0.121019 0.605402 0.137362
0.136782 0.612207 0.120562
0.152544 0.619013 0.103777
0.168307 0.625818 0.0869764
0.184085 0.632624 0.0701762
0.199847 0.639429 0.0533913
0.21561 0.646235 0.0365911
0.231373 0.65304 0.019791
0.247135 0.659846 0.00299077
0.262898 0.666651 0
0.27866 0.673457 0
0.294423 0.680247 0
0.310201 0.687053 0
0.325963 0.693858 0
0.341726 0.700664 0
0.357488 0.707469 0
0 0.520317 0.449317
0 0.527123 0.432532
0 0.533928 0.415732
0 0.540734 0.398932
0 0.547539 0.382147
0 0.554345 0.365347
0 0.561151 0.348547
0 0.567956 0.331746
0 0.574762 0.314961
0 0.581567 0.298161
0.00148013 0.588373 0.281361
0.0172427 0.595178 0.264576
0.0330053 0.601984 0.247776
0.0487831 0.608789 0.230976
0.0645457 0.615595 0.214176
0.0803082 0.6224 0.197391
0.0960708 0.629206 0.180591
0.111833 0.636011 0.16379
0.127596 0.642817 0.147005
0.143359 0.649622 0.130205
0.159121 0.656428 0.113405
0.174899 0.663233 0.0966049
0.190661 0.670039 0.0798199
0.206424 0.676844 0.0630198
0.222187 0.683635 0.0462196
0.237949 0.69044 0.0294347
0.253712 0.697246 0.0126345
0.269474 0.704051 0
0.285237 0.710857 0
0.301015 0.717662 0
0.316777 0.724468 0
0.33254 0.731273 0
0.348302 0.738079 0
0 0.550927 0.475746
0 0.557733 0.458961
0 0.564538 0.442161
0 0.571344 0.425361
0 0.578149 0.408576
0 0.584955 0.391775
0 0.59176 0.374975
0 0.598566 0.35819
0 0.605371 0.34139
0 0.612177 0.32459
0 0.618982 0.30779
0.00805676 0.625788 0.291005
0.0238193 0.632593 0.274205
0.0395972 0.639399 0.257404
0.0553597 0.646204 0.24062
0.0711223 0.65301 0.223819
0.0868849 0.659815 0.207019
0.102647 0.666621 0.190219
0.11841 0.673426 0.173434
0.134173 0.680232 0.156634
0.149935 0.687037 0.139834
0.165713 0.693828 0.123049
0.181476 0.700633 0.106249
0.197238 0.707439 0.0894484
0.213001 0.714244 0.0726482
0.228763 0.72105 0.0558633
0.244526 0.727855 0.0390631
0.260288 0.734661 0.0222629
0.276051 0.741466 0.00547799
0.291829 0.748272 0
0.307591 0.755077 0
0.323354 0.761883 0
0.339117 0.768688 0
0 0.581537 0.502174
0 0.588342 0.48539
0 0.595148 0.468589
0 0.601953 0.451804
0 0.608759 0.435004
0 0.615564 0.418204
0 0.62237 0.401404
0 0.629175 0.384619
0 0.635981 0.367819
0 0.642786 0.351019
0 0.649592 0.334234
0 0.656397 0.317433
0.0146334 0.663203 0.300633
0.0304112 0.670008 0.283833
0.0461738 0.676814 0.267048
0.0619364 0.683619 0.250248
0.0776989 0.690425 0.233448
0.0934615 0.697215 0.216663
0.109224 0.704021 0.199863
0.124987 0.710826 0.183062
0.140749 0.717632 0.166262
0.156527 0.724437 0.149477
0.17229 0.731243 0.132677
0.188052 0.738048 0.115877
0.203815 0.744854 0.0990921
0.219577 0.751659 0.0822919
0.23534 0.758465 0.0654917
0.251102 0.76527 0.0486915
0.266865 0.772076 0.0319066
0.282643 0.778881 0.0151064
0.298405 0.785687 0
0.314168 0.792493 0
0.329931 0.799298 0
0 0.612146 0.528603
0 0.618952 0.511818
0 0.625757 0.495018
0 0.632563 0.478233
0 0.639368 0.461433
0 0.646174 0.444633
0 0.652979 0.427848
0 0.659785 0.411048
0 0.66659 0.394247
0 0.673396 0.377447
0 0.680201 0.360662
0 0.687007 0.343862
0.00544747 0.693812 0.327062
0.0212253 0.700603 0.310277
0.0369879 0.707408 0.293477
0.0527504 0.714214 0.276677
0.068513 0.721019 0.259876
0.0842756 0.727825 0.243091
0.100038 0.73463 0.226291
0.115801 0.741436 0.209491
0.131563 0.748241 0.192706
0.147341 0.755047 0.175906
0.163104 0.761852 0.159106
0.178866 0.768658 0.142306
0.194629 0.775464 0.125521
0.210391 0.782269 0.108721
0.226154 0.789075 0.0919203
0.241917 0.79588 0.0751354
0.257679 0.802686 0.0583352
0.273457 0.809491 0.0415351
0.289219 0.816297 0.0247501
0.304982 0.823102 0.00794995
0.320745 0.829908 0
0 0.642756 0.555032
0 0.649561 0.538247
0 0.656367 0.521462
0 0.663172 0.504662
0 0.669978 0.487861
0 0.676783 0.471061
0 0.683589 0.454276
0 0.690394 0.437476
0 0.6972 0.420676
0 0.704005 0.403891
0 0.710796 0.387091
0 0.717601 0.370291
0 0.724407 0.353491
0.0120394 0.731212 0.336706
0.0278019 0.738018 0.319905
0.0435645 0.744823 0.303105
0.0593271 0.751629 0.28632
0.0750896 0.758434 0.26952
0.0908522 0.76524 0.25272
0.106615 0.772045 0.235935
0.122377 0.778851 0.219135
0.138155 0.785657 0.202335
0.153918 0.792462 0.185534
0.16968 0.799268 0.16875
0.185443 0.806073 0.151949
0.201205 0.812879 0.135149
0.216968 0.819684 0.118364
0.232731 0.82649 0.101564
0.248508 0.833295 0.0847639
0.264271 0.840101 0.0679637
0.280034 0.846906 0.0511788
0.295796 0.853712 0.0343786
0.311559 0.860517 0.0175784
0 0.673365 0.581476
0 0.680171 0.564675
0 0.686976 0.54789
0 0.693782 0.53109
0 0.700587 0.51429
0 0.707393 0.497505
0 0.714183 0.480705
0 0.720989 0.463905
0 0.727794 0.447105
0 0.7346 0.43032
0 0.741405 0.41352
0 0.748211 0.396719
0 0.755016 0.379934
0.00285344 0.761822 0.363134
0.018616 0.768627 0.346334
0.0343786 0.775433 0.329534
0.0501411 0.782238 0.312749
0.0659037 0.789044 0.295949
0.0816663 0.79585 0.279149
0.0974289 0.802655 0.262364
0.113191 0.809461 0.245563
0.128969 0.816266 0.228763
0.144732 0.823072 0.211978
0.160494 0.829877 0.195178
0.176257 0.836683 0.178378
0.19202 0.843488 0.161578
0.207782 0.850294 0.144793
0.223545 0.857099 0.127993
0.239322 0.863905 0.111192
0.255085 0.87071 0.0944076
0.270848 0.877516 0.0776074
0.28661 0.884321 0.0608072
0.302373 0.891127 0.044007
0 0.703975 0.607904
0 0.710781 0.591119
0 0.717571 0.574319
0 0.724376 0.557519
0 0.731182 0.540719
0 0.737987 0.523934
0 0.744793 0.507134
0 0.751598 0.490333
0 0.758404 0.473548
0 0.765209 0.456748
0 0.772015 0.439948
0 0.77882 0.423163
0 0.785626 0.406363
0 0.792432 0.389563
0.00943008 0.799237 0.372763
0.0251926 0.806043 0.355978
0.0409552 0.812848 0.339178
0.0567178 0.819654 0.322377
0.0724804 0.826459 0.305592
0.0882429 0.833265 0.288792
0.104005 0.84007 0.271992
0.119783 0.846876 0.255192
0.135546 0.853681 0.238407
0.151308 0.860487 0.221607
0.167071 0.867292 0.204807
0.182834 0.874098 0.188022
0.198596 0.880903 0.171221
0.214359 0.887709 0.154421
0.230137 0.894514 0.137621
0.245899 0.90132 0.120836
0.261662 0.908125 0.104036
0.277424 0.914931 0.0872358
0.293187 0.921736 0.0704509
0 0.734585 0.634333
0 0.741375 0.617548
0 0.74818 0.600748
0 0.754986 0.583947
0 0.761791 0.567163
0 0.768597 0.550362
0 0.775402 0.533562
0 0.782208 0.516777
0 0.789014 0.499977
0 0.795819 0.483177
0 0.802625 0.466377
0 0.80943 0.449592
0 0.816236 0.432792
0 0.823041 0.415991
0.000244144 0.829847 0.399207
0.0160067 0.836652 0.382406
0.0317693 0.843458 0.365606
0.0475319 0.850263 0.348806
0.0632944 0.857069 0.332021
0.079057 0.863874 0.315221
0.0948196 0.87068 0.298421
0.110597 0.877485 0.281636
0.12636 0.884291 0.264836
0.142123 0.891096 0.248035
0.157885 0.897902 0.231235
0.173648 0.904707 0.21445
0.18941 0.911513 0.19765
0.205173 0.918318 0.18085
0.220951 0.925124 0.164065
0.236713 0.93193 0.147265
0.252476 0.938735 0.130465
0.268238 0.945541 0.113664
0.284001 0.952346 0.0968795
0 0.765194 0.660761
0 0.771984 0.643977
0 0.77879 0.627176
0 0.785595 0.610391
0 0.792401 0.593591
0 0.799207 0.576791
0 0.806012 0.559991
0 0.812818 0.543206
0 0.819623 0.526406
0 0.826429 0.509606
0 0.833234 0.492821
0 0.84004 0.47602
0 0.846845 0.45922
0 0.853651 0.44242
0 0.860456 0.425635
0.00682078 0.867262 0.408835
0.0225834 0.874067 0.392035
0.0383459 0.880873 0.37525
0.0541085 0.887678 0.35845
0.0698711 0.894484 0.34165
0.0856489 0.901289 0.324849
0.101411 0.908095 0.308064
0.117174 0.9149 0.291264
0.132937 0.921706 0.274464
0.148699 0.928512 0.257679
0.164462 0.935317 0.240879
0.180224 0.942123 0.224079
0.195987 0.948928 0.207279
0.211765 0.955734 0.190494
0.227527 0.962539 0.173693
0.24329 0.969345 0.156893
0.259052 0.97615 0.140108
0.274815 0.98294 0.123308
0 0.795789 0.68719
0 0.802594 0.670405
0 0.8094 0.653605
0 0.816205 0.63682
0 0.823011 0.62002
0 0.829816 0.60322
0 0.836622 0.586435
0 0.843427 0.569635
0 0.850233 0.552834
0 0.857038 0.536034
0 0.863844 0.519249
0 0.870649 0.502449
0 0.877455 0.485649
0 0.88426 0.468864
0 0.891066 0.452064
0 0.897871 0.435264
0.0133974 0.904677 0.418463
0.02916 0.911482 0.401679
0.0449226 0.918288 0.384878
0.0606851 0.925093 0.368078
0.076463 0.931899 0.351293
0.0922255 0.938704 0.334493
0.107988 0.94551 0.317693
0.123751 0.952316 0.300893
0.139513 0.959121 0.284108
0.155276 0.965927 0.267308
0.171038 0.972732 0.250507
0.186801 0.979538 0.233722
0.202579 0.986343 0.216922
0.218341 0.993133 0.200122
0.234104 0.999939 0.183322
0.249866 1 0.166537
0.265629 1 0.149737
0 0.826398 0.713619
0 0.833204 0.696834
0 0.840009 0.680049
0 0.846815 0.663249
0 0.85362 0.646448
0 0.860426 0.629648
0 0.867231 0.612863
0 0.874037 0.596063
0 0.880842 0.579263
