public/LUTS/Color Shift/ColorShift_62.cube
TITLE "Generated by Resolve"
LUT_3D_SIZE 33
0 0 0
0.000747692 0.0137026 0
0.00151064 0.0274205 0
0.00225834 0.0411231 0
0.00302129 0.0548409 0
0.00376898 0.0685588 0
0.00453193 0.0822614 0
0.00527962 0.0959793 0
0.00602731 0.109682 0
0.00679026 0.1234 0
0.00753796 0.137118 0
0.00830091 0.15082 0
0.0090486 0.164538 0
0.00981155 0.178241 0
0.0105592 0.191959 0
0.0113069 0.205676 0
0.0120699 0.219379 0
0.0128176 0.233097 0
0.0135805 0.246799 0
0.0143282 0.260517 0
0.0150912 0.274235 0
0.0158389 0.287938 0
0.0166018 0.301656 0
0.0173495 0.315358 0
0.0180972 0.329076 0
0.0188602 0.342794 0
0.0196078 0.356497 0
0.0203708 0.370214 0
0.0211185 0.383917 0
0.0218814 0.397635 0
0.0226291 0.411353 0
0.0233768 0.425055 0
0.0241398 0.438773 0
0 0.0305791 0.0534981
0 0.0442817 0.0180209
0 0.0579995 0
0 0.0717021 0
0 0.08542 0
0 0.0991226 0
0 0.11284 0
0 0.126558 0
0 0.140261 0
0 0.153979 0
0 0.167681 0
0 0.181399 0
0 0.195117 0
0 0.20882 0
0 0.222538 0
0 0.23624 0
0 0.249958 0
0 0.263661 0
0 0.277378 0
0 0.291096 0
0 0.304799 0
0 0.318517 0
0 0.332219 0
0 0.345937 0
0 0.359655 0
0 0.373358 0
0 0.387076 0
0 0.400778 0
0.000396735 0.414496 0
0.00114443 0.428214 0
0.00190738 0.441917 0
0.00265507 0.455634 0
0.00341802 0.469337 0
0 0.0611582 0.107012
0 0.074876 0.0715343
0 0.0885786 0.0360418
0 0.102296 0.000549325
0 0.115999 0
0 0.129717 0
0 0.143435 0
0 0.157137 0
0 0.170855 0
0 0.184558 0
0 0.198276 0
0 0.211994 0
0 0.225696 0
0 0.239414 0
0 0.253117 0
0 0.266835 0
0 0.280552 0
0 0.294255 0
0 0.307973 0
0 0.321675 0
0 0.335393 0
0 0.349111 0
0 0.362814 0
0 0.376532 0
0 0.390234 0
0 0.403952 0
0 0.41767 0
0 0.431373 0
0 0.44509 0
0 0.458793 0
0 0.472511 0
0 0.486229 0
0 0.499931 0
0 0.0917525 0.160525
0 0.105455 0.125048
0 0.119173 0.0895705
0 0.132891 0.054078
0 0.146593 0.0185855
0 0.160311 0
0 0.174014 0
0 0.187732 0
0 0.20145 0
0 0.215152 0
0 0.22887 0
0 0.242573 0
0 0.256291 0
0 0.270008 0
0 0.283711 0
0 0.297429 0
0 0.311131 0
0 0.324849 0
0 0.338567 0
0 0.35227 0
0 0.365988 0
0 0.37969 0
0 0.393408 0
0 0.407126 0
0 0.420829 0
0 0.434546 0
0 0.448249 0
0 0.461967 0
0 0.475685 0
0 0.489387 0
0 0.503105 0
0 0.516808 0
0 0.530526 0
0 0.122347 0.214038
0 0.136049 0.178576
0 0.149767 0.143084
0 0.16347 0.107591
0 0.177188 0.0720989
0 0.190906 0.0366064
0 0.204608 0.00111391
0 0.218326 0
0 0.232029 0
0 0.245747 0
0 0.259464 0
0 0.273167 0
0 0.286885 0
0 0.300587 0
0 0.314305 0
0 0.328023 0
0 0.341726 0
0 0.355444 0
0 0.369146 0
0 0.382864 0
0 0.396582 0
0 0.410285 0
0 0.424002 0
0 0.437705 0
0 0.451423 0
0 0.465126 0
0 0.478843 0
0 0.492561 0
0 0.506264 0
0 0.519982 0
0 0.533684 0
0 0.547402 0
0 0.56112 0
0 0.152941 0.267567
0 0.166644 0.23209
0 0.180346 0.196597
0 0.194064 0.161105
0 0.207782 0.125612
0 0.221485 0.090135
0 0.235203 0.0546426
0 0.248905 0.0191501
0 0.262623 0
0 0.276341 0
0 0.290044 0
0 0.303761 0
0 0.317464 0
0 0.331182 0
0 0.3449 0
0 0.358602 0
0 0.37232 0
0 0.386023 0
0 0.399741 0
0 0.413458 0
0 0.427161 0
0 0.440879 0
0 0.454582 0
0 0.468299 0
0 0.482017 0
0 0.49572 0
0 0.509438 0
0 0.52314 0
0 0.536858 0
0 0.550576 0
0 0.564279 0
0 0.577996 0
0 0.591699 0
0 0.18352 0.32108
0 0.197238 0.285603
0 0.210941 0.250111
0 0.224659 0.214633
0 0.238361 0.179141
0 0.252079 0.143648
0 0.265797 0.108156
0 0.2795 0.0726635
0 0.293217 0.037171
0 0.30692 0.00167849
0 0.320638 0
0 0.334356 0
0 0.348058 0
0 0.361776 0
0 0.375479 0
0 0.389197 0
0 0.402914 0
0 0.416617 0
0 0.430335 0
0 0.444038 0
0 0.457755 0
0 0.471473 0
0 0.485176 0
0 0.498894 0
0 0.512596 0
0 0.526314 0
0 0.540032 0
0 0.553735 0
0 0.567452 0
0 0.581155 0
0 0.594873 0
0 0.608591 0
0 0.622293 0
0 0.214115 0.374594
0 0.227817 0.339132
0 0.241535 0.303639
0 0.255253 0.268147
0 0.268956 0.232654
0 0.282673 0.197162
0 0.296376 0.161669
0 0.310094 0.126177
0 0.323812 0.0906996
0 0.337514 0.0552071
0 0.351232 0.0197147
0 0.364935 0
0 0.378653 0
0 0.39237 0
0 0.406073 0
0 0.419791 0
0 0.433494 0
0 0.447211 0
0 0.460929 0
0 0.474632 0
0 0.48835 0
0 0.502052 0
0 0.51577 0
0 0.529488 0
0 0.543191 0
0 0.556909 0
0 0.570611 0
0 0.584329 0
0 0.598047 0
0 0.611749 0
0 0.625467 0
0 0.63917 0
0 0.652888 0
0 0.244709 0.428122
0 0.258412 0.392645
0 0.272129 0.357153
0 0.285832 0.32166
0 0.29955 0.286168
0 0.313252 0.250675
0 0.32697 0.215198
0 0.340688 0.179706
0 0.354391 0.144213
0 0.368109 0.108721
0 0.381811 0.073228
0 0.395529 0.0377356
0 0.409247 0.00224308
0 0.42295 0
0 0.436667 0
0 0.45037 0
0 0.464088 0
0 0.477806 0
0 0.491508 0
0 0.505226 0
0 0.518929 0
0 0.532647 0
0 0.546365 0
0 0.560067 0
0 0.573785 0
0 0.587488 0
0 0.601205 0
0 0.614923 0
0 0.628626 0
0 0.642344 0
0 0.656046 0
0 0.669764 0
0 0.683482 0
0 0.275303 0.481636
0 0.289006 0.446159
0 0.302708 0.410666
0 0.316426 0.375174
0 0.330144 0.339696
0 0.343847 0.304204
0 0.357565 0.268711
0 0.371267 0.233219
0 0.384985 0.197726
0 0.398703 0.162234
0 0.412406 0.126741
0 0.426123 0.0912642
0 0.439826 0.0557717
0 0.453544 0.0202792
0 0.467262 0
0 0.480964 0
0 0.494682 0
0 0.508385 0
0 0.522103 0
0 0.535821 0
0 0.549523 0
0 0.563241 0
0 0.576944 0
0 0.590661 0
0 0.604379 0
0 0.618082 0
0 0.6318 0
0 0.645502 0
0 0.65922 0
0 0.672938 0
0 0.686641 0
0 0.700359 0
0 0.714061 0
0 0.305882 0.535149
0 0.3196 0.499672
0 0.333303 0.464195
0 0.347021 0.428702
0 0.360723 0.39321
0 0.374441 0.357717
0 0.388159 0.322225
0 0.401862 0.286732
0 0.415579 0.25124
0 0.429282 0.215763
0 0.443 0.18027
0 0.456718 0.144778
0 0.47042 0.109285
0 0.484138 0.0737926
0 0.497841 0.0383001
0 0.511559 0.00280766
0 0.525277 0
0 0.538979 0
0 0.552697 0
0 0.5664 0
0 0.580118 0
0 0.593835 0
0 0.607538 0
0 0.621256 0
0 0.634958 0
0 0.648676 0
0 0.662394 0
0 0.676097 0
0 0.689815 0
0 0.703517 0
0 0.717235 0
0 0.730953 0
0 0.744656 0
0 0.336477 0.588663
0 0.350179 0.553201
0 0.363897 0.517708
0 0.3776 0.482216
0 0.391318 0.446723
0 0.405035 0.411231
0 0.418738 0.375738
0 0.432456 0.340261
0 0.446159 0.304768
0 0.459876 0.269276
0 0.473594 0.233783
0 0.487297 0.198291
0 0.501015 0.162799
0 0.514717 0.127306
0 0.528435 0.0918288
0 0.542153 0.0563363
0 0.555856 0.0208438
0 0.569574 0
0 0.583276 0
0 0.596994 0
0 0.610712 0
0 0.624414 0
0 0.638132 0
0 0.651835 0
0 0.665553 0
0 0.679271 0
0 0.692973 0
0 0.706691 0
0 0.720394 0
0 0.734112 0
0 0.747829 0
0 0.761532 0
0 0.77525 0
0 0.367071 0.642191
0 0.380774 0.606714
0 0.394491 0.571221
0 0.408194 0.535729
0 0.421912 0.500237
0 0.435615 0.464759
0 0.449332 0.429267
0 0.46305 0.393774
0 0.476753 0.358282
0 0.490471 0.322789
0 0.504173 0.287297
0 0.517891 0.251804
0 0.531609 0.216327
0 0.545312 0.180835
0 0.55903 0.145342
0 0.572732 0.10985
0 0.58645 0.0743572
0 0.600168 0.0388647
0 0.61387 0.00337224
0 0.627588 0
0 0.641291 0
0 0.655009 0
0 0.668727 0
0 0.682429 0
0 0.696147 0
0 0.70985 0
0 0.723568 0
0 0.737285 0
0 0.750988 0
0 0.764706 0
0 0.778408 0
0 0.792126 0
0 0.805844 0
0 0.397665 0.695705
0 0.411368 0.660227
0 0.425071 0.624735
0 0.438788 0.589242
0 0.452506 0.553765
0 0.466209 0.518273
0 0.479927 0.48278
0 0.493629 0.447288
0 0.507347 0.411795
0 0.521065 0.376303
0 0.534768 0.340826
0 0.548486 0.305333
0 0.562188 0.269841
0 0.575906 0.234348
0 0.589624 0.198856
0 0.603326 0.163363
0 0.617044 0.127871
0 0.630747 0.0923934
0 0.644465 0.0569009
0 0.658183 0.0214084
0 0.671885 0
0 0.685603 0
0 0.699306 0
0 0.713024 0
0 0.726741 0
0 0.740444 0
0 0.754162 0
0 0.767865 0
0 0.781582 0
0 0.7953 0
0 0.809003 0
0 0.822721 0
0 0.836423 0
0 0.428244 0.749218
0 0.441947 0.713741
0 0.455665 0.678264
0 0.469383 0.642771
0 0.483085 0.607279
0 0.496803 0.571786
0 0.510506 0.536294
0 0.524224 0.500801
0 0.537942 0.465324
0 0.551644 0.429831
0 0.565362 0.394339
0 0.579065 0.358846
0 0.592782 0.323354
0 0.6065 0.287861
0 0.620203 0.252369
0 0.633921 0.216892
0 0.647623 0.181399
0 0.661341 0.145907
0 0.675059 0.110414
0 0.688762 0.0749218
0 0.70248 0.0394293
0 0.716182 0.00393683
0 0.7299 0
0 0.743618 0
0 0.757321 0
0 0.771038 0
0 0.784741 0
0 0.798459 0
0 0.812177 0
0 0.825879 0
0 0.839597 0
0 0.8533 0
0 0.867018 0
0 0.458839 0.802731
0 0.472541 0.767269
0 0.486259 0.731777
0 0.499962 0.696284
0 0.51368 0.660792
0 0.527398 0.625299
0 0.5411 0.589807
0 0.554818 0.55433
0 0.568521 0.518837
0 0.582238 0.483345
0 0.595956 0.447852
0 0.609659 0.41236
0 0.623377 0.376867
0 0.637079 0.34139
0 0.650797 0.305898
0 0.664515 0.270405
0 0.678218 0.234913
0 0.691936 0.19942
0 0.705638 0.163928
0 0.719356 0.128435
0 0.733074 0.092958
0 0.746777 0.0574655
0 0.760494 0.021973
0 0.774197 0
0 0.787915 0
0 0.801633 0
0 0.815335 0
0 0.829053 0
0 0.842756 0
0 0.856474 0
0 0.870192 0
0 0.883894 0
0 0.897612 0
0 0.489433 0.85626
0 0.503136 0.820783
0 0.516854 0.78529
0 0.530556 0.749798
0 0.544274 0.714305
0 0.557977 0.678828
0 0.571694 0.643336
0 0.585412 0.607843
0 0.599115 0.572351
0 0.612833 0.536858
0 0.626535 0.501366
0 0.640253 0.465888
0 0.653971 0.430396
0 0.667674 0.394903
0 0.681392 0.359411
0 0.695094 0.323919
0 0.708812 0.288426
0 0.72253 0.252934
0 0.736233 0.217456
0 0.74995 0.181964
0 0.763653 0.146471
0 0.777371 0.110979
0 0.791089 0.0754864
0 0.804791 0.0399939
0 0.818509 0.00450141
0 0.832212 0
0 0.84593 0
0 0.859648 0
0 0.87335 0
0 0.887068 0
0 0.900771 0
0 0.914488 0
0 0.928206 0
0 0.520027 0.909773
0 0.53373 0.874296
0 0.547433 0.838804
0 0.561151 0.803326
0 0.574853 0.767834
0 0.588571 0.732341
0 0.602289 0.696849
0 0.615991 0.661357
0 0.629709 0.625864
0 0.643412 0.590372
0 0.65713 0.554894
0 0.670848 0.519402
0 0.68455 0.483909
0 0.698268 0.448417
0 0.711971 0.412924
0 0.725689 0.377432
0 0.739406 0.341955
0 0.753109 0.306462
0 0.766827 0.27097
0 0.780529 0.235477
0 0.794247 0.199985
0 0.807965 0.164492
0 0.821668 0.129
0 0.835386 0.0935225
0 0.849088 0.0580301
0 0.862806 0.0225376
0 0.876524 0
0 0.890227 0
0 0.903944 0
0 0.917647 0
0 0.931365 0
0 0.945083 0
0 0.958785 0
0 0.550607 0.963287
0 0.564309 0.927825
0 0.578027 0.892332
0 0.591745 0.85684
0 0.605447 0.821347
0 0.619165 0.785855
0 0.632868 0.750362
0 0.646586 0.71487
0 0.660304 0.679393
0 0.674006 0.6439
0 0.687724 0.608408
0 0.701427 0.572915
0 0.715145 0.537423
0 0.728862 0.50193
0 0.742565 0.466453
0 0.756283 0.430961
0 0.769985 0.395468
0 0.783703 0.359976
0 0.797421 0.324483
0 0.811124 0.288991
0 0.824842 0.253498
0 0.838544 0.218021
0 0.852262 0.182528
0 0.86598 0.147036
0 0.879683 0.111543
0 0.8934 0.076051
0 0.907103 0.0405585
0 0.920821 0.005066
0 0.934539 0
0 0.948241 0
0 0.961959 0
0 0.975662 0
0 0.98938 0
0 0.581201 1
0 0.594903 0.981338
0 0.608621 0.945846
0 0.622324 0.910353
0 0.636042 0.874861
0 0.64976 0.839368
0 0.663462 0.803891
0 0.67718 0.768399
0 0.690883 0.732906
0 0.704601 0.697414
0 0.718318 0.661921
0 0.732021 0.626429
0 0.745739 0.590951
0 0.759441 0.555459
0 0.773159 0.519966
0 0.786877 0.484474
0 0.80058 0.448981
0 0.814298 0.413489
0 0.828 0.377997
0 0.841718 0.342519
0 0.855436 0.307027
0 0.869139 0.271534
0 0.882856 0.236042
0 0.896559 0.200549
0 0.910277 0.165057
0 0.923995 0.129564
0 0.937697 0.0940871
0 0.951415 0.0585946
0 0.965118 0.0231022
0 0.978836 0
0 0.992554 0
0 1 0
0 1 0
0 0.611795 1
0 0.625498 1
0 0.6392 0.999359
0 0.652918 0.963867
0 0.666636 0.928389
0 0.680339 0.892897
0 0.694057 0.857404
0 0.707759 0.821912
0 0.721477 0.786419
0 0.735195 0.750927
0 0.748898 0.715434
0 0.762615 0.679957
0 0.776318 0.644465
0 0.790036 0.608972
0 0.803754 0.57348
0 0.817456 0.537987
0 0.831174 0.502495
0 0.844877 0.467018
0 0.858595 0.431525
0 0.872312 0.396033
0 0.886015 0.36054
0 0.899733 0.325048
0 0.913436 0.289555
0 0.927153 0.254063
0 0.940871 0.218585
0 0.954574 0.183093
0 0.968292 0.147601
0 0.981994 0.112108
0 0.995712 0.0766155
0 1 0.0411231
0 1 0.00563058
0 1 0
0 1 0
0 0.642374 1
0 0.656092 1
0 0.669795 1
0 0.683513 1
0 0.697215 0.981903
0 0.710933 0.94641
0 0.724651 0.910918
0 0.738354 0.875425
0 0.752071 0.839933
0 0.765774 0.804456
0 0.779492 0.768963
0 0.79321 0.733471
0 0.806912 0.697978
0 0.82063 0.662486
0 0.834333 0.626993
0 0.848051 0.591516
0 0.861769 0.556023
0 0.875471 0.520531
0 0.889189 0.485039
0 0.902892 0.449546
0 0.916609 0.414054
0 0.930327 0.378561
0 0.94403 0.343084
0 0.957748 0.307591
0 0.97145 0.272099
0 0.985168 0.236606
0 0.998886 0.201114
0 1 0.165621
0 1 0.130129
0 1 0.0946517
0 1 0.0591592
0 1 0.0236667
0 1 0
0 0.672969 1
0 0.686671 1
0 0.700389 1
0 0.714107 1
0 0.72781 1
0 0.741527 0.999924
0 0.75523 0.964431
0 0.768948 0.928954
0 0.782666 0.893462
0 0.796368 0.857969
0 0.810086 0.822477
0 0.823789 0.786984
0 0.837507 0.751492
0 0.851225 0.715999
0 0.864927 0.680522
0 0.878645 0.645029
0 0.892348 0.609537
0 0.906065 0.574044
0 0.919783 0.538552
0 0.933486 0.503059
0 0.947204 0.467582
0 0.960906 0.43209
0 0.974624 0.396597
0 0.988342 0.361105
0 1 0.325612
0 1 0.29012
0 1 0.254627
0 1 0.21915
0 1 0.183658
0 1 0.148165
0 1 0.112673
0 1 0.0771801
0 1 0.0416876
0 0.703563 1
0 0.717266 1
0 0.730983 1
0 0.744686 1
0 0.758404 1
0 0.772122 1
0 0.785824 1
0 0.799542 0.982467
0 0.813245 0.946975
0 0.826963 0.911482
0 0.840665 0.87599
0 0.854383 0.840497
0 0.868101 0.80502
0 0.881804 0.769528
0 0.895521 0.734035
0 0.909224 0.698543
0 0.922942 0.66305
0 0.93666 0.627558
0 0.950362 0.592081
0 0.96408 0.556588
0 0.977783 0.521096
0 0.991501 0.485603
0 1 0.450111
0 1 0.414618
0 1 0.379126
0 1 0.343648
0 1 0.308156
0 1 0.272663
0 1 0.237171
0 1 0.201678
0 1 0.166186
0 1 0.130694
0 1 0.0952163
0 0.734157 1
0 0.74786 1
0 0.761563 1
0 0.77528 1
0 0.788998 1
0 0.802701 1
0 0.816419 1
0 0.830121 1
0 0.843839 1
0 0.857557 0.964996
0 0.87126 0.929519
0 0.884978 0.894026
0 0.89868 0.858534
0 0.912398 0.823041
0 0.926116 0.787549
0 0.939818 0.752056
0 0.953536 0.716564
0 0.967239 0.681086
0 0.980957 0.645594
0 0.994675 0.610101
0 1 0.574609
0 1 0.539117
0 1 0.503624
0 1 0.468147
0 1 0.432654
0 1 0.397162
0 1 0.361669
0 1 0.326177
0 1 0.290684
0 1 0.255192
0 1 0.219715
0 1 0.184222
0 1 0.14873
0 0.764736 1
0 0.778454 1
0 0.792157 1
0 0.805875 1
0 0.819577 1
0 0.833295 1
0 0.847013 1
0 0.860716 1
0 0.874434 1
0 0.888136 1
0 0.901854 0.983032
0 0.915572 0.94754
0 0.929274 0.912047
0 0.942992 0.876554
0 0.956695 0.841062
0 0.970413 0.805585
0 0.984131 0.770092
0 0.997833 0.7346
0 1 0.699107
0 1 0.663615
0 1 0.628122
0 1 0.59263
0 1 0.557153
0 1 0.52166
0 1 0.486168
0 1 0.450675
0 1 0.415183
0 1 0.37969
0 1 0.344213
0 1 0.308721
0 1 0.273228
0 1 0.237736
0 1 0.202243
0 0.795331 1
0 0.809033 1
0 0.822751 1
0 0.836469 1
0 0.850172 1
0 0.86389 1
0 0.877592 1
0 0.89131 1
0 0.905028 1
0 0.91873 1
0 0.932448 1
0 0.946151 1
0 0.959869 0.96556
0 0.973587 0.930083
0 0.987289 0.894591
0 1 0.859098
0 1 0.823606
0 1 0.788113
0 1 0.752621
0 1 0.717128
0 1 0.681651
0 1 0.646159
0 1 0.610666
0 1 0.575174
0 1 0.539681
0 1 0.504189
0 1 0.468711
0 1 0.433219
0 1 0.397726
0 1 0.362234
0 1 0.326741
0 1 0.291249
0 1 0.255756
0 0.825925 1
0 0.839628 1
0 0.853346 1
0 0.867048 1
0 0.880766 1
0 0.894469 1
0 0.908186 1
0 0.921904 1
0 0.935607 1
