public/LUTS/Color Shift/ColorShift_67.cube
TITLE "Generated by Resolve"
LUT_3D_SIZE 5
0 0 0
0.217273 0.0416419 0
0.434546 0.0832837 0
0.65182 0.124941 0
0.869108 0.166583 0
0 0.301747 0.184726
0 0.343389 0
0.182834 0.385046 0
0.400122 0.426688 0
0.617395 0.46833 0
0 0.603525 0.369467
0 0.645167 0.12192
0 0.686809 0
0.148394 0.72845 0
0.365682 0.770108 0
0 0.905287 0.554208
0 0.946929 0.306661
0 0.988586 0.0590829
0 1 0
0.113954 1 0
0 1 0.738949
0 1 0.491402
0 1 0.243824
0 1 0
0 1 0
0.284428 0 0.31281
0.501701 0 0.0652628
0.718975 0 0
0.936248 0.0315251 0
1 0.073167 0
0.0327153 0.208347 0.497536
0.249989 0.249989 0.249989
0.467262 0.29163 0.00242618
0.68455 0.333272 0
0.901823 0.374929 0
0 0.510109 0.682277
0 0.551751 0.43473
0.215549 0.593408 0.187167
0.432822 0.63505 0
0.650111 0.676692 0
0 0.811887 0.867018
0 0.853529 0.619471
0 0.895171 0.371908
0.181109 0.936812 0.124331
0.398383 0.978469 0
0 1 1
0 1 0.804211
0 1 0.556634
0 1 0.309071
0.14667 1 0.0615091
0.568872 0 0.62565
0.786145 0 0.378088
1 0 0.130526
1 0 0
1 0 0
0.317174 0.114931 0.810376
0.534432 0.156573 0.562814
0.75172 0.19823 0.315251
0.968994 0.239872 0.067689
1 0.281514 0
0.0654459 0.416709 0.995117
0.282719 0.458351 0.747555
0.499992 0.499992 0.499992
0.717266 0.541634 0.25243
0.934554 0.583276 0.00485237
0 0.718471 1
0.0309911 0.760113 0.932296
0.248264 0.801755 0.684733
0.465553 0.843412 0.437171
0.682826 0.885054 0.189593
0 1 1
0 1 1
0 1 0.869474
0.213825 1 0.621912
0.431113 1 0.374334
0.853315 0 0.938476
1 0 0.690929
1 0 0.443351
1 0 0.195789
1 0 0
0.601617 0.0215152 1
0.818875 0.0631723 0.875654
1 0.104814 0.628077
1 0.146456 0.380514
1 0.188098 0.132952
0.349889 0.323293 1
0.567163 0.364935 1
0.784436 0.406577 0.812818
1 0.448234 0.565255
1 0.489876 0.317693
0.0981765 0.625055 1
0.315435 0.666712 1
0.532723 0.708354 0.997559
0.749996 0.749996 0.749996
0.967269 0.791638 0.502434
0 0.926833 1
0.0637217 0.968475 1
0.280995 1 1
0.498268 1 0.934737
0.715557 1 0.687175
1 0 1
1 0 1
1 0 0.756191
1 0 0.508614
1 0 0.261051
0.886061 0 1
1 0 1
1 0.0113985 0.940917
1 0.0530404 0.693355
1 0.0946975 0.445777
0.634333 0.229877 1
0.851606 0.271519 1
1 0.313176 1
1 0.354818 0.87808
1 0.39646 0.630518
0.38262 0.531655 1
0.599878 0.573297 1
0.817166 0.614939 1
1 0.65658 1
1 0.698238 0.815259
0.130892 0.833417 1
0.348165 0.875059 1
0.565438 0.916716 1
0.782727 0.958358 1
1 1 1
