public/LUTS/Color Shift/ColorShift_37.cube
TITLE "Generated by Resolve"
LUT_3D_SIZE 9
0 0 0
0.0399176 0.00943008 0.125185
0.0798352 0.0188602 0.250385
0.119753 0.0282902 0.375586
0.15967 0.0377203 0.500771
0.199573 0.0471504 0.625971
0.23949 0.0565652 0.751171
0.279408 0.0659953 0.876371
0.319326 0.0754253 1
0.187732 0.0669871 0.0130465
0.227649 0.0764172 0.138231
0.267567 0.0858473 0.263432
0.307485 0.0952773 0.388632
0.347402 0.104707 0.513832
0.38732 0.114137 0.639017
0.427237 0.123552 0.764218
0.467155 0.132982 0.889418
0.507073 0.142412 1
0.375494 0.133989 0.0260929
0.415412 0.143404 0.151278
0.455329 0.152834 0.276478
0.495247 0.162264 0.401679
0.535164 0.171695 0.526879
0.575082 0.181125 0.652079
0.615 0.190555 0.777264
0.654917 0.199985 0.902464
0.694835 0.209415 1
0.563256 0.200977 0.0391394
0.603174 0.210407 0.164324
0.643091 0.219837 0.289525
0.683009 0.229267 0.414725
0.722927 0.238697 0.539925
0.762829 0.248127 0.665125
0.802747 0.257557 0.790326
0.842664 0.266987 0.915511
0.882582 0.276402 1
0.751019 0.267979 0.0522011
0.790936 0.277409 0.177371
0.830839 0.286824 0.302571
0.870756 0.296254 0.427771
0.910674 0.305684 0.552972
0.950591 0.315114 0.678172
0.990509 0.324544 0.803372
1 0.333974 0.928573
1 0.343404 1
0.938781 0.334966 0.0652476
0.978683 0.344396 0.190433
1 0.353826 0.315618
1 0.363256 0.440818
1 0.372686 0.566018
1 0.382116 0.691218
1 0.391546 0.816419
1 0.400977 0.941619
1 0.410407 1
1 0.401968 0.078294
1 0.411399 0.203479
1 0.420829 0.328679
1 0.430243 0.453864
1 0.439673 0.579065
1 0.449104 0.704265
1 0.458534 0.829465
1 0.467964 0.954665
1 0.477394 1
1 0.468956 0.0913405
1 0.478386 0.216526
1 0.487816 0.341726
1 0.497246 0.466926
1 0.506676 0.592111
1 0.516106 0.717311
1 0.525536 0.842512
1 0.534966 0.967712
1 0.544396 1
1 0.535958 0.104387
1 0.545388 0.229572
1 0.554818 0.354772
1 0.564248 0.479973
1 0.573663 0.605173
1 0.583093 0.730358
1 0.592523 0.855558
1 0.601953 0.980758
1 0.611383 1
0 0.0485695 0
0 0.0579995 0.11194
0 0.0674296 0.23714
0.0170901 0.0768597 0.362341
0.0570077 0.0862898 0.487541
0.09691 0.0957198 0.612726
0.136828 0.10515 0.737926
0.176745 0.11458 0.863127
0.216663 0.123995 0.988327
0.085069 0.115557 0
0.124987 0.124987 0.124987
0.164904 0.134417 0.250187
0.204822 0.143847 0.375387
0.244739 0.153277 0.500587
0.284657 0.162707 0.625772
0.324575 0.172137 0.750973
0.364492 0.181567 0.876173
0.40441 0.190982 1
0.272831 0.182559 0.0128481
0.312749 0.191989 0.138033
0.352667 0.201404 0.263233
0.392584 0.210834 0.388434
0.432502 0.220264 0.513634
0.472419 0.229694 0.638834
0.512337 0.239124 0.764019
0.552254 0.248554 0.88922
0.592172 0.257984 1
0.460594 0.249546 0.0258946
0.500511 0.258976 0.15108
0.540429 0.268406 0.27628
0.580346 0.277836 0.40148
0.620264 0.287266 0.52668
0.660182 0.296696 0.651881
0.700084 0.306127 0.777081
0.740001 0.315557 0.902281
0.779919 0.324987 1
0.648356 0.316548 0.0389563
0.688273 0.325978 0.164126
0.728176 0.335409 0.289326
0.768093 0.344839 0.414527
0.808011 0.354253 0.539727
0.847929 0.363684 0.664927
0.887846 0.373114 0.790127
0.927764 0.382544 0.915328
0.967681 0.391974 1
0.836118 0.383536 0.0520027
0.87602 0.392966 0.177188
0.915938 0.402396 0.302373
0.955856 0.411826 0.427573
0.995773 0.421256 0.552773
1 0.430686 0.677974
1 0.440116 0.803174
1 0.449546 0.928374
1 0.458976 1
1 0.450538 0.0650492
1 0.459968 0.190234
1 0.469398 0.315435
1 0.478828 0.440635
1 0.488258 0.56582
1 0.497673 0.69102
1 0.507103 0.81622
1 0.516533 0.941421
1 0.525963 1
1 0.517525 0.0780957
1 0.526955 0.203281
1 0.536385 0.328481
1 0.545815 0.453681
1 0.555245 0.578882
1 0.564675 0.704067
1 0.574105 0.829267
1 0.583535 0.954467
1 0.592966 1
1 0.584527 0.0911421
1 0.593957 0.216327
1 0.603387 0.341527
1 0.612818 0.466728
1 0.622248 0.591928
1 0.631678 0.717128
1 0.641093 0.842313
1 0.650523 0.967514
1 0.659953 1
0 0.0971542 0
0 0.106584 0.0986954
0 0.115999 0.223896
0 0.125429 0.349096
0 0.134859 0.474296
0 0.144289 0.599481
0.034165 0.153719 0.724681
0.0740826 0.163149 0.849882
0.114 0.17258 0.975082
0 0.164141 0
0.0223087 0.173571 0.111742
0.0622263 0.182986 0.236942
0.102144 0.192416 0.362142
0.142061 0.201846 0.487343
0.181979 0.211276 0.612528
0.221897 0.220706 0.737728
0.261814 0.230137 0.862928
0.301732 0.239567 0.988128
0.170153 0.231128 0
0.210071 0.240558 0.124788
0.249989 0.249989 0.249989
0.289906 0.259419 0.375189
0.329824 0.268849 0.500389
0.369741 0.278279 0.625589
0.409659 0.287709 0.750774
0.449577 0.297139 0.875975
0.489494 0.306569 1
0.357916 0.298131 0.0126497
0.397833 0.307561 0.137835
0.437751 0.316991 0.263035
0.477668 0.326406 0.388235
0.517586 0.335836 0.513436
0.557504 0.345266 0.638636
0.597421 0.354696 0.763836
0.637339 0.364126 0.889021
0.677256 0.373556 1
0.545678 0.365118 0.0257115
0.585595 0.374548 0.150881
0.625513 0.383978 0.276081
0.665431 0.393408 0.401282
0.705348 0.402838 0.526482
0.745266 0.412268 0.651682
0.785183 0.421698 0.776883
0.825086 0.431128 0.902083
0.865003 0.440558 1
0.73344 0.43212 0.0387579
0.773358 0.44155 0.163943
0.813275 0.45098 0.289128
0.853178 0.46041 0.414328
0.893095 0.469841 0.539528
0.933013 0.479255 0.664729
0.97293 0.488685 0.789929
1 0.498116 0.915129
1 0.507546 1
0.921202 0.499107 0.0518044
0.961105 0.508537 0.176989
1 0.517968 0.30219
1 0.527398 0.427375
1 0.536828 0.552575
1 0.546258 0.677775
1 0.555688 0.802976
1 0.565118 0.928176
1 0.574548 1
1 0.56611 0.0648508
1 0.57554 0.190036
1 0.58497 0.315236
1 0.5944 0.440436
1 0.60383 0.565637
1 0.61326 0.690822
1 0.622675 0.816022
1 0.632105 0.941222
1 0.641535 1
1 0.633112 0.0778973
1 0.642527 0.203082
1 0.651957 0.328283
1 0.661387 0.453483
1 0.670817 0.578683
1 0.680247 0.703883
1 0.689677 0.829068
1 0.699107 0.954269
1 0.708537 1
0 0.145724 0
0 0.155154 0.0854505
0 0.164584 0.210651
0 0.174014 0.335851
0 0.183444 0.461051
0 0.192874 0.586236
0 0.202304 0.711437
0 0.211734 0.836637
0.0113222 0.221164 0.961837
0 0.212711 0
0 0.222141 0.098497
0 0.231571 0.223697
0 0.241001 0.348898
0.0393835 0.250431 0.474098
0.0793011 0.259861 0.599283
0.119219 0.269291 0.724483
0.159136 0.278721 0.849683
0.199054 0.288151 0.974884
0.0674907 0.279713 0
0.107393 0.289143 0.111543
0.147311 0.298573 0.236744
0.187228 0.307988 0.361944
0.227146 0.317418 0.487144
0.267063 0.326848 0.612345
0.306981 0.336278 0.73753
0.346899 0.345708 0.86273
0.386816 0.355138 0.98793
0.255238 0.3467 0
0.295155 0.35613 0.12459
0.335073 0.36556 0.24979
0.37499 0.37499 0.37499
0.414908 0.384421 0.500191
0.454826 0.393851 0.625391
0.494743 0.403281 0.750591
0.534661 0.412711 0.875776
0.574578 0.422141 1
0.443 0.413703 0.0124666
0.482918 0.423133 0.137636
0.522835 0.432563 0.262837
0.562753 0.441993 0.388037
0.60267 0.451408 0.513237
0.642588 0.460838 0.638437
0.682506 0.470268 0.763638
0.722423 0.479698 0.888838
0.762341 0.489128 1
0.630762 0.48069 0.0255131
0.67068 0.49012 0.150698
0.710597 0.49955 0.275883
0.750515 0.50898 0.401083
0.790433 0.51841 0.526284
0.83035 0.52784 0.651484
0.870268 0.53727 0.776684
0.910185 0.5467 0.901884
0.950088 0.55613 1
0.818524 0.547692 0.0385595
0.858442 0.557122 0.163745
0.89836 0.566552 0.288945
0.938277 0.575982 0.41413
0.97818 0.585412 0.53933
1 0.594827 0.66453
1 0.604257 0.789731
1 0.613687 0.914931
1 0.623117 1
1 0.614694 0.051606
1 0.624109 0.176791
1 0.633539 0.301991
1 0.642969 0.427192
1 0.652399 0.552377
1 0.66183 0.677577
1 0.67126 0.802777
1 0.68069 0.927977
1 0.69012 1
1 0.681682 0.0646525
1 0.691112 0.189837
1 0.700542 0.315038
1 0.709972 0.440238
1 0.719402 0.565438
1 0.728832 0.690639
1 0.738262 0.815824
1 0.747677 0.941024
1 0.757107 1
0 0.194308 0
0 0.203738 0.0722057
0 0.213153 0.197406
0 0.222583 0.322606
0 0.232013 0.447791
0 0.241443 0.572992
0 0.250874 0.698192
0 0.260304 0.823392
0 0.269734 0.948592
0 0.261295 0
0 0.270726 0.0852522
0 0.280156 0.210452
0 0.28957 0.335653
0 0.299001 0.460853
0 0.308431 0.586038
0.0165408 0.317861 0.711238
0.0564584 0.327291 0.836439
0.096376 0.336721 0.961639
0 0.328283 0
0.00471504 0.337713 0.0982986
0.0446326 0.347143 0.223499
0.0845502 0.356573 0.348699
0.124468 0.366003 0.473899
0.164385 0.375433 0.5991
0.204303 0.384863 0.724285
0.244221 0.394293 0.849485
0.284138 0.403723 0.974685
0.152575 0.395285 0
0.192477 0.404715 0.111345
0.232395 0.414145 0.236545
0.272312 0.423575 0.361746
0.31223 0.43299 0.486946
0.352148 0.44242 0.612146
0.392065 0.45185 0.737346
0.431983 0.46128 0.862531
0.471901 0.47071 0.987732
0.340322 0.462272 0
0.38024 0.471702 0.124392
0.420157 0.481132 0.249592
0.460075 0.490562 0.374792
0.499992 0.499992 0.499992
0.53991 0.509422 0.625193
0.579828 0.518853 0.750393
0.619745 0.528283 0.875593
0.659663 0.537713 1
0.528084 0.529274 0.0122683
0.568002 0.538705 0.137453
0.607919 0.548135 0.262638
0.647837 0.557565 0.387839
0.687755 0.566995 0.513039
0.727672 0.57641 0.638239
0.76759 0.58584 0.763439
0.807507 0.59527 0.88864
0.847425 0.6047 1
0.715846 0.596262 0.0253147
0.755764 0.605692 0.1505
0.795682 0.615122 0.2757
0.835599 0.624552 0.400885
0.875517 0.633982 0.526085
0.915434 0.643412 0.651286
0.955352 0.652842 0.776486
0.99527 0.662272 0.901686
1 0.671702 1
0.903609 0.663264 0.0383612
0.943526 0.672694 0.163546
0.983444 0.682124 0.288746
1 0.691554 0.413947
1 0.700984 0.539132
1 0.710414 0.664332
1 0.719844 0.789532
1 0.729259 0.914733
1 0.738689 1
1 0.730266 0.0514076
1 0.739681 0.176593
1 0.749111 0.301793
1 0.758541 0.426993
1 0.767971 0.552193
1 0.777401 0.677378
1 0.786831 0.802579
1 0.796262 0.927779
1 0.805692 1
0 0.242878 0
0 0.252308 0.0589609
0 0.261738 0.184161
0 0.271168 0.309361
0 0.280598 0.434546
0 0.290028 0.559747
0 0.299458 0.684947
0 0.308888 0.810147
0 0.318318 0.935347
0 0.309865 0
0 0.319295 0.0720073
0 0.328725 0.197208
0 0.338155 0.322408
0 0.347585 0.447608
0 0.357015 0.572793
0 0.366445 0.697993
0 0.375875 0.823194
0 0.385306 0.948394
0 0.376867 0
0 0.386297 0.0850538
0 0.395727 0.210254
0 0.405158 0.335454
0.0218051 0.414572 0.460655
0.0617075 0.424002 0.585855
0.101625 0.433433 0.71104
0.141543 0.442863 0.83624
0.18146 0.452293 0.96144
0.049897 0.443854 0
0.0897993 0.453285 0.0981003
0.129717 0.462715 0.223301
0.169635 0.472145 0.348501
0.209552 0.481575 0.473701
0.24947 0.491005 0.598901
0.289387 0.500435 0.724102
0.329305 0.509865 0.849287
0.369223 0.519295 0.974487
0.237659 0.510857 0
0.277562 0.520287 0.111147
0.317479 0.529717 0.236347
0.357397 0.539147 0.361547
0.397314 0.548577 0.486748
0.437232 0.557992 0.611948
0.47715 0.567422 0.737148
0.517067 0.576852 0.862348
0.556985 0.586282 0.987533
0.425422 0.577844 0
0.465324 0.587274 0.124208
0.505241 0.596704 0.249393
0.545159 0.606134 0.374594
0.585077 0.615564 0.499794
0.624994 0.624994 0.624994
0.664912 0.634424 0.750195
0.704829 0.643854 0.875395
0.744747 0.653284 1
0.613169 0.644846 0.0120699
0.653086 0.654276 0.137255
0.693004 0.663706 0.262455
0.732921 0.673136 0.38764
0.772839 0.682567 0.51284
0.812757 0.691997 0.638041
0.852674 0.701411 0.763241
0.892592 0.710842 0.888441
0.932509 0.720272 1
0.800931 0.711849 0.0251164
0.840848 0.721263 0.150301
0.880766 0.730694 0.275502
0.920684 0.740124 0.400702
0.960601 0.749554 0.525887
1 0.758984 0.651087
1 0.768414 0.776287
1 0.777844 0.901488
1 0.787274 1
0.988693 0.778836 0.0381628
1 0.788266 0.163348
1 0.797696 0.288548
1 0.807126 0.413748
1 0.816556 0.538949
1 0.825986 0.664134
1 0.835416 0.789334
1 0.844846 0.914534
1 0.854261 1
0 0.291463 0
0 0.300893 0.045716
0 0.310323 0.170916
0 0.319738 0.296117
0 0.329168 0.421302
0 0.338598 0.546502
0 0.348028 0.671702
0 0.357458 0.796902
0 0.366888 0.922103
0 0.35845 0
0 0.36788 0.0587625
0 0.37731 0.183963
0 0.386725 0.309163
0 0.396155 0.434348
0 0.405585 0.559548
0 0.415015 0.684749
0 0.424445 0.809949
0 0.433875 0.935149
0 0.425437 0
0 0.434867 0.071809
0 0.444297 0.197009
0 0.453727 0.32221
0 0.463157 0.44741
0 0.472587 0.57261
0 0.482017 0.697795
0.03888 0.491447 0.822995
0.0787976 0.500877 0.948196
0 0.492439 0
0 0.501869 0.0848554
0.0270542 0.511299 0.210056
0.0669718 0.520729 0.335256
0.106889 0.530159 0.460456
0.146807 0.539574 0.585657
0.186709 0.549004 0.710857
0.226627 0.558434 0.836042
0.266545 0.567864 0.961242
0.134981 0.559426 0
0.174899 0.568856 0.0979019
0.214801 0.578286 0.223102
0.254719 0.587716 0.348302
0.294636 0.597147 0.473503
0.334554 0.606577 0.598703
0.374472 0.616007 0.723903
0.414389 0.625437 0.849104
0.454307 0.634867 0.974289
0.322744 0.626429 0
0.362646 0.635859 0.110964
0.402564 0.645289 0.236149
0.442481 0.654719 0.361349
0.482399 0.664149 0.486549
0.522316 0.673579 0.611749
0.562234 0.682994 0.73695
0.602152 0.692424 0.86215
0.642069 0.701854 0.98735
0.510506 0.693431 0
0.550408 0.702846 0.12401
0.590326 0.712276 0.24921
0.630243 0.721706 0.374395
0.670161 0.731136 0.499596
0.710079 0.740566 0.624796
0.749996 0.749996 0.749996
0.789914 0.759426 0.875196
0.829831 0.768856 1
0.698253 0.760418 0.0118715
0.73817 0.769848 0.137057
0.778088 0.779278 0.262257
0.818006 0.788708 0.387457
0.857923 0.798138 0.512642
0.897841 0.807568 0.637842
0.937758 0.816999 0.763043
0.977676 0.826413 0.888243
1 0.835843 1
0.886015 0.82742 0.024918
0.925933 0.836835 0.150103
0.96585 0.846265 0.275303
1 0.855695 0.400504
1 0.865125 0.525704
1 0.874556 0.650889
1 0.883986 0.776089
1 0.893416 0.901289
1 0.902846 1
0 0.340032 0
0 0.349462 0.0324712
0 0.358892 0.157671
0 0.368322 0.282872
0 0.377752 0.408057
0 0.387182 0.533257
0 0.396612 0.658457
0 0.406043 0.783658
0 0.415473 0.908858
0 0.407019 0
0 0.416449 0.0455177
0 0.425879 0.170718
0 0.435309 0.295918
0 0.444739 0.421103
0 0.45417 0.546304
0 0.4636 0.671504
0 0.47303 0.796704
0 0.48246 0.921904
0 0.474022 0
0 0.483452 0.0585641
0 0.492882 0.183764
0 0.502312 0.308965
0 0.511727 0.434165
0 0.521157 0.55935
0 0.530587 0.68455
0 0.540017 0.80975
0 0.549447 0.934951
0 0.541009 0
0 0.550439 0.0716106
0 0.559869 0.196811
0 0.569299 0.322011
0.00421149 0.578729 0.447211
0.0441291 0.588159 0.572412
0.0840467 0.597589 0.697612
0.123964 0.607019 0.822797
0.163882 0.616449 0.947997
0.0323033 0.608011 0
0.072221 0.617441 0.0846571
0.112139 0.626871 0.209857
0.152056 0.636301 0.335058
0.191974 0.645731 0.460258
0.231891 0.655161 0.585458
0.271809 0.664576 0.710658
0.311711 0.674006 0.835859
0.351629 0.683436 0.961044
0.220066 0.675013 0
0.259983 0.684428 0.0977188
0.299901 0.693858 0.222904
0.339803 0.703288 0.348104
0.379721 0.712718 0.473304
0.419638 0.722148 0.598505
0.459556 0.731579 0.723705
0.499474 0.741009 0.848905
0.539391 0.750439 0.974105
0.407828 0.742 0
0.44773 0.751431 0.110765
0.487648 0.760861 0.235966
0.527565 0.770291 0.361151
0.567483 0.779721 0.486351
0.607401 0.789151 0.611551
0.647318 0.798581 0.736751
0.687236 0.807996 0.861952
0.727153 0.817426 0.987152
0.59559 0.809003 0
0.635493 0.818418 0.123812
0.67541 0.827848 0.249012
0.715328 0.837278 0.374212
0.755245 0.846708 0.499397
0.795163 0.856138 0.624598
0.835081 0.865568 0.749798
0.874998 0.874998 0.874998
0.914916 0.884428 1
0.783337 0.87599 0.0116732
0.823255 0.88542 0.136858
0.863172 0.89485 0.262058
0.90309 0.90428 0.387259
0.943008 0.91371 0.512459
0.982925 0.92314 0.637644
1 0.93257 0.762844
1 0.942 0.888045
1 0.951415 1
0 0.388617 0
0 0.398047 0.0192264
0 0.407477 0.144427
0 0.416907 0.269627
0 0.426322 0.394812
0 0.435752 0.520012
0 0.445182 0.645212
0 0.454612 0.770413
0 0.464042 0.895613
0 0.455604 0
0 0.465034 0.0322728
0 0.474464 0.157473
0 0.483894 0.282673
0 0.493309 0.407858
0 0.502739 0.533059
0 0.512169 0.658259
0 0.521599 0.783459
0 0.531029 0.90866
0 0.522591 0
0 0.532021 0.0453193
0 0.541451 0.17052
0 0.550881 0.29572
0 0.560311 0.42092
0 0.569741 0.546105
0 0.579171 0.671305
0 0.588602 0.796506
0 0.598032 0.921706
0 0.589593 0
0 0.599023 0.0583658
0 0.608454 0.183566
0 0.617884 0.308766
0 0.627314 0.433967
0 0.636728 0.559167
0 0.646159 0.684352
0.0212863 0.655589 0.809552
0.0612039 0.665019 0.934752
0 0.65658 0
0 0.66601 0.0714122
0.00946059 0.675441 0.196612
0.0493782 0.684871 0.321813
0.0892958 0.694301 0.447013
0.129213 0.703731 0.572213
0.169131 0.713161 0.697414
0.209049 0.722591 0.822614
0.248966 0.732021 0.947799
0.117388 0.723583 0
0.157305 0.733013 0.0844587
0.197223 0.742443 0.209659
0.23714 0.751873 0.334859
0.277058 0.761303 0.46006
0.316976 0.770733 0.58526
0.356893 0.780163 0.71046
0.396811 0.789578 0.83566
0.436713 0.799008 0.960861
0.30515 0.790585 0
0.345068 0.8 0.0975204
0.384985 0.80943 0.222721
0.424903 0.81886 0.347906
0.464805 0.82829 0.473106
0.504723 0.83772 0.598306
0.54464 0.84715 0.723507
0.584558 0.85658 0.848707
0.624475 0.866011 0.973907
0.492912 0.857572 0
0.532815 0.867002 0.110567
0.572732 0.876432 0.235767
0.61265 0.885863 0.360967
0.652567 0.895293 0.486152
0.692485 0.904723 0.611353
0.732403 0.914153 0.736553
0.77232 0.923583 0.861753
0.812238 0.932998 0.986954
0.680674 0.924575 0
0.720577 0.934005 0.123613
0.760494 0.94342 0.248814
0.800412 0.95285 0.374014
0.84033 0.96228 0.499214
0.880247 0.97171 0.624399
0.920165 0.98114 0.749599
0.960082 0.99057 0.8748
1 1 1
