public/LUTS/Color Shift/ColorShift_95.cube
TITLE "Generated by Resolve"
LUT_3D_SIZE 9
0 0 0
0 0.051957 0.1364
0 0.103914 0.272816
0 0.155871 0.409247
0 0.207828 0.545663
0 0.259785 0.682078
0 0.311742 0.818494
0 0.363684 0.95491
0 0.415641 1
0.287205 0.0182803 0.159762
0.180575 0.0702373 0.296162
0.0739147 0.122194 0.432578
0 0.174151 0.568994
0 0.226108 0.705409
0 0.278065 0.84184
0 0.330022 0.978256
0 0.381979 1
0 0.433936 1
0.574441 0.0365759 0.319539
0.467811 0.0885176 0.45594
0.361166 0.140475 0.592355
0.25452 0.192432 0.728771
0.14786 0.244388 0.865187
0.0412146 0.296345 1
0 0.348302 1
0 0.400259 1
0 0.452216 1
0.861692 0.0548562 0.479316
0.755047 0.106813 0.615717
0.648402 0.15877 0.752132
0.541756 0.210727 0.888548
0.435111 0.262684 1
0.32845 0.314641 1
0.221805 0.366583 1
0.11516 0.41854 1
0.00851453 0.470497 1
1 0.0731365 0.639094
1 0.125093 0.775494
0.935653 0.17705 0.91191
0.828992 0.229007 1
0.722347 0.280964 1
0.615702 0.332921 1
0.509056 0.384878 1
0.402396 0.436835 1
0.29575 0.488792 1
1 0.0914321 0.798871
1 0.143374 0.935271
1 0.195331 1
1 0.247288 1
1 0.299245 1
0.902937 0.351202 1
0.796292 0.403159 1
0.689647 0.455116 1
0.582986 0.507073 1
1 0.109712 0.958648
1 0.161669 1
1 0.213626 1
1 0.265583 1
1 0.31754 1
1 0.369497 1
1 0.421454 1
0.976883 0.473411 1
0.870237 0.525368 1
1 0.128008 1
1 0.17995 1
1 0.231907 1
1 0.283864 1
1 0.335821 1
1 0.387778 1
1 0.439734 1
1 0.491691 1
1 0.543648 1
1 0.146288 1
1 0.19823 1
1 0.250187 1
1 0.302144 1
1 0.354101 1
1 0.406058 1
1 0.458015 1
1 0.509972 1
1 0.561929 1
0 0.0547494 0
0 0.106706 0
0 0.158663 0.101656
0 0.21062 0.238071
0 0.262577 0.374487
0 0.314534 0.510903
0 0.366491 0.647318
0 0.418448 0.783749
0 0.470405 0.920165
0.231617 0.0730297 0
0.124987 0.124987 0.124987
0.0183413 0.176944 0.261402
0 0.228901 0.397818
0 0.280858 0.534249
0 0.332815 0.670665
0 0.384771 0.80708
0 0.436728 0.943496
0 0.488685 1
0.518868 0.0913252 0.148363
0.412222 0.143267 0.284764
0.305577 0.195224 0.42118
0.198932 0.247181 0.557595
0.0922866 0.299138 0.694026
0 0.351095 0.830442
0 0.403052 0.966857
0 0.455009 1
0 0.506966 1
0.806104 0.109606 0.308141
0.699474 0.161563 0.444541
0.592828 0.213519 0.580957
0.486168 0.265476 0.717372
0.379522 0.317433 0.853803
0.272877 0.36939 0.990219
0.166232 0.421347 1
0.0595712 0.473304 1
0 0.525261 1
1 0.127901 0.467918
0.986709 0.179843 0.604318
0.880064 0.2318 0.740734
0.773419 0.283757 0.87715
0.666758 0.335714 1
0.560113 0.387671 1
0.453468 0.439628 1
0.346822 0.491585 1
0.240162 0.543542 1
1 0.146181 0.627695
1 0.198138 0.764096
1 0.250095 0.900511
1 0.302037 1
0.954009 0.353994 1
0.847364 0.405951 1
0.740703 0.457908 1
0.634058 0.509865 1
0.527413 0.561822 1
1 0.164462 0.787472
1 0.216419 0.923873
1 0.268376 1
1 0.320333 1
1 0.37229 1
1 0.424247 1
1 0.476204 1
0.921294 0.528161 1
0.814649 0.580118 1
1 0.182757 0.94725
1 0.234699 1
1 0.286656 1
1 0.338613 1
1 0.39057 1
1 0.442527 1
1 0.494484 1
1 0.546441 1
1 0.598398 1
1 0.201038 1
1 0.252995 1
1 0.304952 1
1 0.356909 1
1 0.408865 1
1 0.460822 1
1 0.512779 1
1 0.564736 1
1 0.616693 1
0 0.109514 0
0 0.161456 0
0 0.213413 0
0 0.26537 0.0668803
0 0.317327 0.203296
0 0.369284 0.339712
0 0.421241 0.476127
0 0.473198 0.612543
0 0.525154 0.748974
0.176028 0.127794 0
0.069398 0.179751 0
0 0.231708 0.0902113
0 0.283665 0.226627
0 0.335622 0.363043
0 0.387579 0.499474
0 0.439536 0.635889
0 0.491493 0.772305
0 0.54345 0.908721
0.463279 0.146075 0
0.356634 0.198032 0.113573
0.249989 0.249989 0.249989
0.143343 0.301946 0.386404
0.0366979 0.353902 0.52282
0 0.405859 0.659251
0 0.457816 0.795666
0 0.509773 0.932082
0 0.56173 1
0.750515 0.16437 0.13695
0.643885 0.216312 0.27335
0.537224 0.268269 0.409766
0.430579 0.320226 0.546181
0.323934 0.372183 0.682597
0.217288 0.42414 0.819028
0.110628 0.476097 0.955444
0.0039826 0.528054 1
0 0.580011 1
1 0.18265 0.296727
0.931121 0.234607 0.433127
0.824475 0.286564 0.569543
0.71783 0.338521 0.705959
0.61117 0.390478 0.842374
0.504524 0.442435 0.978805
0.397879 0.494392 1
0.291234 0.546349 1
0.184573 0.598306 1
1 0.200946 0.456504
1 0.252888 0.592905
1 0.304845 0.72932
1 0.356802 0.865736
0.898421 0.408759 1
0.79176 0.460716 1
0.685115 0.512673 1
0.57847 0.56463 1
0.471824 0.616587 1
1 0.219226 0.616281
1 0.271183 0.752682
1 0.32314 0.889097
1 0.375082 1
1 0.427039 1
1 0.478996 1
0.972366 0.530953 1
0.865705 0.58291 1
0.75906 0.634867 1
1 0.237507 0.776059
1 0.289464 0.912459
1 0.341421 1
1 0.393378 1
1 0.445335 1
1 0.497292 1
1 0.549249 1
1 0.601205 1
1 0.653162 1
1 0.255802 0.935836
1 0.307744 1
1 0.359701 1
1 0.411658 1
1 0.463615 1
1 0.515572 1
1 0.567529 1
1 0.619486 1
1 0.671443 1
0 0.164263 0
0 0.21622 0
0 0.268177 0
0 0.320134 0
0 0.372091 0.032105
0 0.424048 0.168521
0 0.476005 0.304936
0 0.527962 0.441352
0 0.579919 0.577768
0.120439 0.182559 0
0.0138094 0.234501 0
0 0.286458 0
0 0.338415 0.055436
0 0.390372 0.191852
0 0.442329 0.328267
0 0.494285 0.464698
0 0.546242 0.601114
0 0.598199 0.73753
0.407691 0.200839 0
0.301045 0.252796 0
0.1944 0.304753 0.0787976
0.0877546 0.35671 0.215213
0 0.408667 0.351629
0 0.460624 0.488045
0 0.512581 0.624475
0 0.564538 0.760891
0 0.616495 0.897307
0.694926 0.21912 0
0.588281 0.271077 0.102159
0.481636 0.323033 0.238575
0.37499 0.37499 0.37499
0.268345 0.426947 0.511406
0.161685 0.478904 0.647822
0.0550393 0.530861 0.784253
0 0.582818 0.920668
0 0.634775 1
0.982162 0.237415 0.125521
0.875532 0.289357 0.261936
0.768887 0.341314 0.398352
0.662226 0.393271 0.534768
0.555581 0.445228 0.671183
0.448936 0.497185 0.807599
0.34229 0.549142 0.94403
0.23563 0.601099 1
0.128985 0.653056 1
1 0.255695 0.285298
1 0.307652 0.421714
1 0.359609 0.558129
0.949477 0.411566 0.694545
0.842817 0.463523 0.830961
0.736171 0.51548 0.967376
0.629526 0.567437 1
0.522881 0.619394 1
0.416236 0.671351 1
1 0.273991 0.445075
1 0.325933 0.581491
1 0.37789 0.717906
1 0.429847 0.854322
1 0.481804 0.990738
1 0.533761 1
0.916762 0.585718 1
0.810117 0.637675 1
0.703471 0.689632 1
1 0.292271 0.604852
1 0.344228 0.741253
1 0.396185 0.877684
1 0.448142 1
1 0.500099 1
1 0.552041 1
1 0.603998 1
1 0.655955 1
0.990707 0.707912 1
1 0.310552 0.76463
1 0.362509 0.90103
1 0.414466 1
1 0.466423 1
1 0.51838 1
1 0.570336 1
1 0.622293 1
1 0.67425 1
1 0.726207 1
0 0.219028 0
0 0.270985 0
0 0.322942 0
0 0.374899 0
0 0.426856 0
0 0.478813 0
0 0.53077 0.133745
0 0.582727 0.270161
0 0.634684 0.406577
0.0648508 0.237308 0
0 0.289265 0
0 0.341222 0
0 0.393179 0
0 0.445136 0.0206607
0 0.497093 0.157076
0 0.54905 0.293492
0 0.601007 0.429923
0 0.652964 0.566339
0.352087 0.255604 0
0.245457 0.307546 0
0.138811 0.359503 0
0.0321508 0.41146 0.0440223
0 0.463416 0.180438
0 0.515373 0.316854
0 0.56733 0.453269
0 0.619287 0.5897
0 0.671244 0.726116
0.639338 0.273884 0
0.532692 0.325841 0
0.426047 0.377798 0.0673838
0.319402 0.429755 0.2038
0.212757 0.481712 0.340215
0.106096 0.533669 0.476631
0 0.585626 0.613046
0 0.637583 0.749477
0 0.68954 0.885893
0.926574 0.292165 0
0.819944 0.344121 0.0907301
0.713283 0.396078 0.227161
0.606638 0.448035 0.363577
0.499992 0.499992 0.499992
0.393347 0.551949 0.636408
0.286687 0.603906 0.772824
0.180041 0.655863 0.909255
0.0733959 0.70782 1
1 0.31046 0.114107
1 0.362402 0.250507
1 0.414359 0.386938
0.893889 0.466316 0.523354
0.787228 0.518273 0.65977
0.680583 0.57023 0.796185
0.573938 0.622187 0.932601
0.467292 0.674144 1
0.360632 0.726101 1
1 0.32874 0.273884
1 0.380697 0.410285
1 0.432654 0.546715
1 0.484611 0.683131
1 0.536568 0.819547
0.967819 0.588525 0.955962
0.861173 0.640482 1
0.754528 0.692439 1
0.647883 0.744396 1
1 0.347036 0.433661
1 0.398978 0.570062
1 0.450935 0.706493
1 0.502892 0.842908
1 0.554849 0.979324
1 0.606806 1
1 0.658763 1
1 0.710719 1
0.935119 0.762676 1
1 0.365316 0.593439
1 0.417273 0.729839
1 0.46923 0.866255
1 0.521187 1
1 0.573144 1
1 0.625101 1
1 0.677043 1
1 0.729 1
1 0.780957 1
0 0.273793 0
0 0.325734 0
0 0.377691 0
0 0.429648 0
0 0.481605 0
0 0.533562 0
0 0.585519 0
0 0.637476 0.09897
0 0.689433 0.235386
0.00926223 0.292073 0
0 0.34403 0
0 0.395987 0
0 0.447944 0
0 0.499886 0
0 0.551843 0
0 0.6038 0.122301
0 0.655756 0.258732
0 0.707713 0.395148
0.296498 0.310353 0
0.189868 0.36231 0
0.0832227 0.414267 0
0 0.466224 0
0 0.518181 0.00924697
0 0.570138 0.145663
0 0.622095 0.282078
0 0.674052 0.418494
0 0.726009 0.554925
0.583749 0.328649 0
0.477104 0.380591 0
0.370459 0.432547 0
0.263813 0.484504 0.0326085
0.157153 0.536461 0.169024
0.0505074 0.588418 0.30544
0 0.640375 0.441855
0 0.692332 0.578271
0 0.744289 0.714702
0.870985 0.346929 0
0.764355 0.398886 0
0.657694 0.450843 0.0559548
0.551049 0.5028 0.192386
0.444404 0.554757 0.328801
0.337758 0.606714 0.465217
0.231098 0.658671 0.601633
0.124453 0.710628 0.738048
0.0178073 0.762585 0.874479
1 0.365209 0
1 0.417166 0.0793164
0.944945 0.469123 0.215732
0.838285 0.52108 0.352163
0.73164 0.573037 0.488579
0.624994 0.624994 0.624994
0.518349 0.676951 0.76141
0.411688 0.728908 0.897826
0.305043 0.780865 1
1 0.383505 0.102693
1 0.435447 0.239094
1 0.487404 0.375509
1 0.539361 0.51194
1 0.591318 0.648356
0.91223 0.643275 0.784772
0.805585 0.695232 0.921187
0.69894 0.747189 1
0.592294 0.799146 1
1 0.401785 0.26247
1 0.453742 0.398871
1 0.505699 0.535286
1 0.557656 0.671717
1 0.609613 0.808133
1 0.66157 0.944549
1 0.713527 1
0.986175 0.765484 1
0.87953 0.817441 1
1 0.420081 0.422248
1 0.472023 0.558648
1 0.52398 0.695064
1 0.575936 0.831495
1 0.627894 0.96791
1 0.67985 1
1 0.731807 1
1 0.783764 1
1 0.835721 1
0 0.328542 0
0 0.380499 0
0 0.432456 0
0 0.484413 0
0 0.53637 0
0 0.588327 0
0 0.640284 0
0 0.692241 0
0 0.744198 0.0641947
0 0.346838 0
0 0.398779 0
0 0.450736 0
0 0.502693 0
0 0.55465 0
0 0.606607 0
0 0.658564 0
0 0.710521 0.0875257
0 0.762478 0.223957
0.240909 0.365118 0
0.134279 0.417075 0
0.0276188 0.469032 0
0 0.520989 0
0 0.572946 0
0 0.624903 0
0 0.676844 0.110887
0 0.728801 0.247303
0 0.780758 0.383734
0.528145 0.383398 0
0.421515 0.435355 0
0.31487 0.487312 0
0.208225 0.539269 0
0.101564 0.591226 0
0 0.643183 0.134249
0 0.69514 0.270665
0 0.747097 0.40708
0 0.799054 0.543496
0.815396 0.401694 0
0.708751 0.453635 0
0.602106 0.505592 0
0.49546 0.557549 0.0211795
0.388815 0.609506 0.15761
0.282155 0.661463 0.294026
0.175509 0.71342 0.430442
0.068864 0.765377 0.566857
0 0.817334 0.703273
1 0.419974 0
0.996002 0.471931 0
0.889357 0.523888 0.0445411
0.782696 0.575845 0.180957
0.676051 0.627802 0.317388
0.569406 0.679759 0.453803
0.46276 0.731716 0.590219
0.3561 0.783673 0.726635
0.249454 0.83563 0.86305
1 0.438254 0
1 0.490211 0.0679026
1 0.542168 0.204318
1 0.594125 0.340734
0.963287 0.646082 0.477165
0.856641 0.698039 0.613581
0.749996 0.749996 0.749996
0.643351 0.801953 0.886412
0.53669 0.85391 1
1 0.45655 0.0912795
1 0.508492 0.22768
1 0.560449 0.364096
1 0.612406 0.500511
1 0.664363 0.636942
1 0.71632 0.773358
1 0.768277 0.909773
0.930587 0.820233 1
0.823941 0.87219 1
1 0.47483 0.251057
1 0.526787 0.387457
1 0.578744 0.523873
1 0.630701 0.660288
1 0.682658 0.796719
1 0.734615 0.933135
1 0.786572 1
1 0.838529 1
1 0.890486 1
0 0.383307 0
0 0.435264 0
0 0.487221 0
0 0.539178 0
0 0.591134 0
0 0.643091 0
0 0.695048 0
0 0.74699 0
0 0.798947 0
0 0.401587 0
0 0.453544 0
0 0.505501 0
0 0.557458 0
0 0.609415 0
0 0.661372 0
0 0.713329 0
0 0.765286 0
0 0.817243 0.0527504
0.185321 0.419883 0
0.0786908 0.471824 0
0 0.523781 0
0 0.575738 0
0 0.627695 0
0 0.679652 0
0 0.731609 0
0 0.783566 0.076112
0 0.835523 0.212528
0.472557 0.438163 0
0.365927 0.49012 0
0.259281 0.542077 0
0.152621 0.594034 0
0.0459754 0.645991 0
0 0.697948 0
0 0.749889 0.0994736
0 0.801846 0.235889
0 0.853803 0.372305
0.759808 0.456443 0
0.653162 0.5084 0
0.546517 0.560357 0
0.439872 0.612314 0
0.333227 0.664271 0
0.226566 0.716228 0.122835
0.119921 0.768185 0.259251
0.0132753 0.820142 0.395666
0 0.872099 0.532082
1 0.474739 0
0.940414 0.52668 0
0.833753 0.578637 0
0.727108 0.630594 0.00976577
0.620462 0.682551 0.146181
0.513817 0.734508 0.282612
0.407156 0.786465 0.419028
0.300511 0.838422 0.555444
0.193866 0.890379 0.691859
1 0.493019 0
1 0.544976 0
1 0.596933 0.0331273
1 0.64889 0.169543
0.907698 0.700847 0.305959
0.801053 0.752804 0.44239
0.694408 0.804761 0.578805
0.587762 0.856718 0.715221
0.481102 0.908675 0.851637
1 0.511315 0
1 0.563256 0.0564889
1 0.615213 0.192905
1 0.66717 0.32932
1 0.719127 0.465736
1 0.771084 0.602167
0.981643 0.823041 0.738582
0.874998 0.874998 0.874998
0.768353 0.926955 1
1 0.529595 0.0798657
1 0.581537 0.216266
1 0.633494 0.352682
1 0.68545 0.489097
1 0.737408 0.625513
1 0.789364 0.761944
1 0.841321 0.89836
1 0.893278 1
1 0.945235 1
0 0.438071 0
0 0.490013 0
0 0.54197 0
0 0.593927 0
0 0.645884 0
0 0.697841 0
0 0.749798 0
0 0.801755 0
0 0.853712 0
0 0.456352 0
0 0.508293 0
0 0.56025 0
0 0.612207 0
0 0.664164 0
0 0.716121 0
0 0.768078 0
0 0.820035 0
0 0.871992 0
0.129732 0.474632 0
0.0230869 0.526589 0
0 0.578546 0
0 0.630503 0
0 0.68246 0
0 0.734417 0
0 0.786374 0
0 0.838331 0
0 0.890288 0.0413367
0.416968 0.492927 0
0.310338 0.544869 0
0.203693 0.596826 0
0.0970321 0.648783 0
0 0.70074 0
0 0.752697 0
0 0.804654 0
0 0.856611 0.0646983
0 0.908568 0.201114
0.704219 0.511208 0
0.597574 0.563165 0
0.490929 0.615122 0
0.384283 0.667079 0
0.277623 0.719036 0
0.170977 0.770993 0
0.064332 0.82295 0.0880598
0 0.874907 0.224475
0 0.926848 0.360891
0.991455 0.529488 0
0.884825 0.581445 0
0.778164 0.633402 0
0.671519 0.685359 0
0.564874 0.737316 0
0.458228 0.789273 0.111406
0.351568 0.84123 0.247837
0.244923 0.893187 0.384253
0.138277 0.945144 0.520668
1 0.547784 0
1 0.599725 0
1 0.651682 0
0.958755 0.703639 0
0.85211 0.755596 0.134768
0.745464 0.807553 0.271183
0.638819 0.85951 0.407614
0.532158 0.911467 0.54403
0.425513 0.963424 0.680446
1 0.566064 0
1 0.618021 0
1 0.669978 0.0217136
1 0.721935 0.158129
1 0.773892 0.294545
1 0.825849 0.430961
0.926055 0.877806 0.567391
0.819409 0.929763 0.703807
0.712764 0.98172 0.840223
1 0.58436 0
1 0.636301 0.0450752
1 0.688258 0.181491
1 0.740215 0.317906
1 0.792172 0.454322
1 0.844129 0.590738
1 0.896086 0.727169
1 0.948043 0.863584
1 1 1
