public/LUTS/Color Shift/ColorShift_68.cube
TITLE "Generated by Resolve"
LUT_3D_SIZE 5
0 0 0
0.254292 0.0276646 0
0.508614 0.0553292 0
0.762921 0.0829938 0
1 0.110658 0
0 0.307759 0.132357
0.00503548 0.335409 0
0.259342 0.363073 0
0.513664 0.390738 0
0.767971 0.418402 0
0 0.615518 0.264729
0 0.643183 0.0395056
0.0100557 0.670848 0
0.264378 0.698512 0
0.518685 0.726177 0
0 0.923293 0.397086
0 0.950957 0.171878
0 0.978622 0
0.0150912 1 0
0.269398 1 0
0 1 0.529458
0 1 0.304234
0 1 0.0790112
0 1 0
0.0201267 1 0
0.244953 0 0.34284
0.49926 0 0.117632
0.753567 0 0
1 0 0
1 0.0252232 0
0 0.222324 0.475212
0.249989 0.249989 0.249989
0.504295 0.277653 0.0247654
0.758618 0.305318 0
1 0.332982 0
0 0.530098 0.607569
0.000701915 0.557763 0.382361
0.255024 0.585428 0.157122
0.509331 0.613092 0
0.763653 0.640757 0
0 0.837873 0.73994
0 0.865538 0.514717
0.00573739 0.893202 0.289494
0.260044 0.920851 0.0642557
0.514366 0.948516 0
0 1 0.872297
0 1 0.647089
0 1 0.421851
0.0107729 1 0.196628
0.26508 1 0
0.489937 0 0.68571
0.744228 0 0.460502
0.99855 0 0.235264
1 0 0.0100404
1 0 0
0.240665 0.136889 0.818067
0.494957 0.164553 0.592859
0.749279 0.192218 0.36762
1 0.219883 0.142397
1 0.247547 0
0 0.444663 0.950439
0.245686 0.472328 0.725216
0.499992 0.499992 0.499992
0.754299 0.527657 0.274769
1 0.555322 0.0495308
0 0.752438 1
0 0.780102 0.857588
0.250706 0.807767 0.632364
0.505028 0.835431 0.407126
0.759335 0.863096 0.181903
0 1 1
0 1 0.98996
0.00141909 1 0.764721
0.255741 1 0.539498
0.510048 1 0.31426
0.734905 0 1
0.989197 0 0.803372
1 0 0.578134
1 0 0.352911
1 0 0.127672
0.485634 0.0514687 1
0.73994 0.0791333 0.935729
0.994247 0.106783 0.710491
1 0.134447 0.485267
1 0.162112 0.260029
0.236347 0.359243 1
0.490654 0.386892 1
0.744961 0.414557 0.842863
0.999283 0.442222 0.617624
1 0.469886 0.392401
0 0.667002 1
0.241367 0.694667 1
0.495689 0.722332 0.975219
0.749996 0.749996 0.749996
1 0.777661 0.524773
0 0.974777 1
0 1 1
0.246403 1 1
0.50071 1 0.882368
0.755032 1 0.65713
0.979873 0 1
1 0 1
1 0 0.921004
1 0 0.695766
1 0 0.470542
0.730617 0 1
0.984909 0 1
1 0.0213626 1
1 0.0490272 0.828138
1 0.0766918 0.602899
0.481331 0.273808 1
0.735622 0.301472 1
0.989944 0.329137 1
1 0.356786 0.960494
1 0.384451 0.735271
0.232044 0.581582 1
0.486336 0.609232 1
0.740658 0.636896 1
0.994965 0.664561 1
1 0.692226 0.867628
0 0.889342 1
0.237064 0.917006 1
0.491371 0.944671 1
0.745693 0.972335 1
1 1 1
