public/LUTS/Color Shift/ColorShift_16.cube
TITLE "Generated by Resolve"
LUT_3D_SIZE 9
0 0 0
0.0381933 0.0354314 0
0.0763867 0.0708629 0
0.11458 0.106294 0
0.152773 0.141741 0
0.190982 0.177172 0
0.229175 0.212604 0
0.267369 0.248035 0
0.305562 0.283467 0
0 0.116106 0.135332
0.00979629 0.151537 0.0622721
0.0480049 0.186969 0
0.0861982 0.2224 0
0.124392 0.257832 0
0.162585 0.293278 0
0.200778 0.32871 0
0.238987 0.364141 0
0.27718 0.399573 0
0 0.232227 0.270665
0 0.267659 0.19762
0.0196078 0.30309 0.124559
0.0578012 0.338521 0.0514992
0.0959945 0.373953 0
0.134203 0.4094 0
0.172396 0.444831 0
0.21059 0.480262 0
0.248783 0.515694 0
0 0.348348 0.406012
0 0.38378 0.332952
0 0.419211 0.259892
0.0294194 0.454643 0.186831
0.0676127 0.490074 0.113771
0.105806 0.525505 0.0407111
0.143999 0.560952 0
0.182193 0.596384 0
0.220401 0.631815 0
0 0.464454 0.541344
0 0.499886 0.468299
0 0.535332 0.395239
0.00102235 0.570764 0.322179
0.0392157 0.606195 0.249119
0.077409 0.641627 0.176059
0.115618 0.677058 0.102998
0.153811 0.712505 0.0299382
0.192004 0.747936 0
0 0.580575 0.676692
0 0.616007 0.603647
0 0.651438 0.530587
0 0.686885 0.457527
0.0108339 0.722316 0.384466
0.0490272 0.757748 0.311406
0.0872206 0.793179 0.238346
0.125414 0.828626 0.165286
0.163607 0.864057 0.0922255
0 0.696696 0.812039
0 0.732128 0.738979
0 0.767559 0.665919
0 0.803006 0.592859
0 0.838437 0.519799
0.0206302 0.873869 0.446738
0.0588235 0.9093 0.373678
0.0970321 0.944732 0.300618
0.135225 0.980179 0.227558
0 0.812818 0.947372
0 0.848249 0.874327
0 0.88368 0.801266
0 0.919112 0.728206
0 0.954559 0.655146
0 0.98999 0.582086
0.0304417 1 0.509026
0.0686351 1 0.435966
0.106828 1 0.362905
0 0.928939 1
0 0.96437 1
0 0.999802 0.936614
0 1 0.863554
0 1 0.790494
0 1 0.717433
0.00204471 1 0.644373
0.040238 1 0.571313
0.0784466 1 0.498253
0.11519 0 0.0627146
0.153368 0.00888075 0
0.191577 0.0443122 0
0.22977 0.0797589 0
0.267964 0.11519 0
0.306157 0.150622 0
0.34435 0.186053 0
0.382559 0.221485 0
0.420752 0.256931 0
0.0867933 0.0895552 0.198032
0.124987 0.124987 0.124987
0.16318 0.160418 0.0519265
0.201373 0.19585 0
0.239582 0.231296 0
0.277775 0.266728 0
0.315969 0.302159 0
0.354162 0.337591 0
0.392355 0.373037 0
0.0583963 0.205676 0.333379
0.0965896 0.241108 0.260334
0.134798 0.276539 0.187274
0.172992 0.311971 0.114214
0.211185 0.347402 0.0411536
0.249378 0.382849 0
0.287572 0.41828 0
0.32578 0.453712 0
0.363973 0.489143 0
0.0300145 0.321798 0.468727
0.0682078 0.357229 0.395666
0.106401 0.39266 0.322606
0.144594 0.428092 0.249546
0.182788 0.463523 0.176486
0.220996 0.49897 0.103426
0.25919 0.534401 0.0303655
0.297383 0.569833 0
0.335576 0.605264 0
0.00161746 0.437919 0.604059
0.0398108 0.47335 0.531014
0.0780041 0.508782 0.457954
0.116213 0.544213 0.384894
0.154406 0.579644 0.311833
0.192599 0.615076 0.238773
0.230793 0.650523 0.165713
0.268986 0.685954 0.0926528
0.307179 0.721386 0.0195926
0 0.554025 0.739406
0.011429 0.589456 0.666362
0.0496223 0.624903 0.593301
0.0878157 0.660334 0.520241
0.126009 0.695766 0.447181
0.164202 0.731197 0.374121
0.202396 0.766629 0.30106
0.240604 0.802075 0.228
0.278798 0.837507 0.15494
0 0.670146 0.874754
0 0.705577 0.801694
0.0212253 0.741009 0.728634
0.0594186 0.776455 0.655573
0.097612 0.811887 0.582513
0.135821 0.847318 0.509453
0.174014 0.88275 0.436393
0.212207 0.918196 0.363333
0.250401 0.953628 0.290272
0 0.786267 1
0 0.821698 0.937041
0 0.85713 0.863981
0.0310369 0.892576 0.790921
0.0692302 0.928008 0.717861
0.107424 0.963439 0.6448
0.145617 0.998871 0.57174
0.18381 1 0.49868
0.222019 1 0.42562
0 0.902388 1
0 0.937819 1
0 0.973251 0.999313
0.00263981 1 0.926253
0.0408331 1 0.853193
0.0790265 1 0.780133
0.117235 1 0.707073
0.155428 1 0.634012
0.193622 1 0.560952
0.230381 0 0.125429
0.268574 0 0.0523842
0.306767 0.0177615 0
0.344961 0.053193 0
0.383154 0.0886397 0
0.421363 0.124071 0
0.459556 0.159503 0
0.497749 0.194934 0
0.535943 0.230381 0
0.201999 0.0630045 0.260761
0.240177 0.098436 0.187701
0.278386 0.133867 0.114641
0.316579 0.169299 0.0415808
0.354772 0.204746 0
0.392966 0.240177 0
0.431159 0.275608 0
0.469368 0.31104 0
0.507561 0.346471 0
0.173602 0.179126 0.396094
0.211795 0.214557 0.323049
0.249989 0.249989 0.249989
0.288182 0.28542 0.176928
0.326375 0.320851 0.103868
0.364584 0.356298 0.030808
0.402777 0.39173 0
0.44097 0.427161 0
0.479164 0.462593 0
0.145205 0.295247 0.531441
0.183398 0.330678 0.458396
0.221592 0.36611 0.385336
0.2598 0.401541 0.312276
0.297993 0.436973 0.239216
0.336187 0.472404 0.166155
0.37438 0.507851 0.0930953
0.412573 0.543282 0.0200351
0.450782 0.578714 0
0.116823 0.411368 0.666789
0.155016 0.446784 0.593729
0.19321 0.482231 0.520668
0.231403 0.517662 0.447608
0.269596 0.553094 0.374548
0.30779 0.588525 0.301488
0.345998 0.623972 0.228428
0.384192 0.659403 0.155367
0.422385 0.694835 0.0823072
0.088426 0.527474 0.802121
0.126619 0.562905 0.729076
0.164813 0.598352 0.656016
0.203006 0.633783 0.582956
0.241215 0.669215 0.509896
0.279408 0.704646 0.436835
0.317601 0.740078 0.363775
0.355795 0.775525 0.290715
0.393988 0.810956 0.217655
0.060029 0.643595 0.937469
0.0982223 0.679026 0.864424
0.136431 0.714458 0.791363
0.174624 0.749905 0.718303
0.212818 0.785336 0.645243
0.251011 0.820768 0.572183
0.289204 0.856199 0.499123
0.327398 0.89163 0.426062
0.365606 0.927077 0.353002
0.0316472 0.759716 1
0.0698405 0.795148 0.999756
0.108034 0.830579 0.926696
0.146227 0.866011 0.853635
0.184421 0.901457 0.780575
0.222614 0.936889 0.707515
0.260822 0.97232 0.634455
0.299016 1 0.561395
0.337209 1 0.488334
0.00325017 0.875837 1
0.0414435 0.911269 1
0.0796368 0.9467 1
0.11783 0.982132 0.988983
0.156039 1 0.915923
0.194232 1 0.842863
0.232425 1 0.769802
0.270619 1 0.696742
0.308812 1 0.623682
0.345571 0 0.188159
0.383764 0 0.115099
0.421958 0 0.0420386
0.460166 0.0266423 0
0.49836 0.062089 0
0.536553 0.0975204 0
0.574746 0.132952 0
0.61294 0.168383 0
0.651148 0.203815 0
0.317189 0.0364538 0.323476
0.355383 0.0718853 0.250431
0.393576 0.107317 0.177371
0.431769 0.142748 0.104311
0.469963 0.178195 0.0312505
0.508171 0.213626 0
0.546365 0.249058 0
0.584558 0.284489 0
0.622751 0.319921 0
0.288792 0.152575 0.458824
0.326986 0.188006 0.385763
0.365179 0.223438 0.312703
0.403388 0.258869 0.239643
0.441581 0.294301 0.166583
0.479774 0.329747 0.0935225
0.517968 0.365179 0.0204623
0.556161 0.40061 0
0.594369 0.436042 0
0.26041 0.268696 0.594156
0.298604 0.304128 0.521111
0.336797 0.339559 0.448051
0.37499 0.37499 0.37499
0.413184 0.410422 0.30193
0.451377 0.445853 0.22887
0.489586 0.4813 0.15581
0.527779 0.516732 0.0827497
0.565972 0.552163 0.00968948
0.232013 0.384802 0.729503
0.270207 0.420233 0.656458
0.3084 0.45568 0.583398
0.346593 0.491112 0.510338
0.384802 0.526543 0.437278
0.422995 0.561975 0.364218
0.461189 0.597406 0.291157
0.499382 0.632853 0.218097
0.537575 0.668284 0.145037
0.203616 0.500923 0.864851
0.24181 0.536355 0.791791
0.280018 0.571786 0.71873
0.318212 0.607233 0.64567
0.356405 0.642664 0.57261
0.394598 0.678096 0.49955
0.432792 0.713527 0.42649
0.471 0.748974 0.353429
0.509194 0.784405 0.280369
0.175235 0.617044 1
0.213428 0.652476 0.927138
0.251621 0.687907 0.854078
0.289815 0.723354 0.781018
0.328008 0.758785 0.707958
0.366217 0.794217 0.634897
0.40441 0.829648 0.561837
0.442603 0.86508 0.488777
0.480797 0.900526 0.415717
0.146838 0.733166 1
0.185031 0.768597 1
0.223224 0.804028 0.989425
0.261433 0.83946 0.916365
0.299626 0.874907 0.843305
0.337819 0.910338 0.770245
0.376013 0.945769 0.697185
0.414206 0.981201 0.624125
0.452399 1 0.551064
0.118456 0.849287 1
0.156649 0.884718 1
0.194842 0.92015 1
0.233036 0.955581 1
0.271229 0.991012 0.978637
0.309422 1 0.905577
0.347616 1 0.832517
0.385824 1 0.759457
0.424018 1 0.686397
0.460777 0 0.250874
0.49897 0 0.177829
0.537163 0 0.104768
0.575357 9.15541e-05 0.0317082
0.61355 0.0355383 0
0.651743 0.0709697 0
0.689952 0.106401 0
0.728145 0.141833 0
0.766339 0.177264 0
0.43238 0.0099031 0.386206
0.470573 0.0453346 0.313146
0.508766 0.080766 0.240085
0.546975 0.116197 0.167025
0.585168 0.151629 0.0939651
0.623362 0.187076 0.0209049
0.661555 0.222507 0
0.699748 0.257939 0
0.737957 0.29337 0
0.403998 0.126024 0.521538
0.442191 0.161456 0.448493
0.480385 0.196887 0.375433
0.518578 0.232319 0.302373
0.556771 0.26775 0.229313
0.594965 0.303197 0.156252
0.633173 0.338628 0.0831922
0.671366 0.37406 0.010132
0.70956 0.409491 0
0.375601 0.242145 0.656886
0.413794 0.277577 0.583825
0.451987 0.313008 0.510765
0.490181 0.34844 0.437705
0.528389 0.383871 0.364645
0.566583 0.419303 0.291585
0.604776 0.454749 0.218524
0.642969 0.490181 0.145464
0.681163 0.525612 0.0724041
0.347219 0.358251 0.792218
0.385397 0.393683 0.719173
0.423606 0.429129 0.646113
0.461799 0.464561 0.573053
0.499992 0.499992 0.499992
0.538186 0.535424 0.426932
0.576379 0.570855 0.353872
0.614588 0.606302 0.280812
0.652781 0.641733 0.207752
0.318822 0.474372 0.927565
0.357015 0.509804 0.85452
0.395209 0.545235 0.78146
0.433402 0.580682 0.7084
0.471595 0.616114 0.63534
0.509804 0.651545 0.56228
0.547997 0.686976 0.489219
0.586191 0.722408 0.416159
0.624384 0.757855 0.343099
0.290425 0.590494 1
0.328618 0.625925 0.989853
0.366812 0.661357 0.916793
0.40502 0.696788 0.843732
0.443214 0.732235 0.770672
0.481407 0.767666 0.697612
0.5196 0.803098 0.624552
0.557794 0.838529 0.551492
0.596002 0.873976 0.478431
0.262043 0.706615 1
0.300237 0.742046 1
0.33843 0.777478 1
0.376623 0.812909 0.97908
0.414816 0.848356 0.90602
0.45301 0.883787 0.832959
0.491218 0.919219 0.759899
0.529412 0.95465 0.686839
0.567605 0.990082 0.613779
0.233646 0.822736 1
0.271839 0.858167 1
0.310033 0.893599 1
0.348226 0.92903 1
0.386435 0.964462 1
0.424628 0.999908 0.968307
0.462821 1 0.895247
0.501015 1 0.822187
0.539208 1 0.749126
0.575967 0 0.313588
0.61416 0 0.240543
0.652354 0 0.167483
0.690547 0 0.0944228
0.728756 0.0089723 0.0213626
0.766949 0.044419 0
0.805142 0.0798505 0
0.843336 0.115282 0
0.881529 0.150713 0
0.547585 0 0.44892
0.585779 0.0187839 0.37586
0.623972 0.0542153 0.3028
0.662165 0.0896468 0.22974
0.700359 0.125078 0.15668
0.738552 0.160525 0.0836194
0.776761 0.195956 0.0105592
0.814954 0.231388 0
0.853147 0.266819 0
0.519188 0.0994736 0.584268
0.557382 0.134905 0.511208
0.595575 0.170336 0.438148
0.633768 0.205768 0.365087
0.671977 0.241199 0.292027
0.71017 0.276631 0.218967
0.748363 0.312078 0.145907
0.786557 0.347509 0.0728466
0.82475 0.38294 0
0.490806 0.215595 0.7196
0.528984 0.251011 0.646555
0.567193 0.286458 0.573495
0.605386 0.321889 0.500435
0.64358 0.357321 0.427375
0.681773 0.392752 0.354314
0.719966 0.428199 0.281254
0.758175 0.46363 0.208194
0.796368 0.499062 0.135134
0.462409 0.331701 0.854948
0.500603 0.367132 0.781888
0.538796 0.402579 0.708827
0.576989 0.43801 0.635767
0.615183 0.473442 0.562707
0.653391 0.508873 0.489647
0.691585 0.544305 0.416587
0.729778 0.579751 0.343526
0.767971 0.615183 0.270466
0.434012 0.447822 0.99028
0.472206 0.483253 0.917235
0.510399 0.518685 0.844175
0.548608 0.554131 0.771115
0.586801 0.589563 0.698054
0.624994 0.624994 0.624994
0.663188 0.660426 0.551934
0.701381 0.695857 0.478874
0.73959 0.731304 0.405814
0.405631 0.563943 1
0.443824 0.599374 1
0.482017 0.634806 0.979522
0.520211 0.670237 0.906462
0.558404 0.705684 0.833402
0.596597 0.741115 0.760342
0.634806 0.776547 0.687282
0.672999 0.811978 0.614221
0.711192 0.84741 0.541161
0.377234 0.680064 1
0.415427 0.715496 1
0.45362 0.750927 1
0.491814 0.786358 1
0.530022 0.82179 0.968734
0.568215 0.857237 0.895674
0.606409 0.892668 0.822614
0.644602 0.9281 0.749554
0.682795 0.963531 0.676493
0.348837 0.796185 1
0.38703 0.831617 1
0.425238 0.867048 1
0.463432 0.90248 1
0.501625 0.937911 1
0.539818 0.973358 1
0.578012 1 0.957961
0.61622 1 0.884901
0.654414 1 0.811841
0.691173 0 0.376318
0.729366 0 0.303258
0.767559 0 0.230198
0.805753 0 0.157137
0.843946 0 0.0840772
0.882139 0.0178683 0.011017
0.920333 0.0532998 0
0.958541 0.0887312 0
0.996735 0.124163 0
0.662776 0 0.511635
0.700969 0 0.43859
0.739162 0.0276646 0.36553
0.777371 0.0630961 0.29247
0.815564 0.0985275 0.219409
0.853758 0.133974 0.146349
0.891951 0.169406 0.0732891
0.930144 0.204837 0.000228885
0.968338 0.240269 0
0.634394 0.0729229 0.646983
0.672587 0.108354 0.573922
0.710781 0.143786 0.500862
0.748974 0.179217 0.427802
0.787167 0.214649 0.354742
0.82536 0.25008 0.281682
0.863554 0.285527 0.208621
0.901762 0.320958 0.135561
0.939956 0.35639 0.062501
0.605997 0.189029 0.78233
0.64419 0.22446 0.70927
0.682383 0.259907 0.63621
0.720577 0.295338 0.563149
0.75877 0.33077 0.490089
0.796979 0.366201 0.417029
0.835172 0.401633 0.343969
0.873365 0.437079 0.270909
0.911559 0.472511 0.197848
0.5776 0.30515 0.917662
0.615793 0.340581 0.844617
0.653986 0.376013 0.771557
0.692195 0.41146 0.698497
0.730388 0.446891 0.625437
0.768582 0.482322 0.552377
0.806775 0.517754 0.479316
0.844968 0.553201 0.406256
0.883177 0.588632 0.333196
0.549218 0.421271 1
0.587411 0.456703 0.97995
0.625605 0.492134 0.906889
0.663798 0.527581 0.833829
0.701991 0.563012 0.760769
0.740185 0.598444 0.687709
0.778393 0.633875 0.614649
0.816587 0.669306 0.541588
0.85478 0.704753 0.468528
0.520821 0.537392 1
0.559014 0.572824 1
0.597208 0.608255 1
0.635401 0.643687 0.969177
0.673609 0.679133 0.896117
0.711803 0.714565 0.823056
0.749996 0.749996 0.749996
0.78819 0.785428 0.676936
0.826383 0.820859 0.603876
0.492439 0.653513 1
0.530617 0.688945 1
0.568826 0.724376 1
0.607019 0.759808 1
0.645212 0.795239 1
0.683406 0.830686 0.958404
0.721599 0.866117 0.885344
0.759808 0.901549 0.812284
0.798001 0.93698 0.739223
0.464042 0.769635 1
0.502235 0.805066 1
0.540429 0.840497 1
0.578622 0.875929 1
0.616815 0.91136 1
0.655024 0.946792 1
0.693217 0.982238 1
0.731411 1 0.947616
0.769604 1 0.874556
0.806363 0 0.439033
0.844556 0 0.365988
0.88275 0 0.292927
0.920943 0 0.219867
0.959152 0 0.146807
0.997345 0 0.0737469
1 0.0267491 0.000686656
1 0.0621805 0
1 0.097612 0
0.777981 0 0.574365
0.816175 0 0.501305
0.854368 0.00111391 0.428244
0.892561 0.0365454 0.355184
0.930755 0.0719768 0.282124
0.968948 0.107408 0.209064
1 0.142855 0.136004
1 0.178286 0.0629435
1 0.213718 0
0.749584 0.0463722 0.709697
0.787778 0.0817884 0.636652
0.825971 0.117235 0.563592
0.864164 0.152667 0.490532
0.902373 0.188098 0.417472
0.940566 0.223529 0.344411
0.978759 0.258976 0.271351
1 0.294408 0.198291
1 0.329839 0.125231
0.721187 0.162478 0.845045
0.75938 0.19791 0.771984
0.797589 0.233356 0.698924
0.835782 0.268788 0.625864
0.873976 0.304219 0.552804
0.912169 0.339651 0.479744
0.950362 0.375082 0.406683
0.988556 0.410529 0.333623
1 0.44596 0.260563
0.692805 0.278599 0.980392
0.730999 0.314031 0.907332
0.769192 0.349462 0.834272
0.807385 0.384909 0.761212
0.845579 0.42034 0.688151
0.883772 0.455772 0.615091
0.921981 0.491203 0.542031
0.960174 0.526635 0.468971
0.998367 0.562081 0.395911
0.664408 0.39472 1
0.702602 0.430152 1
0.740795 0.465583 0.969619
0.778988 0.501015 0.896559
0.817197 0.536461 0.823499
0.85539 0.571893 0.750439
0.893584 0.607324 0.677378
0.931777 0.642756 0.604318
0.96997 0.678203 0.531258
0.636027 0.510842 1
0.674205 0.546273 1
0.712413 0.581704 1
0.750607 0.617136 1
0.7888 0.652583 0.958831
0.826993 0.688014 0.885771
0.865187 0.723445 0.812711
0.903395 0.758877 0.739651
0.941588 0.794308 0.66659
0.60763 0.626963 1
0.645823 0.662394 1
0.684016 0.697826 1
0.72221 0.733257 1
0.760403 0.768688 1
0.798611 0.804135 1
0.836805 0.839567 0.948058
0.874998 0.874998 0.874998
0.913191 0.91043 0.801938
0.579232 0.743084 1
0.617426 0.778515 1
0.655619 0.813947 1
0.693828 0.849378 1
0.732021 0.88481 1
0.770214 0.920241 1
0.808408 0.955688 1
0.846601 0.991119 1
0.88481 1 0.937285
0.921553 0 0.501747
0.959747 0 0.428702
0.997955 0 0.355642
1 0 0.282582
1 0 0.209522
1 0 0.136461
1 0.000198367 0.0634012
1 0.0356298 0
1 0.0710613 0
0.893172 0 0.637079
0.931365 0 0.564034
0.969558 0 0.490974
1 0.00999466 0.417914
1 0.0454261 0.344854
1 0.0808576 0.271794
1 0.116304 0.198734
1 0.151736 0.125673
1 0.187167 0.0526131
0.864775 0.0198062 0.772427
0.902968 0.0552377 0.699367
0.941176 0.0906844 0.626307
0.97937 0.126116 0.553246
1 0.161547 0.480186
1 0.196979 0.407126
1 0.23241 0.334066
1 0.267857 0.261006
1 0.303288 0.187945
0.836393 0.135927 0.907759
0.874586 0.171359 0.834714
0.912779 0.20679 0.761654
0.950973 0.242237 0.688594
0.989166 0.277668 0.615534
1 0.3131 0.542473
1 0.348531 0.469413
1 0.383978 0.396353
1 0.419409 0.323293
0.807996 0.252049 1
0.846189 0.28748 0.970047
0.884382 0.322911 0.896986
0.922591 0.358358 0.823926
0.960784 0.39379 0.750866
0.998978 0.429221 0.677806
1 0.464652 0.604746
1 0.500084 0.531685
1 0.535531 0.458625
0.779614 0.36817 1
0.817807 0.403601 1
0.856001 0.439033 1
0.894194 0.474464 0.959274
0.932387 0.509911 0.886213
0.970581 0.545342 0.813153
1 0.580774 0.740093
1 0.616205 0.667033
1 0.651637 0.593973
0.751217 0.484291 1
0.78941 0.519722 1
0.827604 0.555154 1
0.865797 0.590585 1
0.90399 0.626017 1
0.942199 0.661463 0.948501
0.980392 0.696895 0.875441
1 0.732326 0.80238
1 0.767758 0.72932
0.72282 0.600412 1
0.761013 0.635843 1
0.799207 0.671275 1
0.837415 0.706706 1
0.875608 0.742138 1
0.913802 0.777584 1
0.951995 0.813016 1
0.990188 0.848447 0.937713
1 0.883879 0.864652
0.694438 0.716533 1
0.732631 0.751965 1
0.770825 0.787396 1
0.809018 0.822828 1
0.847211 0.858259 1
0.885405 0.89369 1
0.923613 0.929137 1
0.961807 0.964569 1
1 1 1
