public/LUTS/Color Shift/ColorShift_46.cube
TITLE "Generated by Resolve"
LUT_3D_SIZE 33
0 0 0
0 0.0112306 0.0202487
0 0.0224765 0.0404974
0 0.0337072 0.0607462
0 0.0449531 0.0809949
0 0.0561837 0.101259
0 0.0674296 0.121508
0 0.0786603 0.141756
0 0.0899062 0.162005
0 0.101137 0.182269
0 0.112383 0.202518
0 0.123613 0.222766
0 0.134844 0.24303
0 0.14609 0.263279
0 0.157321 0.283528
0 0.168566 0.303777
0 0.179797 0.324041
0 0.191043 0.344289
0 0.202274 0.364538
0 0.213519 0.384787
0 0.22475 0.405051
0 0.235996 0.425299
0 0.247227 0.445548
0 0.258473 0.465797
0 0.269703 0.486061
0 0.280949 0.50631
0 0.29218 0.526558
0 0.303426 0.546807
0 0.314656 0.567071
0 0.325902 0.58732
0 0.337133 0.607569
0 0.348379 0.627817
0 0.359609 0.648081
0.0496071 0.0117189 0.0360113
0.0347295 0.0229496 0.05626
0.0198367 0.0341955 0.0765087
0.00494392 0.0454261 0.0967575
0 0.056672 0.117006
0 0.0679026 0.13727
0 0.0791485 0.157519
0 0.0903792 0.177768
0 0.101625 0.198016
0 0.112856 0.21828
0 0.124102 0.238529
0 0.135332 0.258778
0 0.146578 0.279026
0 0.157809 0.29929
0 0.169055 0.319539
0 0.180285 0.339788
0 0.191531 0.360052
0 0.202762 0.380301
0 0.214008 0.400549
0 0.225238 0.420798
0 0.236484 0.441062
0 0.247715 0.461311
0 0.258961 0.481559
0 0.270191 0.501808
0 0.281437 0.522072
0 0.292668 0.542321
0 0.303914 0.56257
0 0.315145 0.582818
0 0.32639 0.603082
0 0.337621 0.623331
0 0.348852 0.64358
0 0.360098 0.663828
0 0.371328 0.684092
0.0992447 0.0234531 0.0720378
0.0843671 0.0346838 0.0922866
0.0694743 0.0459144 0.112535
0.0545815 0.0571603 0.132784
0.0396887 0.0683909 0.153048
0.0248112 0.0796368 0.173297
0.00991836 0.0908675 0.193545
0 0.102113 0.213794
0 0.113344 0.234058
0 0.12459 0.254307
0 0.135821 0.274556
0 0.147066 0.294804
0 0.158297 0.315068
0 0.169543 0.335317
0 0.180774 0.355566
0 0.19202 0.375814
0 0.20325 0.396078
0 0.214496 0.416327
0 0.225727 0.436576
0 0.236973 0.456825
0 0.248203 0.477089
0 0.259449 0.497337
0 0.27068 0.517586
0 0.281926 0.53785
0 0.293156 0.558099
0 0.304402 0.578347
0 0.315633 0.598596
0 0.326879 0.61886
0 0.338109 0.639109
0 0.349355 0.659358
0 0.360586 0.679606
0 0.371832 0.69987
0 0.383062 0.720119
0.148882 0.035172 0.108064
0.133989 0.0464179 0.128313
0.119097 0.0576486 0.148562
0.104219 0.0688945 0.168811
0.0893263 0.0801251 0.189075
0.0744335 0.091371 0.209323
0.0595407 0.102602 0.229572
0.0446632 0.113848 0.249821
0.0297704 0.125078 0.270085
0.0148775 0.136309 0.290333
0 0.147555 0.310582
0 0.158785 0.330831
0 0.170031 0.351095
0 0.181262 0.371344
0 0.192508 0.391592
0 0.203738 0.411856
0 0.214984 0.432105
0 0.226215 0.452354
0 0.237461 0.472602
0 0.248692 0.492866
0 0.259937 0.513115
0 0.271168 0.533364
0 0.282414 0.553613
0 0.293645 0.573877
0 0.304891 0.594125
0 0.316121 0.614374
0 0.327367 0.634623
0 0.338598 0.654887
0 0.349844 0.675135
0 0.361074 0.695384
0 0.37232 0.715633
0 0.383551 0.735897
0 0.394797 0.756146
0.198505 0.0469062 0.144091
0.183627 0.0581369 0.16434
0.168734 0.0693828 0.184588
0.153841 0.0806134 0.204852
0.138964 0.0918593 0.225101
0.124071 0.10309 0.24535
0.109178 0.114336 0.265599
0.0942855 0.125566 0.285863
0.079408 0.136812 0.306111
0.0645151 0.148043 0.32636
0.0496223 0.159289 0.346609
0.0347295 0.17052 0.366873
0.019852 0.181765 0.387121
0.00495918 0.192996 0.40737
0 0.204242 0.427619
0 0.215473 0.447883
0 0.226719 0.468132
0 0.237949 0.48838
0 0.24918 0.508629
0 0.260426 0.528893
0 0.271656 0.549142
0 0.282902 0.56939
0 0.294133 0.589654
0 0.305379 0.609903
0 0.316609 0.630152
0 0.327855 0.650401
0 0.339086 0.670665
0 0.350332 0.690913
0 0.361563 0.711162
0 0.372808 0.731411
0 0.384039 0.751675
0 0.395285 0.771923
0 0.406516 0.792172
0.248142 0.0586404 0.180133
0.233265 0.0698711 0.200366
0.218372 0.0811017 0.220615
0.203479 0.0923476 0.240879
0.188586 0.103578 0.261128
0.173709 0.114824 0.281376
0.158816 0.126055 0.301625
0.143923 0.137301 0.321889
0.12903 0.148531 0.342138
0.114153 0.159777 0.362387
0.0992599 0.171008 0.38265
0.0843671 0.182254 0.402899
0.0694743 0.193484 0.423148
0.0545968 0.20473 0.443397
0.039704 0.215961 0.463661
0.0248112 0.227207 0.483909
0.00991836 0.238437 0.504158
0 0.249683 0.524407
0 0.260914 0.544671
0 0.27216 0.56492
0 0.283391 0.585168
0 0.294636 0.605417
0 0.305867 0.625681
0 0.317113 0.64593
0 0.328344 0.666178
0 0.339574 0.686427
0 0.35082 0.706691
0 0.362051 0.72694
0 0.373297 0.747189
0 0.384527 0.767437
0 0.395773 0.787701
0 0.407004 0.80795
0 0.41825 0.828199
0.29778 0.0703593 0.216159
0.282887 0.08159 0.236393
0.268009 0.0928359 0.256657
0.253117 0.104067 0.276905
0.238224 0.115312 0.297154
0.223331 0.126543 0.317403
0.208453 0.137789 0.337667
0.193561 0.14902 0.357916
0.178668 0.160266 0.378164
0.163775 0.171496 0.398413
0.148898 0.182742 0.418677
0.134005 0.193973 0.438926
0.119112 0.205219 0.459174
0.104219 0.216449 0.479423
0.0893416 0.227695 0.499687
0.0744488 0.238926 0.519936
0.059556 0.250172 0.540185
0.0446632 0.261402 0.560433
0.0297856 0.272648 0.580697
0.0148928 0.283879 0.600946
0 0.295125 0.621195
0 0.306355 0.641459
0 0.317601 0.661707
0 0.328832 0.681956
0 0.340078 0.702205
0 0.351308 0.722469
0 0.362554 0.742718
0 0.373785 0.762966
0 0.385031 0.783215
0 0.396262 0.803479
0 0.407507 0.823728
0 0.418738 0.843976
0 0.429984 0.864225
0.347402 0.0820935 0.252186
0.332525 0.0933242 0.272419
0.317632 0.10457 0.292683
0.302754 0.115801 0.312932
0.287861 0.127031 0.333181
0.272969 0.138277 0.353429
0.258076 0.149508 0.373693
0.243198 0.160754 0.393942
0.228305 0.171984 0.414191
0.213413 0.18323 0.434455
0.19852 0.194461 0.454704
0.183642 0.205707 0.474952
0.16875 0.216938 0.495201
0.153857 0.228183 0.515465
0.138964 0.239414 0.535714
0.124086 0.25066 0.555962
0.109194 0.261891 0.576211
0.0943008 0.273136 0.596475
0.079408 0.284367 0.616724
0.0645304 0.295613 0.636973
0.0496376 0.306844 0.657221
0.0347448 0.31809 0.677485
0.019852 0.32932 0.697734
0.00495918 0.340566 0.717983
0 0.351797 0.738231
0 0.363043 0.758495
0 0.374273 0.778744
0 0.385519 0.798993
0 0.39675 0.819257
0 0.407996 0.839506
0 0.419226 0.859754
0 0.430472 0.880003
0 0.441703 0.900267
0.39704 0.0938277 0.288212
0.382162 0.105058 0.308461
0.367269 0.116289 0.32871
0.352377 0.127535 0.348959
0.337484 0.138766 0.369207
0.322606 0.150011 0.389471
0.307713 0.161242 0.40972
0.292821 0.172488 0.429969
0.277928 0.183719 0.450217
0.26305 0.194965 0.470481
0.248157 0.206195 0.49073
0.233265 0.217441 0.510979
0.218372 0.228672 0.531228
0.203494 0.239902 0.551492
0.188602 0.251148 0.57174
0.173709 0.262379 0.591989
0.158816 0.273625 0.612238
0.143938 0.284855 0.632502
0.129046 0.296101 0.65275
0.114153 0.307332 0.672999
0.0992599 0.318578 0.693263
0.0843824 0.329809 0.713512
0.0694896 0.341054 0.733761
0.0545968 0.352285 0.754009
0.039704 0.363531 0.774273
0.0248264 0.374762 0.794522
0.00993362 0.386007 0.814771
0 0.397238 0.835019
0 0.408484 0.855283
0 0.419715 0.875532
0 0.430961 0.895781
0 0.442191 0.91603
0 0.453437 0.936294
0.446677 0.105547 0.324239
0.431785 0.116777 0.344488
0.416907 0.128023 0.364736
0.402014 0.139254 0.384985
0.387121 0.1505 0.405234
0.372229 0.16173 0.425498
0.357351 0.172976 0.445747
0.342458 0.184207 0.465995
0.327565 0.195453 0.486259
0.312673 0.206683 0.506508
0.297795 0.217929 0.526757
0.282902 0.22916 0.547005
0.268009 0.240406 0.567269
0.253117 0.251637 0.587518
0.238239 0.262882 0.607767
0.223346 0.274113 0.628016
0.208453 0.285359 0.64828
0.193561 0.29659 0.668528
0.178683 0.307836 0.688777
0.16379 0.319066 0.709026
0.148898 0.330312 0.72929
0.134005 0.341543 0.749538
0.119127 0.352773 0.769787
0.104234 0.364019 0.790036
0.0893416 0.37525 0.8103
0.0744488 0.386496 0.830549
0.0595712 0.397726 0.850797
0.0446784 0.408972 0.871061
0.0297856 0.420203 0.89131
0.0148928 0.431449 0.911559
1.5259e-05 0.442679 0.931807
0 0.453925 0.952071
0 0.465156 0.97232
0.4963 0.117281 0.360265
0.481422 0.128511 0.380514
0.466529 0.139742 0.400763
0.451652 0.150988 0.421012
0.436759 0.162219 0.441276
0.421866 0.173465 0.461524
0.406973 0.184695 0.481773
0.392096 0.195941 0.502022
0.377203 0.207172 0.522286
0.36231 0.218418 0.542535
0.347417 0.229648 0.562783
0.33254 0.240894 0.583032
0.317647 0.252125 0.603296
0.302754 0.263371 0.623545
0.287861 0.274601 0.643793
0.272984 0.285847 0.664042
0.258091 0.297078 0.684306
0.243198 0.308324 0.704555
0.228305 0.319554 0.724804
0.213428 0.3308 0.745068
0.198535 0.342031 0.765316
0.183642 0.353277 0.785565
0.16875 0.364508 0.805814
0.153872 0.375753 0.826078
0.138979 0.386984 0.846326
0.124086 0.39823 0.866575
0.109194 0.409461 0.886824
0.094316 0.420706 0.907088
0.0794232 0.431937 0.927337
0.0645304 0.443183 0.947585
0.0496376 0.454414 0.967834
0.0347601 0.465644 0.988098
0.0198672 0.47689 1
0.545937 0.129 0.396292
0.53106 0.14023 0.416541
0.516167 0.151476 0.43679
0.501274 0.162707 0.457038
0.486397 0.173953 0.477302
0.471504 0.185183 0.497551
0.456611 0.196429 0.5178
0.441718 0.20766 0.538064
0.426841 0.218906 0.558312
0.411948 0.230137 0.578561
0.397055 0.241382 0.59881
0.382162 0.252613 0.619074
0.367285 0.263859 0.639323
0.352392 0.27509 0.659571
0.337499 0.286336 0.67982
0.322606 0.297566 0.700084
0.307729 0.308812 0.720333
0.292836 0.320043 0.740581
0.277943 0.331289 0.76083
0.26305 0.342519 0.781094
0.248173 0.353765 0.801343
0.23328 0.364996 0.821591
0.218387 0.376242 0.84184
0.203494 0.387472 0.862104
0.188617 0.398718 0.882353
0.173724 0.409949 0.902602
0.158831 0.421195 0.922866
0.143938 0.432425 0.943114
0.129061 0.443671 0.963363
0.114168 0.454902 0.983612
0.0992752 0.466148 1
0.0843824 0.477378 1
0.0695048 0.488624 1
0.595575 0.140734 0.432319
0.580697 0.151965 0.452567
0.565805 0.16321 0.472816
0.550912 0.174441 0.49308
0.536019 0.185687 0.513329
0.521141 0.196918 0.533578
0.506249 0.208164 0.553826
0.491356 0.219394 0.57409
0.476463 0.230625 0.594339
0.461585 0.241871 0.614588
0.446693 0.253101 0.634836
0.4318 0.264347 0.6551
0.416907 0.275578 0.675349
0.402029 0.286824 0.695598
0.387137 0.298054 0.715862
0.372244 0.3093 0.73611
0.357351 0.320531 0.756359
0.342473 0.331777 0.776608
0.327581 0.343008 0.796872
0.312688 0.354253 0.817121
0.297795 0.365484 0.837369
0.282902 0.37673 0.857618
0.268025 0.387961 0.877882
0.253132 0.399207 0.898131
0.238239 0.410437 0.918379
0.223346 0.421683 0.938628
0.208469 0.432914 0.958892
0.193576 0.44416 0.979141
0.178683 0.45539 0.99939
0.16379 0.466636 1
0.148913 0.477867 1
0.13402 0.489113 1
0.119127 0.500343 1
0.645197 0.152468 0.46836
0.63032 0.163699 0.488594
0.615427 0.174929 0.508843
0.600549 0.186175 0.529107
0.585657 0.197406 0.549355
0.570764 0.208652 0.569604
0.555871 0.219883 0.589868
0.540993 0.231128 0.610117
0.526101 0.242359 0.630365
0.511208 0.253605 0.650614
0.496315 0.264836 0.670878
0.481437 0.276081 0.691127
0.466545 0.287312 0.711376
0.451652 0.298558 0.731624
0.436759 0.309789 0.751888
0.421881 0.321035 0.772137
0.406989 0.332265 0.792386
0.392096 0.343496 0.812634
0.377203 0.354742 0.832898
0.362325 0.365972 0.853147
0.347433 0.377218 0.873396
0.33254 0.388449 0.893645
0.317647 0.399695 0.913909
0.30277 0.410925 0.934157
0.287877 0.422171 0.954406
0.272984 0.433402 0.97467
0.258091 0.444648 0.994919
0.243214 0.455879 1
0.228321 0.467124 1
0.213428 0.478355 1
0.198535 0.489601 1
0.183658 0.500832 1
0.168765 0.512078 1
0.694835 0.164187 0.504387
0.679957 0.175418 0.52462
0.665064 0.186664 0.544884
0.650172 0.197894 0.565133
0.635294 0.20914 0.585382
0.620401 0.220371 0.605631
0.605509 0.231617 0.625895
0.590616 0.242847 0.646143
0.575738 0.254093 0.666392
0.560845 0.265324 0.686641
0.545953 0.27657 0.706905
0.53106 0.2878 0.727153
0.516182 0.299046 0.747402
0.501289 0.310277 0.767666
0.486397 0.321523 0.787915
0.471504 0.332753 0.808164
0.456626 0.343999 0.828412
0.441733 0.35523 0.848676
0.426841 0.366476 0.868925
0.411948 0.377707 0.889174
0.39707 0.388952 0.909422
0.382177 0.400183 0.929686
0.367285 0.411429 0.949935
0.352392 0.42266 0.970184
0.337514 0.433906 0.990433
0.322621 0.445136 1
0.307729 0.456367 1
0.292836 0.467613 1
0.277958 0.478843 1
0.263066 0.490089 1
0.248173 0.50132 1
0.23328 0.512566 1
0.218402 0.523796 1
0.744472 0.175921 0.540413
0.729595 0.187152 0.560662
0.714702 0.198383 0.580911
0.699809 0.209628 0.60116
0.684916 0.220859 0.621408
0.670039 0.232105 0.641672
0.655146 0.243336 0.661921
0.640253 0.254582 0.68217
0.62536 0.265812 0.702419
0.610483 0.277058 0.722683
0.59559 0.288289 0.742931
0.580697 0.299535 0.76318
0.565805 0.310765 0.783429
0.550927 0.322011 0.803693
0.536034 0.333242 0.823941
0.521141 0.344488 0.84419
0.506249 0.355718 0.864439
0.491371 0.366964 0.884703
0.476478 0.378195 0.904952
0.461585 0.389441 0.9252
0.446693 0.400671 0.945449
0.431815 0.411917 0.965713
0.416922 0.423148 0.985962
0.402029 0.434394 1
0.387137 0.445624 1
0.372259 0.45687 1
0.357366 0.468101 1
0.342473 0.479347 1
0.327581 0.490578 1
0.312703 0.501823 1
0.29781 0.513054 1
0.282918 0.5243 1
0.268025 0.535531 1
0.79411 0.18764 0.57644
0.779217 0.198886 0.596689
0.76434 0.210117 0.616938
0.749447 0.221363 0.637186
0.734554 0.232593 0.657435
0.719661 0.243824 0.677699
0.704784 0.25507 0.697948
0.689891 0.2663 0.718196
0.674998 0.277546 0.738445
0.660105 0.288777 0.758709
0.645228 0.300023 0.778958
0.630335 0.311254 0.799207
0.615442 0.322499 0.819471
0.600549 0.33373 0.839719
0.585672 0.344976 0.859968
0.570779 0.356207 0.880217
0.555886 0.367453 0.900481
0.540993 0.378683 0.920729
0.526116 0.389929 0.940978
0.511223 0.40116 0.961227
0.49633 0.412406 0.981491
0.481437 0.423636 1
0.46656 0.434882 1
0.451667 0.446113 1
0.436774 0.457359 1
0.421881 0.468589 1
0.407004 0.479835 1
0.392111 0.491066 1
0.377218 0.502312 1
0.362325 0.513542 1
0.347448 0.524788 1
0.332555 0.536019 1
0.317662 0.547265 1
0.843732 0.199374 0.612467
0.828855 0.210605 0.632715
0.813962 0.221851 0.652964
0.799084 0.233082 0.673213
0.784192 0.244327 0.693477
0.769299 0.255558 0.713726
0.754406 0.266804 0.733974
0.739528 0.278035 0.754223
0.724636 0.289281 0.774487
0.709743 0.300511 0.794736
0.69485 0.311757 0.814984
0.679973 0.322988 0.835233
0.66508 0.334234 0.855497
0.650187 0.345464 0.875746
0.635294 0.356695 0.895994
0.620401 0.367941 0.916243
0.605524 0.379171 0.936507
0.590631 0.390417 0.956756
0.575738 0.401648 0.977005
0.560845 0.412894 0.997269
0.545968 0.424125 1
0.531075 0.43537 1
0.516182 0.446601 1
0.501289 0.457847 1
0.486412 0.469078 1
0.471519 0.480323 1
0.456626 0.491554 1
0.441733 0.5028 1
0.426856 0.514031 1
0.411963 0.525277 1
0.39707 0.536507 1
0.382177 0.547753 1
0.3673 0.558984 1
0.89337 0.211109 0.648493
0.878492 0.222339 0.668742
0.8636 0.23357 0.688991
0.848707 0.244816 0.709239
0.833814 0.256046 0.729503
0.818936 0.267292 0.749752
0.804044 0.278523 0.770001
0.789151 0.289769 0.790249
0.774258 0.300999 0.810513
0.75938 0.312245 0.830762
0.744488 0.323476 0.851011
0.729595 0.334722 0.871275
0.714702 0.345953 0.891524
0.699825 0.357198 0.911772
0.684932 0.368429 0.932021
0.670039 0.379675 0.952285
0.655146 0.390906 0.972534
0.640269 0.402152 0.992782
0.625376 0.413382 1
0.610483 0.424628 1
0.59559 0.435859 1
0.580713 0.447105 1
0.56582 0.458335 1
0.550927 0.469566 1
0.536034 0.480812 1
0.521157 0.492042 1
0.506264 0.503288 1
0.491371 0.514519 1
0.476478 0.525765 1
0.461601 0.536995 1
0.446708 0.548241 1
0.431815 0.559472 1
0.416922 0.570718 1
0.943008 0.222827 0.68452
0.928115 0.234058 0.704768
0.913237 0.245304 0.725017
0.898344 0.256535 0.745281
0.883452 0.267781 0.76553
0.868559 0.279011 0.785779
0.853681 0.290257 0.806027
0.838788 0.301488 0.826291
0.823896 0.312734 0.84654
0.809003 0.323964 0.866789
0.794125 0.33521 0.887037
0.779232 0.346441 0.907301
0.76434 0.357687 0.92755
0.749447 0.368917 0.947799
0.734569 0.380163 0.968048
0.719676 0.391394 0.988312
0.704784 0.40264 1
0.689891 0.41387 1
0.675013 0.425116 1
0.660121 0.436347 1
0.645228 0.447593 1
0.630335 0.458824 1
0.615457 0.470069 1
0.600565 0.4813 1
0.585672 0.492546 1
0.570779 0.503777 1
0.555901 0.515023 1
0.541009 0.526253 1
0.526116 0.537499 1
0.511223 0.54873 1
0.496345 0.55996 1
0.481453 0.571206 1
0.46656 0.582437 1
0.99263 0.234562 0.720562
0.977752 0.245792 0.740795
0.96286 0.257023 0.761044
0.947982 0.268269 0.781308
0.933089 0.2795 0.801556
0.918196 0.290745 0.821805
0.903304 0.301976 0.842054
0.888426 0.313222 0.862318
0.873533 0.324453 0.882567
0.85864 0.335698 0.902815
0.843748 0.346929 0.923079
0.82887 0.358175 0.943328
0.813977 0.369406 0.963577
0.799084 0.380652 0.983825
0.784192 0.391882 1
0.769314 0.403128 1
0.754421 0.414359 1
0.739528 0.425605 1
0.724636 0.436835 1
0.709758 0.448081 1
0.694865 0.459312 1
0.679973 0.470558 1
0.66508 0.481788 1
0.650202 0.493034 1
0.635309 0.504265 1
0.620417 0.515511 1
0.605524 0.526741 1
0.590646 0.537987 1
0.575753 0.549218 1
0.560861 0.560464 1
0.545968 0.571694 1
0.53109 0.58294 1
0.516197 0.594171 1
1 0.246281 0.756588
1 0.257527 0.776822
1 0.268757 0.797086
0.997604 0.280003 0.817334
0.982727 0.291234 0.837583
0.967834 0.30248 0.857832
0.952941 0.31371 0.878096
0.938048 0.324956 0.898344
0.923171 0.336187 0.918593
0.908278 0.347417 0.938842
0.893385 0.358663 0.959106
0.878492 0.369894 0.979355
0.863615 0.38114 0.999603
0.848722 0.39237 1
0.833829 0.403616 1
0.818936 0.414847 1
0.804059 0.426093 1
0.789166 0.437324 1
0.774273 0.448569 1
0.75938 0.4598 1
0.744503 0.471046 1
0.72961 0.482277 1
0.714717 0.493523 1
0.699825 0.504753 1
0.684947 0.515999 1
0.670054 0.52723 1
0.655161 0.538476 1
0.640269 0.549706 1
0.625391 0.560952 1
0.610498 0.572183 1
0.595605 0.583429 1
0.580713 0.594659 1
0.565835 0.605905 1
1 0.258015 0.792615
1 0.269245 0.812848
1 0.280491 0.833112
1 0.291722 0.853361
1 0.302968 0.87361
1 0.314199 0.893858
1 0.325444 0.914122
0.987686 0.336675 0.934371
0.972793 0.347921 0.95462
0.957916 0.359152 0.974884
0.943023 0.370398 0.995132
0.92813 0.381628 1
0.913237 0.392874 1
0.898344 0.404105 1
0.883467 0.415351 1
0.868574 0.426581 1
0.853681 0.437827 1
0.838788 0.449058 1
0.823911 0.460288 1
0.809018 0.471534 1
0.794125 0.482765 1
0.779232 0.494011 1
0.764355 0.505241 1
0.749462 0.516487 1
0.734569 0.527718 1
0.719676 0.538964 1
0.704799 0.550195 1
0.689906 0.56144 1
0.675013 0.572671 1
0.660121 0.583917 1
0.645243 0.595148 1
0.63035 0.606394 1
0.615457 0.617624 1
1 0.269749 0.828641
1 0.28098 0.84889
1 0.29221 0.869139
1 0.303456 0.889387
1 0.314687 0.909636
1 0.325933 0.9299
1 0.337163 0.950149
1 0.348409 0.970397
1 0.35964 0.990646
1 0.370886 1
0.992645 0.382116 1
0.977768 0.393362 1
0.962875 0.404593 1
0.947982 0.415839 1
0.933089 0.42707 1
0.918212 0.438315 1
0.903319 0.449546 1
0.888426 0.460792 1
0.873533 0.472023 1
0.858656 0.483268 1
0.843763 0.494499 1
0.82887 0.505745 1
0.813977 0.516976 1
0.7991 0.528222 1
0.784207 0.539452 1
0.769314 0.550698 1
0.754421 0.561929 1
0.739544 0.573159 1
0.724651 0.584405 1
0.709758 0.595636 1
0.694865 0.606882 1
0.679988 0.618112 1
0.665095 0.629358 1
1 0.281468 0.864668
1 0.292699 0.884916
1 0.303944 0.905165
1 0.315175 0.925414
1 0.326421 0.945678
1 0.337652 0.965927
1 0.348898 0.986175
1 0.360128 1
1 0.371374 1
1 0.382605 1
1 0.393851 1
1 0.405081 1
1 0.416327 1
0.99762 0.427558 1
0.982727 0.438804 1
0.967834 0.450034 1
0.952956 0.46128 1
0.938064 0.472511 1
0.923171 0.483757 1
0.908278 0.494987 1
0.8934 0.506233 1
0.878508 0.517464 1
0.863615 0.52871 1
0.848722 0.53994 1
0.833844 0.551186 1
0.818952 0.562417 1
0.804059 0.573663 1
0.789166 0.584894 1
0.774289 0.596139 1
0.759396 0.60737 1
0.744503 0.618616 1
0.72961 0.629847 1
0.714733 0.641093 1
1 0.293202 0.900694
1 0.304433 0.920943
1 0.315679 0.941192
1 0.326909 0.96144
1 0.338155 0.981704
1 0.349386 1
1 0.360616 1
1 0.371862 1
1 0.383093 1
1 0.394339 1
1 0.40557 1
1 0.416815 1
1 0.428046 1
1 0.439292 1
1 0.450523 1
1 0.461769 1
1 0.472999 1
0.987701 0.484245 1
0.972808 0.495476 1
0.957916 0.506722 1
0.943023 0.517952 1
0.928145 0.529198 1
0.913252 0.540429 1
0.89836 0.551675 1
0.883467 0.562905 1
0.868589 0.574151 1
0.853697 0.585382 1
0.838804 0.596628 1
0.823911 0.607858 1
0.809033 0.619104 1
0.794141 0.630335 1
0.779248 0.641581 1
0.764355 0.652811 1
1 0.304936 0.936721
1 0.316167 0.95697
1 0.327398 0.977218
1 0.338643 0.997482
1 0.349874 1
1 0.36112 1
1 0.372351 1
1 0.383597 1
1 0.394827 1
1 0.406073 1
1 0.417304 1
1 0.42855 1
1 0.43978 1
1 0.451011 1
1 0.462257 1
1 0.473487 1
1 0.484733 1
1 0.495964 1
1 0.50721 1
1 0.518441 1
0.99266 0.529686 1
0.977768 0.540917 1
0.96289 0.552163 1
0.947997 0.563394 1
0.933104 0.574639 1
0.918212 0.58587 1
0.903334 0.597116 1
0.888441 0.608347 1
0.873549 0.619593 1
0.858656 0.630823 1
0.843778 0.642069 1
0.828885 0.6533 1
0.813993 0.664546 1
1 0.316655 0.972763
1 0.327886 0.992996
1 0.339132 1
1 0.350362 1
1 0.361608 1
1 0.372839 1
1 0.384085 1
1 0.395315 1
1 0.406561 1
