public/LUTS/Color Shift/ColorShift_86.cube
TITLE "Generated by Resolve"
LUT_3D_SIZE 5
0 0 0
0.141741 0 0.380301
0.283497 0 0.760616
0.425254 0 1
0.566995 0 1
0.48098 0.120836 0
0.622721 0.104402 0.262577
0.764477 0.0879835 0.642893
0.906233 0.0715648 1
1 0.0551461 1
0.96199 0.241657 0
1 0.225238 0.144839
1 0.20882 0.52517
1 0.192401 0.905486
1 0.175982 1
1 0.362493 0
1 0.346075 0.0271153
1 0.329656 0.407431
1 0.313237 0.787762
1 0.296818 1
1 0.48333 0
1 0.466911 0
1 0.450492 0.289708
1 0.434073 0.670024
1 0.417655 1
0 0.145586 0
0 0.129152 0.367712
0 0.112734 0.748028
0.0525216 0.0963149 1
0.194263 0.0798962 1
0.108248 0.266407 0
0.249989 0.249989 0.249989
0.391745 0.23357 0.630304
0.533486 0.217151 1
0.675242 0.200717 1
0.589258 0.387243 0
0.730999 0.370825 0.13225
0.872755 0.354406 0.512581
1 0.337987 0.892897
1 0.321553 1
1 0.50808 0
1 0.491661 0.0145266
1 0.475242 0.394842
1 0.458824 0.775174
1 0.44239 1
1 0.628916 0
1 0.612497 0
1 0.596078 0.277119
1 0.57966 0.657435
1 0.563226 1
0 0.291173 0
0 0.274754 0.355123
0 0.258335 0.735454
0 0.241901 1
0 0.225483 1
0 0.411994 0
0 0.395575 0.2374
0.0189822 0.379156 0.617731
0.160739 0.362737 0.998047
0.302495 0.346319 1
0.216495 0.53283 0
0.358236 0.516411 0.119677
0.499992 0.499992 0.499992
0.641749 0.483574 0.880308
0.78349 0.467155 1
0.697505 0.653666 0
0.839246 0.637247 0.0019379
0.981003 0.620829 0.382254
1 0.60441 0.762585
1 0.587991 1
1 0.774502 0
1 0.758083 0
1 0.741665 0.26453
1 0.725246 0.644846
1 0.708827 1
0 0.436759 0
0 0.42034 0.342535
0 0.403922 0.722866
0 0.387503 1
0 0.371069 1
0 0.557595 0
0 0.541161 0.224811
0 0.524742 0.605142
0 0.508324 0.985458
0 0.491905 1
0 0.678431 0
0 0.661997 0.107088
0.12723 0.645579 0.487404
0.268986 0.62916 0.867735
0.410742 0.612741 1
0.324742 0.799268 0
0.466499 0.782834 0
0.60824 0.766415 0.36968
0.749996 0.749996 0.749996
0.891752 0.733577 1
0.805753 0.920104 0
0.947494 0.90367 0
1 0.887251 0.251942
1 0.870832 0.632258
1 0.854414 1
0 0.582345 0
0 0.565927 0.329946
0 0.549508 0.710277
0 0.533089 1
0 0.51667 1
0 0.703182 0
0 0.686763 0.212222
0 0.670329 0.592554
0 0.65391 0.972869
0 0.637491 1
0 0.824018 0
0 0.807599 0.0944991
0 0.791165 0.474815
0 0.774746 0.855146
0.0379797 0.758328 1
0 0.944854 0
0.0937362 0.928435 0
0.235492 0.912001 0.357092
0.377234 0.895582 0.737408
0.51899 0.879164 1
0.433005 1 0
0.574746 1 0
0.716503 1 0.239353
0.858244 1 0.619684
1 1 1
