public/LUTS/Color Shift/ColorShift_96.cube
TITLE "Generated by Resolve"
LUT_3D_SIZE 33
0 0 0
0 0.0145113 0.0298161
0 0.0290074 0.0596628
0 0.0435187 0.0894942
0 0.0580301 0.119326
0 0.0725414 0.149157
0 0.0870527 0.179004
0 0.101564 0.208835
0 0.116075 0.238666
0 0.130587 0.268513
0 0.145098 0.298344
0 0.159609 0.328176
0 0.174121 0.358022
0 0.188632 0.387854
0 0.203143 0.417685
0 0.217655 0.447517
0 0.232166 0.477363
0 0.246677 0.507195
0 0.261189 0.537026
0 0.2757 0.566873
0 0.290211 0.596704
0 0.304723 0.626535
0 0.319234 0.656367
0 0.333745 0.686213
0 0.348257 0.716045
0 0.362768 0.745876
0 0.377279 0.775723
0 0.391791 0.805554
0 0.406302 0.835386
0 0.420813 0.865217
0 0.435325 0.895064
0 0.449836 0.924895
0 0.464347 0.954726
0.0690318 0.00462348 0.0459144
0.0391394 0.0191196 0.0757305
0.00923171 0.0336309 0.105577
0 0.0481422 0.135409
0 0.0626535 0.16524
0 0.0771649 0.195071
0 0.0916762 0.224918
0 0.106188 0.254749
0 0.120699 0.284581
0 0.13521 0.314427
0 0.149722 0.344259
0 0.164233 0.37409
0 0.178744 0.403922
0 0.193256 0.433768
0 0.207767 0.4636
0 0.222278 0.493431
0 0.236789 0.523278
0 0.251301 0.553109
0 0.265812 0.58294
0 0.280324 0.612787
0 0.294835 0.642618
0 0.309346 0.67245
0 0.323857 0.702281
0 0.338369 0.732128
0 0.35288 0.761959
0 0.367391 0.791791
0 0.381903 0.821637
0 0.396414 0.851469
0 0.410925 0.8813
0 0.425437 0.911131
0 0.439948 0.940978
0 0.454459 0.97081
0 0.468971 1
0.138094 0.00924697 0.0918441
0.108202 0.0237583 0.121675
0.078294 0.0382696 0.151507
0.0483864 0.052781 0.181338
0.0184939 0.0672923 0.211185
0 0.0817884 0.241016
0 0.0962997 0.270848
0 0.110811 0.300679
0 0.125322 0.330526
0 0.139834 0.360357
0 0.154345 0.390188
0 0.168856 0.420035
0 0.183368 0.449866
0 0.197879 0.479698
0 0.21239 0.509529
0 0.226902 0.539376
0 0.241413 0.569207
0 0.255924 0.599039
0 0.270436 0.628885
0 0.284947 0.658717
0 0.299458 0.688548
0 0.31397 0.718379
0 0.328481 0.748226
0 0.342992 0.778058
0 0.357504 0.807889
0 0.372015 0.837736
0 0.386526 0.867567
0 0.401038 0.897398
0 0.415549 0.927245
0 0.43006 0.957076
0 0.444572 0.986908
0 0.459083 1
0 0.473594 1
0.207156 0.0138705 0.137789
0.177264 0.0283818 0.167605
0.147356 0.0428931 0.197436
0.117449 0.0574044 0.227283
0.0875563 0.0719158 0.257115
0.0576486 0.0864271 0.286946
0.0277409 0.100938 0.316793
0 0.11545 0.346624
0 0.129961 0.376455
0 0.144457 0.406287
0 0.158968 0.436133
0 0.17348 0.465965
0 0.187991 0.495796
0 0.202502 0.525643
0 0.217014 0.555474
0 0.231525 0.585306
0 0.246036 0.615137
0 0.260548 0.644984
0 0.275059 0.674815
0 0.28957 0.704646
0 0.304082 0.734493
0 0.318593 0.764324
0 0.333104 0.794156
0 0.347616 0.823987
0 0.362127 0.853834
0 0.376638 0.883665
0 0.39115 0.913497
0 0.405661 0.943343
0 0.420172 0.973175
0 0.434684 1
0 0.449195 1
0 0.463706 1
0 0.478218 1
0.276219 0.0184939 0.183719
0.246326 0.0330053 0.21355
0.216419 0.0475166 0.243381
0.186526 0.0620279 0.273213
0.156619 0.0765393 0.303044
0.126711 0.0910506 0.332891
0.0968032 0.105562 0.362722
0.0668956 0.120073 0.392554
0.0369879 0.134585 0.4224
0.00709545 0.149096 0.452232
0 0.163607 0.482063
0 0.178119 0.511894
0 0.19263 0.541741
0 0.207141 0.571572
0 0.221637 0.601404
0 0.236149 0.631251
0 0.25066 0.661082
0 0.265171 0.690913
0 0.279683 0.720745
0 0.294194 0.750591
0 0.308705 0.780423
0 0.323217 0.810254
0 0.337728 0.840101
0 0.352239 0.869932
0 0.366751 0.899763
0 0.381262 0.929595
0 0.395773 0.959442
0 0.410285 0.989273
0 0.424796 1
0 0.439307 1
0 0.453819 1
0 0.46833 1
0 0.482841 1
0.345281 0.0231174 0.229664
0.315389 0.0376287 0.25948
0.285481 0.0521401 0.289311
0.255589 0.0666514 0.319158
0.225681 0.0811627 0.348989
0.195773 0.0956741 0.37882
0.165866 0.110185 0.408652
0.135958 0.124697 0.438499
0.10605 0.139208 0.46833
0.0761578 0.153719 0.498161
0.0462501 0.168231 0.528008
0.0163424 0.182742 0.557839
0 0.197253 0.587671
0 0.211765 0.617502
0 0.226276 0.647349
0 0.240787 0.67718
0 0.255299 0.707012
0 0.26981 0.736858
0 0.284306 0.76669
0 0.298817 0.796521
0 0.313329 0.826352
0 0.32784 0.856199
0 0.342351 0.88603
0 0.356863 0.915862
0 0.371374 0.945708
0 0.385885 0.97554
0 0.400397 1
0 0.414908 1
0 0.429419 1
0 0.443931 1
0 0.458442 1
0 0.472953 1
0 0.487465 1
0.414343 0.0277562 0.275593
0.384451 0.0422522 0.305409
0.354543 0.0567636 0.335256
0.324651 0.0712749 0.365087
0.294743 0.0857862 0.394919
0.264836 0.100298 0.42475
0.234928 0.114809 0.454597
0.20502 0.12932 0.484428
0.175113 0.143832 0.51426
0.14522 0.158343 0.544106
0.115312 0.172854 0.573938
0.0854047 0.187366 0.603769
0.0554971 0.201877 0.633616
0.0255894 0.216388 0.663447
0 0.2309 0.693278
0 0.245411 0.72311
0 0.259922 0.752956
0 0.274434 0.782788
0 0.288945 0.812619
0 0.303456 0.842466
0 0.317968 0.872297
0 0.332479 0.902129
0 0.346975 0.93196
0 0.361486 0.961807
0 0.375998 0.991638
0 0.390509 1
0 0.40502 1
0 0.419532 1
0 0.434043 1
0 0.448554 1
0 0.463066 1
0 0.477577 1
0 0.492088 1
0.483406 0.0323796 0.321523
0.453513 0.0468757 0.351354
0.423621 0.061387 0.381186
0.393713 0.0758984 0.411017
0.363806 0.0904097 0.440864
0.333898 0.104921 0.470695
0.30399 0.119432 0.500526
0.274083 0.133944 0.530358
0.24419 0.148455 0.560204
0.214282 0.162966 0.590036
0.184375 0.177478 0.619867
0.154467 0.191989 0.649714
0.124559 0.2065 0.679545
0.0946517 0.221012 0.709377
0.0647593 0.235523 0.739223
0.0348516 0.250034 0.769055
0.00494392 0.264546 0.798886
0 0.279057 0.828717
0 0.293568 0.858564
0 0.30808 0.888395
0 0.322591 0.918227
0 0.337102 0.948074
0 0.351614 0.977905
0 0.366125 1
0 0.380636 1
0 0.395148 1
0 0.409644 1
0 0.424155 1
0 0.438666 1
0 0.453178 1
0 0.467689 1
0 0.4822 1
0 0.496712 1
0.552468 0.0370031 0.367468
0.522576 0.0514992 0.397284
0.492683 0.0660105 0.427115
0.462776 0.0805219 0.456962
0.432868 0.0950332 0.486793
0.40296 0.109545 0.516625
0.373053 0.124056 0.546471
0.343145 0.138567 0.576303
0.313252 0.153079 0.606134
0.283345 0.16759 0.635966
0.253437 0.182101 0.665812
0.223529 0.196612 0.695644
0.193622 0.211124 0.725475
0.163714 0.225635 0.755322
0.133822 0.240146 0.785153
0.103914 0.254658 0.814984
0.0740063 0.269169 0.844831
0.0440986 0.28368 0.874662
0.0141909 0.298192 0.904494
0 0.312703 0.934325
0 0.327214 0.964172
0 0.341726 0.994003
0 0.356237 1
0 0.370748 1
0 0.38526 1
0 0.399771 1
0 0.414282 1
0 0.428794 1
0 0.443305 1
0 0.457816 1
0 0.472328 1
0 0.486824 1
0 0.501335 1
0.62153 0.0416266 0.413397
0.591653 0.0561227 0.443229
0.561746 0.070634 0.47306
0.531838 0.0851453 0.502892
0.50193 0.0996567 0.532723
0.472023 0.114168 0.56257
0.442115 0.128679 0.592401
0.412222 0.143191 0.622232
0.382315 0.157702 0.652079
0.352407 0.172213 0.68191
0.322499 0.186725 0.711742
0.292592 0.201236 0.741573
0.262684 0.215747 0.77142
0.232792 0.230259 0.801251
0.202884 0.24477 0.831083
0.172976 0.259281 0.860929
0.143069 0.273793 0.890761
0.113161 0.288304 0.920592
0.0832532 0.302815 0.950439
0.0533608 0.317327 0.98027
0.0234531 0.331838 1
0 0.346349 1
0 0.360861 1
0 0.375372 1
0 0.389883 1
0 0.404395 1
0 0.418906 1
0 0.433417 1
0 0.447929 1
0 0.46244 1
0 0.476951 1
0 0.491463 1
0 0.505974 1
0.690593 0.0462501 0.459342
0.660716 0.0607614 0.489158
0.630808 0.0752728 0.51899
0.6009 0.0897688 0.548837
0.570993 0.10428 0.578668
0.541085 0.118791 0.608499
0.511177 0.133303 0.638331
0.481285 0.147814 0.668177
0.451377 0.162325 0.698009
0.421469 0.176837 0.72784
0.391562 0.191348 0.757687
0.361654 0.205859 0.787518
0.331746 0.220371 0.817349
0.301854 0.234882 0.847181
0.271946 0.249393 0.877028
0.242039 0.263905 0.906859
0.212131 0.278416 0.93669
0.182223 0.292927 0.966537
0.152316 0.307439 0.996368
0.122423 0.32195 1
0.0925154 0.336461 1
0.0626078 0.350973 1
0.0327001 0.365484 1
0.0027924 0.379995 1
0 0.394507 1
0 0.409018 1
0 0.423529 1
0 0.438041 1
0 0.452552 1
0 0.467063 1
0 0.481575 1
0 0.496086 1
0 0.510597 1
0.75967 0.0508736 0.505272
0.729778 0.0653849 0.535088
0.69987 0.0798962 0.564935
0.669963 0.0944076 0.594766
0.640055 0.108919 0.624598
0.610147 0.12343 0.654444
0.58024 0.137942 0.684276
0.550347 0.152453 0.714107
0.520439 0.166949 0.743938
0.490532 0.18146 0.773785
0.460624 0.195972 0.803616
0.430716 0.210483 0.833448
0.400809 0.224994 0.863294
0.370916 0.239506 0.893126
0.341009 0.254017 0.922957
0.311101 0.268528 0.952789
0.281193 0.28304 0.982635
0.251286 0.297551 1
0.221378 0.312062 1
0.191485 0.326574 1
0.161578 0.341085 1
0.13167 0.355596 1
0.101762 0.370108 1
0.0718547 0.384619 1
0.0419471 0.39913 1
0.0120546 0.413642 1
0 0.428153 1
0 0.442664 1
0 0.457176 1
0 0.471687 1
0 0.486198 1
0 0.50071 1
0 0.515221 1
0.828733 0.0554971 0.551202
0.79884 0.0700084 0.581033
0.768933 0.0845197 0.610864
0.739025 0.0990311 0.640696
0.709117 0.113542 0.670542
0.67921 0.128054 0.700374
0.649317 0.142565 0.730205
0.61941 0.157076 0.760052
0.589502 0.171588 0.789883
0.559594 0.186099 0.819715
0.529686 0.20061 0.849546
0.499779 0.215122 0.879393
0.469886 0.229618 0.909224
0.439979 0.244129 0.939055
0.410071 0.25864 0.968902
0.380163 0.273152 0.998734
0.350256 0.287663 1
0.320348 0.302174 1
0.290455 0.316686 1
0.260548 0.331197 1
0.23064 0.345708 1
0.200732 0.36022 1
0.170825 0.374731 1
0.140917 0.389242 1
0.111025 0.403754 1
0.081117 0.418265 1
0.0512093 0.432776 1
0.0213016 0.447288 1
0 0.461799 1
0 0.47631 1
0 0.490822 1
0 0.505333 1
0 0.519844 1
0.897795 0.0601205 0.597147
0.867903 0.0746319 0.626963
0.837995 0.0891432 0.656809
0.808087 0.103655 0.686641
0.77818 0.118166 0.716472
0.748272 0.132677 0.746303
0.718379 0.147189 0.77615
0.688472 0.1617 0.805982
0.658564 0.176211 0.835813
0.628656 0.190723 0.86566
0.598749 0.205234 0.895491
0.568841 0.219745 0.925322
0.538949 0.234257 0.955154
0.509041 0.248768 0.985
0.479133 0.263279 1
0.449226 0.27779 1
0.419318 0.292287 1
0.38941 0.306798 1
0.359518 0.321309 1
0.32961 0.335821 1
0.299702 0.350332 1
0.269795 0.364843 1
0.239887 0.379355 1
0.209979 0.393866 1
0.180087 0.408377 1
0.150179 0.422889 1
0.120272 0.4374 1
0.0903639 0.451911 1
0.0604562 0.466423 1
0.0305486 0.480934 1
0.000656138 0.495445 1
0 0.509957 1
0 0.524468 1
0.966857 0.0647593 0.643076
0.936965 0.0792554 0.672908
0.907057 0.0937667 0.702739
0.87715 0.108278 0.73257
0.847242 0.122789 0.762402
0.817349 0.137301 0.792248
0.787442 0.151812 0.82208
0.757534 0.166323 0.851911
0.727626 0.180835 0.881758
0.697719 0.195346 0.911589
0.667811 0.209857 0.941421
0.637919 0.224369 0.971267
0.608011 0.23888 1
0.578103 0.253391 1
0.548196 0.267903 1
0.518288 0.282414 1
0.48838 0.296925 1
0.458488 0.311437 1
0.42858 0.325948 1
0.398672 0.340459 1
0.368765 0.354971 1
0.338857 0.369467 1
0.308949 0.383978 1
0.279057 0.398489 1
0.249149 0.413001 1
0.219242 0.427512 1
0.189334 0.442023 1
0.159426 0.456535 1
0.129519 0.471046 1
0.0996262 0.485557 1
0.0697185 0.500069 1
0.0398108 0.51458 1
0.0099031 0.529091 1
1 0.0693828 0.689021
1 0.0838788 0.718837
0.97612 0.0983902 0.748669
0.946212 0.112902 0.778515
0.916304 0.127413 0.808347
0.886412 0.141924 0.838178
0.856504 0.156435 0.868009
0.826596 0.170947 0.897856
0.796689 0.185458 0.927687
0.766781 0.199969 0.957519
0.736873 0.214481 0.987366
0.706981 0.228992 1
0.677073 0.243503 1
0.647166 0.258015 1
0.617258 0.272526 1
0.58735 0.287037 1
0.557443 0.301549 1
0.52755 0.31606 1
0.497642 0.330571 1
0.467735 0.345083 1
0.437827 0.359594 1
0.407919 0.374105 1
0.378012 0.388617 1
0.348119 0.403128 1
0.318212 0.417639 1
0.288304 0.432135 1
0.258396 0.446647 1
0.228489 0.461158 1
0.198581 0.47567 1
0.168688 0.490181 1
0.138781 0.504692 1
0.108873 0.519203 1
0.0789654 0.533715 1
1 0.0740063 0.734951
1 0.0885023 0.764767
1 0.103014 0.794614
1 0.117525 0.824445
0.985367 0.132036 0.854276
0.955474 0.146548 0.884123
0.925566 0.161059 0.913954
0.895659 0.17557 0.943786
0.865751 0.190082 0.973617
0.835843 0.204593 1
0.805936 0.219104 1
0.776043 0.233616 1
0.746136 0.248127 1
0.716228 0.262638 1
0.68632 0.27715 1
0.656413 0.291661 1
0.626505 0.306172 1
0.596613 0.320684 1
0.566705 0.335195 1
0.536797 0.349706 1
0.506889 0.364218 1
0.476982 0.378729 1
0.447089 0.39324 1
0.417182 0.407752 1
0.387274 0.422263 1
0.357366 0.436774 1
0.327459 0.451286 1
0.297551 0.465797 1
0.267659 0.480308 1
0.237751 0.494804 1
0.207843 0.509316 1
0.177935 0.523827 1
0.148028 0.538338 1
1 0.0786297 0.780896
1 0.0931258 0.810712
1 0.107637 0.840543
1 0.122148 0.870375
1 0.13666 0.900221
1 0.151171 0.930053
0.994629 0.165682 0.959884
0.964721 0.180194 0.989731
0.934813 0.194705 1
0.904906 0.209216 1
0.875013 0.223728 1
0.845106 0.238239 1
0.815198 0.25275 1
0.78529 0.267262 1
0.755383 0.281773 1
0.725475 0.296284 1
0.695583 0.310796 1
0.665675 0.325307 1
0.635767 0.339818 1
0.605859 0.35433 1
0.575952 0.368841 1
0.546044 0.383352 1
0.516152 0.397864 1
0.486244 0.412375 1
0.456336 0.426886 1
0.426429 0.441398 1
0.396521 0.455909 1
0.366613 0.47042 1
0.336721 0.484932 1
0.306813 0.499443 1
0.276905 0.513954 1
0.246998 0.528466 1
0.21709 0.542977 1
1 0.0832532 0.826825
1 0.0977646 0.856641
1 0.112261 0.886488
1 0.126772 0.91632
1 0.141283 0.946151
1 0.155795 0.975982
1 0.170306 1
1 0.184817 1
1 0.199329 1
0.973968 0.21384 1
0.944076 0.228351 1
0.914168 0.242863 1
0.88426 0.257374 1
0.854353 0.271885 1
0.824445 0.286397 1
0.794537 0.300908 1
0.764645 0.315419 1
0.734737 0.329931 1
0.704829 0.344442 1
0.674922 0.358953 1
0.645014 0.373465 1
0.615106 0.387976 1
0.585214 0.402487 1
0.555306 0.416999 1
0.525399 0.43151 1
0.495491 0.446021 1
0.465583 0.460533 1
0.435676 0.475044 1
0.405783 0.489555 1
0.375875 0.504067 1
0.345968 0.518578 1
0.31606 0.533089 1
0.286152 0.547601 1
1 0.0878767 0.872755
1 0.102388 0.902586
1 0.116899 0.932418
1 0.131411 0.962249
1 0.145922 0.992096
1 0.160433 1
1 0.174929 1
1 0.189441 1
1 0.203952 1
1 0.218463 1
1 0.232975 1
0.98323 0.247486 1
0.953323 0.261997 1
0.923415 0.276509 1
0.893507 0.29102 1
0.863615 0.305531 1
0.833707 0.320043 1
0.8038 0.334554 1
0.773892 0.349065 1
0.743984 0.363577 1
0.714076 0.378088 1
0.684184 0.392599 1
0.654276 0.407111 1
0.624369 0.421622 1
0.594461 0.436133 1
0.564553 0.450645 1
0.534646 0.465156 1
0.504753 0.479667 1
0.474845 0.494179 1
0.444938 0.50869 1
0.41503 0.523201 1
0.385122 0.537713 1
0.355215 0.552224 1
1 0.0925002 0.9187
1 0.107012 0.948516
1 0.121523 0.978347
1 0.136034 1
1 0.150546 1
1 0.165057 1
1 0.179568 1
1 0.19408 1
1 0.208591 1
1 0.223102 1
1 0.237613 1
1 0.25211 1
1 0.266621 1
0.992477 0.281132 1
0.96257 0.295644 1
0.932677 0.310155 1
0.90277 0.324666 1
0.872862 0.339178 1
0.842954 0.353689 1
0.813046 0.3682 1
0.783139 0.382712 1
0.753246 0.397223 1
0.723339 0.411734 1
0.693431 0.426246 1
0.663523 0.440757 1
0.633616 0.455268 1
0.603708 0.46978 1
0.573816 0.484291 1
0.543908 0.498802 1
0.514 0.513313 1
0.484092 0.527825 1
0.454185 0.542336 1
0.424277 0.556848 1
1 0.0971237 0.96463
1 0.111635 0.994446
1 0.126146 1
1 0.140658 1
1 0.155169 1
1 0.16968 1
1 0.184192 1
1 0.198703 1
1 0.213214 1
1 0.227726 1
1 0.242237 1
1 0.256748 1
1 0.27126 1
1 0.285771 1
1 0.300282 1
1 0.314778 1
0.971832 0.32929 1
0.941924 0.343801 1
0.912016 0.358312 1
0.882109 0.372824 1
0.852216 0.387335 1
0.822309 0.401846 1
0.792401 0.416358 1
0.762493 0.430869 1
0.732586 0.44538 1
0.702678 0.459892 1
0.672786 0.474403 1
0.642878 0.488914 1
0.61297 0.503426 1
0.583062 0.517937 1
0.553155 0.532448 1
0.523247 0.54696 1
0.493339 0.561471 1
1 0.101747 1
1 0.116258 1
1 0.13077 1
1 0.145281 1
1 0.159792 1
1 0.174304 1
1 0.188815 1
1 0.203326 1
1 0.217838 1
1 0.232349 1
1 0.24686 1
1 0.261372 1
1 0.275883 1
1 0.290394 1
1 0.304906 1
1 0.319417 1
1 0.333928 1
1 0.34844 1
0.981079 0.362951 1
0.951171 0.377447 1
0.921279 0.391959 1
0.891371 0.40647 1
0.861463 0.420981 1
0.831556 0.435492 1
0.801648 0.450004 1
0.77174 0.464515 1
0.741848 0.479026 1
0.71194 0.493538 1
0.682033 0.508049 1
0.652125 0.52256 1
0.622217 0.537072 1
0.592309 0.551583 1
0.562417 0.566094 1
1 0.106386 1
1 0.120882 1
1 0.135393 1
1 0.149905 1
1 0.164416 1
1 0.178927 1
1 0.193439 1
1 0.20795 1
1 0.222461 1
1 0.236973 1
1 0.251484 1
1 0.265995 1
1 0.280507 1
1 0.295018 1
1 0.309529 1
1 0.324041 1
1 0.338552 1
1 0.353063 1
1 0.367575 1
1 0.382086 1
0.990341 0.396597 1
0.960433 0.411109 1
0.930526 0.42562 1
0.900618 0.440116 1
0.87071 0.454627 1
0.840803 0.469139 1
0.81091 0.48365 1
0.781003 0.498161 1
0.751095 0.512673 1
0.721187 0.527184 1
0.691279 0.541695 1
0.661372 0.556207 1
0.631479 0.570718 1
1 0.111009 1
1 0.125505 1
1 0.140017 1
1 0.154528 1
1 0.169039 1
1 0.183551 1
1 0.198062 1
1 0.212573 1
1 0.227085 1
1 0.241596 1
1 0.256107 1
1 0.270619 1
1 0.28513 1
1 0.299641 1
1 0.314153 1
1 0.328664 1
1 0.343175 1
1 0.357687 1
1 0.372198 1
1 0.386709 1
1 0.401221 1
1 0.415732 1
0.999588 0.430243 1
0.96968 0.444755 1
0.939773 0.459266 1
0.90988 0.473777 1
0.879973 0.488289 1
0.850065 0.502785 1
0.820157 0.517296 1
0.790249 0.531807 1
0.760342 0.546319 1
0.730449 0.56083 1
0.700542 0.575341 1
1 0.115633 1
1 0.130129 1
1 0.14464 1
1 0.159152 1
1 0.173663 1
1 0.188174 1
1 0.202686 1
1 0.217197 1
1 0.231708 1
1 0.24622 1
1 0.260731 1
1 0.275242 1
1 0.289754 1
1 0.304265 1
1 0.318776 1
1 0.333288 1
1 0.347799 1
1 0.36231 1
1 0.376822 1
1 0.391333 1
1 0.405844 1
1 0.420356 1
1 0.434867 1
1 0.449378 1
1 0.46389 1
0.978943 0.478401 1
0.949035 0.492912 1
0.919127 0.507424 1
0.88922 0.521935 1
0.859312 0.536446 1
0.829404 0.550958 1
0.799512 0.565469 1
0.769604 0.579965 1
1 0.120256 1
1 0.134752 1
1 0.149264 1
1 0.163775 1
1 0.178286 1
1 0.192798 1
1 0.207309 1
1 0.22182 1
1 0.236332 1
1 0.250843 1
1 0.265354 1
1 0.279866 1
1 0.294377 1
1 0.308888 1
1 0.3234 1
1 0.337911 1
1 0.352422 1
1 0.366934 1
1 0.381445 1
1 0.395956 1
1 0.410468 1
1 0.424979 1
1 0.43949 1
1 0.454002 1
1 0.468513 1
1 0.483024 1
1 0.497536 1
0.98819 0.512047 1
0.958282 0.526558 1
0.928374 0.54107 1
0.898482 0.555581 1
0.868574 0.570092 1
0.838666 0.584604 1
1 0.12488 1
1 0.139391 1
1 0.153903 1
1 0.168414 1
1 0.182925 1
1 0.197421 1
1 0.211933 1
1 0.226444 1
1 0.240955 1
