public/LUTS/Color Shift/ColorShift_08.cube
TITLE "Generated by Resolve"
LUT_3D_SIZE 33
0 0 0
0 0.0145113 0
0 0.0290379 0
0 0.0435492 0
0 0.0580758 0
0 0.0725872 0
0 0.0871138 0
0 0.10164 0
0 0.116152 0
0 0.130678 0
0 0.14519 0
0 0.159716 0
0 0.174228 0
0 0.188754 0
0 0.203281 0
0 0.217792 0
0 0.232319 0
0 0.24683 0
0 0.261357 0
0 0.275868 0
0 0.290394 0
0 0.304921 0
0 0.319432 0
0 0.333959 0
0 0.34847 0
0 0.362997 0
0 0.377508 0
0 0.392035 0
0 0.406561 0
0 0.421073 0
0 0.435599 0
0 0.450111 0
0 0.464637 0
0.0165255 0.0195773 0.0521248
0.00326543 0.0340887 0.0430457
0 0.0486152 0.0339666
0 0.0631266 0.0248875
0 0.0776532 0.0158083
0 0.0921645 0.00671397
0 0.106691 0
0 0.121218 0
0 0.135729 0
0 0.150256 0
0 0.164767 0
0 0.179294 0
0 0.193805 0
0 0.208331 0
0 0.222858 0
0 0.237369 0
0 0.251896 0
0 0.266407 0
0 0.280934 0
0 0.295445 0
0 0.309972 0
0 0.324498 0
0 0.33901 0
0 0.353536 0
0 0.368048 0
0 0.382574 0
0 0.397086 0
0 0.411612 0
0 0.426139 0
0 0.44065 0
0 0.455177 0
0 0.469688 0
0 0.484215 0
0.033051 0.0391699 0.104265
0.0198062 0.0536812 0.0951858
0.00654612 0.0681926 0.0861067
0 0.0827192 0.0770275
0 0.0972305 0.0679484
0 0.111757 0.0588693
0 0.126284 0.0497902
0 0.140795 0.0407111
0 0.155322 0.031632
0 0.169833 0.0225376
0 0.18436 0.0134585
0 0.198871 0.00437934
0 0.213397 0
0 0.227924 0
0 0.242435 0
0 0.256962 0
0 0.271473 0
0 0.286 0
0 0.300511 0
0 0.315038 0
0 0.329564 0
0 0.344076 0
0 0.358602 0
0 0.373114 0
0 0.38764 0
0 0.402152 0
0 0.416678 0
0 0.431205 0
0 0.445716 0
0 0.460243 0
0 0.474754 0
0 0.489281 0
0 0.503792 0
0.0495766 0.0587472 0.15642
0.0363317 0.0732586 0.147341
0.0230716 0.0877852 0.138262
0.00981155 0.102312 0.129183
0 0.116823 0.120104
0 0.13135 0.111009
0 0.145861 0.10193
0 0.160388 0.0928511
0 0.174899 0.083772
0 0.189425 0.0746929
0 0.203952 0.0656138
0 0.218463 0.0565347
0 0.23299 0.0474556
0 0.247501 0.0383612
0 0.262028 0.0292821
0 0.276539 0.0202029
0 0.291066 0.0111238
0 0.305592 0.00204471
0 0.320104 0
0 0.33463 0
0 0.349142 0
0 0.363668 0
0 0.37818 0
0 0.392706 0
0 0.407233 0
0 0.421744 0
0 0.436271 0
0 0.450782 0
0 0.465309 0
0 0.47982 0
0 0.494347 0
0 0.508873 0
0 0.523384 0
0.0661173 0.0783398 0.20856
0.0528573 0.0928511 0.199481
0.0395972 0.107378 0.190402
0.0263523 0.121889 0.181323
0.0130922 0.136416 0.172244
0 0.150927 0.163165
0 0.165454 0.154086
0 0.179965 0.145006
0 0.194491 0.135927
0 0.209018 0.126833
0 0.223529 0.117754
0 0.238056 0.108675
0 0.252567 0.0995956
0 0.267094 0.0905165
0 0.281605 0.0814374
0 0.296132 0.0723583
0 0.310658 0.0632792
0 0.32517 0.0541848
0 0.339696 0.0451057
0 0.354208 0.0360266
0 0.368734 0.0269474
0 0.383246 0.0178683
0 0.397772 0.0087892
0 0.412299 0
0 0.42681 0
0 0.441337 0
0 0.455848 0
0 0.470375 0
0 0.484886 0
0 0.499413 0
0 0.513939 0
0 0.52845 0
0 0.542977 0
0.0826429 0.0979324 0.260716
0.069398 0.112444 0.251637
0.0561379 0.126955 0.242557
0.0428779 0.141482 0.233478
0.0296178 0.155993 0.224384
0.0163577 0.17052 0.215305
0.00309758 0.185031 0.206226
0 0.199557 0.197147
0 0.214084 0.188067
0 0.228595 0.178988
0 0.243122 0.169909
0 0.257633 0.16083
0 0.27216 0.151736
0 0.286687 0.142657
0 0.301198 0.133577
0 0.315724 0.124498
0 0.330236 0.115419
0 0.344762 0.10634
0 0.359274 0.097261
0 0.3738 0.0881819
0 0.388327 0.0791028
0 0.402838 0.0700084
0 0.417365 0.0609293
0 0.431876 0.0518502
0 0.446403 0.042771
0 0.460914 0.0336919
0 0.475441 0.0246128
0 0.489967 0.0155337
0 0.504479 0.00645457
0 0.519005 0
0 0.533516 0
0 0.548043 0
0 0.562554 0
0.0991684 0.11751 0.312856
0.0859236 0.132021 0.303777
0.0726635 0.146548 0.294697
0.0594034 0.161059 0.285618
0.0461433 0.175586 0.276539
0.0328832 0.190112 0.26746
0.0196384 0.204623 0.258381
0.00637827 0.21915 0.249302
0 0.233661 0.240208
0 0.248188 0.231128
0 0.262699 0.222049
0 0.277226 0.21297
0 0.291752 0.203891
0 0.306264 0.194812
0 0.32079 0.185733
0 0.335302 0.176654
0 0.349828 0.167559
0 0.36434 0.15848
0 0.378866 0.149401
0 0.393393 0.140322
0 0.407904 0.131243
0 0.422431 0.122164
0 0.436942 0.113085
0 0.451469 0.104005
0 0.46598 0.0949264
0 0.480507 0.085832
0 0.495033 0.0767529
0 0.509544 0.0676738
0 0.524071 0.0585946
0 0.538582 0.0495155
0 0.553109 0.0404364
0 0.56762 0.0313573
0 0.582147 0.0222782
0.115709 0.137102 0.365011
0.102449 0.151614 0.355932
0.089189 0.166125 0.346853
0.0759289 0.180652 0.337758
0.0626841 0.195178 0.328679
0.049424 0.209689 0.3196
0.0361639 0.224216 0.310521
0.0229038 0.238727 0.301442
0.0096437 0.253254 0.292363
0 0.267765 0.283284
0 0.282292 0.274205
0 0.296818 0.265126
0 0.31133 0.256031
0 0.325856 0.246952
0 0.340368 0.237873
0 0.354894 0.228794
0 0.369406 0.219715
0 0.383932 0.210636
0 0.398459 0.201556
0 0.41297 0.192477
0 0.427497 0.183383
0 0.442008 0.174304
0 0.456535 0.165225
0 0.471046 0.156146
0 0.485573 0.147066
0 0.500099 0.137987
0 0.514611 0.128908
0 0.529137 0.119829
0 0.543648 0.110735
0 0.558175 0.101656
0 0.572686 0.0925765
0 0.587213 0.0834974
0 0.60174 0.0744182
0.132235 0.15668 0.417151
0.118975 0.171206 0.408072
0.10573 0.185718 0.398993
0.0924697 0.200244 0.389914
0.0792096 0.214755 0.380835
0.0659495 0.229282 0.371756
0.0526894 0.243793 0.362676
0.0394293 0.25832 0.353582
0.0261845 0.272847 0.344503
0.0129244 0.287358 0.335424
0 0.301885 0.326345
0 0.316396 0.317266
0 0.330922 0.308186
0 0.345434 0.299107
0 0.35996 0.290028
0 0.374487 0.280949
0 0.388998 0.271855
0 0.403525 0.262776
0 0.418036 0.253697
0 0.432563 0.244617
0 0.447074 0.235538
0 0.461601 0.226459
0 0.476127 0.21738
0 0.490639 0.208301
0 0.505165 0.199207
0 0.519677 0.190127
0 0.534203 0.181048
0 0.548714 0.171969
0 0.563241 0.16289
0 0.577768 0.153811
0 0.592279 0.144732
0 0.606806 0.135653
0 0.621317 0.126558
0.14876 0.176272 0.469291
0.135515 0.190784 0.460227
0.122255 0.20531 0.451148
0.108995 0.219821 0.442054
0.0957351 0.234348 0.432975
0.082475 0.248859 0.423896
0.0692302 0.263386 0.414816
0.0559701 0.277913 0.405737
0.04271 0.292424 0.396658
0.0294499 0.30695 0.387579
0.0161898 0.321462 0.3785
0.00292973 0.335988 0.369406
0 0.3505 0.360327
0 0.365026 0.351247
0 0.379553 0.342168
0 0.394064 0.333089
0 0.408591 0.32401
0 0.423102 0.314931
0 0.437629 0.305852
0 0.45214 0.296757
0 0.466667 0.287678
0 0.481193 0.278599
0 0.495705 0.26952
0 0.510231 0.260441
0 0.524742 0.251362
0 0.539269 0.242283
0 0.55378 0.233204
0 0.568307 0.224125
0 0.582834 0.21503
0 0.597345 0.205951
0 0.611872 0.196872
0 0.626383 0.187793
0 0.640909 0.178714
0.165301 0.195865 0.521447
0.152041 0.210376 0.512367
0.138781 0.224887 0.503288
0.125521 0.239414 0.494209
0.112276 0.253941 0.48513
0.0990158 0.268452 0.476051
0.0857557 0.282979 0.466972
0.0724956 0.29749 0.457877
0.0592355 0.312016 0.448798
0.0459754 0.326528 0.439719
0.0327153 0.341054 0.43064
0.0194705 0.355581 0.421561
0.00621042 0.370092 0.412482
0 0.384619 0.403403
0 0.39913 0.394324
0 0.413657 0.385229
0 0.428168 0.37615
0 0.442695 0.367071
0 0.457221 0.357992
0 0.471733 0.348913
0 0.486259 0.339834
0 0.500771 0.330755
0 0.515297 0.321675
0 0.529809 0.312581
0 0.544335 0.303502
0 0.558862 0.294423
0 0.573373 0.285344
0 0.5879 0.276265
0 0.602411 0.267185
0 0.616938 0.258106
0 0.631449 0.249027
0 0.645975 0.239948
0 0.660502 0.230854
0.181827 0.215442 0.573587
0.168566 0.229953 0.564523
0.155322 0.24448 0.555428
0.142061 0.259007 0.546349
0.128801 0.273518 0.53727
0.115541 0.288045 0.528191
0.102281 0.302556 0.519112
0.0890211 0.317082 0.510033
0.075761 0.331594 0.500954
0.0625162 0.34612 0.491875
0.0492561 0.360647 0.48278
0.035996 0.375158 0.473701
0.0227359 0.389685 0.464622
0.00947585 0.404196 0.455543
0 0.418723 0.446464
0 0.433234 0.437385
0 0.447761 0.428305
0 0.462287 0.419226
0 0.476799 0.410147
0 0.491325 0.401053
0 0.505837 0.391974
0 0.520363 0.382895
0 0.534874 0.373816
0 0.549401 0.364736
0 0.563928 0.355657
0 0.578439 0.346578
0 0.592966 0.337499
0 0.607477 0.328405
0 0.622003 0.319326
0 0.636515 0.310246
0 0.651041 0.301167
0 0.665568 0.292088
0 0.680079 0.283009
0.198352 0.235035 0.625742
0.185107 0.249546 0.616663
0.171847 0.264073 0.607584
0.158587 0.278584 0.598505
0.145327 0.293111 0.589426
0.132067 0.307622 0.580346
0.118807 0.322148 0.571252
0.105562 0.33666 0.562173
0.0923018 0.351186 0.553094
0.0790417 0.365713 0.544015
0.0657816 0.380224 0.534936
0.0525216 0.394751 0.525856
0.0392615 0.409262 0.516777
0.0260014 0.423789 0.507698
0.0127565 0.4383 0.498604
0 0.452827 0.489525
0 0.467353 0.480446
0 0.481865 0.471366
0 0.496391 0.462287
0 0.510903 0.453208
0 0.525429 0.444129
0 0.53994 0.43505
0 0.554467 0.425971
0 0.568994 0.416876
0 0.583505 0.407797
0 0.598032 0.398718
0 0.612543 0.389639
0 0.62707 0.38056
0 0.641596 0.371481
0 0.656107 0.362402
0 0.670634 0.353323
0 0.685145 0.344228
0 0.699672 0.335149
0.214878 0.254627 0.677882
0.201633 0.269139 0.668803
0.188373 0.28365 0.659724
0.175113 0.298177 0.650645
0.161852 0.312688 0.641566
0.148608 0.327214 0.632486
0.135348 0.341741 0.623407
0.122087 0.356252 0.614328
0.108827 0.370779 0.605249
0.0955673 0.38529 0.59617
0.0823072 0.399817 0.587076
0.0690471 0.414328 0.577996
0.0558022 0.428855 0.568917
0.0425422 0.443381 0.559838
0.0292821 0.457893 0.550759
0.016022 0.472419 0.54168
0.00276188 0.486931 0.532601
0 0.501457 0.523522
0 0.515969 0.514427
0 0.530495 0.505348
0 0.545022 0.496269
0 0.559533 0.48719
0 0.57406 0.478111
0 0.588571 0.469032
0 0.603098 0.459953
0 0.617609 0.450874
0 0.632136 0.441794
0 0.646662 0.4327
0 0.661173 0.423621
0 0.6757 0.414542
0 0.690211 0.405463
0 0.704738 0.396384
0 0.719249 0.387304
0.231418 0.274205 0.730037
0.218158 0.288716 0.720958
0.204898 0.303243 0.711879
0.191653 0.317754 0.7028
0.178393 0.33228 0.693721
0.165133 0.346807 0.684627
0.151873 0.361318 0.675547
0.138613 0.375845 0.666468
0.125353 0.390356 0.657389
0.112093 0.404883 0.64831
0.0988479 0.419394 0.639231
0.0855879 0.433921 0.630152
0.0723278 0.448447 0.621073
0.0590677 0.462959 0.611994
0.0458076 0.477485 0.602899
0.0325475 0.491997 0.59382
0.0193027 0.506523 0.584741
0.00604257 0.521035 0.575662
0 0.535561 0.566583
0 0.550088 0.557504
0 0.564599 0.548424
0 0.579126 0.539345
0 0.593637 0.530251
0 0.608164 0.521172
0 0.622675 0.512093
0 0.637201 0.503014
0 0.651728 0.493935
0 0.666239 0.484855
0 0.680766 0.475776
0 0.695277 0.466697
0 0.709804 0.457603
0 0.724315 0.448524
0 0.738842 0.439445
0.247944 0.293797 0.782177
0.234699 0.308309 0.773098
0.221439 0.322835 0.764019
0.208179 0.337346 0.75494
0.194919 0.351873 0.745861
0.181659 0.366384 0.736782
0.168399 0.380911 0.727703
0.155154 0.395422 0.718624
0.141894 0.409949 0.709545
0.128634 0.424475 0.70045
0.115373 0.438987 0.691371
0.102113 0.453513 0.682292
0.0888533 0.468025 0.673213
0.0755932 0.482551 0.664134
0.0623484 0.497063 0.655055
0.0490883 0.511589 0.645975
0.0358282 0.526116 0.636896
0.0225681 0.540627 0.627817
0.009308 0.555154 0.618723
0 0.569665 0.609644
0 0.584192 0.600565
0 0.598703 0.591485
0 0.61323 0.582406
0 0.627756 0.573327
0 0.642267 0.564248
0 0.656794 0.555169
0 0.671305 0.546075
0 0.685832 0.536995
0 0.700343 0.527916
0 0.71487 0.518837
0 0.729397 0.509758
0 0.743908 0.500679
0 0.758434 0.4916
0.264469 0.313375 0.834333
0.251225 0.327901 0.825254
0.237964 0.342412 0.816175
0.224704 0.356939 0.807095
0.211444 0.37145 0.798016
0.198199 0.385977 0.788922
0.184939 0.400488 0.779843
0.171679 0.415015 0.770764
0.158419 0.429541 0.761685
0.145159 0.444053 0.752605
0.131899 0.458579 0.743526
0.118639 0.473091 0.734447
0.105394 0.487617 0.725368
0.092134 0.502129 0.716274
0.0788739 0.516655 0.707195
0.0656138 0.531182 0.698116
0.0523537 0.545693 0.689036
0.0390936 0.56022 0.679957
0.0258335 0.574731 0.670878
0.0125887 0.589258 0.661799
0 0.603769 0.65272
0 0.618296 0.643626
0 0.632822 0.634546
0 0.647334 0.625467
0 0.66186 0.616388
0 0.676371 0.607309
0 0.690898 0.59823
0 0.705409 0.589151
0 0.719936 0.580072
0 0.734462 0.570993
0 0.748974 0.561898
0 0.7635 0.552819
0 0.778012 0.54374
0.28101 0.332967 0.886473
0.26775 0.347478 0.877394
0.25449 0.362005 0.868315
0.241245 0.376516 0.859236
0.227985 0.391043 0.850156
0.214725 0.405554 0.841077
0.201465 0.420081 0.831998
0.188205 0.434607 0.822919
0.174945 0.449119 0.81384
0.161685 0.463645 0.804746
0.14844 0.478157 0.795666
0.13518 0.492683 0.786587
0.12192 0.507195 0.777508
0.108659 0.521721 0.768429
0.0953994 0.536248 0.75935
0.0821393 0.550759 0.750271
0.0688792 0.565286 0.741192
0.0556344 0.579797 0.732097
0.0423743 0.594324 0.723018
0.0291142 0.60885 0.713939
0.0158541 0.623362 0.70486
0.00259403 0.637888 0.695781
0 0.652399 0.686702
0 0.666926 0.677623
0 0.681437 0.668544
0 0.695964 0.659449
0 0.710491 0.65037
0 0.725002 0.641291
0 0.739528 0.632212
0 0.75404 0.623133
0 0.768566 0.614054
0 0.783078 0.604974
0 0.797604 0.595895
0.297536 0.35256 0.938628
0.284291 0.367071 0.929549
0.271031 0.381582 0.92047
0.257771 0.396109 0.911391
0.244511 0.410636 0.902296
0.23125 0.425147 0.893217
0.21799 0.439673 0.884138
0.20473 0.454185 0.875059
0.191485 0.468711 0.86598
0.178225 0.483223 0.856901
0.164965 0.497749 0.847822
0.151705 0.512276 0.838743
0.138445 0.526787 0.829648
0.125185 0.541314 0.820569
0.111925 0.555825 0.81149
0.0986801 0.570352 0.802411
0.08542 0.584863 0.793332
0.0721599 0.59939 0.784253
0.0588998 0.613916 0.775174
0.0456397 0.628428 0.766094
0.0323796 0.642954 0.757015
0.0191348 0.657465 0.747921
0.00587472 0.671992 0.738842
0 0.686503 0.729763
0 0.70103 0.720684
0 0.715557 0.711604
0 0.730068 0.702525
0 0.744595 0.693446
0 0.759106 0.684367
0 0.773632 0.675273
0 0.788144 0.666194
0 0.80267 0.657115
0 0.817197 0.648035
0.314061 0.372137 0.990768
0.300816 0.386648 0.981689
0.287556 0.401175 0.97261
0.274296 0.415702 0.963531
0.261036 0.430213 0.954452
0.247776 0.444739 0.945373
0.234531 0.459251 0.936294
0.221271 0.473777 0.927214
0.208011 0.488289 0.91812
0.194751 0.502815 0.909041
0.181491 0.517342 0.899962
0.168231 0.531853 0.890883
0.154971 0.54638 0.881804
0.141726 0.560891 0.872724
0.128466 0.575418 0.863645
0.115206 0.589929 0.854566
0.101946 0.604456 0.845472
0.0886854 0.618982 0.836393
0.0754253 0.633494 0.827314
0.0621805 0.64802 0.818235
0.0489204 0.662531 0.809155
0.0356603 0.677058 0.800076
0.0224002 0.691569 0.790997
0.00914015 0.706096 0.781918
0 0.720623 0.772839
0 0.735134 0.763745
0 0.74966 0.754665
0 0.764172 0.745586
0 0.778698 0.736507
0 0.79321 0.727428
0 0.807736 0.718349
0 0.822263 0.70927
0 0.836774 0.700191
0.330602 0.39173 1
0.317342 0.406241 1
0.304082 0.420768 1
0.290822 0.435279 1
0.277577 0.449805 1
0.264317 0.464317 0.997513
0.251057 0.478843 0.988434
0.237797 0.49337 0.979355
0.224537 0.507881 0.970275
0.211276 0.522408 0.961196
0.198016 0.536919 0.952117
0.184771 0.551446 0.943038
0.171511 0.565957 0.933944
0.158251 0.580484 0.924865
0.144991 0.59501 0.915785
0.131731 0.609522 0.906706
0.118471 0.624048 0.897627
0.105226 0.63856 0.888548
0.0919661 0.653086 0.879469
0.078706 0.667597 0.87039
0.0654459 0.682124 0.861295
0.0521859 0.696651 0.852216
0.0389258 0.711162 0.843137
0.0256657 0.725689 0.834058
0.0124208 0.7402 0.824979
0 0.754726 0.8159
0 0.769238 0.806821
0 0.783764 0.797742
0 0.798291 0.788647
0 0.812802 0.779568
0 0.827329 0.770489
0 0.84184 0.76141
0 0.856367 0.752331
0.347127 0.411322 1
0.333867 0.425834 1
0.320623 0.440345 1
0.307362 0.454871 1
0.294102 0.469383 1
0.280842 0.483909 1
0.267582 0.498436 1
0.254322 0.512947 1
0.241062 0.527474 1
0.227817 0.541985 1
0.214557 0.556512 1
0.201297 0.571023 0.995178
0.188037 0.58555 0.986099
0.174777 0.600076 0.97702
0.161517 0.614588 0.967941
0.148272 0.629114 0.958862
0.135012 0.643626 0.949767
0.121752 0.658152 0.940688
0.108492 0.672663 0.931609
0.0952316 0.68719 0.92253
0.0819715 0.701717 0.913451
0.0687114 0.716228 0.904372
0.0554665 0.730755 0.895293
0.0422065 0.745266 0.886213
0.0289464 0.759793 0.877119
0.0156863 0.774304 0.86804
0.00242618 0.78883 0.858961
0 0.803357 0.849882
0 0.817868 0.840803
0 0.832395 0.831724
0 0.846906 0.822644
0 0.861433 0.813565
0 0.875944 0.804471
0.363653 0.4309 1
0.350408 0.445411 1
0.337148 0.459937 1
0.323888 0.474449 1
0.310628 0.488975 1
0.297368 0.503502 1
0.284108 0.518013 1
0.270863 0.53254 1
0.257603 0.547051 1
0.244343 0.561578 1
0.231083 0.576104 1
0.217823 0.590616 1
0.204562 0.605142 1
0.191318 0.619654 1
0.178058 0.63418 1
0.164797 0.648692 1
0.151537 0.663218 1
0.138277 0.677745 0.992844
0.125017 0.692256 0.983764
0.111757 0.706783 0.97467
0.0985122 0.721294 0.965591
0.0852522 0.735821 0.956512
0.0719921 0.750332 0.947433
0.058732 0.764858 0.938354
0.0454719 0.779385 0.929274
0.0322118 0.793896 0.920195
0.0189517 0.808423 0.911116
0.00570687 0.822934 0.902037
0 0.837461 0.892943
0 0.851972 0.883864
0 0.866499 0.874784
0 0.881025 0.865705
0 0.895537 0.856626
0.380179 0.450492 1
0.366934 0.465003 1
0.353674 0.47953 1
0.340414 0.494041 1
0.327153 0.508568 1
0.313909 0.523079 1
0.300649 0.537606 1
0.287388 0.552117 1
0.274128 0.566644 1
0.260868 0.58117 1
0.247608 0.595682 1
0.234363 0.610208 1
0.221103 0.62472 1
0.207843 0.639246 1
0.194583 0.653758 1
0.181323 0.668284 1
0.168063 0.682811 1
0.154803 0.697322 1
0.141558 0.711849 1
0.128298 0.72636 1
0.115038 0.740887 1
0.101778 0.755398 1
0.0885176 0.769924 0.999588
0.0752575 0.784451 0.990494
0.0619974 0.798962 0.981414
0.0487526 0.813489 0.972335
0.0354925 0.828 0.963256
0.0222324 0.842527 0.954177
0.0089723 0.857038 0.945098
0 0.871565 0.936019
0 0.886091 0.92694
0 0.900603 0.917861
0 0.915129 0.908766
0.396719 0.470069 1
0.383459 0.484596 1
0.370214 0.499107 1
0.356954 0.513634 1
0.343694 0.528145 1
0.330434 0.542672 1
0.317174 0.557183 1
0.303914 0.57171 1
0.290654 0.586236 1
0.277409 0.600748 1
0.264149 0.615274 1
0.250889 0.629786 1
0.237629 0.644312 1
0.224369 0.658824 1
0.211109 0.67335 1
0.197848 0.687877 1
0.184604 0.702388 1
0.171344 0.716915 1
0.158083 0.731426 1
0.144823 0.745953 1
0.131563 0.760464 1
0.118303 0.77499 1
0.105043 0.789517 1
0.0917983 0.804028 1
0.0785382 0.818555 1
0.0652781 0.833066 1
0.052018 0.847593 1
0.0387579 0.862104 1
0.0254978 0.876631 0.997238
0.012253 0.891157 0.988159
0 0.905669 0.97908
0 0.920195 0.970001
0 0.934707 0.960922
0.413245 0.489662 1
0.4 0.504173 1
0.38674 0.5187 1
0.37348 0.533211 1
0.36022 0.547738 1
0.34696 0.562264 1
0.3337 0.576776 1
0.320455 0.591302 1
0.307195 0.605814 1
0.293935 0.62034 1
0.280674 0.634852 1
0.267414 0.649378 1
0.254154 0.663905 1
0.240894 0.678416 1
0.227649 0.692943 1
0.214389 0.707454 1
0.201129 0.721981 1
0.187869 0.736492 1
0.174609 0.751019 1
0.161349 0.765545 1
0.148089 0.780056 1
0.134844 0.794583 1
0.121584 0.809094 1
0.108324 0.823621 1
0.0950637 0.838132 1
0.0818036 0.852659 1
0.0685435 0.867185 1
0.0552987 0.881697 1
0.0420386 0.896223 1
0.0287785 0.910735 1
0.0155184 0.925261 1
0.00225834 0.939773 1
0 0.954299 1
0.42977 0.509255 1
0.416526 0.523766 1
0.403265 0.538277 1
0.390005 0.552804 1
0.376745 0.56733 1
0.3635 0.581842 1
0.35024 0.596368 1
0.33698 0.61088 1
0.32372 0.625406 1
0.31046 0.639918 1
0.2972 0.654444 1
0.28394 0.668971 1
0.270695 0.683482 1
0.257435 0.698009 1
0.244175 0.71252 1
0.230915 0.727047 1
0.217655 0.741558 1
0.204395 0.756085 1
0.191135 0.770611 1
0.17789 0.785122 1
0.16463 0.799649 1
0.151369 0.81416 1
0.138109 0.828687 1
0.124849 0.843198 1
0.111589 0.857725 1
0.0983444 0.872251 1
0.0850843 0.886763 1
0.0718242 0.901289 1
0.0585641 0.915801 1
0.045304 0.930327 1
0.0320439 0.944839 1
0.0187839 0.959365 1
0.00553903 0.973892 1
0.446311 0.528832 1
0.433051 0.543359 1
0.419791 0.55787 1
0.406546 0.572396 1
0.393286 0.586908 1
0.380026 0.601434 1
0.366766 0.615946 1
0.353506 0.630472 1
0.340246 0.644999 1
