public/LUTS/Color Shift/ColorShift_49.cube
TITLE "Generated by Resolve"
LUT_3D_SIZE 33
0 0 0
0 0.0182345 0.0151217
0 0.0364691 0.0302434
0 0.0547036 0.0453651
0 0.0729381 0.0604868
0 0.0911879 0.0756085
0 0.109422 0.0907301
0 0.127657 0.105867
0 0.145892 0.120989
0 0.164141 0.13611
0 0.182376 0.151232
0 0.20061 0.166354
0 0.218845 0.181476
0 0.237095 0.196612
0 0.255329 0.211734
0 0.273564 0.226856
0 0.291798 0.241978
0 0.310033 0.257099
0 0.328283 0.272221
0 0.346517 0.287343
0 0.364752 0.30248
0 0.382986 0.317601
0 0.401236 0.332723
0 0.419471 0.347845
0 0.437705 0.362966
0 0.45594 0.378088
0 0.474189 0.393225
0 0.492424 0.408347
0 0.510658 0.423468
0 0.528893 0.43859
0 0.547143 0.453712
0 0.565377 0.468833
0 0.583612 0.483955
0.0565652 0.00639353 0.061265
0.0205539 0.0246128 0.0763714
0 0.0428626 0.0914931
0 0.0610971 0.10663
0 0.0793317 0.121752
0 0.0975662 0.136873
0 0.115816 0.151995
0 0.134051 0.167117
0 0.152285 0.182239
0 0.17052 0.19736
0 0.188769 0.212497
0 0.207004 0.227619
0 0.225238 0.242741
0 0.243473 0.257862
0 0.261723 0.272984
0 0.279957 0.288106
0 0.298192 0.303243
0 0.316426 0.318364
0 0.334676 0.333486
0 0.352911 0.348608
0 0.371145 0.363729
0 0.38938 0.378851
0 0.40763 0.393973
0 0.425864 0.40911
0 0.444099 0.424231
0 0.462333 0.439353
0 0.480568 0.454475
0 0.498817 0.469596
0 0.517052 0.484718
0 0.535286 0.499855
0 0.553521 0.514977
0 0.571771 0.530098
0 0.590005 0.54522
0.113146 0.0127871 0.122545
0.0771344 0.0310216 0.137667
0.0411231 0.0492561 0.152789
0.00509651 0.0674907 0.16791
0 0.0857252 0.183032
0 0.10396 0.198154
0 0.12221 0.213275
0 0.140444 0.228412
0 0.158679 0.243534
0 0.176913 0.258656
0 0.195163 0.273777
0 0.213397 0.288899
0 0.231632 0.304021
0 0.249866 0.319158
0 0.268116 0.334279
0 0.286351 0.349401
0 0.304585 0.364523
0 0.32282 0.379644
0 0.34107 0.394766
0 0.359304 0.409888
0 0.377539 0.425025
0 0.395773 0.440146
0 0.414023 0.455268
0 0.432258 0.47039
0 0.450492 0.485512
0 0.468727 0.500633
0 0.486976 0.51577
0 0.505211 0.530892
0 0.523445 0.546014
0 0.54168 0.561135
0 0.559915 0.576257
0 0.578164 0.591379
0 0.596399 0.6065
0.169741 0.0191806 0.183841
0.13373 0.0374151 0.198947
0.0977035 0.0556497 0.214069
0.061677 0.0738842 0.229191
0.0256504 0.0921187 0.244327
0 0.110369 0.259449
0 0.128603 0.274571
0 0.146838 0.289693
0 0.165072 0.304814
0 0.183307 0.319936
0 0.201556 0.335073
0 0.219791 0.350195
0 0.238025 0.365316
0 0.25626 0.380438
0 0.27451 0.39556
0 0.292744 0.410681
0 0.310979 0.425803
0 0.329213 0.44094
0 0.347463 0.456062
0 0.365698 0.471183
0 0.383932 0.486305
0 0.402167 0.501427
0 0.420417 0.516548
0 0.438651 0.531685
0 0.456886 0.546807
0 0.47512 0.561929
0 0.49337 0.57705
0 0.511604 0.592172
0 0.529839 0.607294
0 0.548074 0.622415
0 0.566323 0.637552
0 0.584558 0.652674
0 0.602792 0.667796
0.226322 0.0255741 0.245121
0.190326 0.0438087 0.260243
0.154299 0.0620432 0.275364
0.118273 0.0802777 0.290486
0.0822461 0.0985122 0.305608
0.0462196 0.116762 0.320729
0.010193 0.134997 0.335851
0 0.153231 0.350988
0 0.171466 0.36611
0 0.189715 0.381231
0 0.20795 0.396353
0 0.226184 0.411475
0 0.244419 0.426596
0 0.262654 0.441733
0 0.280903 0.456855
0 0.299138 0.471977
0 0.317372 0.487098
0 0.335607 0.50222
0 0.353857 0.517342
0 0.372091 0.532464
0 0.390326 0.547601
0 0.40856 0.562722
0 0.42681 0.577844
0 0.445045 0.592966
0 0.463279 0.608087
0 0.481514 0.623209
0 0.499763 0.638346
0 0.517998 0.653468
0 0.536233 0.668589
0 0.554467 0.683711
0 0.572717 0.698833
0 0.590951 0.713954
0 0.609186 0.729076
0.282918 0.0319677 0.306416
0.246906 0.0502022 0.321523
0.21088 0.0684367 0.336645
0.174853 0.0866712 0.351766
0.138827 0.104906 0.366903
0.102815 0.123156 0.382025
0.0667887 0.14139 0.397147
0.0307622 0.159625 0.412268
0 0.177859 0.42739
0 0.196109 0.442512
0 0.214343 0.457649
0 0.232578 0.47277
0 0.250813 0.487892
0 0.269062 0.503014
0 0.287297 0.518135
0 0.305531 0.533257
0 0.323766 0.548379
0 0.342 0.563516
0 0.36025 0.578637
0 0.378485 0.593759
0 0.396719 0.608881
0 0.414954 0.624002
0 0.433204 0.639124
0 0.451438 0.654261
0 0.469673 0.669383
0 0.487907 0.684504
0 0.506157 0.699626
0 0.524392 0.714748
0 0.542626 0.72987
0 0.560861 0.744991
0 0.57911 0.760128
0 0.597345 0.77525
0 0.615579 0.790372
0.339498 0.0383612 0.367697
0.303502 0.0565957 0.382818
0.267475 0.0748302 0.39794
0.231449 0.0930648 0.413062
0.195422 0.111299 0.428183
0.159396 0.129549 0.443305
0.123369 0.147784 0.458427
0.0873426 0.166018 0.473564
0.0513161 0.184253 0.488685
0.0153048 0.202502 0.503807
0 0.220737 0.518929
0 0.238972 0.534051
0 0.257206 0.549172
0 0.275456 0.564309
0 0.29369 0.579431
0 0.311925 0.594553
0 0.330159 0.609674
0 0.348409 0.624796
0 0.366644 0.639918
0 0.384878 0.655039
0 0.403113 0.670176
0 0.421347 0.685298
0 0.439597 0.70042
0 0.457832 0.715541
0 0.476066 0.730663
0 0.494301 0.745785
0 0.512551 0.760922
0 0.530785 0.776043
0 0.54902 0.791165
0 0.567254 0.806287
0 0.585504 0.821408
0 0.603738 0.83653
0 0.621973 0.851652
0.396094 0.0447547 0.428977
0.360082 0.0629892 0.444099
0.324056 0.0812238 0.45922
0.288029 0.0994583 0.474342
0.252003 0.117693 0.489479
0.215991 0.135943 0.504601
0.179965 0.154177 0.519722
0.143938 0.172412 0.534844
0.107912 0.190646 0.549966
0.0718853 0.208896 0.565087
0.0358587 0.227131 0.580224
0 0.245365 0.595346
0 0.2636 0.610468
0 0.281849 0.625589
0 0.300084 0.640711
0 0.318318 0.655833
0 0.336553 0.670954
0 0.354803 0.686091
0 0.373037 0.701213
0 0.391272 0.716335
0 0.409506 0.731456
0 0.427756 0.746578
0 0.445991 0.7617
0 0.464225 0.776837
0 0.48246 0.791959
0 0.500694 0.80708
0 0.518944 0.822202
0 0.537179 0.837324
0 0.555413 0.852445
0 0.573648 0.867567
0 0.591897 0.882704
0 0.610132 0.897826
0 0.628367 0.912947
0.452674 0.0511482 0.490272
0.416678 0.0693828 0.505394
0.380652 0.0876173 0.520516
0.344625 0.105852 0.535637
0.308598 0.124086 0.550759
0.272572 0.142336 0.565881
0.236545 0.160571 0.581003
0.200519 0.178805 0.596139
0.164508 0.19704 0.611261
0.128481 0.21529 0.626383
0.0924544 0.233524 0.641505
0.0564279 0.251759 0.656626
0.0204013 0.269993 0.671748
0 0.288243 0.686885
0 0.306477 0.702007
0 0.324712 0.717128
0 0.342947 0.73225
0 0.361196 0.747372
0 0.379431 0.762493
0 0.397665 0.777615
0 0.4159 0.792752
0 0.43415 0.807874
0 0.452384 0.822995
0 0.470619 0.838117
0 0.488853 0.853239
0 0.507103 0.86836
0 0.525338 0.883497
0 0.543572 0.898619
0 0.561807 0.913741
0 0.580056 0.928862
0 0.598291 0.943984
0 0.616526 0.959106
0 0.63476 0.974227
0.50927 0.0575418 0.551553
0.473259 0.0757763 0.566674
0.437232 0.0940108 0.581796
0.401205 0.112245 0.596918
0.365179 0.130495 0.612055
0.329168 0.14873 0.627176
0.293141 0.166964 0.642298
0.257115 0.185199 0.65742
0.221088 0.203433 0.672541
0.185061 0.221683 0.687663
0.149035 0.239918 0.7028
0.113008 0.258152 0.717922
0.076997 0.276387 0.733043
0.0409705 0.294636 0.748165
0.00494392 0.312871 0.763287
0 0.331106 0.778408
0 0.34934 0.79353
0 0.36759 0.808667
0 0.385824 0.823789
0 0.404059 0.838911
0 0.422293 0.854032
0 0.440543 0.869154
0 0.458778 0.884276
0 0.477012 0.899413
0 0.495247 0.914534
0 0.513497 0.929656
0 0.531731 0.944778
0 0.549966 0.959899
0 0.5682 0.975021
0 0.58645 0.990143
0 0.604685 1
0 0.622919 1
0 0.641154 1
0.56585 0.0639353 0.612848
0.529854 0.0821698 0.62797
0.493828 0.100404 0.643091
0.457801 0.118639 0.658213
0.421775 0.136889 0.673335
0.385748 0.155123 0.688457
0.349722 0.173358 0.703578
0.313695 0.191592 0.718715
0.277684 0.209842 0.733837
0.241657 0.228077 0.748959
0.205631 0.246311 0.76408
0.169604 0.264546 0.779202
0.133577 0.282795 0.794324
0.0975509 0.30103 0.809445
0.0615244 0.319265 0.824582
0.0254978 0.337499 0.839704
0 0.355734 0.854826
0 0.373983 0.869947
0 0.392218 0.885069
0 0.410452 0.900191
0 0.428687 0.915328
0 0.446937 0.930449
0 0.465171 0.945571
0 0.483406 0.960693
0 0.50164 0.975814
0 0.51989 0.990936
0 0.538125 1
0 0.556359 1
0 0.574594 1
0 0.592844 1
0 0.611078 1
0 0.629313 1
0 0.647547 1
0.622446 0.0703288 0.674128
0.586435 0.0885634 0.68925
0.550408 0.106798 0.704372
0.514382 0.125032 0.719493
0.47837 0.143282 0.73463
0.442344 0.161517 0.749752
0.406317 0.179751 0.764874
0.370291 0.197986 0.779995
0.334264 0.216236 0.795117
0.298238 0.23447 0.810239
0.262211 0.252705 0.825376
0.226184 0.270939 0.840497
0.190173 0.289189 0.855619
0.154147 0.307424 0.870741
0.11812 0.325658 0.885863
0.0820935 0.343893 0.900984
0.046067 0.362142 0.916106
0.0100404 0.380377 0.931243
0 0.398611 0.946365
0 0.416846 0.961486
0 0.43508 0.976608
0 0.45333 0.99173
0 0.471565 1
0 0.489799 1
0 0.508034 1
0 0.526284 1
0 0.544518 1
0 0.562753 1
0 0.580987 1
0 0.599237 1
0 0.617472 1
0 0.635706 1
0 0.653941 1
0.679026 0.0767224 0.735424
0.64303 0.0949569 0.750546
0.607004 0.113191 0.765667
0.570977 0.131426 0.780789
0.534951 0.149676 0.795911
0.498924 0.16791 0.811032
0.462898 0.186145 0.826154
0.426871 0.204379 0.841291
0.39086 0.222629 0.856413
0.354833 0.240864 0.871534
0.318807 0.259098 0.886656
0.28278 0.277333 0.901778
0.246754 0.295583 0.916899
0.210727 0.313817 0.932021
0.174701 0.332052 0.947158
0.138674 0.350286 0.96228
0.102663 0.368536 0.977401
0.0666361 0.38677 0.992523
0.0306096 0.405005 1
0 0.423239 1
0 0.441489 1
0 0.459724 1
0 0.477958 1
0 0.496193 1
0 0.514427 1
0 0.532677 1
0 0.550912 1
0 0.569146 1
0 0.587381 1
0 0.605631 1
0 0.623865 1
0 0.6421 1
0 0.660334 1
0.735622 0.0831159 0.796704
0.699611 0.10135 0.811826
0.663584 0.119585 0.826947
0.627558 0.137819 0.842069
0.591546 0.156069 0.857206
0.55552 0.174304 0.872328
0.519493 0.192538 0.887449
0.483467 0.210773 0.902571
0.44744 0.229023 0.917693
0.411414 0.247257 0.932815
0.375387 0.265492 0.947936
0.339361 0.283726 0.963073
0.303349 0.301976 0.978195
0.267323 0.320211 0.993317
0.231296 0.338445 1
0.19527 0.35668 1
0.159243 0.374929 1
0.123217 0.393164 1
0.0871901 0.411399 1
0.0511788 0.429633 1
0.0151522 0.447883 1
0 0.466117 1
0 0.484352 1
0 0.502586 1
0 0.520836 1
0 0.539071 1
0 0.557305 1
0 0.57554 1
0 0.593774 1
0 0.612024 1
0 0.630259 1
0 0.648493 1
0 0.666728 1
0.792203 0.0895094 0.858
0.756207 0.107744 0.873121
0.72018 0.125978 0.888243
0.684153 0.144228 0.903365
0.648127 0.162463 0.918486
0.6121 0.180697 0.933608
0.576074 0.198932 0.94873
0.540047 0.217166 0.963867
0.504036 0.235416 0.978988
0.468009 0.253651 0.99411
0.431983 0.271885 1
0.395956 0.29012 1
0.35993 0.30837 1
0.323903 0.326604 1
0.287877 0.344839 1
0.251865 0.363073 1
0.215839 0.381323 1
0.179812 0.399558 1
0.143786 0.417792 1
0.107759 0.436027 1
0.0717327 0.454276 1
0.0357061 0.472511 1
0 0.490745 1
0 0.50898 1
0 0.52723 1
0 0.545464 1
0 0.563699 1
0 0.581933 1
0 0.600183 1
0 0.618418 1
0 0.636652 1
0 0.654887 1
0 0.673121 1
0.848798 0.0959029 0.91928
0.812787 0.114137 0.934401
0.776761 0.132372 0.949523
0.740734 0.150622 0.964645
0.704723 0.168856 0.979782
0.668696 0.187091 0.994904
0.63267 0.205325 1
0.596643 0.223575 1
0.560616 0.24181 1
0.52459 0.260044 1
0.488563 0.278279 1
0.452537 0.296513 1
0.416526 0.314763 1
0.380499 0.332998 1
0.344472 0.351232 1
0.308446 0.369467 1
0.272419 0.387717 1
0.236393 0.405951 1
0.200366 0.424186 1
0.164355 0.44242 1
0.128328 0.46067 1
0.0923018 0.478904 1
0.0562753 0.497139 1
0.0202487 0.515373 1
0 0.533623 1
0 0.551858 1
0 0.570092 1
0 0.588327 1
0 0.606577 1
0 0.624811 1
0 0.643046 1
0 0.66128 1
0 0.67953 1
0.905379 0.102296 0.980575
0.869383 0.120531 0.995697
0.833356 0.138766 1
0.79733 0.157015 1
0.761303 0.17525 1
0.725277 0.193484 1
0.68925 0.211719 1
0.653223 0.229969 1
0.617212 0.248203 1
0.581186 0.266438 1
0.545159 0.284672 1
0.509133 0.302922 1
0.473106 0.321157 1
0.437079 0.339391 1
0.401053 0.357626 1
0.365042 0.37586 1
0.329015 0.39411 1
0.292988 0.412345 1
0.256962 0.430579 1
0.220935 0.448814 1
0.184909 0.467063 1
0.148882 0.485298 1
0.112856 0.503532 1
0.0768444 0.521767 1
0.0408179 0.540017 1
0.00479133 0.558251 1
0 0.576486 1
0 0.59472 1
0 0.61297 1
0 0.631205 1
0 0.649439 1
0 0.667674 1
0 0.685924 1
0.961975 0.10869 1
0.925963 0.126925 1
0.889937 0.145159 1
0.85391 0.163409 1
0.817899 0.181643 1
0.781872 0.199878 1
0.745846 0.218112 1
0.709819 0.236362 1
0.673793 0.254597 1
0.637766 0.272831 1
0.60174 0.291066 1
0.565728 0.309316 1
0.529702 0.32755 1
0.493675 0.345785 1
0.457649 0.364019 1
0.421622 0.382269 1
0.385595 0.400504 1
0.349569 0.418738 1
0.313542 0.436973 1
0.277531 0.455207 1
0.241505 0.473457 1
0.205478 0.491691 1
0.169451 0.509926 1
0.133425 0.528161 1
0.0973983 0.54641 1
0.0613718 0.564645 1
0.0253605 0.582879 1
0 0.601114 1
0 0.619364 1
0 0.637598 1
0 0.655833 1
0 0.674067 1
0 0.692317 1
1 0.115099 1
0.982559 0.133318 1
0.946532 0.151553 1
0.910506 0.169802 1
0.874479 0.188037 1
0.838453 0.206271 1
0.802426 0.224506 1
0.7664 0.242756 1
0.730388 0.26099 1
0.694362 0.279225 1
0.658335 0.297459 1
0.622309 0.315709 1
0.586282 0.333944 1
0.550256 0.352178 1
0.514229 0.370413 1
0.478218 0.388663 1
0.442191 0.406897 1
0.406165 0.425132 1
0.370138 0.443366 1
0.334112 0.461616 1
0.298085 0.47985 1
0.262058 0.498085 1
0.226047 0.51632 1
0.190021 0.534554 1
0.153994 0.552804 1
0.117968 0.571038 1
0.0819409 0.589273 1
0.0459144 0.607507 1
0.00988785 0.625757 1
0 0.643992 1
0 0.662226 1
0 0.680461 1
0 0.698711 1
1 0.121492 1
1 0.139712 1
1 0.157946 1
0.967086 0.176196 1
0.931075 0.19443 1
0.895048 0.212665 1
0.859022 0.2309 1
0.822995 0.249149 1
0.786969 0.267384 1
0.750942 0.285618 1
0.714916 0.303853 1
0.678904 0.322103 1
0.642878 0.340337 1
0.606851 0.358572 1
0.570825 0.376806 1
0.534798 0.395056 1
0.498772 0.413291 1
0.462745 0.431525 1
0.426719 0.44976 1
0.390707 0.468009 1
0.354681 0.486244 1
0.318654 0.504479 1
0.282628 0.522713 1
0.246601 0.540963 1
0.210575 0.559197 1
0.174548 0.577432 1
0.138537 0.595666 1
0.10251 0.613901 1
0.0664836 0.632151 1
0.030457 0.650385 1
0 0.66862 1
0 0.686854 1
0 0.705104 1
1 0.127886 1
1 0.146105 1
1 0.164355 1
1 0.182589 1
0.987655 0.200824 1
0.951629 0.219059 1
0.915602 0.237293 1
0.879591 0.255543 1
0.843565 0.273777 1
0.807538 0.292012 1
0.771511 0.310246 1
0.735485 0.328496 1
0.699458 0.346731 1
0.663432 0.364965 1
0.627405 0.3832 1
0.591394 0.40145 1
0.555367 0.419684 1
0.519341 0.437919 1
0.483314 0.456153 1
0.447288 0.474403 1
0.411261 0.492638 1
0.375235 0.510872 1
0.339223 0.529107 1
0.303197 0.547356 1
0.26717 0.565591 1
0.231144 0.583825 1
0.195117 0.60206 1
0.159091 0.62031 1
0.123064 0.638544 1
0.0870375 0.656779 1
0.0510262 0.675013 1
0.0149996 0.693248 1
0 0.711498 1
1 0.134279 1
1 0.152499 1
1 0.170748 1
1 0.188983 1
1 0.207218 1
1 0.225452 1
0.972198 0.243702 1
0.936172 0.261936 1
0.900145 0.280171 1
0.864118 0.298405 1
0.828092 0.31664 1
0.792081 0.33489 1
0.756054 0.353124 1
0.720027 0.371359 1
0.684001 0.389593 1
0.647974 0.407843 1
0.611948 0.426078 1
0.575921 0.444312 1
0.539895 0.462547 1
0.503883 0.480797 1
0.467857 0.499031 1
0.43183 0.517266 1
0.395804 0.5355 1
0.359777 0.55375 1
0.323751 0.571984 1
0.287724 0.590219 1
0.251713 0.608454 1
0.215686 0.626703 1
0.17966 0.644938 1
0.143633 0.663172 1
0.107607 0.681407 1
0.0715801 0.699657 1
0.0355535 0.717891 1
1 0.140673 1
1 0.158892 1
1 0.177142 1
1 0.195377 1
1 0.213611 1
1 0.231846 1
1 0.250095 1
0.992767 0.26833 1
0.956741 0.286564 1
0.920714 0.304799 1
0.884688 0.323049 1
0.848661 0.341283 1
0.812634 0.359518 1
0.776608 0.377752 1
0.740581 0.395987 1
0.70457 0.414237 1
0.668544 0.432471 1
0.632517 0.450706 1
0.59649 0.46894 1
0.560464 0.48719 1
0.524437 0.505425 1
0.488411 0.523659 1
0.452399 0.541894 1
0.416373 0.560143 1
0.380346 0.578378 1
0.34432 0.596613 1
0.308293 0.614847 1
0.272267 0.633097 1
0.23624 0.651331 1
0.200214 0.669566 1
0.164202 0.6878 1
0.128176 0.70605 1
0.0921492 0.724285 1
1 0.147066 1
1 0.165286 1
1 0.183536 1
1 0.20177 1
1 0.220005 1
1 0.238239 1
1 0.256489 1
1 0.274723 1
1 0.292958 1
0.977295 0.311192 1
0.941268 0.329442 1
0.905257 0.347677 1
0.86923 0.365911 1
0.833204 0.384146 1
0.797177 0.402396 1
0.761151 0.42063 1
0.725124 0.438865 1
0.689097 0.457099 1
0.653086 0.475334 1
0.61706 0.493584 1
0.581033 0.511818 1
0.545007 0.530053 1
0.50898 0.548287 1
0.472953 0.566537 1
0.436927 0.584772 1
0.4009 0.603006 1
0.364889 0.621241 1
0.328862 0.63949 1
0.292836 0.657725 1
0.256809 0.675959 1
0.220783 0.694194 1
0.184756 0.712444 1
0.14873 0.730678 1
1 0.15346 1
1 0.171679 1
1 0.189929 1
1 0.208164 1
1 0.226398 1
1 0.244633 1
1 0.262882 1
1 0.281117 1
1 0.299351 1
1 0.317586 1
0.997864 0.335836 1
0.961837 0.35407 1
0.925811 0.372305 1
0.889784 0.390539 1
0.853758 0.408789 1
0.817746 0.427024 1
0.78172 0.445258 1
0.745693 0.463493 1
0.709667 0.481743 1
0.67364 0.499977 1
0.637613 0.518212 1
0.601587 0.536446 1
0.565576 0.554681 1
0.529549 0.572931 1
0.493523 0.591165 1
0.457496 0.6094 1
0.421469 0.627634 1
0.385443 0.645884 1
0.349416 0.664118 1
0.313405 0.682353 1
0.277378 0.700587 1
0.241352 0.718837 1
0.205325 0.737072 1
1 0.159854 1
1 0.178073 1
1 0.196323 1
1 0.214557 1
1 0.232792 1
1 0.251026 1
1 0.269276 1
1 0.28751 1
1 0.305745 1
1 0.32398 1
1 0.342229 1
1 0.360464 1
0.982406 0.378698 1
0.94638 0.396933 1
0.910353 0.415183 1
0.874327 0.433417 1
0.8383 0.451652 1
0.802274 0.469886 1
0.766262 0.488136 1
0.730236 0.506371 1
0.694209 0.524605 1
0.658183 0.54284 1
0.622156 0.56109 1
0.58613 0.579324 1
0.550103 0.597559 1
0.514076 0.615793 1
0.478065 0.634028 1
0.442039 0.652277 1
0.406012 0.670512 1
0.369985 0.688746 1
0.333959 0.706981 1
0.297932 0.725231 1
0.261906 0.743465 1
1 0.166247 1
1 0.184482 1
1 0.202716 1
1 0.220951 1
1 0.239185 1
1 0.25742 1
1 0.275669 1
1 0.293904 1
1 0.312139 1
1 0.330373 1
1 0.348623 1
1 0.366857 1
1 0.385092 1
1 0.403326 1
0.966949 0.421576 1
0.930922 0.439811 1
0.894896 0.458045 1
0.858869 0.47628 1
0.822843 0.49453 1
0.786816 0.512764 1
0.75079 0.530999 1
0.714763 0.549233 1
0.678752 0.567483 1
0.642725 0.585718 1
0.606699 0.603952 1
0.570672 0.622187 1
0.534646 0.640436 1
0.498619 0.658671 1
0.462593 0.676905 1
0.426581 0.69514 1
0.390555 0.713375 1
0.354528 0.731624 1
0.318502 0.749859 1
1 0.172641 1
1 0.190875 1
1 0.20911 1
1 0.227344 1
1 0.245579 1
1 0.263828 1
1 0.282063 1
1 0.300298 1
1 0.318532 1
