public/LUTS/Color Shift/ColorShift_97.cube
TITLE "Generated by Resolve"
LUT_3D_SIZE 33
0 0 0
0 0.0158999 0.0251926
0 0.0317998 0.0503853
0 0.047715 0.0755932
0 0.0636149 0.100786
0 0.07953 0.125994
0 0.0954299 0.151186
0 0.111345 0.176394
0 0.127245 0.201587
0 0.14316 0.22678
0 0.15906 0.251987
0 0.174975 0.27718
0 0.190875 0.302388
0 0.20679 0.327581
0 0.22269 0.352789
0 0.238605 0.377981
0 0.254505 0.403189
0 0.27042 0.428382
0 0.28632 0.45359
0 0.302235 0.478782
0 0.318135 0.50399
0 0.334051 0.529183
0 0.34995 0.554391
0 0.365866 0.579583
0 0.381765 0.604791
0 0.397681 0.629984
0 0.413581 0.655192
0 0.429496 0.680385
0 0.445396 0.705577
0 0.461295 0.730785
0 0.477211 0.755978
0 0.493111 0.781186
0 0.509026 0.806378
0.0655375 0.00494392 0.0515297
0.03299 0.0208438 0.0767071
0.000411994 0.036759 0.101915
0 0.0526589 0.127108
0 0.068574 0.152316
0 0.0844739 0.177508
0 0.100389 0.202716
0 0.116289 0.227909
0 0.132204 0.253117
0 0.148104 0.278309
0 0.164019 0.303517
0 0.179919 0.32871
0 0.195834 0.353902
0 0.211734 0.37911
0 0.227649 0.404303
0 0.243549 0.429511
0 0.259464 0.454704
0 0.275364 0.479912
0 0.291264 0.505104
0 0.307179 0.530312
0 0.323079 0.555505
0 0.338994 0.580713
0 0.354894 0.605905
0 0.370809 0.631113
0 0.386709 0.656306
0 0.402625 0.681514
0 0.418524 0.706706
0 0.43444 0.731914
0 0.45034 0.757107
0 0.466255 0.782315
0 0.482155 0.807507
0 0.49807 0.8327
0 0.51397 0.857908
0.131106 0.0099031 0.103075
0.098558 0.025803 0.128252
0.06598 0.0417029 0.15346
0.033402 0.0576181 0.178653
0.000839246 0.073518 0.203861
0 0.0894331 0.229053
0 0.105333 0.254261
0 0.121248 0.279454
0 0.137148 0.304662
0 0.153063 0.329854
0 0.168963 0.355062
0 0.184878 0.380255
0 0.200778 0.405463
0 0.216693 0.430655
0 0.232593 0.455863
0 0.248508 0.481056
0 0.264408 0.506264
0 0.280308 0.531456
0 0.296223 0.556664
0 0.312123 0.581857
0 0.328038 0.60705
0 0.343938 0.632258
0 0.359854 0.65745
0 0.375753 0.682658
0 0.391669 0.707851
0 0.407568 0.733059
0 0.423484 0.758251
0 0.439384 0.783459
0 0.455299 0.808652
0 0.471199 0.83386
0 0.487114 0.859052
0 0.503014 0.88426
0 0.518929 0.909453
0.196689 0.014847 0.15462
0.164126 0.0307469 0.179812
0.131548 0.0466621 0.205005
0.0989853 0.062562 0.230213
0.0664073 0.0784772 0.255406
0.0338293 0.094377 0.280613
0.0012665 0.110292 0.305806
0 0.126192 0.331014
0 0.142107 0.356207
0 0.158007 0.381399
0 0.173922 0.406607
0 0.189822 0.4318
0 0.205737 0.457008
0 0.221637 0.4822
0 0.237552 0.507408
0 0.253452 0.532601
0 0.269352 0.557809
0 0.285267 0.583001
0 0.301167 0.608209
0 0.317082 0.633402
0 0.332982 0.65861
0 0.348898 0.683803
0 0.364797 0.70901
0 0.380713 0.734203
0 0.396612 0.759411
0 0.412528 0.784604
0 0.428428 0.809812
0 0.444343 0.835004
0 0.460243 0.860197
0 0.476158 0.885405
0 0.492058 0.910597
0 0.507973 0.935805
0 0.523873 0.960998
0.262257 0.0198062 0.206165
0.229694 0.0357061 0.231357
0.197131 0.051606 0.25655
0.164553 0.0675212 0.281758
0.131975 0.0834211 0.30695
0.0994125 0.0993362 0.332158
0.0668345 0.115236 0.357351
0.0342565 0.131151 0.382559
0.00169375 0.147051 0.407752
0 0.162966 0.432959
0 0.178866 0.458152
0 0.194781 0.48336
0 0.210681 0.508553
0 0.226596 0.533761
0 0.242496 0.558953
0 0.258396 0.584161
0 0.274311 0.609354
0 0.290211 0.634546
0 0.306127 0.659754
0 0.322026 0.684947
0 0.337942 0.710155
0 0.353841 0.735348
0 0.369757 0.760555
0 0.385657 0.785748
0 0.401572 0.810956
0 0.417472 0.836149
0 0.433387 0.861357
0 0.449287 0.886549
0 0.465202 0.911757
0 0.481102 0.93695
0 0.497017 0.962158
0 0.512917 0.98735
0 0.528832 1
0.327825 0.0247501 0.25771
0.295277 0.04065 0.282902
0.262699 0.0565652 0.30811
0.230121 0.0724651 0.333303
0.197559 0.0883803 0.358511
0.164981 0.10428 0.383703
0.132403 0.120195 0.408896
0.0998398 0.136095 0.434104
0.0672618 0.15201 0.459297
0.0346838 0.16791 0.484504
0.002121 0.183825 0.509697
0 0.199725 0.534905
0 0.215625 0.560098
0 0.23154 0.585306
0 0.24744 0.610498
0 0.263355 0.635706
0 0.279255 0.660899
0 0.295171 0.686107
0 0.31107 0.711299
0 0.326986 0.736507
0 0.342885 0.7617
0 0.358801 0.786908
0 0.374701 0.8121
0 0.390616 0.837308
0 0.406516 0.862501
0 0.422431 0.887694
0 0.438331 0.912902
0 0.454246 0.938094
0 0.470146 0.963302
0 0.486061 0.988495
0 0.501961 1
0 0.517876 1
0 0.533776 1
0.393408 0.0297093 0.30927
0.360845 0.0456092 0.334447
0.328267 0.0615091 0.359655
0.295705 0.0774243 0.384848
0.263127 0.0933242 0.410056
0.230549 0.109239 0.435248
0.197986 0.125139 0.460456
0.165408 0.141054 0.485649
0.13283 0.156954 0.510857
0.100267 0.172869 0.536049
0.067689 0.188769 0.561257
0.035111 0.204669 0.58645
0.00254826 0.220584 0.611658
0 0.236484 0.636851
0 0.252399 0.662043
0 0.268299 0.687251
0 0.284215 0.712444
0 0.300114 0.737652
0 0.31603 0.762844
0 0.33193 0.788052
0 0.347845 0.813245
0 0.363745 0.838453
0 0.37966 0.863645
0 0.39556 0.888853
0 0.411475 0.914046
0 0.427375 0.939254
0 0.44329 0.964446
0 0.45919 0.989654
0 0.475105 1
0 0.491005 1
0 0.50692 1
0 0.52282 1
0 0.538735 1
0.458976 0.0346532 0.360815
0.426413 0.0505531 0.386007
0.393851 0.0664683 0.4112
0.361273 0.0823682 0.436393
0.328695 0.0982834 0.461601
0.296132 0.114183 0.486793
0.263554 0.130098 0.512001
0.230976 0.145998 0.537194
0.198413 0.161913 0.562402
0.165835 0.177813 0.587594
0.133257 0.193713 0.612802
0.100694 0.209628 0.637995
0.0681163 0.225528 0.663203
0.0355383 0.241443 0.688396
0.00297551 0.257343 0.713603
0 0.273259 0.738796
0 0.289158 0.764004
0 0.305074 0.789197
0 0.320974 0.814404
0 0.336889 0.839597
0 0.352789 0.864805
0 0.368704 0.889998
0 0.384604 0.91519
0 0.400519 0.940398
0 0.416419 0.965591
0 0.432334 0.990799
0 0.448234 1
0 0.464149 1
0 0.480049 1
0 0.495964 1
0 0.511864 1
0 0.527779 1
0 0.543679 1
0.524544 0.0396124 0.41236
0.491981 0.0555123 0.437552
0.459419 0.0714122 0.462745
0.426841 0.0873274 0.487953
0.394263 0.103227 0.513146
0.3617 0.119142 0.538354
0.329122 0.135042 0.563546
0.296544 0.150942 0.588754
0.263981 0.166857 0.613947
0.231403 0.182757 0.639155
0.198825 0.198672 0.664347
0.166262 0.214572 0.68954
0.133684 0.230488 0.714748
0.101106 0.246387 0.73994
0.0685435 0.262303 0.765148
0.0359655 0.278202 0.790341
0.0033875 0.294118 0.815549
0 0.310018 0.840742
0 0.325933 0.86595
0 0.341833 0.891142
0 0.357748 0.91635
0 0.373648 0.941543
0 0.389563 0.966751
0 0.405463 0.991943
0 0.421378 1
0 0.437278 1
0 0.453193 1
0 0.469093 1
0 0.485008 1
0 0.500908 1
0 0.516823 1
0 0.532723 1
0 0.548638 1
0.590112 0.0445563 0.463905
0.557565 0.0604562 0.489097
0.524987 0.0763714 0.51429
0.492409 0.0922713 0.539498
0.459846 0.108186 0.564691
0.427268 0.124086 0.589899
0.39469 0.139986 0.615091
0.362127 0.155901 0.640299
0.329549 0.171801 0.665492
0.296971 0.187716 0.6907
0.264408 0.203616 0.715892
0.23183 0.219532 0.7411
0.199252 0.235431 0.766293
0.16669 0.251347 0.791501
0.134112 0.267247 0.816693
0.101534 0.283162 0.841901
0.0689708 0.299062 0.867094
0.0363928 0.314977 0.892302
0.00381476 0.330877 0.917494
0 0.346792 0.942687
0 0.362692 0.967895
0 0.378607 0.993088
0 0.394507 1
0 0.410422 1
0 0.426322 1
0 0.442237 1
0 0.458137 1
0 0.474052 1
0 0.489952 1
0 0.505867 1
0 0.521767 1
0 0.537682 1
0 0.553582 1
0.655695 0.0495155 0.51545
0.623133 0.0654154 0.540642
0.590555 0.0813153 0.56585
0.557992 0.0972305 0.591043
0.525414 0.11313 0.616251
0.492836 0.12903 0.641443
0.460273 0.144945 0.666651
0.427695 0.160845 0.691844
0.395117 0.176761 0.717037
0.362554 0.19266 0.742245
0.329976 0.208576 0.767437
0.297398 0.224475 0.792645
0.264836 0.240391 0.817838
0.232258 0.256291 0.843046
0.19968 0.272206 0.868238
0.167117 0.288106 0.893446
0.134539 0.304021 0.918639
0.101961 0.319921 0.943847
0.069398 0.335836 0.969039
0.03682 0.351736 0.994247
0.00424201 0.367651 1
0 0.383551 1
0 0.399466 1
0 0.415366 1
0 0.431281 1
0 0.447181 1
0 0.463096 1
0 0.478996 1
0 0.494911 1
0 0.510811 1
0 0.526726 1
0 0.542626 1
0 0.558541 1
0.721263 0.0544594 0.56701
0.688701 0.0703593 0.592187
0.656138 0.0862593 0.617395
0.62356 0.102174 0.642588
0.590982 0.118074 0.667796
0.558419 0.133989 0.692988
0.525841 0.149889 0.718196
0.493263 0.165805 0.743389
0.4607 0.181704 0.768597
0.428122 0.19762 0.79379
0.395544 0.213519 0.818998
0.362982 0.229435 0.84419
0.330404 0.245335 0.869398
0.297826 0.26125 0.894591
0.265263 0.27715 0.919799
0.232685 0.293065 0.944991
0.200107 0.308965 0.970184
0.167544 0.32488 0.995392
0.134966 0.34078 1
0.102388 0.356695 1
0.0698253 0.372595 1
0.0372473 0.38851 1
0.00466926 0.40441 1
0 0.420325 1
0 0.436225 1
0 0.45214 1
0 0.46804 1
0 0.483955 1
0 0.499855 1
0 0.51577 1
0 0.53167 1
0 0.547585 1
0 0.563485 1
0.786831 0.0594186 0.618555
0.754284 0.0753033 0.643748
0.721706 0.0912184 0.66894
0.689128 0.107118 0.694148
0.656565 0.123033 0.719341
0.623987 0.138933 0.744533
0.591409 0.154849 0.769741
0.558846 0.170748 0.794934
0.526268 0.186664 0.820142
0.49369 0.202564 0.845335
0.461128 0.218479 0.870542
0.42855 0.234379 0.895735
0.395972 0.250294 0.920943
0.363409 0.266194 0.946136
0.330831 0.282109 0.971344
0.298253 0.298009 0.996536
0.26569 0.313924 1
0.233112 0.329824 1
0.200534 0.345739 1
0.167971 0.361639 1
0.135393 0.377554 1
0.102815 0.393454 1
0.0702525 0.409369 1
0.0376745 0.425269 1
0.00509651 0.441184 1
0 0.457084 1
0 0.472999 1
0 0.488899 1
0 0.504814 1
0 0.520714 1
0 0.536614 1
0 0.552529 1
0 0.568429 1
0.852399 0.0643626 0.6701
0.819852 0.0802625 0.695293
0.787274 0.0961624 0.720485
0.754696 0.112078 0.745693
0.722133 0.127977 0.770886
0.689555 0.143893 0.796094
0.656977 0.159792 0.821286
0.624414 0.175708 0.846494
0.591836 0.191608 0.871687
0.559258 0.207523 0.896895
0.526696 0.223423 0.922087
0.494118 0.239338 0.947295
0.46154 0.255238 0.972488
0.428977 0.271153 0.997681
0.396399 0.287053 1
0.363821 0.302968 1
0.331258 0.318868 1
0.29868 0.334783 1
0.266117 0.350683 1
0.233539 0.366598 1
0.200961 0.382498 1
0.168399 0.398413 1
0.135821 0.414313 1
0.103243 0.430228 1
0.0706798 0.446128 1
0.0381018 0.462043 1
0.00552377 0.477943 1
0 0.493858 1
0 0.509758 1
0 0.525658 1
0 0.541573 1
0 0.557473 1
0 0.573388 1
0.917983 0.0693065 0.721645
0.88542 0.0852064 0.746838
0.852842 0.101122 0.77203
0.820279 0.117021 0.797238
0.787701 0.132937 0.822431
0.755123 0.148836 0.847639
0.72256 0.164752 0.872831
0.689982 0.180652 0.898039
0.657404 0.196567 0.923232
0.624842 0.212467 0.94844
0.592264 0.228382 0.973632
0.559686 0.244282 0.99884
0.527123 0.260197 1
0.494545 0.276097 1
0.461967 0.292012 1
0.429404 0.307912 1
0.396826 0.323827 1
0.364248 0.339727 1
0.331685 0.355642 1
0.299107 0.371542 1
0.266529 0.387457 1
0.233967 0.403357 1
0.201389 0.419272 1
0.168811 0.435172 1
0.136248 0.451087 1
0.10367 0.466987 1
0.0710918 0.482902 1
0.038529 0.498802 1
0.00595102 0.514702 1
0 0.530617 1
0 0.546517 1
0 0.562432 1
0 0.578332 1
0.983551 0.0742657 0.773205
0.950988 0.0901656 0.798383
0.918425 0.106065 0.82359
0.885847 0.121981 0.848783
0.853269 0.137881 0.873991
0.820706 0.153796 0.899184
0.788128 0.169696 0.924392
0.75555 0.185611 0.949584
0.722988 0.201511 0.974792
0.69041 0.217426 0.999985
0.657832 0.233326 1
0.625269 0.249241 1
0.592691 0.265141 1
0.560113 0.281056 1
0.52755 0.296956 1
0.494972 0.312871 1
0.462394 0.328771 1
0.429831 0.344686 1
0.397253 0.360586 1
0.364675 0.376501 1
0.332113 0.392401 1
0.299535 0.408316 1
0.266957 0.424216 1
0.234394 0.440131 1
0.201816 0.456031 1
0.169238 0.471931 1
0.136675 0.487846 1
0.104097 0.503746 1
0.071519 0.519661 1
0.0389563 0.535561 1
0.00637827 0.551476 1
0 0.567376 1
0 0.583291 1
1 0.0792096 0.82475
1 0.0951095 0.849928
0.983993 0.111025 0.875135
0.951415 0.126925 0.900328
0.918853 0.14284 0.925536
0.886275 0.15874 0.950729
0.853697 0.174655 0.975937
0.821134 0.190555 1
0.788556 0.20647 1
0.755978 0.22237 1
0.723415 0.238285 1
0.690837 0.254185 1
0.658259 0.2701 1
0.625696 0.286 1
0.593118 0.301915 1
0.56054 0.317815 1
0.527977 0.33373 1
0.495399 0.34963 1
0.462821 0.365545 1
0.430259 0.381445 1
0.397681 0.39736 1
0.365103 0.41326 1
0.33254 0.429175 1
0.299962 0.445075 1
0.267384 0.460975 1
0.234821 0.47689 1
0.202243 0.49279 1
0.169665 0.508705 1
0.137102 0.524605 1
0.104524 0.54052 1
0.0719463 0.55642 1
0.0393835 0.572335 1
0.00680552 0.588235 1
1 0.0841688 0.876295
1 0.100069 0.901488
1 0.115969 0.92668
1 0.131884 0.951888
0.984421 0.147784 0.977081
0.951843 0.163699 1
0.91928 0.179599 1
0.886702 0.195514 1
0.854124 0.211414 1
0.821561 0.227329 1
0.788983 0.243229 1
0.756405 0.259144 1
0.723842 0.275044 1
0.691264 0.290959 1
0.658686 0.306859 1
0.626123 0.322774 1
0.593545 0.338674 1
0.560967 0.354589 1
0.528405 0.370489 1
0.495827 0.386404 1
0.463249 0.402304 1
0.430686 0.418219 1
0.398108 0.434119 1
0.36553 0.450019 1
0.332967 0.465934 1
0.300389 0.481834 1
0.267811 0.497749 1
0.235248 0.513649 1
0.20267 0.529564 1
0.170092 0.545464 1
0.13753 0.561379 1
0.104952 0.577279 1
0.0723735 0.593194 1
1 0.0891127 0.92784
1 0.105013 0.953033
1 0.120928 0.978225
1 0.136828 1
1 0.152743 1
1 0.168643 1
0.984848 0.184558 1
0.95227 0.200458 1
0.919707 0.216373 1
0.887129 0.232273 1
0.854551 0.248188 1
0.821988 0.264088 1
0.78941 0.280003 1
0.756832 0.295903 1
0.724269 0.311818 1
0.691691 0.327718 1
0.659113 0.343633 1
0.626551 0.359533 1
0.593973 0.375448 1
0.561395 0.391348 1
0.528832 0.407263 1
0.496254 0.423163 1
0.463676 0.439063 1
0.431113 0.454978 1
0.398535 0.470878 1
0.365957 0.486793 1
0.333394 0.502693 1
0.300816 0.518608 1
0.268238 0.534508 1
0.235676 0.550423 1
0.203098 0.566323 1
0.17052 0.582238 1
0.137957 0.598138 1
1 0.0940719 0.979385
1 0.109972 1
1 0.125872 1
1 0.141787 1
1 0.157687 1
1 0.173602 1
1 0.189502 1
1 0.205417 1
0.985275 0.221317 1
0.952697 0.237232 1
0.920119 0.253132 1
0.887556 0.269047 1
0.854978 0.284947 1
0.8224 0.300862 1
0.789837 0.316762 1
0.757259 0.332677 1
0.724681 0.348577 1
0.692119 0.364492 1
0.659541 0.380392 1
0.626963 0.396292 1
0.5944 0.412207 1
0.561822 0.428107 1
0.529244 0.444022 1
0.496681 0.459922 1
0.464103 0.475837 1
0.431525 0.491737 1
0.398962 0.507652 1
0.366384 0.523552 1
0.333806 0.539467 1
0.301244 0.555367 1
0.268666 0.571283 1
0.236088 0.587182 1
0.203525 0.603098 1
1 0.0990158 1
1 0.114916 1
1 0.130831 1
1 0.146731 1
1 0.162646 1
1 0.178546 1
1 0.194461 1
1 0.210361 1
1 0.226276 1
1 0.242176 1
0.985702 0.258091 1
0.953124 0.273991 1
0.920546 0.289906 1
0.887984 0.305806 1
0.855406 0.321721 1
0.822828 0.337621 1
0.790265 0.353536 1
0.757687 0.369436 1
0.725109 0.385336 1
0.692546 0.401251 1
0.659968 0.417151 1
0.62739 0.433066 1
0.594827 0.448966 1
0.562249 0.464881 1
0.529671 0.480781 1
0.497108 0.496696 1
0.46453 0.512596 1
0.431952 0.528511 1
0.39939 0.544411 1
0.366812 0.560327 1
0.334234 0.576226 1
0.301671 0.592142 1
0.269093 0.608042 1
1 0.103975 1
1 0.119875 1
1 0.135775 1
1 0.15169 1
1 0.16759 1
1 0.183505 1
1 0.199405 1
1 0.21532 1
1 0.23122 1
1 0.247135 1
1 0.263035 1
1 0.27895 1
0.98613 0.29485 1
0.953552 0.310765 1
0.920974 0.326665 1
0.888411 0.34258 1
0.855833 0.35848 1
0.823255 0.37438 1
0.790692 0.390295 1
0.758114 0.406195 1
0.725536 0.42211 1
0.692973 0.43801 1
0.660395 0.453925 1
0.627817 0.469825 1
0.595254 0.48574 1
0.562676 0.50164 1
0.530098 0.517555 1
0.497536 0.533455 1
0.464958 0.549371 1
0.43238 0.56527 1
0.399817 0.581186 1
0.367239 0.597086 1
0.334661 0.613001 1
1 0.108919 1
1 0.124819 1
1 0.140734 1
1 0.156634 1
1 0.172549 1
1 0.188449 1
1 0.204364 1
1 0.220264 1
1 0.236179 1
1 0.252079 1
1 0.267994 1
1 0.283894 1
1 0.299809 1
1 0.315709 1
0.986557 0.331609 1
0.953979 0.347524 1
0.921401 0.363424 1
0.888838 0.379339 1
0.85626 0.395239 1
0.823682 0.411154 1
0.791119 0.427054 1
0.758541 0.442969 1
0.725963 0.458869 1
0.693401 0.474784 1
0.660822 0.490684 1
0.628244 0.5066 1
0.595682 0.522499 1
0.563104 0.538415 1
0.530526 0.554314 1
0.497963 0.57023 1
0.465385 0.58613 1
0.432807 0.602045 1
0.400244 0.617945 1
1 0.113878 1
1 0.129778 1
1 0.145678 1
1 0.161593 1
1 0.177493 1
1 0.193408 1
1 0.209308 1
1 0.225223 1
1 0.241123 1
1 0.257038 1
1 0.272938 1
1 0.288853 1
1 0.304753 1
1 0.320653 1
1 0.336568 1
1 0.352468 1
0.986984 0.368383 1
0.954406 0.384283 1
0.921828 0.400198 1
0.889265 0.416098 1
0.856687 0.432013 1
0.824109 0.447913 1
0.791547 0.463828 1
0.758968 0.479728 1
0.72639 0.495644 1
0.693828 0.511543 1
0.66125 0.527459 1
0.628672 0.543359 1
0.596109 0.559274 1
0.563531 0.575174 1
0.530953 0.591089 1
0.49839 0.606989 1
0.465812 0.622904 1
1 0.118822 1
1 0.134722 1
1 0.150637 1
1 0.166537 1
1 0.182452 1
1 0.198352 1
1 0.214267 1
1 0.230167 1
1 0.246082 1
1 0.261982 1
1 0.277897 1
1 0.293797 1
1 0.309697 1
1 0.325612 1
1 0.341512 1
1 0.357427 1
1 0.373327 1
1 0.389242 1
0.987396 0.405142 1
0.954833 0.421057 1
0.922255 0.436957 1
0.889677 0.452873 1
0.857114 0.468772 1
0.824537 0.484688 1
0.791959 0.500587 1
0.759396 0.516503 1
0.726818 0.532403 1
0.694255 0.548318 1
0.661677 0.564218 1
0.629099 0.580133 1
0.596536 0.596033 1
0.563958 0.611948 1
0.53138 0.627848 1
1 0.123781 1
1 0.139681 1
1 0.155581 1
1 0.171496 1
1 0.187396 1
1 0.203311 1
1 0.219211 1
1 0.235126 1
1 0.251026 1
1 0.266926 1
1 0.282841 1
1 0.298741 1
1 0.314656 1
1 0.330556 1
1 0.346471 1
1 0.362371 1
1 0.378286 1
1 0.394186 1
1 0.410101 1
1 0.426001 1
0.987823 0.441917 1
0.955261 0.457816 1
0.922683 0.473732 1
0.890105 0.489632 1
0.857542 0.505547 1
0.824964 0.521447 1
0.792386 0.537362 1
0.759823 0.553262 1
0.727245 0.569177 1
0.694667 0.585077 1
0.662104 0.600992 1
0.629526 0.616892 1
0.596948 0.632807 1
1 0.128725 1
1 0.144625 1
1 0.16054 1
1 0.17644 1
1 0.192355 1
1 0.208255 1
1 0.22417 1
1 0.24007 1
1 0.25597 1
1 0.271885 1
1 0.287785 1
1 0.3037 1
1 0.3196 1
1 0.335515 1
1 0.351415 1
1 0.36733 1
1 0.38323 1
1 0.399145 1
1 0.415045 1
1 0.430961 1
1 0.44686 1
1 0.462776 1
0.988251 0.478676 1
0.955688 0.494591 1
0.92311 0.510491 1
0.890532 0.526406 1
0.857969 0.542306 1
0.825391 0.558221 1
0.792813 0.574121 1
0.76025 0.590036 1
0.727672 0.605936 1
0.695094 0.621851 1
0.662531 0.637751 1
1 0.133684 1
1 0.149584 1
1 0.165484 1
1 0.181399 1
1 0.197299 1
1 0.213214 1
1 0.229114 1
1 0.245014 1
1 0.260929 1
