public/LUTS/Color Shift/ColorShift_20.cube
TITLE "Generated by Resolve"
LUT_3D_SIZE 33
0 0 0
0.0213931 0.0047303 0
0.0427863 0.00947585 0
0.0641947 0.0142061 0
0.0856031 0.0189364 0
0.106996 0.023682 0
0.128405 0.0284123 0
0.149798 0.0331579 0
0.171206 0.0378882 0
0.192599 0.0426184 0
0.214008 0.047364 0
0.235416 0.0520943 0
0.256809 0.0568399 0
0.278218 0.0615702 0
0.299611 0.0663005 0
0.321019 0.071046 0
0.342412 0.0757763 0
0.363821 0.0805219 0
0.385214 0.0852522 0
0.406622 0.0899825 0
0.428031 0.094728 0
0.449424 0.0994583 0
0.470832 0.104204 0
0.492226 0.108934 0
0.513634 0.113664 0
0.535027 0.11841 0
0.556435 0.12314 0
0.577844 0.127871 0
0.599237 0.132616 0
0.620645 0.137346 0
0.642039 0.142092 0
0.663447 0.146822 0
0.68484 0.151553 0
0 0.0316167 0.0187381
0.0120699 0.0363622 0.00488289
0.0334783 0.0410925 0
0.0548714 0.0458228 0
0.0762798 0.0505684 0
0.0976883 0.0552987 0
0.119081 0.0600443 0
0.14049 0.0647746 0
0.161883 0.0695048 0
0.183291 0.0742504 0
0.204685 0.0789807 0
0.226093 0.0837262 0
0.247486 0.0884565 0
0.268894 0.0931868 0
0.290303 0.0979324 0
0.311696 0.102663 0
0.333104 0.107408 0
0.354498 0.112139 0
0.375906 0.116869 0
0.397299 0.121614 0
0.418708 0.126345 0
0.440116 0.131075 0
0.461509 0.135821 0
0.482918 0.140551 0
0.504311 0.145296 0
0.525719 0.150027 0
0.547112 0.154757 0
0.568521 0.159503 0
0.589929 0.164233 0
0.611322 0.168978 0
0.632731 0.173709 0
0.654124 0.178439 0
0.675532 0.183185 0
0 0.0632639 0.0374762
0.00274662 0.0679942 0.023621
0.024155 0.0727245 0.00976577
0.0455482 0.0774701 0
0.0669566 0.0822003 0
0.088365 0.0869459 0
0.109758 0.0916762 0
0.131167 0.0964065 0
0.15256 0.101152 0
0.173968 0.105882 0
0.195361 0.110628 0
0.21677 0.115358 0
0.238178 0.120089 0
0.259571 0.124834 0
0.28098 0.129564 0
0.302373 0.13431 0
0.323781 0.13904 0
0.345174 0.143771 0
0.366583 0.148516 0
0.387991 0.153246 0
0.409384 0.157977 0
0.430793 0.162722 0
0.452186 0.167452 0
0.473594 0.172198 0
0.494987 0.176928 0
0.516396 0.181659 0
0.537789 0.186404 0
0.559197 0.191135 0
0.580606 0.19588 0
0.601999 0.20061 0
0.623407 0.205341 0
0.6448 0.210086 0
0.666209 0.214817 0
0 0.0948959 0.0562142
0 0.0996262 0.042359
0.0148318 0.104372 0.0285039
0.0362402 0.109102 0.0146487
0.0576333 0.113848 0.00077821
0.0790417 0.118578 0
0.100435 0.123308 0
0.121843 0.128054 0
0.143236 0.132784 0
0.164645 0.13753 0
0.186038 0.14226 0
0.207446 0.14699 0
0.228855 0.151736 0
0.250248 0.156466 0
0.271656 0.161196 0
0.29305 0.165942 0
0.314458 0.170672 0
0.335851 0.175418 0
0.357259 0.180148 0
0.378668 0.184878 0
0.400061 0.189624 0
0.421469 0.194354 0
0.442863 0.1991 0
0.464271 0.20383 0
0.485664 0.20856 0
0.507073 0.213306 0
0.528481 0.218036 0
0.549874 0.222782 0
0.571283 0.227512 0
0.592676 0.232242 0
0.614084 0.236988 0
0.635477 0.241718 0
0.656886 0.246464 0
0 0.126543 0.0749523
0 0.131273 0.0610971
0.00550851 0.136004 0.0472419
0.0269169 0.140749 0.0333867
0.0483101 0.14548 0.0195163
0.0697185 0.15021 0.0056611
0.0911116 0.154955 0
0.11252 0.159686 0
0.133913 0.164431 0
0.155322 0.169162 0
0.17673 0.173892 0
0.198123 0.178637 0
0.219532 0.183368 0
0.240925 0.188098 0
0.262333 0.192844 0
0.283726 0.197574 0
0.305135 0.202319 0
0.326543 0.20705 0
0.347936 0.21178 0
0.369345 0.216526 0
0.390738 0.221256 0
0.412146 0.226001 0
0.433539 0.230732 0
0.454948 0.235462 0
0.476341 0.240208 0
0.497749 0.244938 0
0.519158 0.249683 0
0.540551 0.254414 0
0.561959 0.259144 0
0.583352 0.26389 0
0.604761 0.26862 0
0.626154 0.273365 0
0.647562 0.278096 0
0 0.158175 0.0936904
0 0.162905 0.0798352
0 0.167651 0.06598
0.0175937 0.172381 0.0521248
0.0389868 0.177111 0.0382696
0.0603952 0.181857 0.0243992
0.0817884 0.186587 0.010544
0.103197 0.191333 0
0.124605 0.196063 0
0.145998 0.200793 0
0.167407 0.205539 0
0.1888 0.210269 0
0.210208 0.215 0
0.231601 0.219745 0
0.25301 0.224475 0
0.274403 0.229221 0
0.295811 0.233951 0
0.31722 0.238682 0
0.338613 0.243427 0
0.360021 0.248157 0
0.381415 0.252903 0
0.402823 0.257633 0
0.424216 0.262364 0
0.445624 0.267109 0
0.467033 0.271839 0
0.488426 0.276585 0
0.509834 0.281315 0
0.531228 0.286046 0
0.552636 0.290791 0
0.574029 0.295521 0
0.595438 0.300267 0
0.616846 0.304997 0
0.638239 0.309728 0
0 0.189807 0.112428
0 0.194553 0.0985733
0 0.199283 0.0847181
0.00827039 0.204013 0.0708629
0.0296635 0.208759 0.0570077
0.0510719 0.213489 0.0431525
0.0724651 0.218219 0.0292821
0.0938735 0.222965 0.0154269
0.115282 0.227695 0.00157168
0.136675 0.232441 0
0.158083 0.237171 0
0.179477 0.241901 0
0.200885 0.246647 0
0.222278 0.251377 0
0.243687 0.256123 0
0.265095 0.260853 0
0.286488 0.265583 0
0.307897 0.270329 0
0.32929 0.275059 0
0.350698 0.279805 0
0.372091 0.284535 0
0.3935 0.289265 0
0.414893 0.294011 0
0.436301 0.298741 0
0.45771 0.303487 0
0.479103 0.308217 0
0.500511 0.312947 0
0.521904 0.317693 0
0.543313 0.322423 0
0.564706 0.327169 0
0.586114 0.331899 0
0.607523 0.336629 0
0.628916 0.341375 0
0 0.221454 0.131167
0 0.226184 0.117327
0 0.230915 0.103456
0 0.23566 0.089601
0.0203403 0.240391 0.0757458
0.0417487 0.245121 0.0618906
0.0631571 0.249866 0.0480201
0.0845502 0.254597 0.034165
0.105959 0.259342 0.0203098
0.127352 0.264073 0.00645457
0.14876 0.268803 0
0.170153 0.273548 0
0.191562 0.278279 0
0.212955 0.283024 0
0.234363 0.287755 0
0.255772 0.292485 0
0.277165 0.29723 0
0.298573 0.301961 0
0.319966 0.306706 0
0.341375 0.311437 0
0.362768 0.316167 0
0.384176 0.320912 0
0.405585 0.325643 0
0.426978 0.330388 0
0.448386 0.335119 0
0.46978 0.339849 0
0.491188 0.344594 0
0.512581 0.349325 0
0.533989 0.35407 0
0.555398 0.358801 0
0.576791 0.363531 0
0.598199 0.368277 0
0.619593 0.373007 0
0 0.253086 0.14992
0 0.257816 0.136065
0 0.262562 0.12221
0 0.267292 0.108339
0.011017 0.272023 0.0944839
0.0324254 0.276768 0.0806287
0.0538338 0.281498 0.0667735
0.075227 0.286244 0.052903
0.0966354 0.290974 0.0390478
0.118029 0.295705 0.0251926
0.139437 0.30045 0.0113375
0.16083 0.30518 0
0.182239 0.309926 0
0.203647 0.314656 0
0.22504 0.319387 0
0.246448 0.324132 0
0.267842 0.328862 0
0.28925 0.333608 0
0.310643 0.338338 0
0.332052 0.343069 0
0.353445 0.347814 0
0.374853 0.352544 0
0.396262 0.35729 0
0.417655 0.36202 0
0.439063 0.366751 0
0.460456 0.371496 0
0.481865 0.376226 0
0.503258 0.380972 0
0.524666 0.385702 0
0.546075 0.390433 0
0.567468 0.395178 0
0.588876 0.399908 0
0.610269 0.404639 0
0 0.284718 0.168658
0 0.289464 0.154803
0 0.294194 0.140948
0 0.298924 0.127077
0.00170901 0.30367 0.113222
0.0231022 0.3084 0.0993668
0.0445106 0.313146 0.0855116
0.0659037 0.317876 0.0716564
0.0873121 0.322606 0.0577859
0.108705 0.327352 0.0439307
0.130114 0.332082 0.0300755
0.151507 0.336828 0.0162203
0.172915 0.341558 0.00234989
0.194324 0.346288 0
0.215717 0.351034 0
0.237125 0.355764 0
0.258518 0.36051 0
0.279927 0.36524 0
0.30132 0.36997 0
0.322728 0.374716 0
0.344137 0.379446 0
0.36553 0.384192 0
0.386938 0.388922 0
0.408331 0.393652 0
0.42974 0.398398 0
0.451133 0.403128 0
0.472541 0.407874 0
0.49395 0.412604 0
0.515343 0.417334 0
0.536751 0.42208 0
0.558145 0.42681 0
0.579553 0.43154 0
0.600946 0.436286 0
0 0.316365 0.187396
0 0.321096 0.173541
0 0.325826 0.159686
0 0.330571 0.14583
0 0.335302 0.13196
0.0137789 0.340047 0.118105
0.0351873 0.344778 0.10425
0.0565805 0.349508 0.0903944
0.0779889 0.354253 0.076524
0.099382 0.358984 0.0626688
0.12079 0.363729 0.0488136
0.142199 0.36846 0.0349584
0.163592 0.37319 0.021088
0.185 0.377935 0.00723278
0.206394 0.382666 0
0.227802 0.387411 0
0.249195 0.392142 0
0.270604 0.396872 0
0.292012 0.401617 0
0.313405 0.406348 0
0.334813 0.411093 0
0.356207 0.415824 0
0.377615 0.420554 0
0.399008 0.425299 0
0.420417 0.43003 0
0.44181 0.434775 0
0.463218 0.439506 0
0.484627 0.444236 0
0.50602 0.448981 0
0.527428 0.453712 0
0.548821 0.458442 0
0.57023 0.463188 0
0.591623 0.467918 0
0 0.347997 0.206134
0 0.352728 0.192279
0 0.357473 0.178424
0 0.362203 0.164569
0 0.366949 0.150713
0.00445563 0.371679 0.136843
0.025864 0.37641 0.122988
0.0472572 0.381155 0.109133
0.0686656 0.385885 0.0952773
0.0900587 0.390631 0.0814069
0.111467 0.395361 0.0675517
0.132876 0.400092 0.0536965
0.154269 0.404837 0.0398413
0.175677 0.409567 0.0259709
0.19707 0.414313 0.0121157
0.218479 0.419043 0
0.239872 0.423774 0
0.26128 0.428519 0
0.282689 0.433249 0
0.304082 0.437995 0
0.32549 0.442725 0
0.346883 0.447456 0
0.368292 0.452201 0
0.389685 0.456931 0
0.411093 0.461662 0
0.432502 0.466407 0
0.453895 0.471138 0
0.475303 0.475883 0
0.496696 0.480613 0
0.518105 0.485344 0
0.539498 0.490089 0
0.560906 0.49482 0
0.582315 0.499565 0
0 0.379644 0.224872
0 0.384375 0.211017
0 0.389105 0.197162
0 0.393851 0.183307
0 0.398581 0.169451
0 0.403311 0.155581
0.0165408 0.408057 0.141726
0.0379339 0.412787 0.127871
0.0593423 0.417533 0.114015
0.0807507 0.422263 0.100145
0.102144 0.426993 0.0862898
0.123552 0.431739 0.0724346
0.144945 0.436469 0.0585794
0.166354 0.441215 0.0447242
0.187747 0.445945 0.0308537
0.209155 0.450675 0.0169985
0.230564 0.455421 0.00314336
0.251957 0.460151 0
0.273365 0.464897 0
0.294759 0.469627 0
0.316167 0.474357 0
0.33756 0.479103 0
0.358968 0.483833 0
0.380362 0.488563 0
0.40177 0.493309 0
0.423178 0.498039 0
0.444572 0.502785 0
0.46598 0.507515 0
0.487373 0.512245 0
0.508782 0.516991 0
0.530175 0.521721 0
0.551583 0.526467 0
0.572992 0.531197 0
0 0.411276 0.24361
0 0.416007 0.22977
0 0.420752 0.2159
0 0.425483 0.202045
0 0.430213 0.18819
0 0.434958 0.174334
0.00721752 0.439689 0.160464
0.0286259 0.444434 0.146609
0.0500191 0.449165 0.132753
0.0714275 0.453895 0.118898
0.0928206 0.45864 0.105028
0.114229 0.463371 0.0911727
0.135622 0.468116 0.0773175
0.157031 0.472847 0.0634623
0.178424 0.477577 0.0495918
0.199832 0.482322 0.0357366
0.221241 0.487053 0.0218814
0.242634 0.491783 0.00802625
0.264042 0.496529 0
0.285435 0.501259 0
0.306844 0.506004 0
0.328237 0.510735 0
0.349645 0.515465 0
0.371054 0.520211 0
0.392447 0.524941 0
0.413855 0.529686 0
0.435248 0.534417 0
0.456657 0.539147 0
0.47805 0.543893 0
0.499458 0.548623 0
0.520867 0.553368 0
0.54226 0.558099 0
0.563668 0.562829 0
0 0.442908 0.262348
0 0.447654 0.248508
0 0.452384 0.234638
0 0.457115 0.220783
0 0.46186 0.206928
0 0.46659 0.193072
0 0.471336 0.179202
0.0193027 0.476066 0.165347
0.0406958 0.480797 0.151492
0.0621042 0.485542 0.137636
0.0834974 0.490272 0.123781
0.104906 0.495018 0.109911
0.126299 0.499748 0.0960555
0.147707 0.504479 0.0822003
0.169116 0.509224 0.0683452
0.190509 0.513954 0.0544747
0.211917 0.518685 0.0406195
0.23331 0.52343 0.0267643
0.254719 0.528161 0.0129091
0.276112 0.532906 0
0.29752 0.537636 0
0.318929 0.542367 0
0.340322 0.547112 0
0.36173 0.551843 0
0.383124 0.556588 0
0.404532 0.561318 0
0.425925 0.566049 0
0.447333 0.570794 0
0.468727 0.575525 0
0.490135 0.58027 0
0.511543 0.585 0
0.532937 0.589731 0
0.554345 0.594476 0
0 0.474556 0.281102
0 0.479286 0.267247
0 0.484016 0.253391
0 0.488762 0.239521
0 0.493492 0.225666
0 0.498238 0.21181
0 0.502968 0.197955
0.0099794 0.507698 0.184085
0.0313726 0.512444 0.17023
0.052781 0.517174 0.156374
0.0741741 0.52192 0.142519
0.0955825 0.52665 0.128649
0.116976 0.53138 0.114794
0.138384 0.536126 0.100938
0.159792 0.540856 0.0870832
0.181186 0.545586 0.073228
0.202594 0.550332 0.0593576
0.223987 0.555062 0.0455024
0.245396 0.559808 0.0316472
0.266789 0.564538 0.017792
0.288197 0.569268 0.00392157
0.309606 0.574014 0
0.330999 0.578744 0
0.352407 0.58349 0
0.3738 0.58822 0
0.395209 0.59295 0
0.416602 0.597696 0
0.43801 0.602426 0
0.459419 0.607172 0
0.480812 0.611902 0
0.50222 0.616632 0
0.523613 0.621378 0
0.545022 0.626108 0
0 0.506188 0.29984
0 0.510918 0.285985
0 0.515663 0.272129
0 0.520394 0.258259
0 0.525139 0.244404
0 0.52987 0.230549
0 0.5346 0.216693
0.000656138 0.539345 0.202838
0.0220493 0.544076 0.188968
0.0434577 0.548806 0.175113
0.0648508 0.553552 0.161257
0.0862593 0.558282 0.147402
0.107668 0.563027 0.133532
0.129061 0.567758 0.119677
0.150469 0.572488 0.105821
0.171862 0.577234 0.0919661
0.193271 0.581964 0.0780957
0.214664 0.586709 0.0642405
0.236072 0.59144 0.0503853
0.257481 0.59617 0.0365301
0.278874 0.600916 0.0226596
0.300282 0.605646 0.00880446
0.321675 0.610391 0
0.343084 0.615122 0
0.364477 0.619852 0
0.385885 0.624598 0
0.407279 0.629328 0
0.428687 0.634073 0
0.450095 0.638804 0
0.471489 0.643534 0
0.492897 0.64828 0
0.51429 0.65301 0
0.535698 0.657755 0
0 0.53782 0.318578
0 0.542565 0.304723
0 0.547295 0.290867
0 0.552041 0.277012
0 0.556771 0.263142
0 0.561502 0.249287
0 0.566247 0.235431
0 0.570977 0.221576
0.012726 0.575708 0.207706
0.0341344 0.580453 0.193851
0.0555276 0.585184 0.179995
0.076936 0.589929 0.16614
0.0983444 0.594659 0.152285
0.119738 0.59939 0.138415
0.141146 0.604135 0.124559
0.162539 0.608865 0.110704
0.183948 0.613611 0.096849
0.205341 0.618341 0.0829786
0.226749 0.623072 0.0691234
0.248157 0.627817 0.0552682
0.269551 0.632547 0.041413
0.290959 0.637293 0.0275425
0.312352 0.642023 0.0136873
0.333761 0.646754 0
0.355154 0.651499 0
0.376562 0.656229 0
0.397971 0.660975 0
0.419364 0.665705 0
0.440772 0.670436 0
0.462165 0.675181 0
0.483574 0.679911 0
0.504967 0.684657 0
0.526375 0.689387 0
0 0.569467 0.337316
0 0.574197 0.323461
0 0.578927 0.309606
0 0.583673 0.29575
0 0.588403 0.281895
0 0.593149 0.268025
0 0.597879 0.25417
0 0.602609 0.240314
0.00340276 0.607355 0.226459
0.0248112 0.612085 0.212589
0.0462196 0.616831 0.198734
0.0676127 0.621561 0.184878
0.0890211 0.626291 0.171023
0.110414 0.631037 0.157153
0.131823 0.635767 0.143297
0.153216 0.640513 0.129442
0.174624 0.645243 0.115587
0.196033 0.649973 0.101717
0.217426 0.654719 0.0878614
0.238834 0.659449 0.0740063
0.260227 0.664195 0.0601511
0.281636 0.668925 0.0462959
0.303029 0.673655 0.0324254
0.324437 0.678401 0.0185702
0.34583 0.683131 0.00471504
0.367239 0.687877 0
0.388647 0.692607 0
0.41004 0.697337 0
0.431449 0.702083 0
0.452842 0.706813 0
0.47425 0.711559 0
0.495644 0.716289 0
0.517052 0.721019 0
0 0.601099 0.356054
0 0.605829 0.342199
0 0.610574 0.328344
0 0.615305 0.314488
0 0.62005 0.300633
0 0.624781 0.286763
0 0.629511 0.272908
0 0.634256 0.259052
0 0.638987 0.245197
0.0154879 0.643732 0.231342
0.0368963 0.648463 0.217472
0.0582895 0.653193 0.203616
0.0796979 0.657938 0.189761
0.101091 0.662669 0.175906
0.122499 0.667414 0.162036
0.143893 0.672145 0.14818
0.165301 0.676875 0.134325
0.186709 0.68162 0.12047
0.208103 0.686351 0.1066
0.229511 0.691096 0.0927443
0.250904 0.695827 0.0788891
0.272312 0.700557 0.0650339
0.293706 0.705303 0.0511635
0.315114 0.710033 0.0373083
0.336522 0.714778 0.0234531
0.357916 0.719509 0.00959792
0.379324 0.724239 0
0.400717 0.728985 0
0.422126 0.733715 0
0.443519 0.73846 0
0.464927 0.743191 0
0.486336 0.747921 0
0.507729 0.752667 0
0 0.632746 0.374792
0 0.637476 0.360952
0 0.642206 0.347082
0 0.646952 0.333227
0 0.651682 0.319371
0 0.656413 0.305516
0 0.661158 0.291646
0 0.665888 0.27779
0 0.670634 0.263935
0.00616464 0.675364 0.25008
0.0275731 0.680095 0.23621
0.0489662 0.68484 0.222354
0.0703746 0.68957 0.208499
0.0917678 0.694316 0.194644
0.113176 0.699046 0.180774
0.134585 0.703777 0.166918
0.155978 0.708522 0.153063
0.177386 0.713252 0.139208
0.198779 0.717998 0.125353
0.220188 0.722728 0.111482
0.241581 0.727459 0.0976272
0.262989 0.732204 0.083772
0.284382 0.736934 0.0699168
0.305791 0.74168 0.0560464
0.327199 0.74641 0.0421912
0.348592 0.751141 0.028336
0.370001 0.755886 0.0144808
0.391394 0.760616 0.000610361
0.412802 0.765362 0
0.434195 0.770092 0
0.455604 0.774823 0
0.477012 0.779568 0
0.498405 0.784298 0
0 0.664378 0.39353
0 0.669108 0.37969
0 0.673854 0.36582
0 0.678584 0.351965
0 0.683314 0.338109
0 0.68806 0.324254
0 0.69279 0.310399
0 0.697536 0.296529
0 0.702266 0.282673
0 0.706996 0.268818
0.0182498 0.711742 0.254963
0.0396429 0.716472 0.241093
0.0610513 0.721218 0.227237
0.0824445 0.725948 0.213382
0.103853 0.730678 0.199527
0.125261 0.735424 0.185657
0.146654 0.740154 0.171801
0.168063 0.7449 0.157946
0.189456 0.74963 0.144091
0.210864 0.75436 0.13022
0.232258 0.759106 0.116365
0.253666 0.763836 0.10251
0.275074 0.768582 0.0886549
0.296468 0.773312 0.0747997
0.317876 0.778042 0.0609293
0.339269 0.782788 0.0470741
0.360678 0.787518 0.0332189
0.382071 0.792248 0.0193637
0.403479 0.796994 0.00549325
0.424887 0.801724 0
0.446281 0.80647 0
0.467689 0.8112 0
0.489082 0.81593 0
0 0.69601 0.412284
0 0.700755 0.398428
0 0.705486 0.384573
0 0.710216 0.370703
0 0.714961 0.356847
0 0.719692 0.342992
0 0.724437 0.329137
0 0.729168 0.315267
0 0.733898 0.301411
0 0.738643 0.287556
0.00892653 0.743374 0.273701
0.0303197 0.748119 0.259831
0.0517281 0.75285 0.245975
0.0731365 0.75758 0.23212
0.0945296 0.762325 0.218265
0.115938 0.767056 0.20441
0.137331 0.771801 0.190539
0.15874 0.776532 0.176684
0.180133 0.781262 0.162829
0.201541 0.786007 0.148974
0.22295 0.790738 0.135103
0.244343 0.795483 0.121248
0.265751 0.800214 0.107393
0.287144 0.804944 0.0935378
0.308553 0.809689 0.0796674
0.329946 0.81442 0.0658122
0.351354 0.81915 0.051957
0.372747 0.823896 0.0381018
0.394156 0.828626 0.0242313
0.415564 0.833371 0.0103761
0.436957 0.838102 0
0.458366 0.842832 0
0.479759 0.847578 0
0 0.727657 0.431022
0 0.732387 0.417166
0 0.737118 0.403311
0 0.741863 0.389456
0 0.746593 0.375586
0 0.751339 0.36173
0 0.756069 0.347875
0 0.7608 0.33402
0 0.765545 0.32015
0 0.770275 0.306294
0 0.775021 0.292439
0.0209964 0.779751 0.278584
0.0424048 0.784482 0.264714
0.0638132 0.789227 0.250858
0.0852064 0.793957 0.237003
0.106615 0.798703 0.223148
0.128008 0.803433 0.209277
0.149416 0.808164 0.195422
0.170809 0.812909 0.181567
0.192218 0.817639 0.167712
0.213626 0.82237 0.153857
0.235019 0.827115 0.139986
0.256428 0.831846 0.126131
0.277821 0.836591 0.112276
0.299229 0.841321 0.0984207
0.320623 0.846052 0.0845502
0.342031 0.850797 0.0706951
0.363439 0.855528 0.0568399
0.384833 0.860273 0.0429847
0.406241 0.865003 0.0291142
0.427634 0.869734 0.015259
0.449042 0.874479 0.00140383
0.470436 0.87921 0
0 0.759289 0.44976
0 0.764019 0.435904
0 0.768765 0.422049
0 0.773495 0.408194
0 0.778241 0.394324
0 0.782971 0.380468
0 0.787701 0.366613
0 0.792447 0.352758
0 0.797177 0.338888
0 0.801923 0.325032
0 0.806653 0.311177
0.0116884 0.811383 0.297322
0.0330816 0.816129 0.283467
0.05449 0.820859 0.269596
0.0758831 0.825605 0.255741
0.0972915 0.830335 0.241886
0.118685 0.835065 0.228031
0.140093 0.839811 0.21416
0.161501 0.844541 0.200305
0.182895 0.849271 0.18645
0.204303 0.854017 0.172595
0.225696 0.858747 0.158724
0.247105 0.863493 0.144869
0.268498 0.868223 0.131014
0.289906 0.872953 0.117159
0.311299 0.877699 0.103288
0.332708 0.882429 0.0894331
0.354116 0.887175 0.0755779
0.375509 0.891905 0.0617227
0.396918 0.896635 0.0478676
0.418311 0.901381 0.0339971
0.439719 0.906111 0.0201419
0.461112 0.910857 0.00628672
0 0.790936 0.468498
0 0.795666 0.454643
0 0.800397 0.440787
0 0.805142 0.426932
0 0.809873 0.413077
0 0.814603 0.399207
0 0.819348 0.385351
0 0.824079 0.371496
0 0.828824 0.357641
0 0.833555 0.343771
0 0.838285 0.329915
0.00236515 0.84303 0.31606
0.0237583 0.847761 0.302205
0.0451667 0.852506 0.288334
0.0665599 0.857237 0.274479
0.0879683 0.861967 0.260624
0.109361 0.866712 0.246769
0.13077 0.871443 0.232914
0.152178 0.876173 0.219043
0.173571 0.880919 0.205188
0.19498 0.885649 0.191333
0.216373 0.890394 0.177478
0.237781 0.895125 0.163607
0.259174 0.899855 0.149752
0.280583 0.904601 0.135897
0.301991 0.909331 0.122042
0.323384 0.914076 0.108171
0.344793 0.918807 0.094316
0.366186 0.923537 0.0804608
0.387594 0.928283 0.0666056
0.408988 0.933013 0.0527352
0.430396 0.937758 0.03888
0.451804 0.942489 0.0250248
0 0.822568 0.487236
0 0.827298 0.473381
0 0.832044 0.459525
0 0.836774 0.44567
0 0.841505 0.431815
0 0.84625 0.417945
0 0.85098 0.404089
0 0.855726 0.390234
0 0.860456 0.376379
0 0.865187 0.362524
0 0.869932 0.348653
0 0.874662 0.334798
0.014435 0.879393 0.320943
0.0358434 0.884138 0.307088
0.0572366 0.888869 0.293217
0.078645 0.893614 0.279362
0.100053 0.898344 0.265507
0.121447 0.903075 0.251652
0.142855 0.90782 0.237781
0.164248 0.912551 0.223926
0.185657 0.917296 0.210071
0.20705 0.922026 0.196216
0.228458 0.926757 0.182345
0.249851 0.931502 0.16849
0.27126 0.936233 0.154635
0.292668 0.940978 0.14078
0.314061 0.945708 0.126925
0.33547 0.950439 0.113054
0.356863 0.955184 0.0991989
0.378271 0.959915 0.0853437
0.399664 0.96466 0.0714885
0.421073 0.96939 0.0576181
0.442481 0.974121 0.0437629
0 0.8542 0.505974
0 0.858946 0.492134
0 0.863676 0.478264
0 0.868406 0.464408
0 0.873152 0.450553
0 0.877882 0.436698
0 0.882628 0.422827
0 0.887358 0.408972
0 0.892088 0.395117
