public/LUTS/Color Shift/ColorShift_75.cube
TITLE "Generated by Resolve"
LUT_3D_SIZE 9
0 0 0
0.199496 0 0.0131228
0.399008 0 0.0262608
0.59852 0 0.0393835
0.798047 0 0.0525063
0.997559 0 0.0656443
1 0 0.0787671
1 0 0.0919051
1 0 0.105028
0 0.145037 0
0.169543 0.120989 0
0.36907 0.0969406 0
0.568582 0.0729076 0
0.768093 0.0488594 0
0.96762 0.0248112 0
1 0.00077821 0
1 0 0.00587472
1 0 0.0189975
0 0.290074 0
0.139605 0.266041 0
0.339117 0.241993 0
0.538643 0.21796 0
0.738155 0.193912 0
0.937667 0.169863 0
1 0.14583 0
1 0.121782 0
1 0.097734 0
0 0.435126 0
0.109651 0.411093 0
0.309178 0.387045 0
0.50869 0.362997 0
0.708202 0.338964 0
0.907729 0.314916 0
1 0.290867 0
1 0.266835 0
1 0.242786 0
0 0.580179 0
0.0797131 0.55613 0
0.279225 0.532097 0
0.478737 0.508049 0
0.678264 0.484001 0
0.877775 0.459968 0
1 0.43592 0
1 0.411872 0
1 0.387839 0
0 0.725231 0
0.0497597 0.701183 0
0.249287 0.677134 0
0.448798 0.653101 0
0.64831 0.629053 0
0.847837 0.605005 0
1 0.580972 0
1 0.556924 0
1 0.532876 0
0 0.870268 0
0.0198215 0.846235 0
0.219333 0.822187 0
0.418845 0.798138 0
0.618372 0.774105 0
0.817884 0.750057 0
1 0.726009 0
1 0.701976 0
1 0.677928 0
0 1 0
0 0.991287 0
0.189395 0.967239 0
0.388907 0.943191 0
0.588418 0.919158 0
0.78793 0.895109 0
0.987457 0.871061 0
1 0.847028 0
1 0.82298 0
0 1 0
0 1 0
0.159442 1 0
0.358953 1 0
0.55848 1 0
0.757992 1 0
0.957504 1 0
1 0.992065 0
1 0.968032 0
0 0.00399786 0.197894
0.154925 0 0.211017
0.354452 0 0.224155
0.553964 0 0.237278
0.753475 0 0.250401
0.953002 0 0.263539
1 0 0.276661
1 0 0.289799
1 0 0.302922
0 0.14902 0.111864
0.124987 0.124987 0.124987
0.324498 0.100938 0.138109
0.524025 0.0769055 0.151247
0.723537 0.0528573 0.16437
0.923049 0.028809 0.177508
1 0.00477607 0.190631
1 0 0.203754
1 0 0.216892
0 0.294072 0.0258183
0.0950332 0.270039 0.038941
0.29456 0.245991 0.052079
0.494072 0.221942 0.0652018
0.693584 0.19791 0.0783246
0.893111 0.173861 0.0914626
1 0.149813 0.104585
1 0.12578 0.117723
1 0.101732 0.130846
0 0.439124 0
0.065095 0.415076 0
0.264607 0.391043 0
0.464134 0.366995 0
0.663645 0.342947 0
0.863157 0.318914 0.00541695
1 0.294865 0.0185397
1 0.270817 0.0316777
1 0.246784 0.0448005
0 0.584176 0
0.0351415 0.560128 0
0.234668 0.536095 0
0.43418 0.512047 0
0.633692 0.487999 0
0.833219 0.463966 0
1 0.439918 0
1 0.415869 0
1 0.391836 0
0 0.729213 0
0.00520333 0.70518 0
0.204715 0.681132 0
0.404227 0.657099 0
0.603754 0.633051 0
0.803265 0.609003 0
1 0.58497 0
1 0.560922 0
1 0.536873 0
0 0.874266 0
0 0.850233 0
0.174777 0.826185 0
0.374289 0.802136 0
0.5738 0.778103 0
0.773327 0.754055 0
0.972839 0.730007 0
1 0.705974 0
1 0.681926 0
0 1 0
0 0.99527 0
0.144823 0.971237 0
0.344335 0.947188 0
0.543862 0.92314 0
0.743374 0.899107 0
0.942885 0.875059 0
1 0.851011 0
1 0.826978 0
0 1 0
0 1 0
0.114885 1 0
0.314397 1 0
0.513909 1 0
0.713436 1 0
0.912947 1 0
1 0.996063 0
1 0.97203 0
0 0.00799573 0.395804
0.110369 0 0.408942
0.30988 0 0.422065
0.509392 0 0.435187
0.708904 0 0.448325
0.908431 0 0.461448
1 0 0.474586
1 0 0.487709
1 0 0.500832
0 0.153017 0.309773
0.080415 0.128985 0.322896
0.279942 0.104936 0.336034
0.479454 0.0809033 0.349157
0.678965 0.0568551 0.362295
0.878477 0.0328069 0.375418
1 0.00877394 0.38854
1 0 0.401679
1 0 0.414801
0 0.29807 0.223728
0.0504768 0.274037 0.236866
0.249989 0.249989 0.249989
0.4495 0.22594 0.263111
0.649027 0.201907 0.276249
0.848539 0.177859 0.289372
1 0.153811 0.30251
1 0.129778 0.315633
1 0.10573 0.328756
0 0.443122 0.137682
0.0205234 0.419074 0.15082
0.220035 0.395041 0.163943
0.419562 0.370993 0.177081
0.619074 0.346944 0.190204
0.818586 0.322911 0.203326
1 0.298863 0.216464
1 0.274815 0.229587
1 0.250782 0.242725
0 0.588174 0.0516518
0 0.564126 0.0647746
0.190097 0.540078 0.0778973
0.389609 0.516045 0.0910353
0.589136 0.491997 0.104158
0.788647 0.467948 0.117296
0.988159 0.443915 0.130419
1 0.419867 0.143542
1 0.395819 0.15668
0 0.733211 0
0 0.709178 0
0.160143 0.68513 0
0.35967 0.661097 0.0049897
0.559182 0.637049 0.0181125
0.758694 0.613001 0.0312505
0.958221 0.588968 0.0443732
1 0.56492 0.057496
1 0.540871 0.070634
0 0.878264 0
0 0.854231 0
0.130205 0.830182 0
0.329717 0.806134 0
0.529229 0.782101 0
0.728756 0.758053 0
0.928267 0.734005 0
1 0.709972 0
1 0.685924 0
0 1 0
0 0.999268 0
0.100252 0.975235 0
0.299779 0.951186 0
0.49929 0.927138 0
0.698802 0.903105 0
0.898329 0.879057 0
1 0.855009 0
1 0.830976 0
0 1 0
0 1 0
0.0703136 1 0
0.269825 1 0
0.469337 1 0
0.668864 1 0
0.868376 1 0
1 1 0
1 0.976013 0
0 0.0119936 0.593729
0.0657969 0 0.606851
0.265309 0 0.619974
0.46482 0 0.633112
0.664347 0 0.646235
0.863859 0 0.659373
1 0 0.672496
1 0 0.685618
1 0 0.698756
0 0.157015 0.507698
0.0358434 0.132982 0.520821
0.23537 0.108934 0.533944
0.434882 0.0849012 0.547082
0.634394 0.060853 0.560204
0.833921 0.0368048 0.573327
1 0.0127718 0.586465
1 0 0.599588
1 0 0.612726
0 0.302068 0.421653
0.00590524 0.278035 0.434775
0.205417 0.253986 0.447898
0.404944 0.229938 0.461036
0.604456 0.205905 0.474159
0.803967 0.181857 0.487297
1 0.157809 0.50042
1 0.133776 0.513542
1 0.109728 0.52668
0 0.44712 0.335607
0 0.423072 0.34873
0.175479 0.399039 0.361868
0.37499 0.37499 0.37499
0.574502 0.350942 0.388113
0.774029 0.326909 0.401251
0.973541 0.302861 0.414374
1 0.278813 0.427512
1 0.25478 0.440635
0 0.592172 0.249561
0 0.568124 0.262684
0.145525 0.544076 0.275822
0.345037 0.520043 0.288945
0.544564 0.495995 0.302083
0.744076 0.471946 0.315206
0.943587 0.447913 0.328328
1 0.423865 0.341466
1 0.399817 0.354589
0 0.737209 0.163516
0 0.713176 0.176654
0.115587 0.689128 0.189776
0.315099 0.66508 0.202899
0.514611 0.641047 0.216037
0.714137 0.616999 0.22916
0.913649 0.59295 0.242298
1 0.568917 0.255421
1 0.544869 0.268544
0 0.882261 0.0774701
0 0.858228 0.0906081
0.0856336 0.83418 0.103731
0.285145 0.810132 0.116869
0.484672 0.786099 0.129992
0.684184 0.762051 0.143114
0.883696 0.738003 0.156252
1 0.71397 0.169375
1 0.689921 0.182498
0 1 0
0 1 0.00456245
0.0556954 0.979232 0.0176852
0.255207 0.955184 0.0308232
0.454719 0.931136 0.043946
0.654231 0.907103 0.0570687
0.853758 0.883055 0.0702068
1 0.859007 0.0833295
1 0.834974 0.0964675
0 1 0
0 1 0
0.025742 1 0
0.225254 1 0
0.424781 1 0
0.624292 1 0
0.823804 1 0
1 1 0
1 0.980011 0.0104219
0 0.0159915 0.791638
0.0212253 0 0.804761
0.220737 0 0.817899
0.420264 0 0.831022
0.619776 0 0.84416
0.819287 0 0.857282
1 0 0.870405
1 0 0.883543
1 0 0.896666
0 0.161013 0.705608
0 0.13698 0.71873
0.190799 0.112932 0.731868
0.390311 0.0888838 0.744991
0.589837 0.0648508 0.758114
0.789349 0.0408026 0.771252
0.988861 0.0167544 0.784375
1 0 0.797513
1 0 0.810636
0 0.306065 0.619562
0 0.282032 0.632685
0.160845 0.257984 0.645823
0.360372 0.233936 0.658946
0.559884 0.209903 0.672084
0.759396 0.185855 0.685206
0.958923 0.161807 0.698329
1 0.137774 0.711467
1 0.113725 0.72459
0 0.451118 0.533516
0 0.42707 0.546654
0.130907 0.403037 0.559777
0.330419 0.378988 0.5729
0.529946 0.35494 0.586038
0.729458 0.330907 0.599161
0.928969 0.306859 0.612299
1 0.282811 0.625422
1 0.258778 0.638544
0 0.596155 0.447486
0 0.572122 0.460609
0.100954 0.548074 0.473732
0.300481 0.524041 0.48687
0.499992 0.499992 0.499992
0.699504 0.475944 0.513115
0.899031 0.451911 0.526253
1 0.427863 0.539376
1 0.403815 0.552514
0 0.741207 0.36144
0 0.717174 0.374563
0.0710155 0.693126 0.387686
0.270527 0.669078 0.400824
0.470039 0.645045 0.413947
0.669566 0.620996 0.427085
0.869078 0.596948 0.440208
1 0.572915 0.45333
1 0.548867 0.466468
0 0.886259 0.275395
0 0.862211 0.288518
0.041062 0.838178 0.301656
0.240589 0.81413 0.314778
0.440101 0.790082 0.327901
0.639612 0.766049 0.341039
0.839139 0.742 0.354162
1 0.717952 0.3673
1 0.693919 0.380423
0 1 0.189349
0 1 0.202472
0.0111238 0.98323 0.21561
0.210636 0.959182 0.228733
0.410147 0.935134 0.241871
0.609674 0.911101 0.254994
0.809186 0.887053 0.268116
1 0.863005 0.281254
1 0.838972 0.294377
0 1 0.103304
0 1 0.116426
0 1 0.129564
0.180697 1 0.142687
0.380209 1 0.155825
0.579721 1 0.168948
0.779232 1 0.182071
0.978759 1 0.195209
1 0.984009 0.208331
0 0.0199893 0.989563
0 0 1
0.176181 0 1
0.375692 0 1
0.575204 0 1
0.774716 0 1
0.974243 0 1
1 0 1
1 0 1
0 0.165011 0.903517
0 0.140978 0.916655
0.146227 0.11693 0.929778
0.345754 0.0928817 0.942916
0.545266 0.0688487 0.956039
0.744778 0.0448005 0.969162
0.944289 0.0207523 0.9823
1 0 0.995422
1 0 1
0 0.310063 0.817487
0 0.286015 0.83061
0.116289 0.261982 0.843732
0.315801 0.237934 0.85687
0.515312 0.213886 0.869993
0.714839 0.189853 0.883116
0.914351 0.165805 0.896254
1 0.141756 0.909377
1 0.117723 0.922515
0 0.455116 0.731441
0 0.431067 0.744564
0.0863355 0.407034 0.757687
0.285847 0.382986 0.770825
0.485374 0.358938 0.783948
0.684886 0.334905 0.797086
0.884398 0.310857 0.810208
1 0.286809 0.823331
1 0.262776 0.836469
0 0.600153 0.645396
0 0.57612 0.658518
0.0563973 0.552071 0.671656
0.255909 0.528038 0.684779
0.455421 0.50399 0.697902
0.654948 0.479942 0.71104
0.854459 0.455909 0.724163
1 0.431861 0.737301
1 0.407813 0.750423
0 0.745205 0.55935
0 0.721172 0.572473
0.0264439 0.697124 0.585611
0.225956 0.673075 0.598733
0.425483 0.649042 0.611872
0.624994 0.624994 0.624994
0.824506 0.600946 0.638117
1 0.576913 0.651255
1 0.552865 0.664378
0 0.890257 0.473304
0 0.866209 0.486442
0 0.842176 0.499565
0.196017 0.818128 0.512688
0.395529 0.794079 0.525826
0.595041 0.770047 0.538949
0.794568 0.745998 0.552087
0.994079 0.72195 0.565209
1 0.697917 0.578332
0 1 0.387259
0 1 0.400397
0 0.987213 0.41352
0.166064 0.96318 0.426657
0.365591 0.939132 0.43978
0.565103 0.915084 0.452903
0.764614 0.891051 0.466041
0.964141 0.867002 0.479164
1 0.842954 0.492302
0 1 0.301228
0 1 0.314351
0 1 0.327474
0.136126 1 0.340612
0.335637 1 0.353735
0.535149 1 0.366873
0.734676 1 0.379995
0.934188 1 0.393118
1 0.988006 0.406256
0 0.0239872 1
0 0 1
0.131609 0 1
0.331121 0 1
0.530632 0 1
0.730159 0 1
0.929671 0 1
1 0 1
1 0 1
0 0.169009 1
0 0.144976 1
0.101656 0.120928 1
0.301183 0.0968795 1
0.500694 0.0728466 1
0.700206 0.0487984 1
0.899733 0.0247501 1
1 0.000717174 1
1 0 1
0 0.314061 1
0 0.290013 1
0.0717174 0.26598 1
0.271229 0.241932 1
0.470756 0.217884 1
0.670268 0.193851 1
0.86978 0.169802 1
1 0.145754 1
1 0.121721 1
0 0.459113 0.929351
0 0.435065 0.942489
0.0417639 0.411017 0.955612
0.241291 0.386984 0.968734
0.440803 0.362936 0.981872
0.640314 0.338888 0.994995
0.839841 0.314855 1
1 0.290806 1
1 0.266758 1
0 0.60415 0.843305
0 0.580118 0.856443
0.0118257 0.556069 0.869566
0.211337 0.532036 0.882689
0.410849 0.507988 0.895827
0.610376 0.48394 0.908949
0.809888 0.459907 0.922087
1 0.435859 0.93521
1 0.41181 0.948333
0 0.749203 0.757275
0 0.72517 0.770397
0 0.701122 0.78352
0.181399 0.677073 0.796658
0.380911 0.65304 0.809781
0.580423 0.628992 0.822904
0.77995 0.604944 0.836042
0.979461 0.580911 0.849165
1 0.556863 0.862303
0 0.894255 0.671229
0 0.870207 0.684352
0 0.846174 0.697475
0.151446 0.822126 0.710613
0.350958 0.798077 0.723735
0.550484 0.774044 0.736873
0.749996 0.749996 0.749996
0.949508 0.725948 0.763119
1 0.701915 0.776257
0 1 0.585184
0 1 0.598306
0 0.991211 0.611444
0.121508 0.967178 0.624567
0.321019 0.94313 0.63769
0.520531 0.919081 0.650828
0.720043 0.895048 0.663951
0.91957 0.871 0.677089
1 0.846952 0.690211
0 1 0.499138
0 1 0.512261
0 1 0.525399
0.0915541 1 0.538521
0.291066 1 0.551659
0.490593 1 0.564782
0.690105 1 0.577905
0.889616 1 0.591043
1 0.992004 0.604166
0 0.0279698 1
0 0.00393683 1
0.0870375 0 1
0.286549 0 1
0.486076 0 1
0.685588 0 1
0.8851 0 1
1 0 1
1 0 1
0 0.173007 1
0 0.148974 1
0.0570993 0.124926 1
0.256611 0.100877 1
0.456123 0.0768444 1
0.65565 0.0527962 1
0.855161 0.028748 1
1 0.00471504 1
1 0 1
0 0.318059 1
0 0.294011 1
0.0271458 0.269978 1
0.226658 0.24593 1
0.426184 0.221881 1
0.625696 0.197848 1
0.825208 0.1738 1
1 0.149752 1
1 0.125719 1
0 0.463111 1
0 0.439063 1
0 0.415015 1
0.196719 0.390982 1
0.396231 0.366934 1
0.595758 0.342885 1
0.79527 0.318853 1
0.994781 0.294804 1
1 0.270756 1
0 0.608148 1
0 0.584115 1
0 0.560067 1
0.166766 0.536019 1
0.366293 0.511986 1
0.565805 0.487938 1
0.765316 0.46389 1
0.964843 0.439857 1
1 0.415808 1
0 0.753201 0.955184
0 0.729168 0.968307
0 0.705119 0.981445
0.136828 0.681071 0.994568
0.336339 0.657038 1
0.535851 0.63299 1
0.735378 0.608942 1
0.93489 0.584909 1
1 0.560861 1
0 0.898253 0.869139
0 0.874205 0.882261
0 0.850172 0.895399
0.106874 0.826123 0.908522
0.306401 0.802075 0.92166
0.505913 0.778042 0.934783
0.705425 0.753994 0.947906
0.904952 0.729946 0.961044
1 0.705913 0.974166
0 1 0.783093
0 1 0.796231
0 0.995209 0.809354
0.076936 0.971176 0.822477
0.276448 0.947127 0.835615
0.475959 0.923079 0.848737
0.675486 0.899046 0.861875
0.874998 0.874998 0.874998
1 0.85095 0.888121
0 1 0.697063
0 1 0.710185
0 1 0.723308
0.0469825 1 0.736446
0.246509 1 0.749569
0.446021 1 0.762692
0.645533 1 0.77583
0.845045 1 0.788952
1 0.996002 0.80209
0 0.0319677 1
0 0.00793469 1
0.0424659 0 1
0.241978 0 1
0.441505 0 1
0.641016 0 1
0.840528 0 1
1 0 1
1 0 1
0 0.177005 1
0 0.152956 1
0.0125277 0.128923 1
0.212039 0.104875 1
0.411566 0.080827 1
0.611078 0.0567941 1
0.81059 0.0327459 1
1 0.00869764 1
1 0 1
0 0.322057 1
0 0.298009 1
0 0.273976 1
0.182101 0.249928 1
0.381613 0.225879 1
0.581125 0.201846 1
0.780652 0.177798 1
0.980163 0.15375 1
1 0.129717 1
0 0.467094 1
0 0.443061 1
0 0.419013 1
0.152148 0.39498 1
0.351659 0.370932 1
0.551186 0.346883 1
0.750698 0.32285 1
0.95021 0.298802 1
1 0.274754 1
0 0.612146 1
0 0.588113 1
0 0.564065 1
0.12221 0.540017 1
0.321721 0.515984 1
0.521233 0.491936 1
0.72076 0.467887 1
0.920272 0.443854 1
1 0.419806 1
0 0.757198 1
0 0.73315 1
0 0.709117 1
0.092256 0.685069 1
0.291768 0.661021 1
0.491295 0.636988 1
0.690806 0.61294 1
0.890318 0.588891 1
1 0.564858 1
0 0.902251 1
0 0.878202 1
0 0.85417 1
0.0623178 0.830121 1
0.26183 0.806073 1
0.461341 0.78204 1
0.660853 0.757992 1
0.86038 0.733944 1
1 0.709911 1
0 1 0.981018
0 1 0.994141
0 0.999207 1
0.0323644 0.975174 1
0.231876 0.951125 1
0.431403 0.927077 1
0.630915 0.903044 1
0.830427 0.878996 1
1 0.854948 1
0 1 0.894972
0 1 0.908095
0 1 0.921233
0.00241093 1 0.934356
0.201938 1 0.947478
0.40145 1 0.960616
0.600961 1 0.973739
0.800488 1 0.986877
1 1 1
