public/LUTS/Color Shift/ColorShift_98.cube
TITLE "Generated by Resolve"
LUT_3D_SIZE 33
0 0 0
0 0.0171511 0.020264
0 0.0343023 0.040528
0 0.0514534 0.0608072
0 0.0686198 0.0810712
0 0.085771 0.101335
0 0.102922 0.121614
0 0.120089 0.141878
0 0.13724 0.162158
0 0.154391 0.182422
0 0.171557 0.202686
0 0.188708 0.222965
0 0.205859 0.243229
0 0.223026 0.263508
0 0.240177 0.283772
0 0.257328 0.304036
0 0.274495 0.324315
0 0.291646 0.344579
0 0.308797 0.364858
0 0.325963 0.385122
0 0.343114 0.405386
0 0.360281 0.425666
0 0.377432 0.44593
0 0.394583 0.466209
0 0.411749 0.486473
0 0.428901 0.506737
0 0.446052 0.527016
0 0.463218 0.54728
0 0.480369 0.567544
0 0.49752 0.587823
0 0.514687 0.608087
0 0.531838 0.628367
0 0.548989 0.64863
0.0613565 0.00553903 0.056672
0.0267491 0.0226902 0.0769207
0 0.0398413 0.0972
0 0.0570077 0.117464
0 0.0741588 0.137728
0 0.09131 0.158007
0 0.108476 0.178271
0 0.125628 0.19855
0 0.142779 0.218814
0 0.159945 0.239078
0 0.177096 0.259358
0 0.194247 0.279622
0 0.211414 0.299901
0 0.228565 0.320165
0 0.245716 0.340429
0 0.262882 0.360708
0 0.280034 0.380972
0 0.297185 0.401251
0 0.314351 0.421515
0 0.331502 0.441779
0 0.348653 0.462058
0 0.36582 0.482322
0 0.382971 0.502602
0 0.400122 0.522866
0 0.417288 0.54313
0 0.43444 0.563409
0 0.451591 0.583673
0 0.468757 0.603952
0 0.485908 0.624216
0 0.503059 0.64448
0 0.520226 0.664759
0 0.537377 0.685023
0 0.554528 0.705303
0.122759 0.0110781 0.113359
0.0881514 0.0282292 0.133623
0.0535286 0.0453956 0.153887
0.0189059 0.0625467 0.174151
0 0.0796979 0.19443
0 0.0968643 0.214694
0 0.114015 0.234974
0 0.131167 0.255238
0 0.148333 0.275502
0 0.165484 0.295781
0 0.182635 0.316045
0 0.199802 0.336324
0 0.216953 0.356588
0 0.234104 0.376852
0 0.25127 0.397131
0 0.268421 0.417395
0 0.285573 0.437675
0 0.302739 0.457938
0 0.31989 0.478202
0 0.337041 0.498482
0 0.354208 0.518746
0 0.371359 0.539025
0 0.38851 0.559289
0 0.405676 0.579553
0 0.422827 0.599832
0 0.439979 0.620096
0 0.457145 0.640375
0 0.474296 0.660639
0 0.491447 0.680903
0 0.508614 0.701183
0 0.525765 0.721447
0 0.542916 0.741726
0 0.560082 0.76199
0.184146 0.0166323 0.170047
0.149538 0.0337835 0.190311
0.114916 0.0509346 0.210575
0.080293 0.0680858 0.230854
0.0456703 0.0852522 0.251118
0.0110475 0.102403 0.271397
0 0.119554 0.291661
0 0.136721 0.311925
0 0.153872 0.332204
0 0.171023 0.352468
0 0.18819 0.372747
0 0.205341 0.393011
0 0.222492 0.413275
0 0.239658 0.433555
0 0.256809 0.453819
0 0.27396 0.474098
0 0.291127 0.494362
0 0.308278 0.514626
0 0.325429 0.534905
0 0.342596 0.555169
0 0.359747 0.575448
0 0.376898 0.595712
0 0.394064 0.615976
0 0.411215 0.636255
0 0.428367 0.656519
0 0.445533 0.676799
0 0.462684 0.697063
0 0.479835 0.717327
0 0.497002 0.737606
0 0.514153 0.75787
0 0.531304 0.778149
0 0.54847 0.798413
0 0.565621 0.818677
0.245533 0.0221714 0.226749
0.210925 0.0393225 0.246998
0.176303 0.0564736 0.267277
0.14168 0.07364 0.287541
0.107057 0.0907912 0.30782
0.0724346 0.107942 0.328084
0.0378119 0.125109 0.348348
0.00318914 0.14226 0.368627
0 0.159411 0.388891
0 0.176577 0.409155
0 0.193729 0.429435
0 0.21088 0.449699
0 0.228046 0.469978
0 0.245197 0.490242
0 0.262348 0.510506
0 0.279515 0.530785
0 0.296666 0.551049
0 0.313817 0.571328
0 0.330983 0.591592
0 0.348135 0.611856
0 0.365286 0.632136
0 0.382452 0.652399
0 0.399603 0.672679
0 0.416754 0.692943
0 0.433921 0.713207
0 0.451072 0.733486
0 0.468223 0.75375
0 0.48539 0.774029
0 0.502541 0.794293
0 0.519692 0.814557
0 0.536858 0.834836
0 0.554009 0.8551
0 0.57116 0.87538
0.306935 0.0277104 0.283436
0.272328 0.0448615 0.3037
0.237705 0.0620279 0.323964
0.203082 0.0791791 0.344228
0.16846 0.0963302 0.364508
0.133822 0.113497 0.384771
0.0991989 0.130648 0.405051
0.0645762 0.147799 0.425315
0.0299535 0.164965 0.445579
0 0.182116 0.465858
0 0.199268 0.486122
0 0.216434 0.506401
0 0.233585 0.526665
0 0.250736 0.546929
0 0.267903 0.567208
0 0.285054 0.587472
0 0.302205 0.607752
0 0.319371 0.628016
0 0.336522 0.64828
0 0.353674 0.668559
0 0.37084 0.688823
0 0.387991 0.709102
0 0.405142 0.729366
0 0.422309 0.74963
0 0.43946 0.769909
0 0.456611 0.790173
0 0.473777 0.810452
0 0.490929 0.830716
0 0.50808 0.85098
0 0.525246 0.87126
0 0.542397 0.891524
0 0.559548 0.911803
0 0.576715 0.932067
0.368322 0.0332647 0.340124
0.333715 0.0504158 0.360388
0.299092 0.0675669 0.380652
0.264469 0.0847181 0.400931
0.229847 0.101884 0.421195
0.195224 0.119036 0.441474
0.160601 0.136187 0.461738
0.125978 0.153353 0.482002
0.0913558 0.170504 0.502281
0.056733 0.187655 0.522545
0.0221103 0.204822 0.542824
0 0.221973 0.563088
0 0.239124 0.583352
0 0.256291 0.603632
0 0.273442 0.623896
0 0.290593 0.644175
0 0.307759 0.664439
0 0.32491 0.684703
0 0.342061 0.704982
0 0.359228 0.725246
0 0.376379 0.745525
0 0.39353 0.765789
0 0.410697 0.786053
0 0.427848 0.806332
0 0.444999 0.826596
0 0.462165 0.846876
0 0.479316 0.86714
0 0.496468 0.887404
0 0.513634 0.907683
0 0.530785 0.927947
0 0.547936 0.948226
0 0.565103 0.96849
0 0.582254 0.988754
0.429709 0.0388037 0.396826
0.395102 0.0559548 0.417075
0.360479 0.073106 0.437354
0.325856 0.0902724 0.457618
0.291234 0.107424 0.477897
0.256611 0.124575 0.498161
0.221988 0.141741 0.518425
0.187366 0.158892 0.538705
0.152743 0.176043 0.558968
0.11812 0.19321 0.579248
0.0834974 0.210361 0.599512
0.0488746 0.227512 0.619776
0.0142519 0.244678 0.640055
0 0.26183 0.660319
0 0.278981 0.680598
0 0.296147 0.700862
0 0.313298 0.721126
0 0.330449 0.741405
0 0.347616 0.761669
0 0.364767 0.781949
0 0.381918 0.802213
0 0.399084 0.822477
0 0.416236 0.842756
0 0.433387 0.86302
0 0.450553 0.883299
0 0.467704 0.903563
0 0.484855 0.923827
0 0.502022 0.944106
0 0.519173 0.96437
0 0.536324 0.984634
0 0.553491 1
0 0.570642 1
0 0.587793 1
0.491112 0.0443427 0.453513
0.456504 0.0614939 0.473777
0.421881 0.078645 0.494041
0.387243 0.0958114 0.514305
0.352621 0.112963 0.534585
0.317998 0.130114 0.554849
0.283375 0.14728 0.575128
0.248753 0.164431 0.595392
0.21413 0.181598 0.615656
0.179507 0.198749 0.635935
0.144884 0.2159 0.656199
0.110262 0.233066 0.676478
0.075639 0.250217 0.696742
0.0410163 0.267369 0.717006
0.00639353 0.284535 0.737285
0 0.301686 0.757549
0 0.318837 0.777829
0 0.336004 0.798093
0 0.353155 0.818357
0 0.370306 0.838636
0 0.387472 0.8589
0 0.404623 0.879179
0 0.421775 0.899443
0 0.438941 0.919707
0 0.456092 0.939986
0 0.473243 0.96025
0 0.49041 0.980529
0 0.507561 1
0 0.524712 1
0 0.541878 1
0 0.55903 1
0 0.576181 1
0 0.593347 1
0.552499 0.049897 0.510201
0.517891 0.0670329 0.530465
0.483268 0.0841993 0.550729
0.448646 0.10135 0.571008
0.414023 0.118502 0.591272
0.3794 0.135668 0.611551
0.344778 0.152819 0.631815
0.310155 0.16997 0.652079
0.275532 0.187137 0.672358
0.240909 0.204288 0.692622
0.206271 0.221439 0.712902
0.171649 0.238605 0.733166
0.137026 0.255756 0.753429
0.102403 0.272908 0.773709
0.0677806 0.290074 0.793973
0.0331579 0.307225 0.814252
0 0.324392 0.834516
0 0.341543 0.85478
0 0.358694 0.875059
0 0.37586 0.895323
0 0.393011 0.915602
0 0.410163 0.935866
0 0.427329 0.95613
0 0.44448 0.97641
0 0.461631 0.996674
0 0.478798 1
0 0.495949 1
0 0.5131 1
0 0.530266 1
0 0.547417 1
0 0.564569 1
0 0.581735 1
0 0.598886 1
0.613886 0.055436 0.566903
0.579278 0.0725872 0.587152
0.544656 0.0897383 0.607431
0.510033 0.106889 0.627695
0.47541 0.124056 0.647974
0.440787 0.141207 0.668238
0.406165 0.158358 0.688502
0.371542 0.175525 0.708782
0.336919 0.192676 0.729046
0.302296 0.209827 0.749325
0.267674 0.226993 0.769589
0.233051 0.244144 0.789853
0.198428 0.261295 0.810132
0.163806 0.278462 0.830396
0.129183 0.295613 0.850675
0.0945602 0.312764 0.870939
0.0599222 0.329931 0.891203
0.0252995 0.347082 0.911482
0 0.364233 0.931746
0 0.381399 0.952026
0 0.39855 0.97229
0 0.415717 0.992554
0 0.432868 1
0 0.450019 1
0 0.467185 1
0 0.484337 1
0 0.501488 1
0 0.518654 1
0 0.535805 1
0 0.552956 1
0 0.570123 1
0 0.587274 1
0 0.604425 1
0.675273 0.0609751 0.62359
0.640681 0.0781262 0.643854
0.606043 0.0952773 0.664118
0.57142 0.112444 0.684398
0.536797 0.129595 0.704662
0.502174 0.146746 0.724926
0.467552 0.163912 0.745205
0.432929 0.181064 0.765469
0.398306 0.198215 0.785748
0.363684 0.215381 0.806012
0.329061 0.232532 0.826276
0.294438 0.249683 0.846555
0.259815 0.26685 0.866819
0.225193 0.284001 0.887098
0.19057 0.301152 0.907362
0.155947 0.318318 0.927626
0.121324 0.33547 0.947906
0.0867018 0.352621 0.96817
0.052079 0.369787 0.988434
0.0174563 0.386938 1
0 0.404089 1
0 0.421256 1
0 0.438407 1
0 0.455558 1
0 0.472724 1
0 0.489876 1
0 0.507027 1
0 0.524193 1
0 0.541344 1
0 0.558511 1
0 0.575662 1
0 0.592813 1
0 0.609979 1
0.736675 0.0665293 0.680278
0.702068 0.0836652 0.700542
0.667445 0.100832 0.720806
0.632822 0.117983 0.741085
0.598199 0.135134 0.761349
0.563577 0.1523 0.781628
0.528954 0.169451 0.801892
0.494331 0.186603 0.822156
0.459693 0.203769 0.842435
0.425071 0.22092 0.862699
0.390448 0.238071 0.882979
0.355825 0.255238 0.903243
0.321202 0.272389 0.923506
0.28658 0.28954 0.943786
0.251957 0.306706 0.96405
0.217334 0.323857 0.984329
0.182712 0.341009 1
0.148089 0.358175 1
0.113466 0.375326 1
0.0788434 0.392477 1
0.0442206 0.409644 1
0.00959792 0.426795 1
0 0.443946 1
0 0.461112 1
0 0.478264 1
0 0.495415 1
0 0.512581 1
0 0.529732 1
0 0.546883 1
0 0.56405 1
0 0.581201 1
0 0.598352 1
0 0.615518 1
0.798062 0.0720684 0.73698
0.763455 0.0892195 0.757229
0.728832 0.106371 0.777508
0.694209 0.123522 0.797772
0.659586 0.140688 0.818051
0.624964 0.157839 0.838315
0.590341 0.17499 0.858579
0.555718 0.192157 0.878859
0.521096 0.209308 0.899123
0.486473 0.226459 0.919402
0.45185 0.243626 0.939666
0.417227 0.260777 0.95993
0.382605 0.277928 0.980209
0.347982 0.295094 1
0.313359 0.312245 1
0.278721 0.329397 1
0.244099 0.346563 1
0.209476 0.363714 1
0.174853 0.380865 1
0.14023 0.398032 1
0.105608 0.415183 1
0.070985 0.432334 1
0.0363622 0.4495 1
0.00173953 0.466651 1
0 0.483803 1
0 0.500969 1
0 0.51812 1
0 0.535271 1
0 0.552438 1
0 0.569589 1
0 0.58674 1
0 0.603906 1
0 0.621057 1
0.859449 0.0776074 0.793667
0.824842 0.0947585 0.813931
0.790219 0.11191 0.834195
0.755596 0.129076 0.854475
0.720974 0.146227 0.874739
0.686351 0.163378 0.895003
0.651728 0.180545 0.915282
0.617105 0.197696 0.935546
0.582483 0.214847 0.955825
0.54786 0.232013 0.976089
0.513237 0.249165 0.996353
0.478614 0.266316 1
0.443992 0.283482 1
0.409369 0.300633 1
0.374746 0.317784 1
0.340124 0.334951 1
0.305501 0.352102 1
0.270878 0.369253 1
0.236255 0.386419 1
0.201633 0.403571 1
0.16701 0.420722 1
0.132372 0.437888 1
0.0977493 0.455039 1
0.0631266 0.47219 1
0.0285039 0.489357 1
0 0.506508 1
0 0.523659 1
0 0.540825 1
0 0.557977 1
0 0.575128 1
0 0.592294 1
0 0.609445 1
0 0.626596 1
0.920851 0.0831617 0.850355
0.886244 0.100298 0.870619
0.851621 0.117464 0.890898
0.816999 0.134615 0.911162
0.782376 0.151766 0.931426
0.747753 0.168933 0.951705
0.71313 0.186084 0.971969
0.678492 0.203235 0.992233
0.64387 0.220401 1
0.609247 0.237552 1
0.574624 0.254704 1
0.540002 0.27187 1
0.505379 0.289021 1
0.470756 0.306172 1
0.436133 0.323339 1
0.401511 0.34049 1
0.366888 0.357641 1
0.332265 0.374807 1
0.297642 0.391959 1
0.26302 0.40911 1
0.228397 0.426276 1
0.193774 0.443427 1
0.159152 0.460578 1
0.124529 0.477745 1
0.0899062 0.494896 1
0.0552834 0.512047 1
0.0206607 0.529213 1
0 0.546365 1
0 0.563516 1
0 0.580682 1
0 0.597833 1
0 0.614984 1
0 0.632151 1
0.982238 0.0887007 0.907057
0.947631 0.105852 0.927306
0.913008 0.123003 0.947585
0.878386 0.140154 0.967849
0.843763 0.157321 0.988128
0.80914 0.174472 1
0.774517 0.191623 1
0.739895 0.208789 1
0.705272 0.22594 1
0.670649 0.243091 1
0.636027 0.260258 1
0.601404 0.277409 1
0.566781 0.29456 1
0.532143 0.311727 1
0.49752 0.328878 1
0.462898 0.346029 1
0.428275 0.363195 1
0.393652 0.380346 1
0.35903 0.397498 1
0.324407 0.414664 1
0.289784 0.431815 1
0.255161 0.448966 1
0.220539 0.466133 1
0.185916 0.483284 1
0.151293 0.500435 1
0.11667 0.517601 1
0.0820478 0.534752 1
0.047425 0.551904 1
0.0128023 0.56907 1
0 0.586221 1
0 0.603372 1
0 0.620539 1
0 0.63769 1
1 0.0942397 0.963745
1 0.111391 0.984009
0.974395 0.128542 1
0.939773 0.145708 1
0.90515 0.16286 1
0.870527 0.180011 1
0.835904 0.197177 1
0.801282 0.214328 1
0.766659 0.231479 1
0.732036 0.248646 1
0.697414 0.265797 1
0.662791 0.282948 1
0.628168 0.300114 1
0.593545 0.317266 1
0.558923 0.334417 1
0.5243 0.351583 1
0.489677 0.368734 1
0.455055 0.385885 1
0.420432 0.403052 1
0.385809 0.420203 1
0.351171 0.437354 1
0.316548 0.45452 1
0.281926 0.471672 1
0.247303 0.488823 1
0.21268 0.505989 1
0.178058 0.52314 1
0.143435 0.540291 1
0.108812 0.557458 1
0.0741894 0.574609 1
0.0395666 0.59176 1
0.00494392 0.608927 1
0 0.626078 1
0 0.643229 1
1 0.099794 1
1 0.11693 1
1 0.134096 1
1 0.151247 1
0.966552 0.168399 1
0.93193 0.185565 1
0.897292 0.202716 1
0.862669 0.219867 1
0.828046 0.237034 1
0.793423 0.254185 1
0.758801 0.271336 1
0.724178 0.288502 1
0.689555 0.305653 1
0.654932 0.322805 1
0.62031 0.339971 1
0.585687 0.357122 1
0.551064 0.374273 1
0.516442 0.39144 1
0.481819 0.408591 1
0.447196 0.425742 1
0.412573 0.442908 1
0.377951 0.46006 1
0.343328 0.477211 1
0.308705 0.494377 1
0.274083 0.511528 1
0.23946 0.528679 1
0.204822 0.545846 1
0.170199 0.562997 1
0.135576 0.580148 1
0.100954 0.597314 1
0.066331 0.614466 1
0.0317082 0.631617 1
0 0.648783 1
1 0.105333 1
1 0.122484 1
1 0.139635 1
1 0.156786 1
1 0.173953 1
0.993317 0.191104 1
0.958694 0.208255 1
0.924071 0.225422 1
0.889448 0.242573 1
0.854826 0.259724 1
0.820203 0.27689 1
0.78558 0.294041 1
0.750942 0.311192 1
0.71632 0.328359 1
0.681697 0.34551 1
0.647074 0.362661 1
0.612451 0.379828 1
0.577829 0.396979 1
0.543206 0.41413 1
0.508583 0.431296 1
0.47396 0.448447 1
0.439338 0.465599 1
0.404715 0.482765 1
0.370092 0.499916 1
0.33547 0.517067 1
0.300847 0.534234 1
0.266224 0.551385 1
0.231601 0.568536 1
0.196979 0.585702 1
0.162356 0.602853 1
0.127733 0.620005 1
0.0931106 0.637171 1
0.0584726 0.654322 1
1 0.110872 1
1 0.128023 1
1 0.145174 1
1 0.162341 1
1 0.179492 1
1 0.196643 1
1 0.213809 1
0.985458 0.230961 1
0.950835 0.248112 1
0.916213 0.265278 1
0.88159 0.282429 1
0.846967 0.29958 1
0.812345 0.316747 1
0.777722 0.333898 1
0.743099 0.351049 1
0.708476 0.368215 1
0.673854 0.385367 1
0.639231 0.402518 1
0.604593 0.419684 1
0.56997 0.436835 1
0.535348 0.453986 1
0.500725 0.471153 1
0.466102 0.488304 1
0.431479 0.505455 1
0.396857 0.522622 1
0.362234 0.539773 1
0.327611 0.556924 1
0.292988 0.57409 1
0.258366 0.591241 1
0.223743 0.608392 1
0.18912 0.625559 1
0.154498 0.64271 1
0.119875 0.659861 1
1 0.116411 1
1 0.133562 1
1 0.150729 1
1 0.16788 1
1 0.185031 1
1 0.202197 1
1 0.219348 1
1 0.2365 1
1 0.253666 1
0.9776 0.270817 1
0.942977 0.287968 1
0.908354 0.305135 1
0.873732 0.322286 1
0.839109 0.339437 1
0.804486 0.356603 1
0.769863 0.373754 1
0.735241 0.390906 1
0.700618 0.408072 1
0.665995 0.425223 1
0.631373 0.442374 1
0.59675 0.459541 1
0.562127 0.476692 1
0.527504 0.493843 1
0.492882 0.511009 1
0.458259 0.528161 1
0.423621 0.545312 1
0.388998 0.562478 1
0.354376 0.579629 1
0.319753 0.59678 1
0.28513 0.613947 1
0.250507 0.631098 1
0.215885 0.648249 1
0.181262 0.665415 1
1 0.121965 1
1 0.139116 1
1 0.156268 1
1 0.173419 1
1 0.190585 1
1 0.207736 1
1 0.224887 1
1 0.242054 1
1 0.259205 1
1 0.276356 1
1 0.293523 1
0.969741 0.310674 1
0.935119 0.327825 1
0.900496 0.344991 1
0.865873 0.362142 1
0.83125 0.379294 1
0.796628 0.39646 1
0.762005 0.413611 1
0.727382 0.430762 1
0.69276 0.447929 1
0.658137 0.46508 1
0.623514 0.482231 1
0.588891 0.499397 1
0.554269 0.516548 1
0.519646 0.5337 1
0.485023 0.550866 1
0.450401 0.568017 1
0.415778 0.585168 1
0.381155 0.602335 1
0.346532 0.619486 1
0.31191 0.636637 1
0.277272 0.653803 1
0.242649 0.670954 1
1 0.127504 1
1 0.144656 1
1 0.161807 1
1 0.178973 1
1 0.196124 1
1 0.213275 1
1 0.230442 1
1 0.247593 1
1 0.264744 1
1 0.28191 1
1 0.299062 1
1 0.316213 1
0.996521 0.333379 1
0.961898 0.35053 1
0.927275 0.367681 1
0.892653 0.384848 1
0.85803 0.401999 1
0.823392 0.41915 1
0.788769 0.436316 1
0.754147 0.453468 1
0.719524 0.470619 1
0.684901 0.487785 1
0.650278 0.504936 1
0.615656 0.522087 1
0.581033 0.539254 1
0.54641 0.556405 1
0.511788 0.573556 1
0.477165 0.590723 1
0.442542 0.607874 1
0.407919 0.625025 1
0.373297 0.642191 1
0.338674 0.659342 1
0.304051 0.676493 1
1 0.133043 1
1 0.150195 1
1 0.167361 1
1 0.184512 1
1 0.201663 1
1 0.21883 1
1 0.235981 1
1 0.253132 1
1 0.270298 1
1 0.287449 1
1 0.304601 1
1 0.321767 1
1 0.338918 1
1 0.356069 1
0.988663 0.373236 1
0.95404 0.390387 1
0.919417 0.407538 1
0.884794 0.424704 1
0.850172 0.441855 1
0.815549 0.459007 1
0.780926 0.476173 1
0.746303 0.493324 1
0.711681 0.510475 1
0.677043 0.527642 1
0.64242 0.544793 1
0.607797 0.561944 1
0.573175 0.57911 1
0.538552 0.596262 1
0.503929 0.613413 1
0.469306 0.630579 1
0.434684 0.64773 1
0.400061 0.664881 1
0.365438 0.682048 1
1 0.138598 1
1 0.155749 1
1 0.1729 1
1 0.190051 1
1 0.207218 1
1 0.224369 1
1 0.24152 1
1 0.258686 1
1 0.275837 1
1 0.292988 1
1 0.310155 1
1 0.327306 1
1 0.344457 1
1 0.361624 1
1 0.378775 1
1 0.395926 1
0.980804 0.413092 1
0.946181 0.430243 1
0.911559 0.447395 1
0.876936 0.464561 1
0.842313 0.481712 1
0.807691 0.498863 1
0.773068 0.51603 1
0.738445 0.533181 1
0.703822 0.550332 1
0.6692 0.567498 1
0.634577 0.584649 1
0.599954 0.601801 1
0.565332 0.618967 1
0.530709 0.636118 1
0.496071 0.653269 1
0.461448 0.670436 1
0.426825 0.687587 1
1 0.144137 1
1 0.161288 1
1 0.178439 1
1 0.195605 1
1 0.212757 1
1 0.229908 1
1 0.247074 1
1 0.264225 1
1 0.281376 1
1 0.298543 1
1 0.315694 1
1 0.332845 1
1 0.350011 1
1 0.367163 1
1 0.384314 1
1 0.40148 1
1 0.418631 1
1 0.435782 1
0.972946 0.452949 1
0.938323 0.4701 1
0.9037 0.487251 1
0.869078 0.504417 1
0.834455 0.521569 1
0.799832 0.53872 1
0.765209 0.555886 1
0.730587 0.573037 1
0.695964 0.590188 1
0.661341 0.607355 1
0.626719 0.624506 1
0.592096 0.641657 1
0.557473 0.658824 1
0.52285 0.675975 1
0.488228 0.693126 1
1 0.149676 1
1 0.166827 1
1 0.183993 1
1 0.201144 1
1 0.218296 1
1 0.235462 1
1 0.252613 1
1 0.269764 1
1 0.286931 1
