public/LUTS/Color Shift/ColorShift_84.cube
TITLE "Generated by Resolve"
LUT_3D_SIZE 33
0 0 0
0.0277867 0 0.0434577
0.0556039 0 0.0869306
0.0834058 0 0.130419
0.111208 0 0.173892
0.13901 0 0.217365
0.166827 0 0.260853
0.194629 0 0.304326
0.222431 0 0.347799
0.250233 0 0.391287
0.27805 0 0.43476
0.305852 0 0.478248
0.333654 0 0.521721
0.361456 0 0.565194
0.389273 0 0.608682
0.417075 0 0.652155
0.444877 0 0.695628
0.472694 0 0.739116
0.500496 0 0.782589
0.528298 0 0.826062
0.5561 0 0.869551
0.583917 0 0.913024
0.611719 0 0.956497
0.639521 0 0.999985
0.667323 0 1
0.69514 0 1
0.722942 0 1
0.750744 0 1
0.778546 0 1
0.806363 0 1
0.834165 0 1
0.861967 0 1
0.889769 0 1
0.0496529 0.0192721 0
0.0774395 0.0147097 0.0206607
0.105257 0.0101625 0.0641337
0.133059 0.00560006 0.107607
0.160861 0.00105287 0.151095
0.188663 0 0.194568
0.21648 0 0.238041
0.244282 0 0.281529
0.272084 0 0.325002
0.299886 0 0.368475
0.327703 0 0.411963
0.355505 0 0.455436
0.383307 0 0.498909
0.411109 0 0.542397
0.438926 0 0.58587
0.466728 0 0.629343
0.49453 0 0.672831
0.522332 0 0.716304
0.550149 0 0.759793
0.577951 0 0.803265
0.605753 0 0.846738
0.633555 0 0.890227
0.661372 0 0.9337
0.689174 0 0.977172
0.716976 0 1
0.744793 0 1
0.772595 0 1
0.800397 0 1
0.828199 0 1
0.856016 0 1
0.883818 0 1
0.91162 0 1
0.939422 0 1
0.099321 0.0385595 0
0.127123 0.0339971 0
0.154925 0.0294347 0.0413214
0.182727 0.0248875 0.0847944
0.210544 0.020325 0.128267
0.238346 0.0157778 0.171756
0.266148 0.0112154 0.215228
0.29395 0.00665293 0.258701
0.321767 0.00210575 0.30219
0.349569 0 0.345663
0.377371 0 0.389151
0.405173 0 0.432624
0.43299 0 0.476097
0.460792 0 0.519585
0.488594 0 0.563058
0.516396 0 0.606531
0.544213 0 0.650019
0.572015 0 0.693492
0.599817 0 0.736965
0.627619 0 0.780453
0.655436 0 0.823926
0.683238 0 0.867399
0.71104 0 0.910887
0.738857 0 0.95436
0.766659 0 0.997848
0.794461 0 1
0.822263 0 1
0.85008 0 1
0.877882 0 1
0.905684 0 1
0.933486 0 1
0.961303 0 1
0.989105 0 1
0.149004 0.0578317 0
0.176791 0.0532845 0
0.204608 0.0487221 0.0184939
0.23241 0.0441596 0.0619821
0.260212 0.0396124 0.105455
0.288014 0.03505 0.148943
0.315831 0.0305028 0.192416
0.343633 0.0259403 0.235889
0.371435 0.0213779 0.279377
0.399237 0.0168307 0.32285
0.427054 0.0122683 0.366323
0.454856 0.00770581 0.409812
0.482658 0.00315862 0.453285
0.51046 0 0.496757
0.538277 0 0.540246
0.566079 0 0.583719
0.593881 0 0.627192
0.621683 0 0.67068
0.6495 0 0.714153
0.677302 0 0.757641
0.705104 0 0.801114
0.732906 0 0.844587
0.760723 0 0.888075
0.788525 0 0.931548
0.816327 0 0.975021
0.844144 0 1
0.871946 0 1
0.899748 0 1
0.92755 0 1
0.955367 0 1
0.983169 0 1
1 0 1
1 0 1
0.198672 0.0771191 0
0.226474 0.0725567 0
0.254276 0.0680095 0
0.282078 0.063447 0.0391699
0.309895 0.0588846 0.0826429
0.337697 0.0543374 0.126116
0.365499 0.0497749 0.169604
0.393301 0.0452125 0.213077
0.421118 0.0406653 0.25655
0.44892 0.0361028 0.300038
0.476722 0.0315557 0.343511
0.504524 0.0269932 0.386984
0.532341 0.0224308 0.430472
0.560143 0.0178836 0.473945
0.587945 0.0133211 0.517433
0.615747 0.00875868 0.560906
0.643565 0.00421149 0.604379
0.671366 0 0.647868
0.699168 0 0.691341
0.72697 0 0.734813
0.754788 0 0.778302
0.782589 0 0.821775
0.810391 0 0.865248
0.838209 0 0.908736
0.866011 0 0.952209
0.893812 0 0.995682
0.921614 0 1
0.949432 0 1
0.977234 0 1
1 0 1
1 0 1
1 0 1
1 0 1
0.248356 0.0963912 0
0.276143 0.0918441 0
0.30396 0.0872816 0
0.331762 0.0827344 0.0163424
0.359564 0.078172 0.0598306
0.387366 0.0736095 0.103304
0.415183 0.0690623 0.146792
0.442985 0.0644999 0.190265
0.470787 0.0599374 0.233738
0.498589 0.0553902 0.277226
0.526406 0.0508278 0.320699
0.554208 0.0462806 0.364172
0.58201 0.0417182 0.40766
0.609812 0.0371557 0.451133
0.637629 0.0326085 0.494606
0.665431 0.0280461 0.538094
0.693233 0.0234836 0.581567
0.721035 0.0189364 0.62504
0.748852 0.014374 0.668528
0.776654 0.00982681 0.712001
0.804456 0.00526436 0.755474
0.832273 0.000701915 0.798962
0.860075 0 0.842435
0.887877 0 0.885924
0.915679 0 0.929397
0.943496 0 0.972869
0.971298 0 1
0.9991 0 1
1 0 1
1 0 1
1 0 1
1 0 1
1 0 1
0.298024 0.115679 0
0.325826 0.111116 0
0.353628 0.106569 0
0.38143 0.102007 0
0.409247 0.0974441 0.0370184
0.437049 0.0928969 0.0804913
0.464851 0.0883345 0.123964
0.492653 0.0837873 0.167452
0.52047 0.0792248 0.210925
0.548272 0.0746624 0.254398
0.576074 0.0701152 0.297887
0.603876 0.0655528 0.34136
0.631693 0.0609903 0.384833
0.659495 0.0564431 0.428321
0.687297 0.0518807 0.471794
0.715099 0.0473335 0.515282
0.742916 0.042771 0.558755
0.770718 0.0382086 0.602228
0.79852 0.0336614 0.645716
0.826337 0.029099 0.689189
0.854139 0.0245518 0.732662
0.881941 0.0199893 0.77615
0.909743 0.0154269 0.819623
0.93756 0.0108797 0.863096
0.965362 0.00631724 0.906584
0.993164 0.00175479 0.950057
1 0 0.99353
1 0 1
1 0 1
1 0 1
1 0 1
1 0 1
1 0 1
0.347707 0.134951 0
0.375494 0.130404 0
0.403311 0.125841 0
0.431113 0.121294 0
0.458915 0.116732 0.0141909
0.486717 0.112169 0.0576791
0.514534 0.107622 0.101152
0.542336 0.103059 0.144625
0.570138 0.0985122 0.188113
0.59794 0.0939498 0.231586
0.625757 0.0893873 0.275074
0.653559 0.0848402 0.318547
0.681361 0.0802777 0.36202
0.709163 0.0757153 0.405509
0.73698 0.0711681 0.448981
0.764782 0.0666056 0.492454
0.792584 0.0620584 0.535943
0.820386 0.057496 0.579416
0.848203 0.0529335 0.622889
0.876005 0.0483864 0.666377
0.903807 0.0438239 0.70985
0.931624 0.0392615 0.753323
0.959426 0.0347143 0.796811
0.987228 0.0301518 0.840284
1 0.0256046 0.883772
1 0.0210422 0.927245
1 0.0164797 0.970718
1 0.0119326 1
1 0.00737011 1
1 0.00282292 1
1 0 1
1 0 1
1 0 1
0.397391 0.154238 0
0.425177 0.149676 0
0.452979 0.145129 0
0.480781 0.140566 0
0.508598 0.136019 0
0.5364 0.131456 0.0348669
0.564202 0.126894 0.0783398
0.592004 0.122347 0.121813
0.619821 0.117784 0.165301
0.647623 0.113222 0.208774
0.675425 0.108675 0.252247
0.703227 0.104112 0.295735
0.731044 0.0995651 0.339208
0.758846 0.0950027 0.382681
0.786648 0.0904402 0.426169
0.81445 0.085893 0.469642
0.842268 0.0813306 0.513115
0.870069 0.0767834 0.556603
0.897871 0.072221 0.600076
0.925689 0.0676585 0.643565
0.95349 0.0631113 0.687037
0.981292 0.0585489 0.73051
1 0.0539864 0.773999
1 0.0494392 0.817472
1 0.0448768 0.860945
1 0.0403296 0.904433
1 0.0357671 0.947906
1 0.0312047 0.991379
1 0.0266575 1
1 0.0220951 1
1 0.0175326 1
1 0.0129854 1
1 0.00842298 1
0.447059 0.17351 0
0.474845 0.168963 0
0.502663 0.164401 0
0.530465 0.159854 0
0.558267 0.155291 0
0.586069 0.150744 0.0120394
0.613886 0.146181 0.0555276
0.641688 0.141619 0.0990005
0.66949 0.137072 0.142473
0.697292 0.132509 0.185962
0.725109 0.127947 0.229435
0.752911 0.1234 0.272923
0.780713 0.118837 0.316396
0.808515 0.11429 0.359869
0.836332 0.109728 0.403357
0.864134 0.105165 0.44683
0.891936 0.100618 0.490303
0.919753 0.0960555 0.533791
0.947555 0.0914931 0.577264
0.975357 0.0869459 0.620737
1 0.0823835 0.664225
1 0.0778363 0.707698
1 0.0732738 0.751171
1 0.0687114 0.794659
1 0.0641642 0.838132
1 0.0596017 0.881621
1 0.0550546 0.925093
1 0.0504921 0.968566
1 0.0459297 1
1 0.0413825 1
1 0.03682 1
1 0.0322576 1
1 0.0277104 1
0.496742 0.192798 0
0.524529 0.188251 0
0.552331 0.183688 0
0.580133 0.179126 0
0.60795 0.174578 0
0.635752 0.170016 0
0.663554 0.165454 0.0327153
0.691356 0.160906 0.0761883
0.719173 0.156344 0.119661
0.746975 0.151797 0.163149
0.774777 0.147234 0.206622
0.802579 0.142672 0.250095
0.830396 0.138125 0.293584
0.858198 0.133562 0.337057
0.886 0.129015 0.380529
0.913817 0.124453 0.424018
0.941619 0.11989 0.467491
0.969421 0.115343 0.510964
0.997223 0.11078 0.554452
1 0.106218 0.597925
1 0.101671 0.641413
1 0.0971084 0.684886
1 0.0925612 0.728359
1 0.0879988 0.771847
1 0.0834363 0.81532
1 0.0788891 0.858793
1 0.0743267 0.902281
1 0.0697642 0.945754
1 0.0652171 0.989227
1 0.0606546 1
1 0.0561074 1
1 0.051545 1
1 0.0469825 1
0.54641 0.212085 0
0.574197 0.207523 0
0.602014 0.202976 0
0.629816 0.198413 0
0.657618 0.193851 0
0.68542 0.189303 0
0.713237 0.184741 0.00988785
0.741039 0.180179 0.0533761
0.768841 0.175631 0.096849
0.796643 0.171069 0.140322
0.82446 0.166522 0.18381
0.852262 0.161959 0.227283
0.880064 0.157397 0.270756
0.907881 0.15285 0.314244
0.935683 0.148287 0.357717
0.963485 0.143725 0.401205
0.991287 0.139178 0.444678
1 0.134615 0.488151
1 0.130068 0.53164
1 0.125505 0.575113
1 0.120943 0.618585
1 0.116396 0.662074
1 0.111833 0.705547
1 0.107271 0.74902
1 0.102724 0.792508
1 0.0981613 0.835981
1 0.0936141 0.879454
1 0.0890516 0.922942
1 0.0844892 0.966415
1 0.079942 1
1 0.0753796 1
1 0.0708324 1
1 0.0662699 1
0.596094 0.231357 0
0.62388 0.22681 0
0.651682 0.222248 0
0.679484 0.217685 0
0.707301 0.213138 0
0.735103 0.208576 0
0.762905 0.204028 0
0.790707 0.199466 0.0305638
0.818524 0.194903 0.0740368
0.846326 0.190356 0.11751
0.874128 0.185794 0.160998
0.901946 0.181247 0.204471
0.929747 0.176684 0.247944
0.957549 0.172122 0.291432
0.985351 0.167575 0.334905
1 0.163012 0.378378
1 0.15845 0.421866
1 0.153903 0.465339
1 0.14934 0.508812
1 0.144793 0.5523
1 0.14023 0.595773
1 0.135668 0.639261
1 0.131121 0.682734
1 0.126558 0.726207
1 0.121996 0.769696
1 0.117449 0.813169
1 0.112886 0.856641
1 0.108339 0.90013
1 0.103777 0.943603
1 0.0992142 0.987076
1 0.094667 1
1 0.0901045 1
1 0.0855421 1
0.645762 0.250645 0
0.673548 0.246082 0
0.701366 0.241535 0
0.729168 0.236973 0
0.75697 0.23241 0
0.784772 0.227863 0
0.812589 0.223301 0
0.840391 0.218753 0.00773632
0.868193 0.214191 0.0512245
0.895994 0.209628 0.0946975
0.923812 0.205081 0.13817
0.951614 0.200519 0.181659
0.979416 0.195956 0.225132
1 0.191409 0.268605
1 0.186847 0.312093
1 0.1823 0.355566
1 0.177737 0.399054
1 0.173175 0.442527
1 0.168627 0.486
1 0.164065 0.529488
1 0.159503 0.572961
1 0.154955 0.616434
1 0.150393 0.659922
1 0.145846 0.703395
1 0.141283 0.746868
1 0.136721 0.790356
1 0.132174 0.833829
1 0.127611 0.877302
1 0.123064 0.92079
1 0.118502 0.964263
1 0.113939 1
1 0.109392 1
1 0.104829 1
0.695445 0.269917 0
0.723232 0.26537 0
0.751034 0.260807 0
0.778836 0.25626 0
0.806653 0.251698 0
0.834455 0.247135 0
0.862257 0.242588 0
0.890059 0.238025 0
0.917876 0.233463 0.0284123
0.945678 0.228916 0.0718853
0.97348 0.224353 0.115358
1 0.219806 0.158846
1 0.215244 0.202319
1 0.210681 0.245792
1 0.206134 0.289281
1 0.201572 0.332753
1 0.197024 0.376226
1 0.192462 0.419715
1 0.1879 0.463188
1 0.183352 0.506661
1 0.17879 0.550149
1 0.174228 0.593622
1 0.16968 0.637095
1 0.165118 0.680583
1 0.160571 0.724056
1 0.156008 0.767544
1 0.151446 0.811017
1 0.146899 0.85449
1 0.142336 0.897978
1 0.137774 0.941451
1 0.133227 0.984924
1 0.128664 1
1 0.124117 1
0.745113 0.289204 0
0.7729 0.284642 0
0.800717 0.280095 0
0.828519 0.275532 0
0.856321 0.270985 0
0.884123 0.266423 0
0.91194 0.26186 0
0.939742 0.257313 0
0.967544 0.25275 0.0055848
0.995361 0.248188 0.049073
1 0.243641 0.092546
1 0.239078 0.136019
1 0.234531 0.179507
1 0.229969 0.22298
1 0.225406 0.266453
1 0.220859 0.309941
1 0.216297 0.353414
1 0.211734 0.396902
1 0.207187 0.440375
1 0.202625 0.483848
1 0.198077 0.527337
1 0.193515 0.570809
1 0.188952 0.614282
1 0.184405 0.657771
1 0.179843 0.701244
1 0.175296 0.744717
1 0.170733 0.788205
1 0.166171 0.831678
1 0.161624 0.875151
1 0.157061 0.918639
1 0.152499 0.962112
1 0.147951 1
1 0.143389 1
0.794797 0.308476 0
0.822583 0.303929 0
0.850385 0.299367 0
0.878187 0.29482 0
0.906004 0.290257 0
0.933806 0.285695 0
0.961608 0.281147 0
0.989425 0.276585 0
1 0.272038 0
1 0.267475 0.0262455
1 0.262913 0.0697337
1 0.258366 0.113207
1 0.253803 0.156695
1 0.249256 0.200168
1 0.244694 0.243641
1 0.240131 0.287129
1 0.235584 0.330602
1 0.231022 0.374075
1 0.226459 0.417563
1 0.221912 0.461036
1 0.21735 0.504509
1 0.212802 0.547997
1 0.20824 0.59147
1 0.203677 0.634943
1 0.19913 0.678431
1 0.194568 0.721904
1 0.190005 0.765393
1 0.185458 0.808865
1 0.180896 0.852338
1 0.176349 0.895827
1 0.171786 0.9393
1 0.167224 0.982773
1 0.162676 1
0.844465 0.327764 0
0.872251 0.323217 0
0.900069 0.318654 0
0.927871 0.314092 0
0.955673 0.309545 0
0.98349 0.304982 0
1 0.30042 0
1 0.295872 0
1 0.29131 0
1 0.286763 0.00343328
1 0.2822 0.0469215
1 0.277638 0.0903944
1 0.273091 0.133867
1 0.268528 0.177356
1 0.263966 0.220829
1 0.259419 0.264302
1 0.254856 0.30779
1 0.250309 0.351263
1 0.245747 0.394736
1 0.241184 0.438224
1 0.236637 0.481697
1 0.232074 0.525185
1 0.227527 0.568658
1 0.222965 0.612131
1 0.218402 0.655619
1 0.213855 0.699092
1 0.209293 0.742565
1 0.20473 0.786053
1 0.200183 0.829526
1 0.195621 0.872999
1 0.191073 0.916487
1 0.186511 0.95996
1 0.181949 1
0.894148 0.347051 0
0.921935 0.342489 0
0.949737 0.337926 0
0.977539 0.333379 0
1 0.328817 0
1 0.324269 0
1 0.319707 0
1 0.315145 0
1 0.310597 0
1 0.306035 0
1 0.301488 0.024094
1 0.296925 0.0675822
1 0.292363 0.111055
1 0.287816 0.154543
1 0.283253 0.198016
1 0.278691 0.241489
1 0.274144 0.284977
1 0.269581 0.32845
1 0.265034 0.371923
1 0.260471 0.415412
1 0.255909 0.458885
1 0.251362 0.502358
1 0.246799 0.545846
1 0.242237 0.589319
1 0.23769 0.632792
1 0.233127 0.67628
1 0.22858 0.719753
1 0.224018 0.763226
1 0.219455 0.806714
1 0.214908 0.850187
1 0.210346 0.893675
1 0.205798 0.937148
1 0.201236 0.980621
0.943816 0.366323 0
0.971603 0.361776 0
0.99942 0.357214 0
1 0.352651 0
1 0.348104 0
1 0.343542 0
1 0.338994 0
1 0.334432 0
1 0.32987 0
1 0.325322 0
1 0.32076 0.00128176
1 0.316197 0.04477
1 0.31165 0.0882429
1 0.307088 0.131716
1 0.302541 0.175204
1 0.297978 0.218677
1 0.293416 0.26215
1 0.288869 0.305638
1 0.284306 0.349111
1 0.279759 0.392584
1 0.275196 0.436072
1 0.270634 0.479545
1 0.266087 0.523033
1 0.261524 0.566506
1 0.256962 0.609979
1 0.252415 0.653468
1 0.247852 0.696941
1 0.243305 0.740414
1 0.238743 0.783902
1 0.23418 0.827375
1 0.229633 0.870848
1 0.225071 0.914336
1 0.220508 0.957809
0.9935 0.385611 0
1 0.381048 0
1 0.376501 0
1 0.371939 0
1 0.367376 0
1 0.362829 0
1 0.358267 0
1 0.353719 0
1 0.349157 0
1 0.344594 0
1 0.340047 0
1 0.335485 0.0219425
1 0.330922 0.0654307
1 0.326375 0.108904
1 0.321813 0.152377
1 0.317266 0.195865
1 0.312703 0.239338
1 0.308141 0.282826
1 0.303593 0.326299
1 0.299031 0.369772
1 0.294469 0.41326
1 0.289921 0.456733
1 0.285359 0.500206
1 0.280812 0.543694
1 0.276249 0.587167
1 0.271687 0.63064
1 0.26714 0.674128
1 0.262577 0.717601
1 0.258015 0.761074
1 0.253468 0.804562
1 0.248905 0.848035
1 0.244358 0.891524
1 0.239796 0.934997
1 0.404883 0
1 0.400336 0
1 0.395773 0
1 0.391226 0
1 0.386664 0
1 0.382101 0
1 0.377554 0
1 0.372992 0
1 0.368429 0
1 0.363882 0
1 0.359319 0
1 0.354772 0
1 0.35021 0.0426184
1 0.345647 0.0860914
1 0.3411 0.129564
1 0.336538 0.173053
1 0.331991 0.216526
1 0.327428 0.259998
1 0.322866 0.303487
1 0.318318 0.34696
1 0.313756 0.390433
1 0.309194 0.433921
1 0.304646 0.477394
1 0.300084 0.520867
1 0.295537 0.564355
1 0.290974 0.607828
1 0.286412 0.651316
1 0.281865 0.694789
1 0.277302 0.738262
1 0.27274 0.78175
1 0.268193 0.825223
1 0.26363 0.868696
1 0.259083 0.912184
1 0.42417 0
1 0.419608 0
1 0.415061 0
1 0.410498 0
1 0.405951 0
1 0.401389 0
1 0.396826 0
1 0.392279 0
1 0.387717 0
1 0.383154 0
1 0.378607 0
1 0.374044 0
1 0.369497 0.019791
1 0.364935 0.0632792
1 0.360372 0.106752
1 0.355825 0.150225
1 0.351263 0.193713
1 0.3467 0.237186
1 0.342153 0.280674
1 0.337591 0.324147
1 0.333043 0.36762
1 0.328481 0.411109
1 0.323919 0.454582
1 0.319371 0.498054
1 0.314809 0.541543
1 0.310246 0.585016
1 0.305699 0.628489
1 0.301137 0.671977
1 0.29659 0.71545
1 0.292027 0.758923
1 0.287465 0.802411
1 0.282918 0.845884
1 0.278355 0.889372
1 0.443442 0
1 0.438895 0
1 0.434333 0
1 0.429786 0
1 0.425223 0
1 0.420661 0
1 0.416114 0
1 0.411551 0
1 0.407004 0
1 0.402441 0
1 0.397879 0
1 0.393332 0
1 0.388769 0
1 0.384207 0.0404669
1 0.37966 0.0839399
1 0.375097 0.127413
1 0.37055 0.170901
1 0.365988 0.214374
1 0.361425 0.257847
1 0.356878 0.301335
1 0.352316 0.344808
1 0.347768 0.388281
1 0.343206 0.431769
1 0.338643 0.475242
1 0.334096 0.518715
1 0.329534 0.562203
1 0.324971 0.605676
1 0.320424 0.649165
1 0.315862 0.692638
1 0.311315 0.73611
1 0.306752 0.779599
1 0.30219 0.823072
1 0.297642 0.866545
1 0.46273 0
1 0.458167 0
1 0.45362 0
1 0.449058 0
1 0.444511 0
1 0.439948 0
1 0.435386 0
1 0.430838 0
1 0.426276 0
1 0.421729 0
1 0.417166 0
1 0.412604 0
1 0.408057 0
1 0.403494 0.0176394
1 0.398932 0.0611276
1 0.394385 0.104601
1 0.389822 0.148074
1 0.385275 0.191562
1 0.380713 0.235035
1 0.37615 0.278508
1 0.371603 0.321996
1 0.367041 0.365469
1 0.362478 0.408957
1 0.357931 0.45243
1 0.353368 0.495903
1 0.348821 0.539391
1 0.344259 0.582864
1 0.339696 0.626337
1 0.335149 0.669825
1 0.330587 0.713298
1 0.32604 0.756771
1 0.321477 0.800259
1 0.316915 0.843732
1 0.482017 0
1 0.477455 0
1 0.472892 0
1 0.468345 0
1 0.463783 0
1 0.459236 0
1 0.454673 0
1 0.450111 0
1 0.445563 0
1 0.441001 0
1 0.436439 0
1 0.431891 0
1 0.427329 0
1 0.422782 0
1 0.418219 0.0383154
1 0.413657 0.0817884
1 0.40911 0.125261
1 0.404547 0.16875
1 0.4 0.212222
1 0.395438 0.255695
1 0.390875 0.299184
1 0.386328 0.342657
1 0.381765 0.38613
1 0.377203 0.429618
1 0.372656 0.473091
1 0.368093 0.516564
1 0.363546 0.560052
1 0.358984 0.603525
1 0.354421 0.647013
1 0.349874 0.690486
1 0.345312 0.733959
1 0.340749 0.777447
1 0.336202 0.82092
1 0.501289 0
1 0.496742 0
1 0.49218 0
1 0.487617 0
1 0.48307 0
1 0.478508 0
1 0.47396 0
1 0.469398 0
1 0.464836 0
1 0.460288 0
1 0.455726 0
1 0.451164 0
1 0.446616 0
1 0.442054 0
1 0.437507 0.0154879
1 0.432944 0.0589761
1 0.428382 0.102449
1 0.423835 0.145922
1 0.419272 0.18941
1 0.41471 0.232883
1 0.410163 0.276356
1 0.4056 0.319844
1 0.401053 0.363317
1 0.39649 0.406806
1 0.391928 0.450278
1 0.387381 0.493751
1 0.382818 0.53724
1 0.378271 0.580713
1 0.373709 0.624186
1 0.369146 0.667674
1 0.364599 0.711147
1 0.360037 0.75462
1 0.355474 0.798108
1 0.520577 0
1 0.516014 0
1 0.511467 0
1 0.506905 0
1 0.502342 0
1 0.497795 0
1 0.493233 0
1 0.48867 0
1 0.484123 0
