public/LUTS/Color Shift/ColorShift_82.cube
TITLE "Generated by Resolve"
LUT_3D_SIZE 9
0 0 0
0.146212 0 0.148363
0.292439 0 0.296757
0.438682 0 0.445151
0.584909 0 0.59353
0.731136 0 0.741924
0.877379 0 0.890303
1 0 1
1 0 1
0.149905 0.0944686 0
0.296117 0.0690318 0.0359655
0.442344 0.0435798 0.184344
0.588571 0.0181277 0.332738
0.734813 0 0.481117
0.881041 0 0.629511
1 0 0.777905
1 0 0.926284
1 0 1
0.299809 0.188952 0
0.446021 0.1635 0
0.592264 0.138064 0.071931
0.738491 0.112612 0.22031
0.884718 0.0871595 0.368704
1 0.0617075 0.517082
1 0.0362707 0.665476
1 0.0108186 0.81387
1 0 0.962249
0.449729 0.283436 0
0.595941 0.257984 0
0.742184 0.232532 0
0.888411 0.207095 0.107897
1 0.181643 0.256275
1 0.156191 0.404669
1 0.130755 0.553048
1 0.105303 0.701442
1 0.0798505 0.849821
0.599649 0.377905 0
0.745861 0.352468 0
0.892088 0.327016 0
1 0.301564 0
1 0.276127 0.143847
1 0.250675 0.292241
1 0.225223 0.440635
1 0.199786 0.589014
1 0.174334 0.737408
0.749569 0.472389 0
0.895781 0.446952 0
1 0.4215 0
1 0.396048 0
1 0.370611 0.0314336
1 0.345159 0.179812
1 0.319707 0.328206
1 0.294255 0.4766
1 0.268818 0.624979
0.899474 0.566873 0
1 0.541421 0
1 0.515984 0
1 0.490532 0
1 0.46508 0
1 0.439643 0.0673991
1 0.414191 0.215778
1 0.388739 0.364172
1 0.363287 0.512551
1 0.661357 0
1 0.635904 0
1 0.610452 0
1 0.585016 0
1 0.559564 0
1 0.534112 0
1 0.508675 0.103365
1 0.483223 0.251743
1 0.457771 0.400137
1 0.755825 0
1 0.730388 0
1 0.704936 0
1 0.6795 0
1 0.654047 0
1 0.628595 0
1 0.603143 0
1 0.577707 0.13933
1 0.552254 0.287709
0 0.0559548 0.0890211
0 0.030518 0.2374
0.121324 0.005066 0.385779
0.267552 0 0.534173
0.413779 0 0.682567
0.560021 0 0.830945
0.706249 0 0.979339
0.852476 0 1
0.998718 0 1
0 0.150423 0
0.124987 0.124987 0.124987
0.271214 0.0995346 0.273381
0.417456 0.0740978 0.421759
0.563684 0.0486458 0.570153
0.709911 0.0231937 0.718532
0.856153 0 0.866926
1 0 1
1 0 1
0.128695 0.244907 0
0.274907 0.219471 0.0125582
0.421134 0.194018 0.160952
0.567361 0.168566 0.309346
0.713603 0.14313 0.457725
0.859831 0.117678 0.606119
1 0.0922255 0.754498
1 0.0667887 0.902892
1 0.0413367 1
0.278599 0.339391 0
0.424826 0.313954 0
0.571054 0.288502 0.0485237
0.717281 0.26305 0.196918
0.863508 0.237598 0.345296
1 0.212161 0.49369
1 0.186709 0.642084
1 0.161257 0.790463
1 0.135821 0.938857
0.428519 0.433875 0
0.574731 0.408423 0
0.720974 0.382986 0
0.867201 0.357534 0.0844892
1 0.332082 0.232883
1 0.306645 0.381262
1 0.281193 0.529656
1 0.255741 0.67805
1 0.230289 0.826429
0.578439 0.528359 0
0.724651 0.502907 0
0.870878 0.477455 0
1 0.452018 0
1 0.426566 0.120455
1 0.401114 0.268849
1 0.375677 0.417227
1 0.350225 0.565621
1 0.324773 0.714
0.728359 0.622827 0
0.874571 0.597391 0
1 0.571939 0
1 0.546487 0
1 0.52105 0.00802625
1 0.495598 0.15642
1 0.470146 0.304814
1 0.444709 0.453193
1 0.419257 0.601587
0.878264 0.717311 0
1 0.691875 0
1 0.666423 0
1 0.64097 0
1 0.615534 0
1 0.590082 0.0439918
1 0.56463 0.192386
1 0.539178 0.34078
1 0.513741 0.489158
1 0.811795 0
1 0.786343 0
1 0.760906 0
1 0.735454 0
1 0.710002 0
1 0.684565 0
1 0.659113 0.0799573
1 0.633661 0.228351
1 0.608225 0.376745
0 0.111925 0.178058
0 0.0864881 0.326436
0 0.0610361 0.474815
0.0964065 0.0355993 0.623209
0.242634 0.0101472 0.771603
0.388876 0 0.919982
0.535103 0 1
0.681331 0 1
0.827558 0 1
0 0.206394 0.0656596
0 0.180957 0.214023
0.100069 0.155505 0.362417
0.246311 0.130068 0.510796
0.392538 0.104616 0.65919
0.538766 0.0791638 0.807568
0.684993 0.0537118 0.955962
0.831235 0.028275 1
0.977462 0.00282292 1
0 0.300877 0
0.103761 0.275441 0.101595
0.249989 0.249989 0.249989
0.396216 0.224537 0.398383
0.542458 0.1991 0.546761
0.688685 0.173648 0.695155
0.834913 0.148196 0.843534
0.981155 0.122759 0.991928
1 0.0973068 1
0.107454 0.395361 0
0.253666 0.369909 0
0.399908 0.344472 0.13756
0.546136 0.31902 0.285954
0.692363 0.293568 0.434348
0.838605 0.268132 0.582727
0.984833 0.242679 0.731121
1 0.217227 0.879499
1 0.191791 1
0.257374 0.489845 0
0.403586 0.464393 0
0.549828 0.438956 0.0251469
0.696056 0.413504 0.173526
0.842283 0.388052 0.32192
0.98851 0.3626 0.470298
1 0.337163 0.618692
1 0.311711 0.767086
1 0.286259 0.915465
0.407294 0.584329 0
0.553506 0.558877 0
0.699733 0.533425 0
0.845975 0.507988 0.0611124
0.992203 0.482536 0.209491
1 0.457084 0.357885
1 0.431647 0.506264
1 0.406195 0.654658
1 0.380743 0.803052
0.557214 0.678798 0
0.703426 0.653361 0
0.849653 0.627909 0
0.99588 0.602457 0
1 0.57702 0.0970779
1 0.551568 0.245457
1 0.526116 0.393851
1 0.500679 0.542229
1 0.475227 0.690623
0.707118 0.773281 0
0.853346 0.747845 0
0.999573 0.722393 0
1 0.696941 0
1 0.671489 0
1 0.646052 0.133028
1 0.6206 0.281422
1 0.595148 0.429816
1 0.569711 0.578195
0.857038 0.867765 0
1 0.842313 0
1 0.816876 0
1 0.791424 0
1 0.765972 0
1 0.740536 0.0206149
1 0.715084 0.168994
1 0.689632 0.317388
1 0.664179 0.465782
0 0.167895 0.267094
0 0.142458 0.415473
0 0.117006 0.563851
0 0.0915541 0.712245
0.0714885 0.0661173 0.860639
0.217716 0.0406653 1
0.363958 0.0152132 1
0.510185 0 1
0.656413 0 1
0 0.262364 0.154696
0 0.236927 0.303059
0 0.211475 0.451453
0.0751507 0.186023 0.599832
0.221393 0.160586 0.748226
0.36762 0.135134 0.89662
0.513848 0.109682 1
0.66009 0.0842451 1
0.806317 0.058793 1
0 0.356847 0.0422675
0 0.331411 0.190631
0.0788434 0.305959 0.339025
0.225071 0.280507 0.487419
0.371313 0.25507 0.635798
0.51754 0.229618 0.784192
0.663767 0.204166 0.93257
0.809995 0.178714 1
0.956237 0.153277 1
0 0.451331 0
0.0825208 0.425879 0.0782177
0.228763 0.400443 0.226596
0.37499 0.37499 0.37499
0.521218 0.349538 0.523384
0.66746 0.324102 0.671763
0.813687 0.29865 0.820157
0.959915 0.273198 0.968536
1 0.247761 1
0.0862287 0.545815 0
0.232441 0.520363 0
0.378668 0.494911 0.114183
0.52491 0.469474 0.262562
0.671138 0.444022 0.410956
0.817365 0.41857 0.55935
0.963607 0.393133 0.707729
1 0.367681 0.856123
1 0.342229 1
0.236149 0.640284 0
0.382361 0.614847 0
0.528588 0.589395 0.00175479
0.67483 0.563958 0.150149
0.821057 0.538506 0.298528
0.967285 0.513054 0.446921
1 0.487602 0.5953
1 0.462165 0.743694
1 0.436713 0.892088
0.386069 0.734768 0
0.53228 0.709331 0
0.678508 0.683879 0
0.824735 0.658427 0.0377203
0.970977 0.63299 0.186114
1 0.607538 0.334493
1 0.582086 0.482887
1 0.556649 0.631266
1 0.531197 0.77966
0.535973 0.829252 0
0.682185 0.8038 0
0.828428 0.778363 0
0.974655 0.752911 0
1 0.727459 0.0736858
1 0.702022 0.22208
1 0.67657 0.370459
1 0.651118 0.518853
1 0.625681 0.667231
0.685893 0.923735 0
0.832105 0.898283 0
0.978347 0.872847 0
1 0.847395 0
1 0.821942 0
1 0.79649 0.109651
1 0.771054 0.25803
1 0.745602 0.406424
1 0.72015 0.554818
0 0.223865 0.356146
0 0.198428 0.504509
0 0.172976 0.652903
0 0.147524 0.801282
0 0.122087 0.949676
0.0465705 0.0966354 1
0.192813 0.0711833 1
0.33904 0.0457465 1
0.485267 0.0202945 1
0 0.318334 0.243732
0 0.292897 0.392096
0 0.267445 0.54049
0 0.241993 0.688869
0.050248 0.216556 0.837263
0.196475 0.191104 0.985656
0.342702 0.165652 1
0.488945 0.140215 1
0.635172 0.114763 1
0 0.412818 0.131304
0 0.387381 0.279683
0 0.361929 0.428061
0.0539254 0.336477 0.576455
0.200153 0.311025 0.724834
0.346395 0.285588 0.873228
0.492622 0.260136 1
0.638849 0.234684 1
0.785092 0.209247 1
0 0.507301 0.0188754
0 0.481849 0.167254
0.0576181 0.456413 0.315633
0.203845 0.430961 0.464027
0.350072 0.405509 0.612421
0.496315 0.380072 0.7608
0.642542 0.35462 0.909194
0.788769 0.329168 1
0.934997 0.303716 1
0 0.601785 0
0.0612955 0.576333 0.0548257
0.207523 0.550881 0.20322
0.353765 0.525444 0.351598
0.499992 0.499992 0.499992
0.64622 0.47454 0.648386
0.792462 0.449104 0.796765
0.938689 0.423651 0.945159
1 0.398199 1
0.0650034 0.696254 0
0.211215 0.670817 0
0.357443 0.645365 0.0907912
0.50367 0.619913 0.239185
0.649912 0.594476 0.387564
0.796139 0.569024 0.535958
0.942367 0.543572 0.684352
1 0.518135 0.832731
1 0.492683 0.981125
0.214908 0.790738 0
0.361135 0.765301 0
0.507362 0.739849 0
0.65359 0.714397 0.126757
0.799832 0.68896 0.275151
0.946059 0.663508 0.423529
1 0.638056 0.571923
1 0.612604 0.720302
1 0.587167 0.868696
0.364828 0.885222 0
0.51104 0.85977 0
0.657282 0.834333 0
0.80351 0.808881 0.0143282
0.949737 0.783429 0.162722
1 0.757992 0.311116
1 0.73254 0.459495
1 0.707088 0.607889
1 0.681651 0.756268
0.514748 0.979706 0
0.66096 0.954253 0
0.807187 0.928801 0
0.953429 0.903365 0
1 0.877913 0.0502937
1 0.852461 0.198688
1 0.827024 0.347082
1 0.801572 0.49546
1 0.77612 0.643854
0 0.279835 0.445182
0 0.254398 0.593545
0 0.228946 0.741939
0 0.203494 0.890318
0 0.178058 1
0 0.152605 1
0.0216678 0.127153 1
0.167895 0.101717 1
0.314122 0.0762646 1
0 0.374304 0.332769
0 0.348867 0.481132
0 0.323415 0.629526
0 0.297963 0.777905
0 0.272526 0.926299
0.02533 0.247074 1
0.171557 0.221622 1
0.3178 0.196185 1
0.464027 0.170733 1
0 0.468788 0.22034
0 0.443336 0.368719
0 0.417899 0.517098
0 0.392447 0.665492
0.0290074 0.366995 0.81387
0.17525 0.341558 0.962264
0.321477 0.316106 1
0.467704 0.290654 1
0.613947 0.265217 1
0 0.563272 0.107927
0 0.53782 0.256291
0 0.512383 0.404685
0.0327001 0.486931 0.553063
0.178927 0.461479 0.701457
0.325154 0.436027 0.849836
0.471397 0.41059 0.99823
0.617624 0.385138 1
0.763851 0.359686 1
0 0.657755 0
0 0.632303 0.143862
0.0363775 0.606851 0.292256
0.18262 0.581415 0.440635
0.328847 0.555962 0.589029
0.475074 0.53051 0.737423
0.621317 0.505074 0.885801
0.767544 0.479622 1
0.913771 0.45417 1
0 0.752224 0
0.0400702 0.726787 0.0314488
0.186297 0.701335 0.179828
0.332525 0.675883 0.328222
0.478767 0.650446 0.4766
0.624994 0.624994 0.624994
0.771221 0.599542 0.773388
0.917464 0.574105 0.921767
1 0.548653 1
0.0437629 0.846708 0
0.18999 0.821271 0
0.336217 0.795819 0.0674144
0.482444 0.770367 0.215793
0.628672 0.744915 0.364187
0.774914 0.719478 0.512566
0.921141 0.694026 0.66096
1 0.668574 0.809354
1 0.643137 0.957732
0.193683 0.941192 0
0.339895 0.91574 0
0.486137 0.890303 0
0.632364 0.864851 0.10338
0.778592 0.839399 0.251759
0.924834 0.813962 0.400153
1 0.78851 0.548531
1 0.763058 0.696925
1 0.737606 0.845304
0.343603 1 0
0.489815 1 0
0.636042 0.984771 0
0.782284 0.959335 0
0.928512 0.933883 0.13933
1 0.908431 0.287724
1 0.882994 0.436118
1 0.857542 0.584497
1 0.83209 0.732891
0 0.335805 0.534218
0 0.310369 0.682582
0 0.284916 0.830976
0 0.259464 0.979355
0 0.234028 1
0 0.208576 1
0 0.183124 1
0 0.157671 1
0.142977 0.132235 1
0 0.430274 0.421805
0 0.404837 0.570169
0 0.379385 0.718563
0 0.353933 0.866957
0 0.328496 1
0 0.303044 1
0.000411994 0.277592 1
0.146639 0.25214 1
0.292882 0.226703 1
0 0.524758 0.309377
0 0.499306 0.457755
0 0.473869 0.606134
0 0.448417 0.754528
0 0.422965 0.902907
0.00410468 0.397528 1
0.150332 0.372076 1
0.296559 0.346624 1
0.442802 0.321187 1
0 0.619242 0.196963
0 0.59379 0.345327
0 0.568338 0.493721
0 0.542901 0.6421
0.0077821 0.517449 0.790494
0.154009 0.491997 0.938872
0.300252 0.46656 1
0.446479 0.441108 1
0.592706 0.415656 1
0 0.71371 0.084535
0 0.688273 0.232898
0 0.662821 0.381292
0.0114748 0.637385 0.529686
0.157702 0.611933 0.678065
0.303929 0.58648 0.826459
0.450156 0.561028 0.974838
0.596399 0.535592 1
0.742626 0.51014 1
0 0.808194 0
0 0.782757 0.120485
0.0151522 0.757305 0.268864
0.161379 0.731853 0.417258
0.307622 0.706416 0.565637
0.453849 0.680964 0.714031
0.600076 0.655512 0.862425
0.746319 0.630076 1
0.892546 0.604623 1
0 0.902678 0
0.0188296 0.877226 0.00805676
0.165072 0.851789 0.156451
0.311299 0.826337 0.304829
0.457527 0.800885 0.453223
0.603769 0.775448 0.601602
0.749996 0.749996 0.749996
0.896223 0.724544 0.89839
1 0.699107 1
0.0225376 0.997162 0
0.16875 0.97171 0
0.314992 0.946273 0.0440223
0.461219 0.920821 0.192416
0.607446 0.895369 0.340795
0.753674 0.869917 0.489189
0.899916 0.84448 0.637568
1 0.819028 0.785962
1 0.793576 0.934356
0.172457 1 0
0.318669 1 0
0.464897 1 0
0.611139 1 0.0799878
0.757366 0.989853 0.228382
0.903593 0.964401 0.376761
1 0.938964 0.525154
1 0.913512 0.673533
1 0.88806 0.821927
0 0.391775 0.623255
0 0.366339 0.771618
0 0.340887 0.920012
0 0.315435 1
0 0.289982 1
0 0.264546 1
0 0.239094 1
0 0.213642 1
0 0.188205 1
0 0.486244 0.510842
0 0.460807 0.659205
0 0.435355 0.807599
0 0.409903 0.955993
0 0.384451 1
0 0.359014 1
0 0.333562 1
0 0.30811 1
0.121736 0.282673 1
0 0.580728 0.398413
0 0.555276 0.546792
0 0.529839 0.695171
0 0.504387 0.843565
0 0.478935 0.991958
0 0.453498 1
0 0.428046 1
0.125414 0.402594 1
0.271641 0.377142 1
0 0.675212 0.286
0 0.64976 0.434363
0 0.624308 0.582757
0 0.598871 0.731136
0 0.573419 0.87953
0 0.547967 1
0.129107 0.52253 1
0.275334 0.497078 1
0.421561 0.471626 1
0 0.76968 0.173571
0 0.744244 0.321935
0 0.718791 0.470329
0 0.693339 0.618723
0 0.667903 0.767102
0.132784 0.642451 0.915496
0.279011 0.616999 1
0.425254 0.591562 1
0.571481 0.56611 1
0 0.864164 0.0611429
0 0.838727 0.209522
0 0.813275 0.3579
0 0.787823 0.506294
0.136477 0.762387 0.654688
0.282704 0.736934 0.803067
0.428931 0.711482 0.951461
0.575158 0.68603 1
0.721401 0.660594 1
0 0.958648 0
0 0.933196 0.0970932
0 0.907759 0.245487
0.140154 0.882307 0.393866
0.286381 0.856855 0.54226
0.432624 0.831418 0.690639
0.578851 0.805966 0.839033
0.725078 0.780514 0.987427
0.871321 0.755077 1
0 1 0
0 1 0
0.143832 1 0.133059
0.290074 0.976791 0.281453
0.436301 0.951339 0.429831
0.582528 0.925887 0.578225
0.728771 0.90045 0.726604
0.874998 0.874998 0.874998
1 0.849546 1
0.00131228 1 0
0.147524 1 0
0.293751 1 0.0206302
0.439994 1 0.169024
0.586221 1 0.317418
0.732448 1 0.465797
0.878676 0.994919 0.614191
1 0.969482 0.76257
1 0.94403 0.910964
0 0.447745 0.712291
0 0.422293 0.860655
0 0.396857 1
0 0.371405 1
0 0.345953 1
0 0.320516 1
0 0.295064 1
0 0.269612 1
0 0.244175 1
0 0.542214 0.599878
0 0.516762 0.748241
0 0.491325 0.896635
0 0.465873 1
0 0.440421 1
0 0.414984 1
0 0.389532 1
0 0.36408 1
0 0.338643 1
0 0.636698 0.487449
0 0.611246 0.635828
0 0.585809 0.784207
0 0.560357 0.932601
0 0.534905 1
0 0.509453 1
0 0.484016 1
0 0.458564 1
0.100496 0.433112 1
0 0.731182 0.375036
0 0.70573 0.5234
0 0.680278 0.671794
0 0.654841 0.820172
0 0.629389 0.968566
0 0.603937 1
0 0.5785 1
0.104189 0.553048 1
0.250416 0.527596 1
0 0.82565 0.262608
0 0.800214 0.410986
0 0.774762 0.559365
0 0.74931 0.707759
0 0.723873 0.856138
0 0.698421 1
0.107866 0.672969 1
0.254108 0.647532 1
0.400336 0.62208 1
0 0.920134 0.150179
0 0.894697 0.298558
0 0.869245 0.446937
0 0.843793 0.595331
0 0.818341 0.743725
0.111559 0.792905 0.892103
0.257786 0.767452 1
0.404013 0.742 1
0.550256 0.716564 1
0 1 0.0377661
0 0.989166 0.18613
0 0.963729 0.334524
0 0.938277 0.482902
0.115236 0.912825 0.631296
0.261479 0.887388 0.77969
0.407706 0.861936 0.928069
0.553933 0.836484 1
0.70016 0.811032 1
0 1 0
0 1 0.0737163
0 1 0.222095
0.118929 1 0.370489
0.265156 1 0.518868
0.411383 0.981857 0.667262
0.557626 0.95642 0.815641
0.703853 0.930968 0.964034
0.85008 0.905516 1
0 1 0
0 1 0
0.122606 1 0.109667
0.268833 1 0.258061
0.415076 1 0.406455
0.561303 1 0.554833
0.70753 1 0.703227
0.853773 1 0.851606
1 1 1
