public/LUTS/Color Shift/ColorShift_29.cube
TITLE "Generated by Resolve"
LUT_3D_SIZE 33
0 0 0
0.0297551 0 0.0168612
0.0595254 0 0.0337377
0.0892958 0 0.0505989
0.119051 0 0.0674754
0.148821 0 0.0843519
0.178592 0 0.101213
0.208362 0 0.11809
0.238132 0 0.134951
0.267903 0 0.151827
0.297673 0 0.168704
0.327428 0 0.185565
0.357198 0 0.202441
0.386969 0 0.219318
0.416739 0 0.236179
0.44651 0 0.253056
0.47628 0 0.269932
0.50605 0 0.286793
0.535805 0 0.30367
0.565576 0 0.320531
0.595346 0 0.337407
0.625116 0 0.354284
0.654887 0 0.371145
0.684657 0 0.388022
0.714427 0 0.404898
0.744183 0 0.421759
0.773953 0 0.438636
0.803723 0 0.455497
0.833494 0 0.472374
0.863264 0 0.48925
0.893034 0 0.506111
0.922789 0 0.522988
0.95256 0 0.539864
0.0193484 0.0265507 0
0.0491035 0.0248264 0.00816358
0.0788739 0.0231022 0.0250401
0.108644 0.0213779 0.0419013
0.138415 0.0196536 0.0587778
0.168185 0.0179294 0.0756542
0.19794 0.0162051 0.0925154
0.22771 0.0144808 0.109392
0.257481 0.0127565 0.126268
0.287251 0.0110323 0.14313
0.317021 0.009308 0.160006
0.346792 0.00758373 0.176867
0.376562 0.00585946 0.193744
0.406317 0.0041352 0.21062
0.436088 0.00241093 0.227481
0.465858 0.000686656 0.244358
0.495628 0 0.261234
0.525399 0 0.278096
0.555169 0 0.294972
0.584939 0 0.311849
0.614694 0 0.32871
0.644465 0 0.345586
0.674235 0 0.362448
0.704005 0 0.379324
0.733776 0 0.396201
0.763546 0 0.413062
0.793301 0 0.429938
0.823072 0 0.446815
0.852842 0 0.463676
0.882612 0 0.480552
0.912383 0 0.497414
0.942153 0 0.51429
0.971923 0 0.531167
0.0387121 0.0531014 0
0.0684672 0.0513771 0
0.0982376 0.0496529 0.0163424
0.128008 0.0479286 0.0332036
0.157778 0.0462043 0.0500801
0.187549 0.04448 0.0669566
0.217304 0.0427558 0.0838178
0.247074 0.0410315 0.100694
0.276844 0.0393072 0.117556
0.306615 0.037583 0.134432
0.336385 0.0358587 0.151308
0.366155 0.0341344 0.16817
0.395911 0.0324102 0.185046
0.425681 0.0306859 0.201923
0.455451 0.0289616 0.218784
0.485222 0.0272374 0.23566
0.514992 0.0255131 0.252522
0.544762 0.0237888 0.269398
0.574533 0.0220645 0.286275
0.604288 0.0203403 0.303136
0.634058 0.018616 0.320012
0.663828 0.0168917 0.336889
0.693599 0.0151675 0.35375
0.723369 0.0134432 0.370626
0.75314 0.0117189 0.387488
0.78291 0.00999466 0.404364
0.812665 0.00827039 0.421241
0.842435 0.00654612 0.438102
0.872206 0.00482185 0.454978
0.901976 0.00309758 0.471855
0.931746 0.00137331 0.488716
0.961517 0 0.505592
0.991287 0 0.522469
0.0580758 0.0796674 0
0.0878309 0.0779431 0
0.117601 0.0762188 0.00762951
0.147372 0.0744945 0.024506
0.177142 0.0727703 0.0413825
0.206897 0.071046 0.0582437
0.236667 0.0693217 0.0751202
0.266438 0.0675975 0.0919966
0.296208 0.0658732 0.108858
0.325978 0.0641489 0.125734
0.355749 0.0624247 0.142611
0.385519 0.0607004 0.159472
0.415274 0.0589761 0.176349
0.445045 0.0572519 0.19321
0.474815 0.0555276 0.210086
0.504585 0.0538033 0.226963
0.534356 0.052079 0.243824
0.564126 0.0503548 0.2607
0.593896 0.0486305 0.277577
0.623652 0.0469062 0.294438
0.653422 0.045182 0.311315
0.683192 0.0434577 0.328176
0.712963 0.0417334 0.345052
0.742733 0.0400092 0.361929
0.772503 0.0382849 0.37879
0.802258 0.0365606 0.395666
0.832029 0.0348363 0.412543
0.861799 0.0331121 0.429404
0.891569 0.0313878 0.446281
0.92134 0.0296635 0.463142
0.95111 0.0279393 0.480018
0.98088 0.026215 0.496895
1 0.0244907 0.513756
0.0774395 0.106233 0
0.107195 0.104509 0
0.136965 0.102785 0
0.166735 0.101061 0.0158083
0.19649 0.0993362 0.0326848
0.226261 0.097612 0.049546
0.256031 0.0958877 0.0664225
0.285801 0.0941634 0.0832837
0.315572 0.0924392 0.10016
0.345342 0.0907149 0.117037
0.375113 0.0889906 0.133898
0.404868 0.0872663 0.150774
0.434638 0.0855421 0.167651
0.464408 0.0838178 0.184512
0.494179 0.0820935 0.201389
0.523949 0.0803693 0.21825
0.553719 0.078645 0.235126
0.58349 0.0769207 0.252003
0.613245 0.0751812 0.268864
0.643015 0.0734569 0.28574
0.672786 0.0717327 0.302617
0.702556 0.0700084 0.319478
0.732326 0.0682841 0.336355
0.762097 0.0665599 0.353231
0.791867 0.0648356 0.370092
0.821622 0.0631113 0.386969
0.851392 0.061387 0.40383
0.881163 0.0596628 0.420706
0.910933 0.0579385 0.437583
0.940703 0.0562142 0.454444
0.970474 0.05449 0.471321
1 0.0527657 0.488197
1 0.0510414 0.505058
0.0968032 0.132784 0
0.126558 0.13106 0
0.156329 0.129335 0
0.186099 0.127611 0.0071107
0.215854 0.125887 0.0239719
0.245624 0.124163 0.0408484
0.275395 0.122438 0.0577249
0.305165 0.120714 0.0745861
0.334936 0.11899 0.0914626
0.364706 0.117266 0.108339
0.394476 0.115541 0.1252
0.424231 0.113817 0.142077
0.454002 0.112093 0.158938
0.483772 0.110369 0.175814
0.513542 0.108644 0.192691
0.543313 0.10692 0.209552
0.573083 0.105196 0.226429
0.602838 0.103471 0.243305
0.632609 0.101747 0.260166
0.662379 0.100023 0.277043
0.692149 0.0982986 0.293904
0.72192 0.0965744 0.31078
0.75169 0.0948501 0.327657
0.78146 0.0931258 0.344518
0.811215 0.0914015 0.361395
0.840986 0.0896773 0.378271
0.870756 0.087953 0.395132
0.900526 0.0862287 0.412009
0.930297 0.0845045 0.42887
0.960067 0.0827802 0.445747
0.989837 0.0810559 0.462623
1 0.0793317 0.479484
1 0.0776074 0.496361
0.116167 0.15935 0
0.145922 0.157626 0
0.175692 0.155901 0
0.205447 0.154177 0
0.235218 0.152453 0.0152743
0.264988 0.150729 0.0321508
0.294759 0.149004 0.049012
0.324529 0.14728 0.0658885
0.354299 0.145556 0.0827649
0.38407 0.143832 0.0996262
0.413825 0.142107 0.116503
0.443595 0.140383 0.133379
0.473365 0.138659 0.15024
0.503136 0.136934 0.167117
0.532906 0.13521 0.183993
0.562676 0.133486 0.200855
0.592447 0.131762 0.217731
0.622202 0.130037 0.234592
0.651972 0.128313 0.251469
0.681743 0.126589 0.268345
0.711513 0.124865 0.285206
0.741283 0.12314 0.302083
0.771054 0.121416 0.318959
0.800809 0.119692 0.335821
0.830579 0.117968 0.352697
0.860349 0.116243 0.369558
0.89012 0.114519 0.386435
0.91989 0.112795 0.403311
0.94966 0.11107 0.420172
0.979431 0.109346 0.437049
1 0.107622 0.453925
1 0.105898 0.470787
1 0.104173 0.487663
0.135531 0.185916 0
0.165286 0.184192 0
0.195056 0.182467 0
0.224811 0.180743 0
0.254582 0.179019 0.00657664
0.284352 0.177295 0.0234531
0.314122 0.17557 0.0403143
0.343893 0.173846 0.0571908
0.373663 0.172122 0.0740673
0.403418 0.170382 0.0909285
0.433188 0.168658 0.107805
0.462959 0.166934 0.124666
0.492729 0.165209 0.141543
0.522499 0.163485 0.158419
0.55227 0.161761 0.17528
0.58204 0.160037 0.192157
0.611795 0.158312 0.209033
0.641566 0.156588 0.225895
0.671336 0.154864 0.242771
0.701106 0.15314 0.259632
0.730877 0.151415 0.276509
0.760647 0.149691 0.293385
0.790417 0.147967 0.310246
0.820172 0.146242 0.327123
0.849943 0.144518 0.343999
0.879713 0.142794 0.360861
0.909483 0.14107 0.377737
0.939254 0.139345 0.394614
0.969024 0.137621 0.411475
0.998795 0.135897 0.428351
1 0.134173 0.445212
1 0.132448 0.462089
1 0.130724 0.478965
0.154894 0.212467 0
0.184649 0.210742 0
0.214405 0.209018 0
0.244175 0.207294 0
0.273945 0.20557 0
0.303716 0.203845 0.0147555
0.333486 0.202121 0.0316167
0.363256 0.200397 0.0484932
0.393027 0.198672 0.0653544
0.422782 0.196948 0.0822309
0.452552 0.195224 0.0991073
0.482322 0.1935 0.115969
0.512093 0.191775 0.132845
0.541863 0.190051 0.149722
0.571633 0.188327 0.166583
0.601404 0.186603 0.183459
0.631159 0.184878 0.20032
0.660929 0.183154 0.217197
0.6907 0.18143 0.234073
0.72047 0.179706 0.250935
0.75024 0.177981 0.267811
0.780011 0.176257 0.284688
0.809766 0.174533 0.301549
0.839536 0.172808 0.318425
0.869307 0.171084 0.335286
0.899077 0.16936 0.352163
0.928847 0.167636 0.369039
0.958618 0.165911 0.385901
0.988388 0.164187 0.402777
1 0.162463 0.419654
1 0.160739 0.436515
1 0.159014 0.453391
1 0.15729 0.470253
0.174258 0.239033 0
0.203998 0.237308 0
0.233768 0.235584 0
0.263539 0.23386 0
0.293309 0.232136 0
0.323079 0.230411 0.00604257
0.35285 0.228687 0.0229191
0.38262 0.226963 0.0397955
0.412375 0.225238 0.0566567
0.442145 0.223514 0.0735332
0.471916 0.22179 0.0903944
0.501686 0.220066 0.107271
0.531456 0.218341 0.124147
0.561227 0.216617 0.141009
0.590997 0.214893 0.157885
0.620752 0.213169 0.174762
0.650523 0.211444 0.191623
0.680293 0.20972 0.208499
0.710063 0.207996 0.225376
0.739834 0.206271 0.242237
0.769604 0.204547 0.259113
0.799374 0.202823 0.275975
0.829129 0.201099 0.292851
0.8589 0.199374 0.309728
0.88867 0.19765 0.326589
0.918441 0.195926 0.343465
0.948211 0.194202 0.360342
0.977981 0.192477 0.377203
1 0.190753 0.39408
1 0.189029 0.410941
1 0.187289 0.427817
1 0.185565 0.444694
1 0.183841 0.461555
0.193622 0.265583 0
0.223362 0.263859 0
0.253132 0.262135 0
0.282902 0.26041 0
0.312673 0.258686 0
0.342443 0.256962 0
0.372213 0.255238 0.0142214
0.401984 0.253513 0.0310826
0.431739 0.251789 0.0479591
0.461509 0.250065 0.0648356
0.491279 0.248341 0.0816968
0.52105 0.246616 0.0985733
0.55082 0.244892 0.11545
0.580591 0.243168 0.132311
0.610346 0.241443 0.149187
0.640116 0.239719 0.166049
0.669886 0.237995 0.182925
0.699657 0.236271 0.199802
0.729427 0.234546 0.216663
0.759197 0.232822 0.233539
0.788968 0.231098 0.250416
0.818723 0.229374 0.267277
0.848493 0.227649 0.284153
0.878264 0.225925 0.301015
0.908034 0.224201 0.317891
0.937804 0.222477 0.334768
0.967575 0.220752 0.351629
0.997345 0.219028 0.368505
1 0.217304 0.385382
1 0.215579 0.402243
1 0.213855 0.41912
1 0.212131 0.435996
1 0.210407 0.452857
0.21297 0.292149 0
0.242725 0.290425 0
0.272496 0.288701 0
0.302266 0.286976 0
0.332036 0.285252 0
0.361807 0.283528 0
0.391577 0.281804 0.00552377
0.421332 0.280079 0.022385
0.451102 0.278355 0.0392615
0.480873 0.276631 0.0561379
0.510643 0.274907 0.0729992
0.540413 0.273182 0.0898756
0.570184 0.271458 0.106737
0.599954 0.269734 0.123613
0.629709 0.268009 0.14049
0.65948 0.266285 0.157351
0.68925 0.264561 0.174228
0.71902 0.262837 0.191104
0.748791 0.261112 0.207965
0.778561 0.259388 0.224842
0.808331 0.257664 0.241703
0.838087 0.25594 0.258579
0.867857 0.254215 0.275456
0.897627 0.252491 0.292317
0.927398 0.250767 0.309194
0.957168 0.249042 0.32607
0.986938 0.247318 0.342931
1 0.245594 0.359808
1 0.24387 0.376669
1 0.242145 0.393545
1 0.240421 0.410422
1 0.238697 0.427283
1 0.236973 0.44416
0.232334 0.318715 0
0.262089 0.316991 0
0.291859 0.315267 0
0.32163 0.313542 0
0.3514 0.311818 0
0.38117 0.310094 0
0.410925 0.30837 0
0.440696 0.306645 0.0136873
0.470466 0.304921 0.0305638
0.500237 0.303197 0.047425
0.530007 0.301472 0.0643015
0.559777 0.299748 0.081178
0.589548 0.298024 0.0980392
0.619303 0.2963 0.114916
0.649073 0.294575 0.131777
0.678843 0.292851 0.148653
0.708614 0.291127 0.16553
0.738384 0.289403 0.182391
0.768154 0.287678 0.199268
0.797925 0.285954 0.216144
0.82768 0.284215 0.233005
0.85745 0.28249 0.249882
0.887221 0.280766 0.266758
0.916991 0.279042 0.283619
0.946761 0.277317 0.300496
0.976532 0.275593 0.317357
1 0.273869 0.334234
1 0.272145 0.35111
1 0.27042 0.367971
1 0.268696 0.384848
1 0.266972 0.401724
1 0.265248 0.418585
1 0.263523 0.435462
0.251698 0.345266 0
0.281453 0.343542 0
0.311223 0.341817 0
0.340993 0.340093 0
0.370764 0.338369 0
0.400534 0.336645 0
0.430289 0.33492 0
0.46006 0.333196 0.0049897
0.48983 0.331472 0.0218662
0.5196 0.329747 0.0387274
0.549371 0.328023 0.0556039
0.579141 0.326299 0.0724651
0.608911 0.324575 0.0893416
0.638666 0.32285 0.106218
0.668437 0.321126 0.123079
0.698207 0.319402 0.139956
0.727977 0.317678 0.156832
0.757748 0.315953 0.173693
0.787518 0.314229 0.19057
0.817273 0.312505 0.207431
0.847044 0.31078 0.224308
0.876814 0.309056 0.241184
0.906584 0.307332 0.258045
0.936355 0.305608 0.274922
0.966125 0.303883 0.291798
0.995895 0.302159 0.308659
1 0.300435 0.325536
1 0.298711 0.342397
1 0.296986 0.359274
1 0.295262 0.37615
1 0.293538 0.393011
1 0.291814 0.409888
1 0.290089 0.426764
0.271061 0.371832 0
0.300816 0.370108 0
0.330587 0.368383 0
0.360357 0.366659 0
0.390127 0.364935 0
0.419883 0.36321 0
0.449653 0.361486 0
0.479423 0.359762 0
0.509194 0.358038 0.0131533
0.538964 0.356313 0.0300298
0.568734 0.354589 0.0469062
0.598505 0.352865 0.0637675
0.62826 0.351141 0.0806439
0.65803 0.349416 0.0975204
0.6878 0.347692 0.114382
0.717571 0.345968 0.131258
0.747341 0.344244 0.148119
0.777111 0.342519 0.164996
0.806882 0.340795 0.181872
0.836637 0.339071 0.198734
0.866407 0.337346 0.21561
0.896178 0.335622 0.232486
0.925948 0.333898 0.249348
0.955718 0.332174 0.266224
0.985489 0.330449 0.283085
1 0.328725 0.299962
1 0.327001 0.316838
1 0.325277 0.3337
1 0.323552 0.350576
1 0.321828 0.367453
1 0.320104 0.384314
1 0.318379 0.40119
1 0.316655 0.418051
0.290425 0.398398 0
0.32018 0.396674 0
0.34995 0.394949 0
0.379721 0.393225 0
0.409491 0.391501 0
0.439246 0.389776 0
0.469017 0.388052 0
0.498787 0.386328 0
0.528557 0.384604 0.00445563
0.558328 0.382879 0.0213321
0.588098 0.38114 0.0381933
0.617853 0.379416 0.0550698
0.647623 0.377691 0.0719463
0.677394 0.375967 0.0888075
0.707164 0.374243 0.105684
0.736934 0.372519 0.12256
0.766705 0.370794 0.139422
0.796475 0.36907 0.156298
0.82623 0.367346 0.173175
0.856001 0.365621 0.190036
0.885771 0.363897 0.206912
0.915541 0.362173 0.223774
0.945312 0.360449 0.24065
0.975082 0.358724 0.257527
1 0.357 0.274388
1 0.355276 0.291264
1 0.353552 0.308141
1 0.351827 0.325002
1 0.350103 0.341878
1 0.348379 0.35874
1 0.346654 0.375616
1 0.34493 0.392493
1 0.343206 0.409354
0.309789 0.424949 0
0.339544 0.423224 0
0.369314 0.4215 0
0.399084 0.419776 0
0.42884 0.418051 0
0.45861 0.416327 0
0.48838 0.414603 0
0.518151 0.412879 0
0.547921 0.411154 0
0.577691 0.40943 0.0126345
0.607462 0.407706 0.0294957
0.637217 0.405982 0.0463722
0.666987 0.404257 0.0632486
0.696757 0.402533 0.0801099
0.726528 0.400809 0.0969863
0.756298 0.399084 0.113848
0.786068 0.39736 0.130724
0.815839 0.395636 0.147601
0.845594 0.393912 0.164462
0.875364 0.392187 0.181338
0.905135 0.390463 0.198215
0.934905 0.388739 0.215076
0.964675 0.387015 0.231952
0.994446 0.38529 0.248814
1 0.383566 0.26569
1 0.381842 0.282567
1 0.380118 0.299428
1 0.378393 0.316304
1 0.376669 0.333181
1 0.374945 0.350042
1 0.37322 0.366918
1 0.371496 0.383795
1 0.369772 0.400656
0.329152 0.451514 0
0.358907 0.44979 0
0.388678 0.448066 0
0.418433 0.446342 0
0.448203 0.444617 0
0.477974 0.442893 0
0.507744 0.441169 0
0.537514 0.439445 0
0.567285 0.43772 0
0.597055 0.435996 0.00393683
0.62681 0.434272 0.020798
0.65658 0.432547 0.0376745
0.686351 0.430823 0.0545357
0.716121 0.429099 0.0714122
0.745892 0.427375 0.0882887
0.775662 0.42565 0.10515
0.805432 0.423926 0.122026
0.835187 0.422202 0.138903
0.864958 0.420478 0.155764
0.894728 0.418753 0.172641
0.924498 0.417029 0.189502
0.954269 0.415305 0.206378
0.984039 0.413581 0.223255
1 0.411856 0.240116
1 0.410132 0.256992
1 0.408408 0.273869
1 0.406683 0.29073
1 0.404959 0.307607
1 0.403235 0.324468
1 0.401511 0.341344
1 0.399786 0.358221
1 0.398047 0.375082
1 0.396323 0.391959
0.348516 0.478065 0
0.378271 0.476341 0
0.408042 0.474617 0
0.437797 0.472892 0
0.467567 0.471168 0
0.497337 0.469444 0
0.527108 0.46772 0
0.556878 0.465995 0
0.586648 0.464271 0
0.616419 0.462547 0
0.646174 0.460822 0.0121004
0.675944 0.459098 0.0289769
0.705715 0.457374 0.0458381
0.735485 0.45565 0.0627146
0.765255 0.453925 0.0795758
0.795026 0.452201 0.0964523
0.824781 0.450477 0.113329
0.854551 0.448753 0.13019
0.884321 0.447028 0.147066
0.914092 0.445304 0.163943
0.943862 0.44358 0.180804
0.973632 0.441855 0.197681
1 0.440131 0.214557
1 0.438407 0.231418
1 0.436683 0.248295
1 0.434958 0.265156
1 0.433234 0.282032
1 0.43151 0.298909
1 0.429786 0.31577
1 0.428061 0.332647
1 0.426337 0.349523
1 0.424613 0.366384
1 0.422889 0.383261
0.36788 0.504631 0
0.397635 0.502907 0
0.42739 0.501183 0
0.45716 0.499458 0
0.486931 0.497734 0
0.516701 0.49601 0
0.546471 0.494285 0
0.576242 0.492561 0
0.606012 0.490837 0
0.635767 0.489113 0
0.665537 0.487388 0.00340276
0.695308 0.485664 0.020264
0.725078 0.48394 0.0371405
0.754849 0.482216 0.0540169
0.784619 0.480491 0.0708782
0.814389 0.478767 0.0877546
0.844144 0.477043 0.104631
0.873915 0.475319 0.121492
0.903685 0.473594 0.138369
0.933455 0.47187 0.15523
0.963226 0.470146 0.172107
0.992996 0.468421 0.188983
1 0.466697 0.205844
1 0.464973 0.222721
1 0.463249 0.239597
1 0.461524 0.256458
1 0.4598 0.273335
1 0.458076 0.290196
1 0.456352 0.307073
1 0.454627 0.323949
1 0.452903 0.34081
1 0.451179 0.357687
1 0.449454 0.374563
0.387243 0.531197 0
0.416999 0.529473 0
0.446754 0.527749 0
0.476524 0.526024 0
0.506294 0.5243 0
0.536065 0.522576 0
0.565835 0.520851 0
0.595605 0.519127 0
0.62536 0.517403 0
0.655131 0.515679 0
0.684901 0.513954 0
0.714672 0.51223 0.0115663
0.744442 0.510506 0.0284428
0.774212 0.508782 0.0453193
0.803983 0.507057 0.0621805
0.833738 0.505333 0.079057
0.863508 0.503609 0.0959182
0.893278 0.501884 0.112795
0.923049 0.50016 0.129671
0.952819 0.498436 0.146532
0.982589 0.496712 0.163409
1 0.494972 0.180285
1 0.493248 0.197147
1 0.491524 0.214023
1 0.489799 0.230884
1 0.488075 0.247761
1 0.486351 0.264637
1 0.484627 0.281498
1 0.482902 0.298375
1 0.481178 0.315251
1 0.479454 0.332113
1 0.477729 0.348989
1 0.476005 0.36585
0.406607 0.557748 0
0.436347 0.556023 0
0.466117 0.554299 0
0.495888 0.552575 0
0.525658 0.550851 0
0.555428 0.549126 0
0.585199 0.547402 0
0.614969 0.545678 0
0.644724 0.543954 0
0.674495 0.542229 0
0.704265 0.540505 0
0.734035 0.538781 0.0028687
0.763806 0.537057 0.0197452
0.793576 0.535332 0.0366064
0.823346 0.533608 0.0534829
0.853101 0.531884 0.0703593
0.882872 0.530159 0.0872206
0.912642 0.528435 0.104097
0.942412 0.526711 0.120958
0.972183 0.524987 0.137835
1 0.523262 0.154711
1 0.521538 0.171572
1 0.519814 0.188449
1 0.51809 0.205325
1 0.516365 0.222187
1 0.514641 0.239063
1 0.512917 0.25594
1 0.511193 0.272801
1 0.509468 0.289677
1 0.507744 0.306538
1 0.50602 0.323415
1 0.504295 0.340291
1 0.502571 0.357153
0.425956 0.584314 0
0.455711 0.582589 0
0.485481 0.580865 0
0.515251 0.579141 0
0.545022 0.577417 0
0.574792 0.575692 0
0.604562 0.573968 0
0.634318 0.572244 0
0.664088 0.57052 0
0.693858 0.568795 0
0.723629 0.567071 0
0.753399 0.565347 0
0.783169 0.563622 0.0110475
0.81294 0.561898 0.0279088
0.842695 0.560174 0.0447852
0.872465 0.55845 0.0616465
0.902235 0.556725 0.0785229
0.932006 0.555001 0.0953994
0.961776 0.553277 0.112261
0.991547 0.551553 0.129137
1 0.549828 0.146014
1 0.548104 0.162875
1 0.54638 0.179751
1 0.544656 0.196612
1 0.542931 0.213489
1 0.541207 0.230365
1 0.539483 0.247227
1 0.537758 0.264103
1 0.536034 0.28098
1 0.53431 0.297841
1 0.532586 0.314717
1 0.530861 0.331579
1 0.529137 0.348455
0.445319 0.61088 0
0.475074 0.609155 0
0.504845 0.607431 0
0.534615 0.605707 0
0.564385 0.603983 0
0.594156 0.602258 0
0.623926 0.600534 0
0.653681 0.59881 0
0.683452 0.597086 0
0.713222 0.595361 0
0.742992 0.593637 0
0.772763 0.591897 0
0.802533 0.590173 0.00233463
0.832288 0.588449 0.0192111
0.862058 0.586725 0.0360876
0.891829 0.585 0.0529488
0.921599 0.583276 0.0698253
0.95137 0.581552 0.0867018
0.98114 0.579828 0.103563
1 0.578103 0.120439
1 0.576379 0.137301
1 0.574655 0.154177
1 0.572931 0.171054
1 0.571206 0.187915
1 0.569482 0.204791
1 0.567758 0.221668
1 0.566033 0.238529
1 0.564309 0.255406
1 0.562585 0.272267
1 0.560861 0.289143
1 0.559136 0.30602
1 0.557412 0.322881
1 0.555688 0.339757
0.464683 0.63743 0
0.494438 0.635706 0
0.524208 0.633982 0
0.553979 0.632258 0
0.583749 0.630533 0
0.613519 0.628809 0
0.643275 0.627085 0
0.673045 0.62536 0
0.702815 0.623636 0
0.732586 0.621912 0
0.762356 0.620188 0
0.792126 0.618463 0
0.821897 0.616739 0
0.851652 0.615015 0.0105135
0.881422 0.613291 0.0273747
0.911192 0.611566 0.0442512
0.940963 0.609842 0.0611276
0.970733 0.608118 0.0779889
1 0.606394 0.0948653
1 0.604669 0.111742
1 0.602945 0.128603
1 0.601221 0.14548
1 0.599496 0.162341
1 0.597772 0.179217
1 0.596048 0.196094
1 0.594324 0.212955
1 0.592599 0.229831
1 0.590875 0.246708
1 0.589151 0.263569
1 0.587427 0.280446
1 0.585702 0.297322
1 0.583978 0.314183
1 0.582254 0.33106
0.484047 0.663996 0
0.513802 0.662272 0
0.543572 0.660548 0
0.573343 0.658824 0
0.603113 0.657099 0
0.632868 0.655375 0
0.662638 0.653651 0
0.692409 0.651926 0
0.722179 0.650202 0
0.751949 0.648478 0
0.78172 0.646754 0
0.81149 0.645029 0
0.841245 0.643305 0
0.871015 0.641581 0.00181582
0.900786 0.639857 0.018677
0.930556 0.638132 0.0355535
0.960327 0.636408 0.05243
0.990097 0.634684 0.0692912
1 0.632959 0.0861677
1 0.631235 0.103029
1 0.629511 0.119905
1 0.627787 0.136782
1 0.626062 0.153643
1 0.624338 0.17052
1 0.622614 0.187396
1 0.62089 0.204257
1 0.619165 0.221134
1 0.617441 0.237995
1 0.615717 0.254871
1 0.613993 0.271748
1 0.612268 0.288609
1 0.610544 0.305486
1 0.608804 0.322362
0.50341 0.690547 0
0.533165 0.688823 0
0.562936 0.687099 0
0.592706 0.685374 0
0.622477 0.68365 0
0.652232 0.681926 0
0.682002 0.680201 0
0.711772 0.678477 0
0.741543 0.676753 0
0.771313 0.675029 0
0.801083 0.673304 0
0.830854 0.67158 0
0.860609 0.669856 0
0.890379 0.668132 0
0.92015 0.666407 0.0099794
0.94992 0.664683 0.0268559
0.97969 0.662959 0.0437171
1 0.661234 0.0605936
1 0.65951 0.0774701
1 0.657786 0.0943313
1 0.656062 0.111208
1 0.654337 0.128084
1 0.652613 0.144945
1 0.650889 0.161822
1 0.649165 0.178683
1 0.64744 0.19556
1 0.645716 0.212436
1 0.643992 0.229297
1 0.642267 0.246174
1 0.640543 0.26305
1 0.638819 0.279911
1 0.637095 0.296788
1 0.63537 0.313649
0.522774 0.717113 0
0.552529 0.715389 0
0.5823 0.713664 0
0.61207 0.71194 0
0.641825 0.710216 0
0.671595 0.708492 0
0.701366 0.706767 0
0.731136 0.705043 0
0.760906 0.703319 0
