public/LUTS/Color Shift/ColorShift_02.cube
TITLE "Generated by Resolve"
LUT_3D_SIZE 5
0 0 0
0 0.111666 0.0679332
0 0.223331 0.135866
0 0.334997 0.203815
0 0.446677 0.271748
0.313161 0.107301 0.379156
0.161822 0.218952 0.447089
0.0104829 0.330632 0.515023
0 0.442298 0.582956
0 0.553964 0.650904
0.626337 0.214588 0.758328
0.474998 0.326253 0.826261
0.323659 0.437934 0.894194
0.17232 0.549599 0.962127
0.0209812 0.661265 1
0.939513 0.321889 1
0.788174 0.433555 1
0.636835 0.54522 1
0.485496 0.656901 1
0.334157 0.768566 1
1 0.429191 1
1 0.540856 1
0.950011 0.652522 1
0.798672 0.764202 1
0.647334 0.875868 1
0.0881666 0.0310369 0
0 0.142702 0
0 0.254368 0
0 0.366033 0.00671397
0 0.477699 0.0746471
0.401328 0.138323 0.182055
0.249989 0.249989 0.249989
0.0986496 0.361654 0.317922
0 0.473335 0.38587
0 0.585 0.453803
0.714504 0.245624 0.561227
0.563165 0.35729 0.62916
0.411826 0.468956 0.697093
0.260487 0.580621 0.765042
0.109148 0.692302 0.832975
1 0.352926 0.940398
0.876341 0.464591 1
0.725002 0.576257 1
0.573663 0.687922 1
0.422324 0.799603 1
1 0.460227 1
1 0.571893 1
1 0.683558 1
0.886839 0.795224 1
0.7355 0.906905 1
0.176333 0.0620584 0
0.0249943 0.173724 0
0 0.285405 0
0 0.39707 0
0 0.508736 0
0.489494 0.16936 0
0.338155 0.281025 0.0528878
0.186816 0.392691 0.120821
0.0354772 0.504356 0.188754
0 0.616037 0.256703
0.80267 0.276661 0.364126
0.651331 0.388327 0.432059
0.499992 0.499992 0.499992
0.348653 0.611658 0.567926
0.197314 0.723339 0.635874
1 0.383963 0.743297
0.964508 0.495628 0.811231
0.813169 0.607294 0.879164
0.66183 0.718959 0.947097
0.510491 0.830625 1
1 0.491264 1
1 0.60293 1
1 0.714595 1
0.975006 0.826261 1
0.823667 0.937926 1
0.2645 0.0930953 0
0.113176 0.204761 0
0 0.316426 0
0 0.428107 0
0 0.539773 0
0.577661 0.200397 0
0.426322 0.312062 0
0.274983 0.423728 0
0.123644 0.535393 0
0 0.647059 0.0595865
0.890837 0.307698 0.16701
0.739498 0.419364 0.234943
0.588159 0.531029 0.302892
0.43682 0.642695 0.370825
0.285481 0.75436 0.438758
1 0.415 0.546181
1 0.52665 0.614115
0.901335 0.638331 0.682063
0.749996 0.749996 0.749996
0.598657 0.861662 0.817929
1 0.522301 0.925353
1 0.633951 0.993286
1 0.745632 1
1 0.857298 1
0.911833 0.968963 1
0.352667 0.124132 0
0.201343 0.235798 0
0.0500038 0.347463 0
0 0.459129 0
0 0.570809 0
0.665827 0.231434 0
0.514488 0.343084 0
0.363149 0.454765 0
0.21181 0.56643 0
0.0604715 0.678096 0
0.979004 0.338735 0
0.827665 0.450385 0.0378424
0.676326 0.562066 0.105776
0.524987 0.673732 0.173724
0.373648 0.785397 0.241657
1 0.446021 0.349081
1 0.557687 0.417014
0.989502 0.669367 0.484947
0.838163 0.781033 0.552895
0.686824 0.892699 0.620829
1 0.553323 0.728252
1 0.664988 0.796185
1 0.776654 0.864118
1 0.888334 0.932067
1 1 1
