public/LUTS/Color Shift/ColorShift_44.cube
TITLE "Generated by Resolve"
LUT_3D_SIZE 33
0 0 0
0 0.0093843 0.0250095
0 0.0187686 0.0500191
0 0.0281529 0.0750439
0 0.0375525 0.100069
0 0.0469368 0.125078
0 0.0563211 0.150103
0 0.0657054 0.175128
0 0.0751049 0.200137
0 0.0844892 0.225162
0 0.0938735 0.250187
0 0.103273 0.275196
0 0.112657 0.300221
0 0.122042 0.325246
0 0.131426 0.350256
0 0.140826 0.37528
0 0.15021 0.400305
0 0.159594 0.425315
0 0.168978 0.45034
0 0.178378 0.475364
0 0.187762 0.500374
0 0.197147 0.525399
0 0.206531 0.550408
0 0.21593 0.575433
0 0.225315 0.600458
0 0.234699 0.625467
0 0.244083 0.650492
0 0.253483 0.675517
0 0.262867 0.700526
0 0.272251 0.725551
0 0.281636 0.750576
0 0.291035 0.775586
0 0.30042 0.80061
0.052369 0.0118257 0.0287938
0.0416114 0.02121 0.0538033
0.0308537 0.0305943 0.0788281
0.0200809 0.0399786 0.103838
0.00932326 0.0493629 0.128862
0 0.0587625 0.153887
0 0.0681468 0.178897
0 0.0775311 0.203922
0 0.0869154 0.228946
0 0.0963149 0.253956
0 0.105699 0.278981
0 0.115084 0.304006
0 0.124468 0.329015
0 0.133867 0.35404
0 0.143252 0.379065
0 0.152636 0.404074
0 0.16202 0.429099
0 0.17142 0.454124
0 0.180804 0.479133
0 0.190188 0.504158
0 0.199573 0.529168
0 0.208972 0.554192
0 0.218357 0.579217
0 0.227741 0.604227
0 0.237125 0.629252
0 0.246525 0.654276
0 0.255909 0.679286
0 0.265293 0.704311
0 0.274678 0.729335
0 0.284077 0.754345
0 0.293462 0.77937
0 0.302846 0.804395
0 0.31223 0.829404
0.104784 0.0236515 0.0576028
0.0940108 0.0330358 0.0826123
0.0832532 0.0424201 0.107637
0.0724804 0.0518044 0.132662
0.0617227 0.0611887 0.157671
0.0509499 0.0705882 0.182696
0.0401923 0.0799725 0.207721
0.0294194 0.0893568 0.232731
0.0186618 0.0987411 0.257755
0.00788891 0.108141 0.28278
0 0.117525 0.30779
0 0.126909 0.332815
0 0.136294 0.357824
0 0.145693 0.382849
0 0.155077 0.407874
0 0.164462 0.432883
0 0.173846 0.457908
0 0.183246 0.482933
0 0.19263 0.507942
0 0.202014 0.532967
0 0.211398 0.557992
0 0.220798 0.583001
0 0.230182 0.608026
0 0.239567 0.633051
0 0.248951 0.658061
0 0.25835 0.683085
0 0.267735 0.70811
0 0.277119 0.73312
0 0.286503 0.758144
0 0.295903 0.783154
0 0.305287 0.808179
0 0.314672 0.833204
0 0.324056 0.858213
0.157183 0.0354772 0.0864271
0.146426 0.0448615 0.111421
0.135653 0.0542458 0.136446
0.12488 0.0636301 0.161471
0.114122 0.0730144 0.186481
0.103349 0.082414 0.211505
0.0925917 0.0917983 0.23653
0.0818189 0.101183 0.26154
0.0710613 0.110567 0.286564
0.0602884 0.119966 0.311589
0.0495308 0.129351 0.336599
0.0387579 0.138735 0.361624
0.0280003 0.148119 0.386648
0.0172274 0.157519 0.411658
0.00646983 0.166903 0.436683
0 0.176287 0.461707
0 0.185672 0.486717
0 0.195071 0.511742
0 0.204456 0.536767
0 0.21384 0.561776
0 0.223224 0.586801
0 0.232624 0.611811
0 0.242008 0.636835
0 0.251392 0.66186
0 0.260777 0.68687
0 0.270176 0.711894
0 0.279561 0.736919
0 0.288945 0.761929
0 0.298329 0.786954
0 0.307729 0.811978
0 0.317113 0.836988
0 0.326497 0.862013
0 0.335882 0.887037
0.209583 0.047303 0.115236
0.198825 0.0566873 0.140246
0.188052 0.0660716 0.165255
0.177295 0.0754559 0.19028
0.166522 0.0848402 0.215305
0.155764 0.0942397 0.240314
0.144991 0.103624 0.265339
0.134234 0.113008 0.290364
0.123461 0.122393 0.315373
0.112688 0.131792 0.340398
0.10193 0.141176 0.365423
0.0911574 0.150561 0.390433
0.0803998 0.159945 0.415457
0.0696269 0.169345 0.440467
0.0588693 0.178729 0.465492
0.0480964 0.188113 0.490517
0.0373388 0.197498 0.515526
0.026566 0.206897 0.540551
0.0158083 0.216281 0.565576
0.00503548 0.225666 0.590585
0 0.23505 0.61561
0 0.24445 0.640635
0 0.253834 0.665644
0 0.263218 0.690669
0 0.272602 0.715694
0 0.282002 0.740703
0 0.291386 0.765728
0 0.300771 0.790753
0 0.310155 0.815763
0 0.319554 0.840787
0 0.328939 0.865812
0 0.338323 0.890822
0 0.347707 0.915846
0.261982 0.0591287 0.144045
0.251225 0.068513 0.169055
0.240452 0.0778973 0.19408
0.229694 0.0872816 0.219089
0.218921 0.0966659 0.244114
0.208164 0.106065 0.269123
0.197391 0.11545 0.294148
0.186633 0.124834 0.319173
0.17586 0.134218 0.344182
0.165103 0.143618 0.369207
0.15433 0.153002 0.394232
0.143572 0.162387 0.419242
0.132799 0.171771 0.444266
0.122042 0.18117 0.469291
0.111269 0.190555 0.494301
0.100496 0.199939 0.519326
0.0897383 0.209323 0.54435
0.0789654 0.218723 0.56936
0.0682078 0.228107 0.594385
0.057435 0.237491 0.61941
0.0466773 0.246876 0.644419
0.0359045 0.256275 0.669444
0.0251469 0.26566 0.694469
0.014374 0.275044 0.719478
0.00361639 0.284428 0.744503
0 0.293828 0.769512
0 0.303212 0.794537
0 0.312596 0.819562
0 0.321981 0.844572
0 0.33138 0.869596
0 0.340764 0.894621
0 0.350149 0.919631
0 0.359533 0.944656
0.314382 0.0709544 0.172854
0.303624 0.0803235 0.197864
0.292851 0.0897231 0.222889
0.282094 0.0991073 0.247898
0.271321 0.108492 0.272923
0.260563 0.117891 0.297948
0.24979 0.127275 0.322957
0.239033 0.13666 0.347982
0.22826 0.146044 0.373007
0.217502 0.155444 0.398016
0.206729 0.164828 0.423041
0.195972 0.174212 0.448066
0.185199 0.183597 0.473075
0.174441 0.192996 0.4981
0.163668 0.20238 0.523125
0.152911 0.211765 0.548135
0.142138 0.221149 0.573159
0.13138 0.230549 0.598169
0.120607 0.239933 0.623194
0.109834 0.249317 0.648219
0.0990768 0.258701 0.673228
0.088304 0.268101 0.698253
0.0775464 0.277485 0.723278
0.0667735 0.28687 0.748287
0.0560159 0.296254 0.773312
0.045243 0.305653 0.798337
0.0344854 0.315038 0.823346
0.0237125 0.324422 0.848371
0.0129549 0.333806 0.873396
0.00218204 0.343206 0.898405
0 0.35259 0.92343
0 0.361975 0.948455
0 0.371359 0.973465
0.366781 0.0827802 0.201663
0.356023 0.0921492 0.226673
0.345266 0.101549 0.251698
0.334493 0.110933 0.276722
0.323735 0.120317 0.301732
0.312963 0.129702 0.326757
0.30219 0.139101 0.351766
0.291432 0.148486 0.376791
0.280659 0.15787 0.401816
0.269902 0.167269 0.426825
0.259129 0.176654 0.45185
0.248371 0.186038 0.476875
0.237598 0.195422 0.501884
0.226841 0.204822 0.526909
0.216068 0.214206 0.551934
0.20531 0.22359 0.576944
0.194537 0.232975 0.601968
0.18378 0.242374 0.626993
0.173007 0.251759 0.652003
0.162249 0.261143 0.677028
0.151476 0.270527 0.702052
0.140719 0.279927 0.727062
0.129946 0.289311 0.752087
0.119188 0.298695 0.777111
0.108415 0.30808 0.802121
0.0976425 0.317479 0.827146
0.0868849 0.326863 0.852155
0.076112 0.336248 0.87718
0.0653544 0.345632 0.902205
0.0545815 0.355032 0.927214
0.0438239 0.364416 0.952239
0.033051 0.3738 0.977264
0.0222934 0.383185 1
0.419181 0.0946059 0.230488
0.408423 0.103975 0.255482
0.397665 0.113375 0.280507
0.386892 0.122759 0.305531
0.376135 0.132143 0.330541
0.365362 0.141527 0.355566
0.354604 0.150927 0.380591
0.343832 0.160311 0.4056
0.333074 0.169696 0.430625
0.322301 0.179095 0.45565
0.311543 0.188479 0.480659
0.300771 0.197864 0.505684
0.289998 0.207248 0.530709
0.27924 0.216648 0.555718
0.268467 0.226032 0.580743
0.25771 0.235416 0.605768
0.246937 0.2448 0.630777
0.236179 0.2542 0.655802
0.225406 0.263584 0.680812
0.214649 0.272969 0.705837
0.203876 0.282353 0.730861
0.193118 0.291752 0.755871
0.182345 0.301137 0.780896
0.171588 0.310521 0.80592
0.160815 0.319905 0.83093
0.150057 0.329305 0.855955
0.139284 0.338689 0.88098
0.128527 0.348074 0.905989
0.117754 0.357458 0.931014
0.106981 0.366857 0.956039
0.0962234 0.376242 0.981048
0.0854505 0.385626 1
0.0746929 0.39501 1
0.471595 0.106416 0.259297
0.460822 0.115801 0.284306
0.450065 0.1252 0.309316
0.439292 0.134585 0.33434
0.428534 0.143969 0.359365
0.417762 0.153353 0.384375
0.407004 0.162753 0.4094
0.396231 0.172137 0.434424
0.385473 0.181521 0.459434
0.374701 0.190906 0.484459
0.363943 0.200305 0.509468
0.35317 0.209689 0.534493
0.342412 0.219074 0.559518
0.33164 0.228473 0.584527
0.320882 0.237858 0.609552
0.310109 0.247242 0.634577
0.299336 0.256626 0.659586
0.288579 0.266026 0.684611
0.277806 0.27541 0.709636
0.267048 0.284794 0.734646
0.256275 0.294179 0.75967
0.245518 0.303578 0.784695
0.234745 0.312963 0.809705
0.223987 0.322347 0.83473
0.213214 0.331731 0.859754
0.202457 0.341131 0.884764
0.191684 0.350515 0.909789
0.180926 0.359899 0.934813
0.170153 0.369284 0.959823
0.159396 0.378683 0.984848
0.148623 0.388067 1
0.137865 0.397452 1
0.127092 0.406836 1
0.523995 0.118242 0.288106
0.513237 0.127626 0.313115
0.502464 0.137026 0.338125
0.491691 0.14641 0.363149
0.480934 0.155795 0.388174
0.470161 0.165179 0.413184
0.459403 0.174578 0.438209
0.448631 0.183963 0.463233
0.437873 0.193347 0.488243
0.4271 0.202731 0.513268
0.416342 0.212131 0.538293
0.40557 0.221515 0.563302
0.394812 0.2309 0.588327
0.384039 0.240284 0.613352
0.373281 0.249683 0.638361
0.362509 0.259068 0.663386
0.351751 0.268452 0.688411
0.340978 0.277852 0.71342
0.33022 0.287236 0.738445
0.319448 0.29662 0.76347
0.30869 0.306004 0.788479
0.297917 0.315404 0.813504
0.287144 0.324788 0.838514
0.276387 0.334173 0.863539
0.265614 0.343557 0.888563
0.254856 0.352956 0.913573
0.244083 0.362341 0.938598
0.233326 0.371725 0.963623
0.222553 0.381109 0.988632
0.211795 0.390509 1
0.201022 0.399893 1
0.190265 0.409277 1
0.179492 0.418662 1
0.576394 0.130068 0.316915
0.565637 0.139452 0.341924
0.554864 0.148852 0.366949
0.544106 0.158236 0.391959
0.533333 0.16762 0.416983
0.522576 0.177005 0.442008
0.511803 0.186404 0.467018
0.50103 0.195789 0.492042
0.490272 0.205173 0.517067
0.4795 0.214557 0.542077
0.468742 0.223957 0.567102
0.457969 0.233341 0.592111
0.447211 0.242725 0.617136
0.436439 0.25211 0.642161
0.425681 0.261509 0.66717
0.414908 0.270893 0.692195
0.40415 0.280278 0.71722
0.393378 0.289677 0.742229
0.38262 0.299062 0.767254
0.371847 0.308446 0.792279
0.361089 0.31783 0.817288
0.350317 0.32723 0.842313
0.339559 0.336614 0.867338
0.328786 0.345998 0.892348
0.318029 0.355383 0.917372
0.307256 0.364782 0.942397
0.296483 0.374166 0.967407
0.285725 0.383551 0.992432
0.274952 0.392935 1
0.264195 0.402335 1
0.253422 0.411719 1
0.242664 0.421103 1
0.231891 0.430488 1
0.628794 0.141894 0.345724
0.618036 0.151278 0.370733
0.607263 0.160678 0.395758
0.596506 0.170062 0.420768
0.585733 0.179446 0.445792
0.574975 0.18883 0.470817
0.564202 0.19823 0.495827
0.553445 0.207614 0.520851
0.542672 0.216999 0.545876
0.531914 0.226383 0.570886
0.521141 0.235782 0.595911
0.510384 0.245167 0.620935
0.499611 0.254551 0.645945
0.488838 0.263935 0.67097
0.47808 0.273335 0.695994
0.467308 0.282719 0.721004
0.45655 0.292103 0.746029
0.445777 0.301488 0.771054
0.435019 0.310887 0.796063
0.424247 0.320272 0.821088
0.413489 0.329656 0.846113
0.402716 0.339055 0.871122
0.391959 0.34844 0.896147
0.381186 0.357824 0.921157
0.370428 0.367208 0.946181
0.359655 0.376608 0.971206
0.348898 0.385992 0.996216
0.338125 0.395377 1
0.327367 0.404761 1
0.316594 0.41416 1
0.305837 0.423545 1
0.295064 0.432929 1
0.284291 0.442313 1
0.681193 0.153719 0.374548
0.670436 0.163104 0.399542
0.659663 0.172503 0.424567
0.648905 0.181888 0.449592
0.638132 0.191272 0.474601
0.627375 0.200656 0.499626
0.616602 0.210056 0.524651
0.605844 0.21944 0.549661
0.595071 0.228824 0.574685
0.584314 0.238209 0.59971
0.573541 0.247608 0.62472
0.562783 0.256992 0.649744
0.55201 0.266377 0.674769
0.541253 0.275761 0.699779
0.53048 0.285161 0.724804
0.519722 0.294545 0.749813
0.508949 0.303929 0.774838
0.498192 0.313313 0.799863
0.487419 0.322713 0.824872
0.476646 0.332097 0.849897
0.465888 0.341482 0.874922
0.455116 0.350866 0.899931
0.444358 0.360265 0.924956
0.433585 0.36965 0.949981
0.422827 0.379034 0.97499
0.412055 0.388434 1
0.401297 0.397818 1
0.390524 0.407202 1
0.379767 0.416587 1
0.368994 0.425986 1
0.358236 0.43537 1
0.347463 0.444755 1
0.336706 0.454139 1
0.733593 0.165545 0.403357
0.722835 0.174929 0.428367
0.712077 0.184329 0.453376
0.701305 0.193713 0.478401
0.690532 0.203098 0.503426
0.679774 0.212482 0.528435
0.669001 0.221881 0.55346
0.658244 0.231266 0.57847
0.647471 0.24065 0.603494
0.636713 0.250034 0.628519
0.62594 0.259434 0.653529
0.615183 0.268818 0.678553
0.60441 0.278202 0.703578
0.593652 0.287587 0.728588
0.582879 0.296986 0.753613
0.572122 0.306371 0.778637
0.561349 0.315755 0.803647
0.550591 0.325139 0.828672
0.539818 0.334539 0.853697
0.529061 0.343923 0.878706
0.518288 0.353307 0.903731
0.50753 0.362692 0.928756
0.496757 0.372091 0.953765
0.485985 0.381476 0.97879
0.475227 0.39086 1
0.464454 0.400244 1
0.453696 0.409644 1
0.442924 0.419028 1
0.432166 0.428412 1
0.421393 0.437812 1
0.410636 0.447196 1
0.399863 0.45658 1
0.389105 0.465965 1
0.785992 0.177371 0.432166
0.775235 0.186755 0.457176
0.764477 0.196155 0.482185
0.753704 0.205539 0.50721
0.742947 0.214923 0.532235
0.732174 0.224308 0.557244
0.721416 0.233707 0.582269
0.710643 0.243091 0.607294
0.699886 0.252476 0.632303
0.689113 0.26186 0.657328
0.67834 0.27126 0.682353
0.667582 0.280644 0.707362
0.656809 0.290028 0.732387
0.646052 0.299413 0.757412
0.635279 0.308812 0.782422
0.624521 0.318196 0.807446
0.613748 0.327581 0.832471
0.602991 0.336965 0.857481
0.592218 0.346365 0.882506
0.58146 0.355749 0.907515
0.570687 0.365133 0.93254
0.55993 0.374517 0.957565
0.549157 0.383917 0.982574
0.538399 0.393301 1
0.527626 0.402686 1
0.516869 0.41207 1
0.506096 0.421469 1
0.495338 0.430854 1
0.484565 0.440238 1
0.473793 0.449638 1
0.463035 0.459022 1
0.452262 0.468406 1
0.441505 0.477791 1
0.838407 0.189197 0.460975
0.827634 0.198581 0.485985
0.816876 0.20798 0.511009
0.806104 0.217365 0.536019
0.795346 0.226749 0.561044
0.784573 0.236133 0.586069
0.773816 0.245533 0.611078
0.763043 0.254917 0.636103
0.752285 0.264302 0.661112
0.741512 0.273686 0.686137
0.730755 0.283085 0.711162
0.719982 0.29247 0.736171
0.709224 0.301854 0.761196
0.698451 0.311238 0.786221
0.687678 0.320638 0.811231
0.676921 0.330022 0.836255
0.666148 0.339406 0.86128
0.65539 0.348791 0.88629
0.644617 0.35819 0.911315
0.63386 0.367575 0.936339
0.623087 0.376959 0.961349
0.612329 0.386343 0.986374
0.601556 0.395743 1
0.590799 0.405127 1
0.580026 0.414511 1
0.569268 0.423896 1
0.558495 0.433295 1
0.547738 0.442679 1
0.536965 0.452064 1
0.526207 0.461448 1
0.515435 0.470848 1
0.504677 0.480232 1
0.493904 0.489616 1
0.890806 0.201022 0.489784
0.880034 0.210407 0.514794
0.869276 0.219806 0.539818
0.858503 0.229191 0.564828
0.847745 0.238575 0.589853
0.836973 0.247959 0.614878
0.826215 0.257359 0.639887
0.815442 0.266743 0.664912
0.804685 0.276127 0.689937
0.793912 0.285512 0.714946
0.783154 0.294911 0.739971
0.772381 0.304295 0.764996
0.761624 0.31368 0.790005
0.750851 0.323064 0.81503
0.740093 0.332464 0.840055
0.72932 0.341848 0.865064
0.718563 0.351232 0.890089
0.70779 0.360616 0.915114
0.697032 0.370016 0.940124
0.686259 0.3794 0.965148
0.675486 0.388785 0.990158
0.664729 0.398169 1
0.653956 0.407568 1
0.643198 0.416953 1
0.632425 0.426337 1
0.621668 0.435721 1
0.610895 0.445121 1
0.600137 0.454505 1
0.589364 0.46389 1
0.578607 0.473274 1
0.567834 0.482673 1
0.557076 0.492058 1
0.546304 0.501442 1
0.943206 0.212848 0.518593
0.932448 0.222232 0.543603
0.921675 0.231632 0.568627
0.910918 0.241016 0.593652
0.900145 0.250401 0.618662
0.889387 0.259785 0.643687
0.878614 0.269184 0.668711
0.867842 0.278569 0.693721
0.857084 0.287953 0.718746
0.846311 0.297337 0.74377
0.835554 0.306737 0.76878
0.824781 0.316121 0.793805
0.814023 0.325505 0.818814
0.80325 0.33489 0.843839
0.792493 0.344289 0.868864
0.78172 0.353674 0.893874
0.770962 0.363058 0.918898
0.760189 0.372442 0.943923
0.749432 0.381842 0.968933
0.738659 0.391226 0.993957
0.727901 0.40061 1
0.717128 0.409995 1
0.706371 0.419394 1
0.695598 0.428779 1
0.684825 0.438163 1
0.674067 0.447547 1
0.663294 0.456947 1
0.652537 0.466331 1
0.641764 0.475715 1
0.631006 0.4851 1
0.620233 0.494499 1
0.609476 0.503883 1
0.598703 0.513268 1
0.995605 0.224674 0.547417
0.984848 0.234058 0.572427
0.974075 0.243458 0.597436
0.963317 0.252842 0.622461
0.952544 0.262226 0.647471
0.941787 0.271611 0.672496
0.931014 0.28101 0.69752
0.920256 0.290394 0.72253
0.909483 0.299779 0.747555
0.898726 0.309163 0.77258
0.887953 0.318563 0.797589
0.87718 0.327947 0.822614
0.866423 0.337331 0.847639
0.85565 0.346716 0.872648
0.844892 0.356115 0.897673
0.834119 0.365499 0.922698
0.823362 0.374884 0.947707
0.812589 0.384268 0.972732
0.801831 0.393668 0.997757
0.791058 0.403052 1
0.780301 0.412436 1
0.769528 0.42182 1
0.75877 0.43122 1
0.747997 0.440604 1
0.73724 0.449989 1
0.726467 0.459373 1
0.715709 0.468772 1
0.704936 0.478157 1
0.694179 0.487541 1
0.683406 0.496925 1
0.672633 0.506325 1
0.661875 0.515709 1
0.651102 0.525093 1
1 0.2365 0.576226
1 0.245884 0.601236
1 0.255283 0.626245
1 0.264668 0.65127
1 0.274052 0.676295
0.994186 0.283436 0.701305
0.983413 0.292836 0.726329
0.972656 0.30222 0.751354
0.961883 0.311604 0.776364
0.951125 0.320989 0.801389
0.940352 0.330388 0.826413
0.929595 0.339773 0.851423
0.918822 0.349157 0.876448
0.908064 0.358541 0.901457
0.897292 0.367941 0.926482
0.886534 0.377325 0.951507
0.875761 0.386709 0.976516
0.864988 0.396094 1
0.854231 0.405493 1
0.843458 0.414878 1
0.8327 0.424262 1
0.821927 0.433646 1
0.81117 0.443046 1
0.800397 0.45243 1
0.789639 0.461814 1
0.778866 0.471199 1
0.768109 0.480598 1
0.757336 0.489982 1
0.746578 0.499367 1
0.735805 0.508751 1
0.725048 0.518151 1
0.714275 0.527535 1
0.703517 0.536919 1
1 0.248325 0.605035
1 0.25771 0.630045
1 0.267109 0.65507
1 0.276493 0.680079
1 0.285878 0.705104
1 0.295262 0.730114
1 0.304662 0.755138
1 0.314046 0.780163
1 0.32343 0.805173
1 0.332815 0.830198
0.992752 0.342214 0.855222
0.981994 0.351598 0.880232
0.971222 0.360983 0.905257
0.960464 0.370367 0.930282
0.949691 0.379767 0.955291
0.938933 0.389151 0.980316
0.928161 0.398535 1
0.917403 0.407919 1
0.90663 0.417319 1
0.895872 0.426703 1
0.8851 0.436088 1
0.874327 0.445472 1
0.863569 0.454871 1
0.852796 0.464256 1
0.842039 0.47364 1
0.831266 0.483024 1
0.820508 0.492424 1
0.809735 0.501808 1
0.798978 0.511193 1
0.788205 0.520577 1
0.777447 0.529976 1
0.766674 0.539361 1
0.755917 0.548745 1
1 0.260151 0.633844
1 0.269535 0.658854
1 0.27892 0.683879
1 0.288319 0.708888
1 0.297704 0.733913
1 0.307088 0.758938
1 0.316487 0.783948
1 0.325872 0.808972
1 0.335256 0.833997
1 0.34464 0.859007
1 0.35404 0.884031
1 0.363424 0.909056
1 0.372808 0.934066
1 0.382193 0.959091
1 0.391592 0.984115
0.991333 0.400977 1
0.98056 0.410361 1
0.969802 0.419745 1
0.95903 0.429145 1
0.948272 0.438529 1
0.937499 0.447913 1
0.926741 0.457298 1
0.915969 0.466697 1
0.905211 0.476081 1
0.894438 0.485466 1
0.88368 0.49485 1
0.872908 0.50425 1
0.862135 0.513634 1
0.851377 0.523018 1
0.840604 0.532403 1
0.829847 0.541802 1
0.819074 0.551186 1
0.808316 0.560571 1
1 0.271977 0.662654
1 0.281361 0.687663
1 0.290745 0.712688
1 0.300145 0.737713
1 0.309529 0.762722
1 0.318914 0.787747
1 0.328313 0.812772
1 0.337697 0.837781
1 0.347082 0.862806
1 0.356466 0.887816
1 0.365866 0.91284
1 0.37525 0.937865
1 0.384634 0.962875
1 0.394018 0.9879
1 0.403418 1
1 0.412802 1
1 0.422187 1
1 0.431571 1
1 0.44097 1
1 0.450355 1
0.989899 0.459739 1
0.979141 0.469123 1
0.968368 0.478523 1
0.95761 0.487907 1
0.946838 0.497292 1
0.93608 0.506676 1
0.925307 0.516075 1
0.914549 0.52546 1
0.903777 0.534844 1
0.893019 0.544228 1
0.882246 0.553628 1
0.871473 0.563012 1
0.860716 0.572396 1
1 0.283803 0.691478
1 0.293187 0.716472
1 0.302571 0.741497
1 0.311971 0.766522
1 0.321355 0.791531
1 0.330739 0.816556
1 0.340124 0.841581
1 0.349523 0.86659
1 0.358907 0.891615
1 0.368292 0.91664
1 0.377691 0.941649
1 0.387076 0.966674
1 0.39646 0.991699
1 0.405844 1
1 0.415244 1
1 0.424628 1
1 0.434012 1
1 0.443397 1
1 0.452796 1
1 0.462181 1
1 0.471565 1
1 0.480949 1
1 0.490349 1
1 0.499733 1
0.999237 0.509117 1
0.988479 0.518502 1
0.977707 0.527901 1
0.966949 0.537285 1
0.956176 0.54667 1
0.945418 0.556054 1
0.934646 0.565454 1
0.923888 0.574838 1
0.913115 0.584222 1
1 0.295628 0.720287
1 0.305013 0.745296
1 0.314397 0.770306
1 0.323796 0.795331
1 0.333181 0.820356
1 0.342565 0.845365
1 0.351949 0.87039
1 0.361349 0.895415
1 0.370733 0.920424
1 0.380118 0.945449
1 0.389502 0.970459
1 0.398901 0.995483
1 0.408286 1
1 0.41767 1
1 0.42707 1
1 0.436454 1
1 0.445838 1
1 0.455222 1
1 0.464622 1
1 0.474006 1
1 0.483391 1
1 0.492775 1
1 0.502174 1
1 0.511559 1
1 0.520943 1
1 0.530327 1
1 0.539727 1
1 0.549111 1
1 0.558495 1
0.997818 0.56788 1
0.987045 0.577279 1
0.976287 0.586664 1
0.965515 0.596048 1
1 0.307454 0.749096
1 0.316838 0.774105
1 0.326223 0.799115
1 0.335622 0.82414
1 0.345006 0.849165
1 0.354391 0.874174
1 0.363775 0.899199
1 0.373175 0.924224
1 0.382559 0.949233
1 0.391943 0.974258
1 0.401328 0.999283
1 0.410727 1
1 0.420111 1
1 0.429496 1
1 0.438895 1
1 0.44828 1
1 0.457664 1
1 0.467048 1
1 0.476448 1
1 0.485832 1
1 0.495216 1
1 0.504601 1
1 0.514 1
1 0.523384 1
1 0.532769 1
1 0.542153 1
1 0.551553 1
1 0.560937 1
1 0.570321 1
1 0.579705 1
1 0.589105 1
1 0.598489 1
1 0.607874 1
1 0.31928 0.777905
1 0.328664 0.802915
1 0.338048 0.827939
1 0.347448 0.852949
1 0.356832 0.877974
1 0.366217 0.902998
1 0.375601 0.928008
1 0.385 0.953033
1 0.394385 0.978058
