public/LUTS/Color Shift/ColorShift_29.cube
TITLE "Generated by Resolve"
LUT_3D_SIZE 9
0 0 0
0.119051 0 0.0674754
0.238132 0 0.134951
0.357198 0 0.202441
0.47628 0 0.269932
0.595346 0 0.337407
0.714427 0 0.404898
0.833494 0 0.472374
0.95256 0 0.539864
0.0774395 0.106233 0
0.19649 0.0993362 0.0326848
0.315572 0.0924392 0.10016
0.434638 0.0855421 0.167651
0.553719 0.078645 0.235126
0.672786 0.0717327 0.302617
0.791867 0.0648356 0.370092
0.910933 0.0579385 0.437583
1 0.0510414 0.505058
0.154894 0.212467 0
0.273945 0.20557 0
0.393027 0.198672 0.0653544
0.512093 0.191775 0.132845
0.631159 0.184878 0.20032
0.75024 0.177981 0.267811
0.869307 0.171084 0.335286
0.988388 0.164187 0.402777
1 0.15729 0.470253
0.232334 0.318715 0
0.3514 0.311818 0
0.470466 0.304921 0.0305638
0.589548 0.298024 0.0980392
0.708614 0.291127 0.16553
0.82768 0.284215 0.233005
0.946761 0.277317 0.300496
1 0.27042 0.367971
1 0.263523 0.435462
0.309789 0.424949 0
0.42884 0.418051 0
0.547921 0.411154 0
0.666987 0.404257 0.0632486
0.786068 0.39736 0.130724
0.905135 0.390463 0.198215
1 0.383566 0.26569
1 0.376669 0.333181
1 0.369772 0.400656
0.387243 0.531197 0
0.506294 0.5243 0
0.62536 0.517403 0
0.744442 0.510506 0.0284428
0.863508 0.503609 0.0959182
0.982589 0.496712 0.163409
1 0.489799 0.230884
1 0.482902 0.298375
1 0.476005 0.36585
0.464683 0.63743 0
0.583749 0.630533 0
0.702815 0.623636 0
0.821897 0.616739 0
0.940963 0.609842 0.0611276
1 0.602945 0.128603
1 0.596048 0.196094
1 0.589151 0.263569
1 0.582254 0.33106
0.542138 0.743679 0
0.661189 0.736782 0
0.78027 0.729885 0
0.899336 0.722988 0
1 0.716091 0.0263218
1 0.709194 0.0938125
1 0.702281 0.161288
1 0.695384 0.228779
1 0.688487 0.296254
0.619593 0.849912 0
0.738643 0.843015 0
0.85771 0.836118 0
0.976791 0.829221 0
1 0.822324 0
1 0.815427 0.0590066
1 0.80853 0.126482
1 0.801633 0.193973
1 0.794736 0.261448
0 0.0256504 0.0923018
0.0475471 0.0187533 0.159777
0.166613 0.0118563 0.227268
0.285695 0.00495918 0.294743
0.404761 0 0.362234
0.523842 0 0.429709
0.642908 0 0.4972
0.761975 0 0.564675
0.881056 0 0.632166
0.00593576 0.131884 0.0575113
0.124987 0.124987 0.124987
0.244053 0.11809 0.192477
0.363134 0.111192 0.259953
0.4822 0.104295 0.327443
0.601282 0.0973983 0.394919
0.720348 0.0905013 0.462409
0.839414 0.0836042 0.529885
0.958495 0.0767071 0.597375
0.0833753 0.238132 0.0227054
0.202441 0.231235 0.0901808
0.321508 0.224323 0.157671
0.440574 0.217426 0.225147
0.559655 0.210529 0.292638
0.678721 0.203632 0.360113
0.797803 0.196735 0.427604
0.916869 0.189837 0.495079
1 0.18294 0.56257
0.16083 0.344366 0
0.279881 0.337469 0.0553902
0.398962 0.330571 0.122866
0.518029 0.323674 0.190356
0.63711 0.316777 0.257832
0.756176 0.30988 0.325322
0.875242 0.302983 0.392798
0.994324 0.296086 0.460288
1 0.289189 0.527764
0.23827 0.450614 0
0.357336 0.443717 0.0205844
0.476402 0.436805 0.0880598
0.595483 0.429908 0.15555
0.714549 0.423011 0.223041
0.833631 0.416114 0.290517
0.952697 0.409216 0.358007
1 0.402319 0.425483
1 0.395422 0.492973
0.315724 0.556848 0
0.434791 0.54995 0
0.553857 0.543053 0.0532692
0.672923 0.536156 0.120745
0.792004 0.529259 0.188235
0.91107 0.522362 0.255711
1 0.515465 0.323201
1 0.508568 0.390677
1 0.501671 0.458167
0.393179 0.663096 0
0.51223 0.656199 0
0.631312 0.649287 0.0184634
0.750378 0.64239 0.0859541
0.869444 0.635493 0.153429
0.988525 0.628595 0.22092
1 0.621698 0.288396
1 0.614801 0.355886
1 0.607904 0.423362
0.470619 0.769329 0
0.589685 0.762432 0
0.708751 0.755535 0
0.827832 0.748638 0.0511482
0.946899 0.741741 0.118624
1 0.734844 0.186114
1 0.727947 0.25359
1 0.72105 0.32108
1 0.714153 0.388571
0.548074 0.875578 0
0.66714 0.868681 0
0.786206 0.861784 0
0.905272 0.854871 0.0163424
1 0.847974 0.0838331
1 0.841077 0.151308
1 0.83418 0.218799
1 0.827283 0.286275
1 0.820386 0.353765
0 0.0513161 0.184634
0 0.044419 0.25211
0.0950942 0.0375219 0.319585
0.214176 0.0306249 0.387076
0.333242 0.0237278 0.454551
0.452323 0.0168307 0.522042
0.571389 0.00993362 0.589517
0.690455 0.00303655 0.657008
0.809537 0 0.724483
0 0.157549 0.149828
0.0534676 0.150652 0.217304
0.172534 0.14374 0.284794
0.291615 0.136843 0.35227
0.410681 0.129946 0.41976
0.529763 0.123049 0.487236
0.648829 0.116152 0.554726
0.767895 0.109255 0.622202
0.886976 0.102358 0.689693
0.0118563 0.263783 0.115038
0.130922 0.256886 0.182498
0.249989 0.249989 0.249989
0.369055 0.243091 0.317479
0.488136 0.236194 0.384955
0.607202 0.229297 0.452445
0.726284 0.2224 0.519921
0.84535 0.215503 0.587411
0.964416 0.208606 0.654887
0.0893111 0.370031 0.0802319
0.208362 0.363134 0.147707
0.327443 0.356237 0.215183
0.44651 0.349325 0.282673
0.565576 0.342428 0.350149
0.684657 0.335531 0.417639
0.803723 0.328634 0.485115
0.922805 0.321736 0.552605
1 0.314839 0.620081
0.166751 0.476265 0.0454261
0.285817 0.469368 0.112902
0.404883 0.46247 0.180392
0.523964 0.455573 0.247868
0.64303 0.448676 0.315358
0.762112 0.441779 0.382834
0.881178 0.434882 0.450324
1 0.427985 0.5178
1 0.421088 0.58529
0.244205 0.582513 0.0106203
0.363272 0.575616 0.0780957
0.482338 0.568719 0.145586
0.601404 0.561807 0.213062
0.720485 0.55491 0.280552
0.839551 0.548012 0.348043
0.958633 0.541115 0.415518
1 0.534218 0.483009
1 0.527321 0.550484
0.32166 0.688746 0
0.440711 0.681849 0.0433051
0.559792 0.674952 0.11078
0.678859 0.668055 0.178271
0.797925 0.661158 0.245747
0.917006 0.654261 0.313237
1 0.647364 0.380713
1 0.640467 0.448203
1 0.63357 0.515679
0.3991 0.794995 0
0.518166 0.788098 0.00849927
0.637232 0.781201 0.0759899
0.756313 0.774289 0.143465
0.87538 0.767391 0.210956
0.994446 0.760494 0.278431
1 0.753597 0.345922
1 0.7467 0.413397
1 0.739803 0.480888
0.476555 0.901228 0
0.595605 0.894331 0
0.714687 0.887434 0.0411841
0.833753 0.880537 0.108659
0.952834 0.87364 0.17615
1 0.866743 0.243626
1 0.859846 0.311116
1 0.852949 0.378592
1 0.846052 0.446082
0 0.0769665 0.276951
0 0.0700694 0.344427
0.0235752 0.0631723 0.411902
0.142657 0.0562753 0.479393
0.261723 0.0493782 0.546868
0.380789 0.0424811 0.614359
0.49987 0.035584 0.681834
0.618936 0.028687 0.749325
0.738018 0.0217899 0.8168
0 0.1832 0.242145
0 0.176303 0.309621
0.101015 0.169406 0.377111
0.220096 0.162509 0.444587
0.339162 0.155612 0.512078
0.458244 0.148714 0.579553
0.57731 0.141817 0.647044
0.696376 0.13492 0.714519
0.815457 0.128023 0.78201
0 0.289448 0.207355
0.0594034 0.282551 0.27483
0.17847 0.275654 0.342306
0.297536 0.268742 0.409796
0.416617 0.261845 0.477272
0.535683 0.254948 0.544762
0.654765 0.248051 0.612238
0.773831 0.241154 0.679728
0.892897 0.234257 0.747204
0.017792 0.395682 0.172549
0.136843 0.388785 0.240024
0.255924 0.381888 0.3075
0.37499 0.37499 0.37499
0.494057 0.368093 0.442481
0.613138 0.361196 0.509957
0.732204 0.354299 0.577447
0.851286 0.347402 0.644923
0.970352 0.340505 0.712413
0.0952316 0.50193 0.137743
0.214298 0.495033 0.205219
0.333364 0.488136 0.272709
0.452445 0.481239 0.340185
0.571511 0.474327 0.407675
0.690578 0.46743 0.475151
0.809659 0.460533 0.542641
0.928725 0.453635 0.610117
1 0.446738 0.677607
0.172686 0.608164 0.102953
0.291737 0.601267 0.170428
0.410819 0.594369 0.237903
0.529885 0.587472 0.305394
0.648966 0.580575 0.372869
0.768032 0.573678 0.44036
0.887114 0.566781 0.507836
1 0.559884 0.575326
1 0.552987 0.642802
0.250141 0.714412 0.0681468
0.369192 0.707515 0.135622
0.488273 0.700618 0.203098
0.60734 0.693721 0.270588
0.726406 0.686809 0.338064
0.845487 0.679911 0.405554
0.964553 0.673014 0.473045
1 0.666117 0.54052
1 0.65922 0.608011
0.327581 0.820645 0.033341
0.446647 0.813748 0.100816
0.565713 0.806851 0.168307
0.684794 0.799954 0.235782
0.803861 0.793057 0.303273
0.922927 0.78616 0.370748
1 0.779263 0.438239
1 0.772366 0.505714
1 0.765469 0.573205
0.405035 0.926894 0
0.524086 0.919997 0.0660258
0.643168 0.9131 0.133501
0.762234 0.906203 0.200992
0.881315 0.89929 0.268467
1 0.892393 0.335958
1 0.885496 0.403433
1 0.878599 0.470924
1 0.871702 0.538399
0 0.102632 0.369268
0 0.0957351 0.436744
0 0.088838 0.504219
0.0711376 0.0819409 0.57171
0.190204 0.0750439 0.639185
0.30927 0.0681468 0.706676
0.428351 0.0612497 0.774151
0.547417 0.0543526 0.841642
0.666499 0.0474556 0.909117
0 0.208865 0.334478
0 0.201968 0.401953
0.0294957 0.195071 0.469429
0.148577 0.188174 0.536919
0.267643 0.181262 0.604395
0.386709 0.174365 0.671885
0.505791 0.167468 0.739361
0.624857 0.160571 0.806851
0.743938 0.153674 0.874327
0 0.315099 0.299672
0 0.308202 0.367147
0.10695 0.301305 0.434623
0.226017 0.294408 0.502113
0.345098 0.28751 0.569589
0.464164 0.280613 0.637079
0.583246 0.273716 0.704555
0.702312 0.266819 0.772045
0.821378 0.259922 0.839521
0 0.421347 0.264866
0.0653239 0.41445 0.332341
0.184405 0.407553 0.399832
0.303471 0.400656 0.467308
0.422538 0.393744 0.534798
0.541619 0.386847 0.602274
0.660685 0.37995 0.669764
0.779767 0.373053 0.73724
0.898833 0.366155 0.80473
0.0237125 0.527581 0.23006
0.142779 0.520684 0.297536
0.261845 0.513787 0.365026
0.380926 0.506889 0.432502
0.499992 0.499992 0.499992
0.619058 0.493095 0.567483
0.73814 0.486198 0.634958
0.857206 0.479301 0.702449
0.976287 0.472404 0.769924
0.101167 0.633829 0.19527
0.220218 0.626932 0.262745
0.3393 0.620035 0.33022
0.458366 0.613138 0.397711
0.577447 0.606241 0.465187
0.696513 0.599329 0.532677
0.815579 0.592432 0.600153
0.934661 0.585534 0.667643
1 0.578637 0.735119
0.178622 0.740063 0.160464
0.297673 0.733166 0.227939
0.416739 0.726268 0.29543
0.535821 0.719371 0.362905
0.654887 0.712474 0.430396
0.773968 0.705577 0.497871
0.893034 0.69868 0.565362
1 0.691783 0.632837
1 0.684886 0.700328
0.256062 0.846311 0.125658
0.375128 0.839414 0.193133
0.494194 0.832517 0.260624
0.613275 0.82562 0.328099
0.732341 0.818723 0.39559
0.851408 0.81181 0.463066
0.970489 0.804913 0.530556
1 0.798016 0.598047
1 0.791119 0.665522
0.333516 0.952544 0.0908675
0.452567 0.945647 0.158343
0.571649 0.93875 0.225818
0.690715 0.931853 0.293309
0.809796 0.924956 0.360784
0.928862 0.918059 0.428275
1 0.911162 0.49575
1 0.904265 0.563241
1 0.897368 0.630716
0 0.128283 0.461585
0 0.121401 0.529061
0 0.114488 0.596551
0 0.107591 0.664027
0.118685 0.100694 0.731517
0.237751 0.0937972 0.798993
0.356832 0.0869001 0.866484
0.475898 0.0800031 0.933959
0.59498 0.073106 1
0 0.234516 0.426795
0 0.227619 0.49427
0 0.220722 0.561746
0.0770581 0.213825 0.629236
0.196124 0.206928 0.696712
0.31519 0.200031 0.764202
0.434272 0.193133 0.831678
0.553338 0.186236 0.899168
0.672419 0.179339 0.966644
0 0.340764 0.391989
0 0.333867 0.459464
0.0354314 0.32697 0.52694
0.154498 0.320073 0.59443
0.273579 0.313176 0.661921
0.392645 0.306264 0.729397
0.511711 0.299367 0.796887
0.630793 0.29247 0.864363
0.749859 0.285573 0.931853
0 0.446998 0.357183
0 0.440101 0.424659
0.112871 0.433204 0.492149
0.231952 0.426307 0.559625
0.351019 0.419409 0.627115
0.4701 0.412512 0.694591
0.589166 0.405615 0.762081
0.708247 0.398718 0.829557
0.827314 0.391821 0.897047
0 0.553246 0.322393
0.0712596 0.546349 0.389868
0.190326 0.539452 0.457343
0.309407 0.532555 0.524834
0.428473 0.525658 0.592309
0.547539 0.518746 0.6598
0.666621 0.511849 0.727275
0.785687 0.504952 0.794766
0.904768 0.498054 0.862242
0.0296483 0.65948 0.287587
0.148699 0.652583 0.355062
0.267781 0.645685 0.422538
0.386847 0.638788 0.490028
0.505928 0.631891 0.557504
0.624994 0.624994 0.624994
0.74406 0.618097 0.692485
0.863142 0.6112 0.75996
0.982208 0.604303 0.827451
0.107103 0.765728 0.252781
0.226154 0.758831 0.320256
0.34522 0.751934 0.387747
0.464302 0.745037 0.455222
0.583368 0.73814 0.522713
0.702449 0.731243 0.590188
0.821515 0.72433 0.657679
0.940581 0.717433 0.725155
1 0.710536 0.792645
0.184543 0.871962 0.21799
0.303609 0.865064 0.285466
0.422675 0.858167 0.352941
0.541741 0.85127 0.420432
0.660822 0.844373 0.487907
0.779889 0.837476 0.555398
0.89897 0.830579 0.622873
1 0.823682 0.690364
1 0.816785 0.757839
0.261997 0.97821 0.183185
0.381048 0.971313 0.25066
0.50013 0.964416 0.318135
0.619196 0.957519 0.385626
0.738277 0.950622 0.453101
0.857343 0.943725 0.520592
0.97641 0.936812 0.588067
1 0.929915 0.655558
1 0.923018 0.723049
0 0.153948 0.553903
0 0.147051 0.621378
0 0.140154 0.688869
0 0.133257 0.756344
0.0471656 0.12636 0.823835
0.166232 0.119463 0.89131
0.285313 0.112566 0.958801
0.404379 0.105669 1
0.523461 0.0987716 1
0 0.260182 0.519112
0 0.253285 0.586587
0 0.246387 0.654063
0.00553903 0.23949 0.721553
0.124605 0.232593 0.789029
0.243671 0.225696 0.856519
0.362753 0.218784 0.923995
0.481819 0.211887 0.991485
0.6009 0.20499 1
0 0.366415 0.484306
0 0.359518 0.551781
0 0.352621 0.619272
0.0829786 0.345724 0.686748
0.20206 0.338827 0.754238
0.321126 0.33193 0.821714
0.440192 0.325032 0.889204
0.559274 0.318135 0.95668
0.67834 0.311238 1
0 0.472663 0.4495
0 0.465766 0.516976
0.0413519 0.458869 0.584466
0.160433 0.451972 0.651942
0.2795 0.445075 0.719432
0.398581 0.438178 0.786923
0.517647 0.431266 0.854398
0.636713 0.424369 0.921889
0.755795 0.417472 0.989364
0 0.578897 0.41471
0 0.572 0.482185
0.118807 0.565103 0.549661
0.237873 0.558206 0.617151
0.356954 0.551308 0.684627
0.47602 0.544411 0.752117
0.595102 0.537514 0.819593
0.714168 0.530617 0.887083
0.833249 0.52372 0.954559
0 0.685145 0.379904
0.0771801 0.678248 0.447379
0.196262 0.671351 0.51487
0.315328 0.664454 0.582345
0.434409 0.657557 0.649836
0.553475 0.65066 0.717311
0.672541 0.643748 0.784802
0.791623 0.636851 0.852277
0.910689 0.629953 0.919768
0.035584 0.791379 0.345098
0.154635 0.784482 0.412573
0.273701 0.777584 0.480064
0.392782 0.770687 0.547539
0.511849 0.76379 0.61503
0.63093 0.756893 0.682506
0.749996 0.749996 0.749996
0.869062 0.743099 0.817487
0.988144 0.736202 0.884962
0.113024 0.897627 0.310307
0.23209 0.89073 0.377783
0.351156 0.883833 0.445258
0.470222 0.876936 0.512749
0.589303 0.870039 0.580224
0.70837 0.863142 0.647715
0.827451 0.856245 0.71519
0.946517 0.849332 0.782681
1 0.842435 0.850156
0.190478 1 0.275502
0.309529 0.996963 0.342977
0.428611 0.990066 0.410468
0.547677 0.983169 0.477943
0.666743 0.976272 0.545434
0.785824 0.969375 0.612909
0.904891 0.962478 0.6804
1 0.955581 0.747875
1 0.948684 0.815366
0 0.179614 0.64622
0 0.172717 0.713695
0 0.16582 0.781186
0 0.158907 0.848661
0 0.15201 0.916152
0.0947127 0.145113 0.983627
0.213794 0.138216 1
0.33286 0.131319 1
0.451926 0.124422 1
0 0.285832 0.611429
0 0.278935 0.678904
0 0.272038 0.746395
0 0.265141 0.81387
0.0530861 0.258244 0.881361
0.172152 0.251347 0.948837
0.291234 0.24445 1
0.4103 0.237552 1
0.529381 0.230655 1
0 0.392081 0.576623
0 0.385183 0.644099
0 0.378286 0.711589
0.0114595 0.371389 0.779065
0.130541 0.364492 0.846555
0.249607 0.357595 0.914031
0.368673 0.350698 0.981521
0.487755 0.343786 1
0.606821 0.336889 1
0 0.498314 0.541833
0 0.491417 0.609308
0 0.48452 0.676783
0.0889143 0.477623 0.744274
0.20798 0.470726 0.811749
0.327062 0.463828 0.87924
0.446128 0.456931 0.946715
0.565194 0.450034 1
0.684276 0.443137 1
0 0.604562 0.507027
0 0.597665 0.574502
0.0472877 0.590768 0.641978
0.166354 0.583871 0.709468
0.285435 0.576974 0.776959
0.404501 0.570077 0.844434
0.523583 0.56318 0.911925
0.642649 0.556268 0.9794
0.761715 0.549371 1
0 0.710796 0.472221
0.0056611 0.703899 0.539696
0.124743 0.697002 0.607187
0.243809 0.690105 0.674662
0.362875 0.683207 0.742153
0.481956 0.67631 0.809628
0.601022 0.669413 0.877119
0.720104 0.662516 0.944595
0.83917 0.655619 1
0 0.817044 0.43743
0.0831159 0.810147 0.504906
0.202182 0.80325 0.572381
0.321263 0.796353 0.639872
0.44033 0.789456 0.707347
0.559411 0.782559 0.774838
0.678477 0.775662 0.842313
0.797543 0.76875 0.909804
0.916625 0.761852 0.977279
0.0415045 0.923278 0.402625
0.160571 0.916381 0.4701
0.279637 0.909483 0.537575
0.398703 0.902586 0.605066
0.517784 0.895689 0.672541
0.636851 0.888792 0.740032
0.755932 0.881895 0.807507
0.874998 0.874998 0.874998
0.994064 0.868101 0.942489
0.118959 1 0.367819
0.23801 1 0.435294
0.357092 1 0.502785
0.476158 1 0.57026
0.595224 1 0.637751
0.714305 0.995041 0.705226
0.833371 0.988144 0.772717
0.952453 0.981247 0.840192
1 0.974334 0.907683
0 0.205264 0.738552
0 0.198367 0.806027
0 0.19147 0.873503
0 0.184573 0.940993
0 0.177676 1
0.0231937 0.170779 1
0.142275 0.163882 1
0.261341 0.156985 1
0.380407 0.150088 1
0 0.311498 0.703746
0 0.304601 0.771221
0 0.297704 0.838712
0 0.290806 0.906188
0 0.283909 0.973678
0.100633 0.277012 1
0.219715 0.270115 1
0.338781 0.263218 1
0.457847 0.256306 1
0 0.417731 0.668956
0 0.410834 0.736416
0 0.403937 0.803906
0 0.39704 0.871397
0.0590066 0.390143 0.938872
0.178088 0.383246 1
0.297154 0.376349 1
0.416236 0.369451 1
0.535302 0.362554 1
0 0.52398 0.63415
0 0.517082 0.701625
0 0.510185 0.7691
0.0173953 0.503288 0.836591
0.136461 0.496391 0.904067
0.255543 0.489494 0.971557
0.374609 0.482597 1
0.493675 0.4757 1
0.612757 0.468788 1
0 0.630213 0.599344
0 0.623316 0.666819
0 0.616419 0.73431
0.0948348 0.609522 0.801785
0.213916 0.602625 0.869276
0.332982 0.595728 0.936751
0.452064 0.58883 1
0.57113 0.581933 1
0.690196 0.575036 1
0 0.736461 0.564538
0 0.729564 0.632013
0.0532235 0.722667 0.699504
0.17229 0.71577 0.766979
0.291356 0.708873 0.83447
0.410437 0.701976 0.901946
0.529503 0.695079 0.969436
0.648585 0.688182 1
0.767651 0.68127 1
0 0.842695 0.529747
0.0115969 0.835798 0.597223
0.130663 0.828901 0.664698
0.249744 0.822003 0.732189
0.368811 0.815106 0.799664
0.487877 0.808209 0.867155
0.606958 0.801312 0.93463
0.726024 0.794415 1
0.845106 0.787518 1
0 0.948943 0.494942
0.0890516 0.942046 0.562417
0.208118 0.935149 0.629908
0.327184 0.928252 0.697383
0.446265 0.921355 0.764874
0.565332 0.914458 0.832349
0.684413 0.907561 0.89984
0.803479 0.900664 0.967315
0.922545 0.893751 1
0.0474403 1 0.460136
0.166491 1 0.527611
0.285573 1 0.595102
0.404639 1 0.662577
0.523705 1 0.730068
0.642786 1 0.797543
0.761852 1 0.865034
0.880934 1 0.932509
1 1 1
