public/LUTS/Color Shift/ColorShift_91.cube
TITLE "Generated by Resolve"
LUT_3D_SIZE 5
0 0 0
0 0.0491951 0.370153
0 0.0984054 0.740322
0 0.147601 1
0 0.196811 1
0.597391 0.0562295 0.113039
0.524758 0.10544 0.483192
0.45211 0.154635 0.853361
0.379461 0.203845 1
0.306828 0.25304 1
1 0.112474 0.226078
1 0.161669 0.596231
1 0.21088 0.966415
0.976898 0.260075 1
0.90425 0.309285 1
1 0.168704 0.339132
1 0.217914 0.709285
1 0.267109 1
1 0.31632 1
1 0.365515 1
1 0.224948 0.452171
1 0.274144 0.822324
1 0.323354 1
1 0.372549 1
1 0.421759 1
0 0.144549 0
0 0.193759 0.13695
0 0.242954 0.507118
0 0.292165 0.877302
0 0.34136 1
0.322637 0.200793 0
0.249989 0.249989 0.249989
0.17734 0.299184 0.620157
0.104692 0.348394 0.990341
0.0320592 0.397589 1
0.920058 0.257023 0
0.847425 0.306218 0.363027
0.774777 0.355428 0.733211
0.702129 0.404623 1
0.62948 0.453834 1
1 0.313268 0.105928
1 0.362463 0.476081
1 0.411658 0.84625
1 0.460868 1
1 0.510063 1
1 0.369497 0.218967
1 0.418692 0.58912
1 0.467903 0.959304
1 0.517098 1
1 0.566308 1
0 0.289113 0
0 0.338323 0
0 0.387518 0.273915
0 0.436728 0.644083
0 0.485924 1
0.047837 0.345357 0
0 0.394553 0.0167697
0 0.443763 0.386954
0 0.492958 0.757122
0 0.542153 1
0.645274 0.401587 0
0.572641 0.450797 0.129824
0.499992 0.499992 0.499992
0.427344 0.549187 0.870161
0.354696 0.598398 1
1 0.457832 0
1 0.507027 0.242863
1 0.556222 0.613031
1 0.605432 0.983215
0.952132 0.654627 1
1 0.514061 0
1 0.563256 0.355901
1 0.612467 0.726085
1 0.661662 1
1 0.710872 1
0 0.433677 0
0 0.482887 0
0 0.532082 0.0406958
0 0.581292 0.410864
0 0.630488 0.781048
0 0.489921 0
0 0.539117 0
0 0.588327 0.153735
0 0.637522 0.523903
0 0.686732 0.894087
0.370489 0.546151 0
0.297856 0.595361 0
0.225208 0.644556 0.266773
0.15256 0.693767 0.636957
0.0799115 0.742962 1
0.967926 0.602396 0
0.895293 0.651591 0.0096437
0.822644 0.700801 0.379828
0.749996 0.749996 0.749996
0.677348 0.799191 1
1 0.658625 0
1 0.707835 0.122698
1 0.757031 0.492866
1 0.806226 0.863035
1 0.855436 1
0 0.578241 0
0 0.627451 0
0 0.676646 0
0 0.725856 0.177646
0 0.775051 0.547829
0 0.634485 0
0 0.68368 0
0 0.732891 0
0 0.782086 0.290684
0 0.831296 0.660868
0.0957046 0.690715 0
0.0230716 0.739925 0
0 0.78912 0.0335546
0 0.838331 0.403738
0 0.887526 0.773907
0.693141 0.74696 0
0.620508 0.796155 0
0.54786 0.845365 0.146609
0.475212 0.89456 0.516777
0.402564 0.943771 0.886961
1 0.803189 0
1 0.852399 0
1 0.901595 0.259648
1 0.95079 0.629831
1 1 1
