public/LUTS/Color Shift/ColorShift_18.cube
TITLE "Generated by Resolve"
LUT_3D_SIZE 5
0 0 0
0.126116 0.0544442 0
0.252232 0.108873 0
0.378347 0.163317 0
0.504463 0.217762 0
0 0.244846 0.211429
0.0526284 0.29929 0.0770733
0.178744 0.353735 0
0.30486 0.408164 0
0.430976 0.462608 0
0 0.489708 0.422889
0 0.544152 0.288533
0.105257 0.598596 0.154162
0.231373 0.65304 0.019791
0.357488 0.707469 0
0 0.734585 0.634333
0 0.789014 0.499977
0.0317693 0.843458 0.365606
0.157885 0.897902 0.231235
0.284001 0.952346 0.0968795
0 0.979446 0.845777
0 1 0.711421
0 1 0.57705
0.0843977 1 0.442695
0.210513 1 0.308324
0.19736 0 0.172915
0.323476 0.00514229 0.0385595
0.449592 0.0595865 0
0.575708 0.114015 0
0.701823 0.16846 0
0.123873 0.195544 0.384344
0.249989 0.249989 0.249989
0.376104 0.304433 0.115618
0.50222 0.358877 0
0.628336 0.413306 0
0.0504005 0.440421 0.595789
0.176501 0.49485 0.461433
0.302617 0.549294 0.327077
0.428733 0.603738 0.192706
0.554849 0.658183 0.0583352
0 0.685283 0.807248
0.103014 0.739712 0.672892
0.229129 0.794156 0.538521
0.355245 0.8486 0.40415
0.481361 0.903044 0.26978
0 0.930144 1
0.0295262 0.984588 0.884337
0.155642 1 0.749966
0.281758 1 0.615595
0.407874 1 0.481239
0.394736 0 0.34583
0.520851 0 0.211475
0.646967 0.0102846 0.0771038
0.773083 0.0647135 0
0.899199 0.119158 0
0.321248 0.146242 0.557275
0.447364 0.200687 0.422904
0.57348 0.255131 0.288548
0.699596 0.309575 0.154177
0.825711 0.364004 0.0198062
0.247761 0.391119 0.768719
0.373877 0.445548 0.634363
0.499992 0.499992 0.499992
0.626108 0.554437 0.365621
0.752224 0.608881 0.231266
0.174289 0.635981 0.980163
0.300389 0.69041 0.845808
0.426505 0.744854 0.711437
0.552621 0.799298 0.577081
0.678737 0.853742 0.44271
0.100801 0.880842 1
0.226902 0.935286 1
0.353017 0.989715 0.922896
0.479133 1 0.788525
0.605249 1 0.654154
0.592111 0 0.518761
0.718227 0 0.38439
0.844343 0 0.250034
0.970459 0.0154116 0.115663
1 0.0698558 0
0.518624 0.0969406 0.73019
0.644739 0.151385 0.595834
0.770855 0.205829 0.461463
0.896971 0.260273 0.327092
1 0.314702 0.192737
0.445136 0.341817 0.941634
0.571252 0.396246 0.807279
0.697368 0.45069 0.672908
0.823484 0.505135 0.538552
0.949599 0.559579 0.404181
0.371649 0.586679 1
0.497765 0.641108 1
0.62388 0.695552 0.884367
0.749996 0.749996 0.749996
0.876112 0.80444 0.615625
0.298161 0.83154 1
0.424277 0.885985 1
0.550393 0.940414 1
0.676509 0.994858 0.96144
0.802625 1 0.827085
0.789487 0 0.691676
0.915587 0 0.557321
1 0 0.42295
1 0 0.288579
1 0.0205539 0.154223
0.715999 0.0476387 0.903105
0.842115 0.102083 0.76875
0.968231 0.156527 0.634394
1 0.210971 0.500023
1 0.2654 0.365652
0.642512 0.292515 1
0.768627 0.346944 0.980209
0.894743 0.401389 0.845838
1 0.455833 0.711467
1 0.510277 0.577096
0.569024 0.537377 1
0.69514 0.591806 1
0.821256 0.64625 1
0.947372 0.700694 0.922911
1 0.755138 0.788556
0.495537 0.782238 1
0.621653 0.836683 1
0.747768 0.891112 1
0.873884 0.945556 1
1 1 1
