public/LUTS/Color Shift/ColorShift_92.cube
TITLE "Generated by Resolve"
LUT_3D_SIZE 9
0 0 0
0 0.0316777 0.176257
0 0.0633555 0.352544
0 0.0950332 0.528832
0 0.126711 0.705119
0 0.158389 0.881407
0 0.190066 1
0 0.221744 1
0 0.253422 1
0.300832 0.0241093 0.0826276
0.244694 0.055787 0.258885
0.188556 0.0874647 0.435172
0.132418 0.119142 0.61146
0.0762798 0.15082 0.787747
0.0201419 0.182498 0.964019
0 0.214176 1
0 0.245853 1
0 0.277531 1
0.601694 0.0482338 0.165255
0.545556 0.0799115 0.341512
0.489418 0.111589 0.5178
0.43328 0.143267 0.694087
0.377142 0.174945 0.870375
0.321004 0.206622 1
0.264866 0.2383 1
0.208728 0.269978 1
0.15259 0.301656 1
0.902556 0.072343 0.247883
0.846418 0.104021 0.424155
0.79028 0.135698 0.600443
0.734142 0.167376 0.776715
0.678004 0.199054 0.953002
0.621866 0.230732 1
0.565728 0.262409 1
0.50959 0.294087 1
0.453452 0.325765 1
1 0.0964675 0.330526
1 0.128145 0.506783
1 0.159823 0.68307
1 0.191501 0.859358
0.978866 0.223178 1
0.922728 0.254856 1
0.86659 0.286534 1
0.810452 0.318212 1
0.754314 0.349889 1
1 0.120592 0.413153
1 0.152255 0.58941
1 0.183932 0.765698
1 0.21561 0.941985
1 0.247288 1
1 0.278965 1
1 0.310643 1
1 0.342336 1
1 0.374014 1
1 0.144701 0.495781
1 0.176379 0.672053
1 0.208057 0.848341
1 0.239734 1
1 0.271412 1
1 0.30309 1
1 0.334768 1
1 0.366445 1
1 0.398123 1
1 0.168826 0.578424
1 0.200488 0.754681
1 0.232181 0.930968
1 0.263859 1
1 0.295537 1
1 0.327214 1
1 0.358892 1
1 0.39057 1
1 0.422248 1
1 0.192935 0.661051
1 0.224613 0.837308
1 0.256291 1
1 0.287968 1
1 0.319646 1
1 0.351324 1
1 0.383001 1
1 0.414679 1
1 0.446357 1
0 0.0691997 0
0 0.100877 0.042359
0 0.132555 0.218647
0 0.164233 0.394934
0 0.195911 0.571221
0 0.227588 0.747509
0 0.259266 0.923781
0 0.290944 1
0 0.322621 1
0.181125 0.0933089 0
0.124987 0.124987 0.124987
0.0688487 0.156664 0.301274
0.0127108 0.188342 0.477562
0 0.22002 0.653834
0 0.251698 0.830121
0 0.283375 1
0 0.315053 1
0 0.346731 1
0.481987 0.117433 0.0313573
0.425849 0.149111 0.207614
0.369711 0.180789 0.383902
0.313573 0.212467 0.560189
0.257435 0.244144 0.736477
0.201297 0.275822 0.912764
0.145159 0.3075 1
0.0890211 0.339178 1
0.0328832 0.370855 1
0.782849 0.141543 0.113985
0.726711 0.17322 0.290257
0.670573 0.204898 0.466529
0.614435 0.236576 0.642817
0.558297 0.268254 0.819104
0.502159 0.299931 0.995392
0.446021 0.331609 1
0.389883 0.363287 1
0.333745 0.394965 1
1 0.165667 0.196628
1 0.197345 0.372885
0.971435 0.229023 0.549172
0.915297 0.2607 0.72546
0.859159 0.292378 0.901732
0.803021 0.324056 1
0.746883 0.355734 1
0.690745 0.387411 1
0.634607 0.419089 1
1 0.189776 0.279255
1 0.221454 0.455512
1 0.253132 0.6318
1 0.28481 0.808087
1 0.316487 0.984375
1 0.348165 1
1 0.379843 1
0.991608 0.411521 1
0.93547 0.443198 1
1 0.213901 0.361883
1 0.245579 0.538155
1 0.277256 0.714427
1 0.308934 0.890715
1 0.340612 1
1 0.37229 1
1 0.403967 1
1 0.435645 1
1 0.467323 1
1 0.238025 0.444526
1 0.269688 0.620783
1 0.301366 0.79707
1 0.333043 0.973358
1 0.364721 1
1 0.396399 1
1 0.428077 1
1 0.459754 1
1 0.491447 1
1 0.262135 0.527153
1 0.293812 0.70341
1 0.32549 0.879698
1 0.357168 1
1 0.388846 1
1 0.420523 1
1 0.452201 1
1 0.483879 1
1 0.515557 1
0 0.138399 0
0 0.170077 0
0 0.201755 0.0847334
0 0.233433 0.261021
0 0.26511 0.437308
0 0.296788 0.613581
0 0.328466 0.789868
0 0.360143 0.966155
0 0.391821 1
0.0614023 0.162524 0
0.00526436 0.194186 0
0 0.225864 0.167361
0 0.257542 0.343633
0 0.289219 0.519921
0 0.320912 0.696208
0 0.35259 0.872496
0 0.384268 1
0 0.415946 1
0.362264 0.186633 0
0.306127 0.218311 0.0737011
0.249989 0.249989 0.249989
0.193851 0.281666 0.426276
0.137713 0.313344 0.602564
0.0815747 0.345022 0.778836
0.0254368 0.376699 0.955123
0 0.408377 1
0 0.440055 1
0.663127 0.210758 0
0.606989 0.242435 0.156344
0.550851 0.274113 0.332616
0.494713 0.305791 0.508904
0.438575 0.337469 0.685191
0.382437 0.369146 0.861479
0.326299 0.400824 1
0.270161 0.432502 1
0.214023 0.464179 1
0.963989 0.234867 0.0626993
0.907851 0.266545 0.238972
0.851713 0.298222 0.415259
0.795575 0.3299 0.591531
0.739437 0.361578 0.767819
0.683299 0.393256 0.944106
0.627161 0.424933 1
0.571023 0.456611 1
0.514885 0.488289 1
1 0.258991 0.145342
1 0.290669 0.321599
1 0.322347 0.497887
1 0.354025 0.674174
1 0.385702 0.850462
0.984161 0.41738 1
0.928023 0.449058 1
0.871885 0.480735 1
0.815747 0.512413 1
1 0.283101 0.22797
1 0.314778 0.404227
1 0.346456 0.580514
1 0.378134 0.756802
1 0.409812 0.933089
1 0.441489 1
1 0.473167 1
1 0.504845 1
1 0.536522 1
1 0.307225 0.310597
1 0.338903 0.48687
1 0.370581 0.663157
1 0.402258 0.839429
1 0.433936 1
1 0.465614 1
1 0.497292 1
1 0.528969 1
1 0.560647 1
1 0.33135 0.39324
1 0.363012 0.569497
1 0.39469 0.745785
1 0.426368 0.922072
1 0.458045 1
1 0.489723 1
1 0.521401 1
1 0.553079 1
1 0.584756 1
0 0.207614 0
0 0.239277 0
0 0.270954 0
0 0.302647 0.127108
0 0.334325 0.30338
0 0.366003 0.479667
0 0.397681 0.655955
0 0.429358 0.832242
0 0.461036 1
0 0.231724 0
0 0.263401 0
0 0.295079 0.0334478
0 0.326757 0.20972
0 0.358434 0.386007
0 0.390112 0.562295
0 0.42179 0.738582
0 0.453468 0.91487
0 0.485145 1
0.242542 0.255848 0
0.186404 0.28751 0
0.130266 0.319188 0.116075
0.0741283 0.350866 0.292363
0.0179904 0.382544 0.468635
0 0.414221 0.644923
0 0.445914 0.82121
0 0.477592 0.997497
0 0.50927 1
0.543404 0.279957 0
0.487266 0.311635 0.0224155
0.431128 0.343313 0.198703
0.37499 0.37499 0.37499
0.318853 0.406668 0.551278
0.262715 0.438346 0.727565
0.206577 0.470024 0.903838
0.150439 0.501701 1
0.0943008 0.533379 1
0.844266 0.304082 0
0.788128 0.33576 0.105058
0.731991 0.367437 0.281346
0.675853 0.399115 0.457618
0.619715 0.430793 0.633906
0.563577 0.46247 0.810193
0.507439 0.494148 0.986481
0.451301 0.525826 1
0.395163 0.557504 1
1 0.328191 0.011429
1 0.359869 0.187686
1 0.391546 0.363973
0.976715 0.423224 0.540261
0.920577 0.454902 0.716533
0.864439 0.48658 0.892821
0.808301 0.518257 1
0.752163 0.549935 1
0.696025 0.581613 1
1 0.352316 0.0940566
1 0.383993 0.270314
1 0.415671 0.446601
1 0.447349 0.622889
1 0.479026 0.799176
1 0.510704 0.975464
1 0.542382 1
1 0.57406 1
0.996887 0.605737 1
1 0.376425 0.176684
1 0.408103 0.352956
1 0.43978 0.529244
1 0.471458 0.705516
1 0.503136 0.881804
1 0.534813 1
1 0.566491 1
1 0.598169 1
1 0.629847 1
1 0.400549 0.259327
1 0.432227 0.435584
1 0.463905 0.611872
1 0.495583 0.788159
1 0.52726 0.964431
1 0.558938 1
1 0.590616 1
1 0.622293 1
1 0.653971 1
0 0.276814 0
0 0.308492 0
0 0.340169 0
0 0.371847 0
0 0.403525 0.169467
0 0.435203 0.345754
0 0.46688 0.522042
0 0.498558 0.698329
0 0.530236 0.874617
0 0.300923 0
0 0.332601 0
0 0.364279 0
0 0.395956 0.0758068
0 0.427634 0.252094
0 0.459312 0.428382
0 0.49099 0.604669
0 0.522667 0.780941
0 0.554345 0.957229
0.12282 0.325048 0
0.0666819 0.356725 0
0.010544 0.388403 0
0 0.420081 0.15845
0 0.451759 0.334722
0 0.483436 0.511009
0 0.515114 0.687297
0 0.546792 0.863584
0 0.57847 1
0.423682 0.349172 0
0.367544 0.380835 0
0.311406 0.412512 0.0647898
0.255268 0.44419 0.241077
0.19913 0.475868 0.417365
0.142992 0.507546 0.593637
0.0868544 0.539223 0.769924
0.0307164 0.570916 0.946212
0 0.602594 1
0.724544 0.373281 0
0.668406 0.404959 0
0.612268 0.436637 0.147417
0.55613 0.468315 0.323705
0.499992 0.499992 0.499992
0.443854 0.53167 0.67628
0.387717 0.563348 0.852567
0.331579 0.595026 1
0.275441 0.626703 1
1 0.397406 0
0.969268 0.429068 0.0537728
0.91313 0.460761 0.23006
0.856992 0.492439 0.406348
0.800855 0.524117 0.58262
0.744717 0.555795 0.758907
0.688579 0.587472 0.935195
0.632441 0.61915 1
0.576303 0.650828 1
1 0.421515 0
1 0.453193 0.1364
1 0.484871 0.312688
1 0.516548 0.488975
1 0.548226 0.665263
1 0.579904 0.841535
0.989441 0.611582 1
0.933303 0.643259 1
0.877165 0.674937 1
1 0.44564 0.042771
1 0.477317 0.219043
1 0.508995 0.395315
1 0.540673 0.571603
1 0.572351 0.74789
1 0.604028 0.924178
1 0.635706 1
1 0.667384 1
1 0.699062 1
1 0.469749 0.125399
1 0.501427 0.301671
1 0.533104 0.477958
1 0.564782 0.654246
1 0.59646 0.830518
1 0.628138 1
1 0.659815 1
1 0.691493 1
1 0.723171 1
0 0.346029 0
0 0.377691 0
0 0.409369 0
0 0.441047 0
0 0.472724 0.0355535
0 0.504402 0.211841
0 0.53608 0.388128
0 0.567758 0.564416
0 0.599435 0.740688
0 0.370138 0
0 0.401816 0
0 0.433494 0
0 0.465171 0
0 0.496849 0.118181
0 0.528527 0.294469
0 0.560204 0.470756
0 0.591882 0.647028
0 0.62356 0.823316
0.00309758 0.394247 0
0 0.425925 0
0 0.457603 0
0 0.489281 0.0245212
0 0.520958 0.200809
0 0.552636 0.377096
0 0.584314 0.553384
0 0.615991 0.729671
0 0.647669 0.905943
0.30396 0.418372 0
0.247822 0.45005 0
0.191684 0.481727 0
0.135546 0.513405 0.107164
0.079408 0.545083 0.283452
0.02327 0.576761 0.459724
0 0.608438 0.636011
0 0.640116 0.812299
0 0.671794 0.988586
0.604822 0.442496 0
0.548684 0.474159 0
0.492546 0.505837 0.0135042
0.436408 0.537514 0.189792
0.38027 0.569192 0.366079
0.324132 0.60087 0.542367
0.267994 0.632547 0.718639
0.211856 0.664225 0.894926
0.155718 0.695918 1
0.905684 0.466606 0
0.849546 0.498283 0
0.793408 0.529961 0.0961471
0.73727 0.561639 0.272419
0.681132 0.593317 0.448707
0.624994 0.624994 0.624994
0.568856 0.656672 0.801282
0.512718 0.68835 0.977569
0.45658 0.720027 1
1 0.49073 0
1 0.522393 0.00248722
1 0.55407 0.178775
1 0.585763 0.355062
0.981994 0.617441 0.53135
0.925856 0.649119 0.707622
0.869718 0.680797 0.883909
0.813581 0.712474 1
0.757443 0.744152 1
1 0.514839 0
1 0.546517 0.0851148
1 0.578195 0.261402
1 0.609873 0.43769
1 0.64155 0.613977
1 0.673228 0.790265
1 0.704906 0.966537
1 0.736584 1
1 0.768261 1
1 0.538964 0
1 0.570642 0.167758
1 0.602319 0.344045
1 0.633997 0.520317
1 0.665675 0.696605
1 0.697353 0.872892
1 0.72903 1
1 0.760708 1
1 0.792386 1
0 0.415229 0
0 0.446906 0
0 0.478584 0
0 0.510262 0
0 0.541939 0
0 0.573617 0.0779278
0 0.605295 0.254215
0 0.636973 0.430488
0 0.66865 0.606775
0 0.439338 0
0 0.471015 0
0 0.502693 0
0 0.534371 0
0 0.566049 0
0 0.597726 0.160555
0 0.629404 0.336828
0 0.661082 0.513115
0 0.69276 0.689403
0 0.463462 0
0 0.49514 0
0 0.526818 0
0 0.558495 0
0 0.590173 0.0668956
0 0.621851 0.243183
0 0.653529 0.419471
0 0.685206 0.595743
0 0.716884 0.77203
0.184237 0.487572 0
0.128099 0.519249 0
0.0719615 0.550927 0
0.0158236 0.582605 0
0 0.614282 0.149523
0 0.64596 0.325811
0 0.677638 0.502098
0 0.709316 0.678386
0 0.740993 0.854673
0.4851 0.511696 0
0.428962 0.543374 0
0.372824 0.575051 0
0.316686 0.606729 0.0558785
0.260548 0.638407 0.232166
0.20441 0.670085 0.408453
0.148272 0.701762 0.584726
0.092134 0.73344 0.761013
0.035996 0.765118 0.937301
0.785962 0.535821 0
0.729824 0.567483 0
0.673686 0.599161 0
0.617548 0.630838 0.138506
0.56141 0.662516 0.314794
0.505272 0.694194 0.491081
0.449134 0.725872 0.667369
0.392996 0.757549 0.843641
0.336858 0.789227 1
1 0.55993 0
1 0.591608 0
0.974548 0.623285 0.0448615
0.91841 0.654963 0.221149
0.862272 0.686641 0.397421
0.806134 0.718318 0.573709
0.749996 0.749996 0.749996
0.693858 0.781674 0.926284
0.63772 0.813352 1
1 0.584054 0
1 0.615717 0
1 0.647395 0.127489
1 0.679088 0.303777
1 0.710765 0.480064
1 0.742443 0.656352
1 0.774121 0.832624
0.99472 0.805798 1
0.938582 0.837476 1
1 0.608164 0
1 0.639841 0.0338445
1 0.671519 0.210117
1 0.703197 0.386404
1 0.734874 0.562692
1 0.766552 0.738979
1 0.79823 0.915267
1 0.829908 1
1 0.861585 1
0 0.484428 0
0 0.516106 0
0 0.547784 0
0 0.579461 0
0 0.611139 0
0 0.642817 0
0 0.674495 0.120302
0 0.706172 0.296574
0 0.73785 0.472862
0 0.508553 0
0 0.54023 0
0 0.571908 0
0 0.603586 0
0 0.635264 0
0 0.666941 0.026627
0 0.698619 0.202914
0 0.730297 0.379202
0 0.761975 0.555489
0 0.532662 0
0 0.56434 0
0 0.596017 0
0 0.627695 0
0 0.659373 0
0 0.691051 0.10927
0 0.722728 0.285557
0 0.754406 0.46183
0 0.786084 0.638117
0.0645151 0.556786 0
0.0083772 0.588464 0
0 0.620142 0
0 0.65182 0
0 0.683497 0.01561
0 0.715175 0.191897
0 0.746853 0.368185
0 0.778531 0.544472
0 0.810208 0.72076
0.365377 0.580896 0
0.309239 0.612573 0
0.253101 0.644251 0
0.196963 0.675929 0
0.140826 0.707607 0.0982528
0.0846876 0.739284 0.274525
0.0285496 0.770962 0.450813
0 0.80264 0.6271
0 0.834318 0.803388
0.666239 0.60502 0
0.610101 0.636698 0
0.553964 0.668376 0
0.497826 0.700053 0.00459297
0.441688 0.731731 0.18088
0.38555 0.763409 0.357168
0.329412 0.795087 0.533455
0.273274 0.826764 0.709728
0.217136 0.858442 0.886015
0.967102 0.629145 0
0.910964 0.660807 0
0.854826 0.692485 0
0.798688 0.724163 0.0872206
0.74255 0.75584 0.263508
0.686412 0.787518 0.439796
0.630274 0.819196 0.616083
0.574136 0.850874 0.79237
0.517998 0.882551 0.968643
1 0.653254 0
1 0.684932 0
1 0.716609 0
1 0.748287 0.169863
1 0.779965 0.346151
0.987274 0.811643 0.522423
0.931136 0.84332 0.698711
0.874998 0.874998 0.874998
0.81886 0.906676 1
1 0.677378 0
1 0.709041 0
1 0.740719 0.0762036
1 0.772396 0.252491
1 0.804074 0.428779
1 0.835767 0.605066
1 0.867445 0.781353
1 0.899123 0.957626
1 0.9308 1
0 0.553643 0
0 0.585321 0
0 0.616999 0
0 0.648676 0
0 0.680354 0
0 0.712032 0
0 0.743709 0
0 0.775387 0.162661
0 0.807065 0.338949
0 0.577752 0
0 0.60943 0
0 0.641108 0
0 0.672786 0
0 0.704463 0
0 0.736141 0
0 0.767819 0.0690013
0 0.799496 0.245289
0 0.831174 0.421576
0 0.601877 0
0 0.633539 0
0 0.665232 0
0 0.69691 0
0 0.728588 0
0 0.760266 0
0 0.791943 0.151629
0 0.823621 0.327916
0 0.855299 0.504204
0 0.625986 0
0 0.657664 0
0 0.689342 0
0 0.721019 0
0 0.752697 0
0 0.784375 0.0579843
0 0.816052 0.234272
0 0.84773 0.410559
0 0.879408 0.586831
0.245655 0.650111 0
0.189517 0.681788 0
0.133379 0.713466 0
0.0772412 0.745144 0
0.0211032 0.776822 0
0 0.808499 0.140612
0 0.840177 0.316899
0 0.871855 0.493187
0 0.903532 0.669474
0.546517 0.67422 0
0.490379 0.705898 0
0.434241 0.737575 0
0.378103 0.769253 0
0.321965 0.800931 0.0469673
0.265827 0.832609 0.223255
0.209689 0.864286 0.399527
0.153552 0.895964 0.575814
0.0974136 0.927642 0.752102
0.847379 0.698344 0
0.791241 0.730022 0
0.735103 0.7617 0
0.678965 0.793378 0
0.622827 0.825055 0.129595
0.56669 0.856733 0.305882
0.510552 0.888411 0.48217
0.454414 0.920089 0.658457
0.398276 0.951766 0.83473
1 0.722469 0
1 0.754131 0
1 0.785809 0
0.979828 0.817487 0.0359503
0.92369 0.849165 0.212222
0.867552 0.880842 0.38851
0.811414 0.91252 0.564797
0.755276 0.944198 0.741085
0.699138 0.975875 0.917372
1 0.746578 0
1 0.778256 0
1 0.809934 0
1 0.841611 0.118578
1 0.873289 0.294865
1 0.904967 0.471153
1 0.936645 0.647425
1 0.968322 0.823713
1 1 1
