public/LUTS/Color Shift/ColorShift_98.cube
TITLE "Generated by Resolve"
LUT_3D_SIZE 5
0 0 0
0 0.13724 0.162158
0 0.274495 0.324315
0 0.411749 0.486473
0 0.548989 0.64863
0.491112 0.0443427 0.453513
0.21413 0.181598 0.615656
0 0.318837 0.777829
0 0.456092 0.939986
0 0.593347 1
0.982238 0.0887007 0.907057
0.705272 0.22594 1
0.428275 0.363195 1
0.151293 0.500435 1
0 0.63769 1
1 0.133043 1
1 0.270298 1
0.919417 0.407538 1
0.64242 0.544793 1
0.365438 0.682048 1
1 0.177401 1
1 0.314641 1
1 0.451896 1
1 0.589136 1
0.85658 0.72639 1
0.0358587 0.0684062 0
0 0.205646 0
0 0.342885 0
0 0.48014 0.12079
0 0.617395 0.282963
0.526955 0.112749 0.0878309
0.249989 0.249989 0.249989
0 0.387243 0.412146
0 0.524483 0.574304
0 0.661738 0.736477
1 0.157092 0.541375
0.741115 0.294347 0.703532
0.464134 0.431586 0.86569
0.187152 0.568841 1
0 0.706096 1
1 0.20145 0.994919
1 0.338689 1
0.955276 0.475944 1
0.678279 0.613184 1
0.401297 0.750439 1
1 0.245792 1
1 0.383047 1
1 0.520287 1
1 0.657542 1
0.892424 0.794797 1
0.0717174 0.136797 0
0 0.274037 0
0 0.411292 0
0 0.548547 0
0 0.685786 0
0.562814 0.181155 0
0.285847 0.318395 0
0.00886549 0.455634 0.0464485
0 0.592889 0.208606
0 0.730144 0.370779
1 0.225498 0.175677
0.776974 0.362737 0.337835
0.499992 0.499992 0.499992
0.223011 0.637247 0.66215
0 0.774487 0.824308
1 0.269856 0.629221
1 0.407095 0.791379
0.991119 0.54435 0.953536
0.714137 0.68159 1
0.437156 0.818845 1
1 0.314199 1
1 0.451438 1
1 0.588693 1
1 0.725948 1
0.928283 0.863188 1
0.107576 0.205203 0
0 0.342443 0
0 0.479698 0
0 0.616953 0
0 0.754192 0
0.598672 0.249546 0
0.321706 0.386801 0
0.0447089 0.524041 0
0 0.661295 0
0 0.79855 0.00508125
1 0.293904 0
0.812833 0.431144 0
0.535851 0.568399 0.134295
0.258854 0.705638 0.296452
0 0.842893 0.45861
1 0.338247 0.263523
1 0.475502 0.425681
1 0.612741 0.587839
0.749996 0.749996 0.749996
0.473014 0.887251 0.912154
1 0.382605 0.717067
1 0.519844 0.87921
1 0.657099 1
1 0.794354 1
0.964141 0.931594 1
0.14342 0.27361 0
0 0.410849 0
0 0.548104 0
0 0.685344 0
0 0.822599 0
0.634531 0.317952 0
0.357565 0.455192 0
0.0805676 0.592447 0
0 0.729702 0
0 0.866941 0
1 0.36231 0
0.848692 0.49955 0
0.57171 0.636805 0
0.294713 0.774044 0
0.017731 0.911299 0.0929122
1 0.406653 0
1 0.543893 0.0599832
1 0.681147 0.222141
0.785855 0.818402 0.384298
0.508873 0.955642 0.546456
1 0.451011 0.35137
1 0.588251 0.513512
1 0.725505 0.675685
1 0.862745 0.837842
1 1 1
