public/LUTS/Color Shift/ColorShift_90.cube
TITLE "Generated by Resolve"
LUT_3D_SIZE 33
0 0 0
0 0.00437934 0.0478218
0 0.00877394 0.0956741
0 0.0131533 0.143511
0 0.0175479 0.191363
0 0.0219425 0.2392
0 0.0263218 0.287053
0 0.0307164 0.334905
0 0.0350958 0.382742
0 0.0394903 0.430594
0 0.0438697 0.478447
0 0.0482643 0.526284
0 0.0526436 0.574136
0 0.0570382 0.621973
0 0.0614176 0.669825
0 0.0658122 0.717678
0 0.0702068 0.765515
0 0.0745861 0.813367
0 0.0789807 0.861204
0 0.08336 0.909056
0 0.0877546 0.956909
0 0.092134 1
0 0.0965286 1
0 0.100908 1
0 0.105303 1
0 0.109682 1
0 0.114076 1
0 0.118471 1
0 0.12285 1
0 0.127245 1
0 0.131624 1
0 0.136019 1
0 0.140398 1
0.0732738 0.00825513 0.00772107
0.069398 0.0126497 0.0555428
0.0655222 0.0170291 0.103395
0.0616312 0.0214237 0.151232
0.0577554 0.025803 0.199084
0.0538796 0.0301976 0.246937
0.0500038 0.0345769 0.294774
0.0461128 0.0389715 0.342626
0.042237 0.0433661 0.390463
0.0383612 0.0477455 0.438315
0.0344701 0.0521401 0.486168
0.0305943 0.0565194 0.534005
0.0267185 0.060914 0.581857
0.0228428 0.0652934 0.629694
0.0189517 0.069688 0.677546
0.0150759 0.0740673 0.725399
0.0112001 0.0784619 0.773236
0.00732433 0.0828412 0.821088
0.00343328 0.0872358 0.868925
0 0.0916304 0.916777
0 0.0960098 0.96463
0 0.100404 1
0 0.104784 1
0 0.109178 1
0 0.113558 1
0 0.117952 1
0 0.122332 1
0 0.126726 1
0 0.131106 1
0 0.1355 1
0 0.139895 1
0 0.144274 1
0 0.148669 1
0.146578 0.0165255 0.0154421
0.142702 0.0209049 0.0632639
0.138827 0.0252995 0.111116
0.134951 0.0296788 0.158968
0.13106 0.0340734 0.206806
0.127184 0.0384527 0.254658
0.123308 0.0428473 0.302495
0.119432 0.0472419 0.350347
0.115541 0.0516213 0.398199
0.111666 0.0560159 0.446036
0.10779 0.0603952 0.493889
0.103914 0.0647898 0.541726
0.100023 0.0691691 0.589578
0.0961471 0.0735637 0.63743
0.0922713 0.0779431 0.685267
0.0883955 0.0823377 0.73312
0.0845045 0.086717 0.780957
0.0806287 0.0911116 0.828809
0.0767529 0.0955062 0.876661
0.0728618 0.0998856 0.924498
0.068986 0.10428 0.972351
0.0651102 0.108659 1
0.0612345 0.113054 1
0.0573434 0.117433 1
0.0534676 0.121828 1
0.0495918 0.126207 1
0.045716 0.130602 1
0.041825 0.134981 1
0.0379492 0.139376 1
0.0340734 0.143771 1
0.0301976 0.14815 1
0.0263066 0.152544 1
0.0224308 0.156924 1
0.219898 0.0247807 0.0231785
0.216022 0.0291752 0.0710002
0.212131 0.0335546 0.118837
0.208255 0.0379492 0.16669
0.204379 0.0423438 0.214527
0.200504 0.0467231 0.262379
0.196612 0.0511177 0.310231
0.192737 0.0554971 0.358068
0.188861 0.0598917 0.405921
0.184985 0.064271 0.453758
0.181094 0.0686656 0.50161
0.177218 0.0730449 0.549462
0.173342 0.0774395 0.597299
0.169451 0.0818189 0.645151
0.165576 0.0862135 0.693004
0.1617 0.0905928 0.740841
0.157824 0.0949874 0.788693
0.153933 0.099382 0.83653
0.150057 0.103761 0.884382
0.146181 0.108156 0.932235
0.142306 0.112535 0.980072
0.138415 0.11693 1
0.134539 0.121309 1
0.130663 0.125704 1
0.126772 0.130083 1
0.122896 0.134478 1
0.11902 0.138857 1
0.115145 0.143252 1
0.111254 0.147646 1
0.107378 0.152026 1
0.103502 0.15642 1
0.0996262 0.1608 1
0.0957351 0.165194 1
0.293202 0.033051 0.0308995
0.289326 0.0374304 0.0787213
0.285451 0.041825 0.126574
0.281559 0.0462196 0.174411
0.277684 0.0505989 0.222263
0.273808 0.0549935 0.2701
0.269932 0.0593729 0.317952
0.266041 0.0637675 0.365805
0.262165 0.0681468 0.413642
0.258289 0.0725414 0.461494
0.254414 0.0769207 0.509331
0.250523 0.0813153 0.557183
0.246647 0.0856947 0.605035
0.242771 0.0900893 0.652873
0.238895 0.0944839 0.700725
0.235004 0.0988632 0.748562
0.231128 0.103258 0.796414
0.227253 0.107637 0.844266
0.223362 0.112032 0.892103
0.219486 0.116411 0.939956
0.21561 0.120806 0.987793
0.211734 0.125185 1
0.207843 0.12958 1
0.203967 0.133959 1
0.200092 0.138354 1
0.196216 0.142748 1
0.192325 0.147127 1
0.188449 0.151522 1
0.184573 0.155901 1
0.180697 0.160296 1
0.176806 0.164675 1
0.17293 0.16907 1
0.169055 0.173449 1
0.366522 0.0413214 0.0386206
0.362631 0.0457008 0.0864424
0.358755 0.0500954 0.134295
0.354879 0.0544747 0.182132
0.351003 0.0588693 0.229984
0.347112 0.0632486 0.277836
0.343236 0.0676432 0.325673
0.339361 0.0720226 0.373526
0.335485 0.0764172 0.421363
0.331594 0.0807965 0.469215
0.327718 0.0851911 0.517067
0.323842 0.0895705 0.564904
0.319951 0.0939651 0.612757
0.316075 0.0983597 0.660594
0.3122 0.102739 0.708446
0.308324 0.107134 0.756298
0.304433 0.111513 0.804135
0.300557 0.115908 0.851987
0.296681 0.120287 0.899825
0.292805 0.124681 0.947677
0.288914 0.129061 0.995529
0.285039 0.133455 1
0.281163 0.137835 1
0.277287 0.142229 1
0.273396 0.146624 1
0.26952 0.151003 1
0.265644 0.155398 1
0.261753 0.159777 1
0.257877 0.164172 1
0.254002 0.168551 1
0.250126 0.172946 1
0.246235 0.177325 1
0.242359 0.18172 1
0.439826 0.0495766 0.0463417
0.43595 0.0539712 0.0941634
0.432059 0.0583505 0.142016
0.428183 0.0627451 0.189868
0.424308 0.0671244 0.237705
0.420432 0.071519 0.285557
0.416541 0.0758984 0.33341
0.412665 0.080293 0.381247
0.408789 0.0846723 0.429099
0.404913 0.0890669 0.476936
0.401022 0.0934615 0.524788
0.397147 0.0978408 0.572641
0.393271 0.102235 0.620478
0.389395 0.106615 0.66833
0.385504 0.111009 0.716167
0.381628 0.115389 0.764019
0.377752 0.119783 0.811872
0.373861 0.124163 0.859709
0.369985 0.128557 0.907561
0.36611 0.132937 0.955398
0.362234 0.137331 1
0.358343 0.141711 1
0.354467 0.146105 1
0.350591 0.1505 1
0.346716 0.154879 1
0.342824 0.159274 1
0.338949 0.163653 1
0.335073 0.168048 1
0.331197 0.172427 1
0.327306 0.176822 1
0.32343 0.181201 1
0.319554 0.185595 1
0.315663 0.189975 1
0.51313 0.057847 0.054078
0.509255 0.0622263 0.1019
0.505379 0.0666209 0.149737
0.501503 0.0710002 0.197589
0.497612 0.0753948 0.245441
0.493736 0.0797742 0.293278
0.48986 0.0841688 0.341131
0.485985 0.0885481 0.388968
0.482094 0.0929427 0.43682
0.478218 0.0973373 0.484672
0.474342 0.101717 0.532509
0.470451 0.106111 0.580362
0.466575 0.110491 0.628199
0.462699 0.114885 0.676051
0.458824 0.119265 0.723903
0.454932 0.123659 0.77174
0.451057 0.128038 0.819593
0.447181 0.132433 0.86743
0.443305 0.136812 0.915282
0.439414 0.141207 0.963134
0.435538 0.145602 1
0.431662 0.149981 1
0.427787 0.154376 1
0.423896 0.158755 1
0.42002 0.163149 1
0.416144 0.167529 1
0.412253 0.171923 1
0.408377 0.176303 1
0.404501 0.180697 1
0.400626 0.185077 1
0.396735 0.189471 1
0.392859 0.193866 1
0.388983 0.198245 1
0.58645 0.0661021 0.061799
0.582574 0.0704967 0.109621
0.578683 0.074876 0.157473
0.574807 0.0792706 0.20531
0.570932 0.08365 0.253162
0.567041 0.0880446 0.300999
0.563165 0.0924239 0.348852
0.559289 0.0968185 0.396704
0.555413 0.101213 0.444541
0.551522 0.105592 0.492393
0.547646 0.109987 0.54023
0.54377 0.114366 0.588083
0.539895 0.118761 0.635935
0.536004 0.12314 0.683772
0.532128 0.127535 0.731624
0.528252 0.131914 0.779477
0.524376 0.136309 0.827314
0.520485 0.140688 0.875166
0.516609 0.145083 0.923003
0.512734 0.149477 0.970855
0.508843 0.153857 1
0.504967 0.158251 1
0.501091 0.162631 1
0.497215 0.167025 1
0.493324 0.171405 1
0.489448 0.175799 1
0.485573 0.180179 1
0.481697 0.184573 1
0.477806 0.188952 1
0.47393 0.193347 1
0.470054 0.197742 1
0.466178 0.202121 1
0.462287 0.206516 1
0.659754 0.0743725 0.0695201
0.655879 0.0787518 0.117342
0.652003 0.0831464 0.165194
0.648112 0.0875257 0.213046
0.644236 0.0919203 0.260884
0.64036 0.0963149 0.308736
0.636484 0.100694 0.356573
0.632593 0.105089 0.404425
0.628717 0.109468 0.452277
0.624842 0.113863 0.500114
0.620951 0.118242 0.547967
0.617075 0.122637 0.595804
0.613199 0.127016 0.643656
0.609323 0.131411 0.691508
0.605432 0.13579 0.739345
0.601556 0.140185 0.787198
0.597681 0.144564 0.835035
0.593805 0.148959 0.882887
0.589914 0.153353 0.930739
0.586038 0.157733 0.978576
0.582162 0.162127 1
0.578286 0.166506 1
0.574395 0.170901 1
0.57052 0.17528 1
0.566644 0.179675 1
0.562753 0.184054 1
0.558877 0.188449 1
0.555001 0.192828 1
0.551125 0.197223 1
0.547234 0.201617 1
0.543359 0.205997 1
0.539483 0.210391 1
0.535607 0.214771 1
0.733059 0.0826429 0.0772564
0.729183 0.0870222 0.125078
0.725307 0.0914015 0.172915
0.721431 0.0957961 0.220768
0.71754 0.100191 0.268605
0.713664 0.10457 0.316457
0.709789 0.108965 0.364309
0.705913 0.113344 0.412146
0.702022 0.117739 0.459998
0.698146 0.122118 0.507836
0.69427 0.126513 0.555688
0.690394 0.130892 0.60354
0.686503 0.135286 0.651377
0.682628 0.139666 0.699229
0.678752 0.14406 0.747066
0.674876 0.148455 0.794919
0.670985 0.152834 0.842771
0.667109 0.157229 0.890608
0.663233 0.161608 0.93846
0.659342 0.166003 0.986297
0.655467 0.170382 1
0.651591 0.174777 1
0.647715 0.179156 1
0.643824 0.183551 1
0.639948 0.18793 1
0.636072 0.192325 1
0.632197 0.196719 1
0.628305 0.201099 1
0.62443 0.205493 1
0.620554 0.209873 1
0.616678 0.214267 1
0.612787 0.218647 1
0.608911 0.223041 1
0.806378 0.090898 0.0849775
0.802502 0.0952773 0.132799
0.798611 0.0996719 0.180636
0.794736 0.104067 0.228489
0.79086 0.108446 0.276341
0.786984 0.11284 0.324178
0.783093 0.11722 0.37203
0.779217 0.121614 0.419867
0.775341 0.125994 0.46772
0.771466 0.130388 0.515572
0.767575 0.134768 0.563409
0.763699 0.139162 0.611261
0.759823 0.143542 0.659113
0.755932 0.147936 0.70695
0.752056 0.152331 0.754803
0.74818 0.15671 0.80264
0.744305 0.161105 0.850492
0.740414 0.165484 0.898344
0.736538 0.169879 0.946181
0.732662 0.174258 0.994034
0.728786 0.178653 1
0.724895 0.183032 1
0.721019 0.187427 1
0.717144 0.191806 1
0.713252 0.196201 1
0.709377 0.200595 1
0.705501 0.204974 1
0.701625 0.209369 1
0.697734 0.213748 1
0.693858 0.218143 1
0.689982 0.222522 1
0.686107 0.226917 1
0.682216 0.231296 1
0.879683 0.0991684 0.0926986
0.875807 0.103548 0.14052
0.871931 0.107942 0.188373
0.86804 0.112322 0.23621
0.864164 0.116716 0.284062
0.860288 0.121096 0.331914
0.856413 0.12549 0.379751
0.852522 0.12987 0.427604
0.848646 0.134264 0.475441
0.84477 0.138643 0.523293
0.840894 0.143038 0.571145
0.837003 0.147433 0.618982
0.833127 0.151812 0.666835
0.829252 0.156207 0.714672
0.825376 0.160586 0.762524
0.821485 0.164981 0.810376
0.817609 0.16936 0.858213
0.813733 0.173754 0.906065
0.809842 0.178134 0.953902
0.805966 0.182528 1
0.80209 0.186908 1
0.798215 0.191302 1
0.794324 0.195682 1
0.790448 0.200076 1
0.786572 0.204471 1
0.782696 0.20885 1
0.778805 0.213245 1
0.774929 0.217624 1
0.771054 0.222019 1
0.767178 0.226398 1
0.763287 0.230793 1
0.759411 0.235172 1
0.755535 0.239567 1
0.953002 0.107424 0.10042
0.949111 0.111818 0.148241
0.945235 0.116197 0.196094
0.94136 0.120592 0.243946
0.937484 0.124971 0.291783
0.933593 0.129366 0.339635
0.929717 0.133745 0.387472
0.925841 0.13814 0.435325
0.921965 0.142519 0.483177
0.918074 0.146914 0.531014
0.914199 0.151308 0.578866
0.910323 0.155688 0.626703
0.906432 0.160082 0.674556
0.902556 0.164462 0.722408
0.89868 0.168856 0.770245
0.894804 0.173236 0.818097
0.890913 0.17763 0.865934
0.887037 0.18201 0.913787
0.883162 0.186404 0.961639
0.879286 0.190784 1
0.875395 0.195178 1
0.871519 0.199573 1
0.867643 0.203952 1
0.863767 0.208347 1
0.859876 0.212726 1
0.856001 0.217121 1
0.852125 0.2215 1
0.848234 0.225895 1
0.844358 0.230274 1
0.840482 0.234668 1
0.836606 0.239048 1
0.832715 0.243442 1
0.82884 0.247837 1
1 0.115694 0.108156
1 0.120073 0.155978
1 0.124468 0.203815
1 0.128847 0.251667
1 0.133242 0.299519
1 0.137621 0.347356
1 0.142016 0.395209
0.999146 0.146395 0.443046
0.99527 0.15079 0.490898
0.991394 0.155184 0.53875
0.987503 0.159564 0.586587
0.983627 0.163958 0.63444
0.979751 0.168338 0.682277
0.975875 0.172732 0.730129
0.971984 0.177111 0.777981
0.968109 0.181506 0.825818
0.964233 0.185885 0.873671
0.960342 0.19028 0.921508
0.956466 0.194659 0.96936
0.95259 0.199054 1
0.948714 0.203449 1
0.944823 0.207828 1
0.940948 0.212222 1
0.937072 0.216602 1
0.933196 0.220996 1
0.929305 0.225376 1
0.925429 0.22977 1
0.921553 0.23415 1
0.917678 0.238544 1
0.913787 0.242924 1
0.909911 0.247318 1
0.906035 0.251713 1
0.902144 0.256092 1
1 0.123949 0.115877
1 0.128344 0.163699
1 0.132723 0.211551
1 0.137118 0.259388
1 0.141497 0.30724
1 0.145892 0.355077
1 0.150286 0.40293
1 0.154665 0.450782
1 0.15906 0.498619
1 0.163439 0.546471
1 0.167834 0.594308
1 0.172213 0.642161
1 0.176608 0.690013
1 0.180987 0.73785
1 0.185382 0.785702
1 0.189761 0.833539
1 0.194156 0.881392
1 0.19855 0.929244
1 0.20293 0.977081
1 0.207324 1
1 0.211704 1
1 0.216098 1
1 0.220478 1
1 0.224872 1
1 0.229252 1
1 0.233646 1
0.998734 0.238025 1
0.994858 0.24242 1
0.990982 0.246799 1
0.987106 0.251194 1
0.983215 0.255589 1
0.979339 0.259968 1
0.975464 0.264363 1
1 0.132219 0.123598
1 0.136599 0.17142
1 0.140993 0.219272
1 0.145373 0.267109
1 0.149767 0.314961
1 0.154162 0.362814
1 0.158541 0.410651
1 0.162936 0.458503
1 0.167315 0.50634
1 0.17171 0.554192
1 0.176089 0.602045
1 0.180484 0.649882
1 0.184863 0.697734
1 0.189258 0.745586
1 0.193637 0.793423
1 0.198032 0.841276
1 0.202426 0.889113
1 0.206806 0.936965
1 0.2112 0.984817
1 0.215579 1
1 0.219974 1
1 0.224353 1
1 0.228748 1
1 0.233127 1
1 0.237522 1
1 0.241901 1
1 0.246296 1
1 0.25069 1
1 0.25507 1
1 0.259464 1
1 0.263844 1
1 0.268238 1
1 0.272618 1
1 0.14049 0.131319
1 0.144869 0.179156
1 0.149248 0.226993
1 0.153643 0.274846
1 0.158038 0.322683
1 0.162417 0.370535
1 0.166812 0.418387
1 0.171191 0.466224
1 0.175586 0.514076
1 0.179965 0.561913
1 0.18436 0.609766
1 0.188739 0.657618
1 0.193133 0.705455
1 0.197513 0.753307
1 0.201907 0.801144
1 0.206302 0.848997
1 0.210681 0.896849
1 0.215076 0.944686
1 0.219455 0.992538
1 0.22385 1
1 0.228229 1
1 0.232624 1
1 0.237003 1
1 0.241398 1
1 0.245777 1
1 0.250172 1
1 0.254566 1
1 0.258946 1
1 0.26334 1
1 0.26772 1
1 0.272114 1
1 0.276493 1
1 0.280888 1
1 0.148745 0.139055
1 0.15314 0.186877
1 0.157519 0.234714
1 0.161913 0.282567
1 0.166293 0.330419
1 0.170687 0.378256
1 0.175067 0.426108
1 0.179461 0.473945
1 0.183841 0.521798
1 0.188235 0.56965
1 0.192615 0.617487
1 0.197009 0.665339
1 0.201404 0.713176
1 0.205783 0.761028
1 0.210178 0.808881
1 0.214557 0.856718
1 0.218952 0.90457
1 0.223331 0.952407
1 0.227726 1
1 0.232105 1
1 0.2365 1
1 0.240879 1
1 0.245274 1
1 0.249653 1
1 0.254047 1
1 0.258442 1
1 0.262821 1
1 0.267216 1
1 0.271595 1
1 0.27599 1
1 0.280369 1
1 0.284764 1
1 0.289143 1
1 0.157015 0.146777
1 0.161395 0.194598
1 0.165789 0.242451
1 0.170169 0.290288
1 0.174563 0.33814
1 0.178943 0.385977
1 0.183337 0.433829
1 0.187716 0.481682
1 0.192111 0.529519
1 0.19649 0.577371
1 0.200885 0.625223
1 0.20528 0.67306
1 0.209659 0.720913
1 0.214054 0.76875
1 0.218433 0.816602
1 0.222827 0.864454
1 0.227207 0.912291
1 0.231601 0.960143
1 0.235981 1
1 0.240375 1
1 0.244755 1
1 0.249149 1
1 0.253544 1
1 0.257923 1
1 0.262318 1
1 0.266697 1
1 0.271092 1
1 0.275471 1
1 0.279866 1
1 0.284245 1
1 0.28864 1
1 0.293019 1
1 0.297414 1
1 0.16527 0.154498
1 0.169665 0.202319
1 0.174044 0.250172
1 0.178439 0.298024
1 0.182818 0.345861
1 0.187213 0.393713
1 0.191592 0.44155
1 0.195987 0.489403
1 0.200366 0.537255
1 0.204761 0.585092
1 0.209155 0.632944
1 0.213535 0.680781
1 0.217929 0.728634
1 0.222309 0.776486
1 0.226703 0.824323
1 0.231083 0.872175
1 0.235477 0.920012
1 0.239857 0.967865
1 0.244251 1
1 0.248631 1
1 0.253025 1
1 0.25742 1
1 0.261799 1
1 0.266194 1
1 0.270573 1
1 0.274968 1
1 0.279347 1
1 0.283742 1
1 0.288121 1
1 0.292515 1
1 0.296895 1
1 0.301289 1
1 0.305684 1
1 0.173541 0.162234
1 0.17792 0.210056
1 0.182315 0.257893
1 0.186694 0.305745
1 0.191089 0.353582
1 0.195468 0.401434
1 0.199863 0.449287
1 0.204257 0.497124
1 0.208637 0.544976
1 0.213031 0.592813
1 0.217411 0.640665
1 0.221805 0.688518
1 0.226184 0.736355
1 0.230579 0.784207
1 0.234958 0.832044
1 0.239353 0.879896
1 0.243732 0.927749
1 0.248127 0.975586
1 0.252522 1
1 0.256901 1
1 0.261295 1
1 0.265675 1
1 0.270069 1
1 0.274449 1
1 0.278843 1
1 0.283223 1
1 0.287617 1
1 0.291997 1
1 0.296391 1
1 0.300771 1
1 0.305165 1
1 0.30956 1
1 0.313939 1
1 0.181796 0.169955
1 0.186191 0.217777
1 0.19057 0.265629
1 0.194965 0.313466
1 0.199344 0.361318
1 0.203738 0.409155
1 0.208133 0.457008
1 0.212512 0.50486
1 0.216907 0.552697
1 0.221286 0.600549
1 0.225681 0.648386
1 0.23006 0.696239
1 0.234455 0.744091
1 0.238834 0.791928
1 0.243229 0.83978
1 0.247608 0.887617
1 0.252003 0.93547
1 0.256397 0.983322
1 0.260777 1
1 0.265171 1
1 0.269551 1
1 0.273945 1
1 0.278325 1
1 0.282719 1
1 0.287098 1
1 0.291493 1
1 0.295872 1
1 0.300267 1
1 0.304662 1
1 0.309041 1
1 0.313436 1
1 0.317815 1
1 0.32221 1
1 0.190066 0.177676
1 0.194446 0.225498
1 0.19884 0.27335
1 0.20322 0.321187
1 0.207614 0.369039
1 0.212009 0.416892
1 0.216388 0.464729
1 0.220783 0.512581
1 0.225162 0.560418
1 0.229557 0.60827
1 0.233936 0.656123
1 0.238331 0.70396
1 0.24271 0.751812
1 0.247105 0.799649
1 0.251484 0.847501
1 0.255879 0.895354
1 0.260273 0.943191
1 0.264652 0.991043
1 0.269047 1
1 0.273426 1
1 0.277821 1
1 0.2822 1
1 0.286595 1
1 0.290974 1
1 0.295369 1
1 0.299748 1
1 0.304143 1
1 0.308537 1
1 0.312917 1
1 0.317311 1
1 0.321691 1
1 0.326085 1
1 0.330465 1
1 0.198337 0.185397
1 0.202716 0.233219
1 0.207111 0.281071
1 0.21149 0.328923
1 0.215885 0.376761
1 0.220264 0.424613
1 0.224659 0.47245
1 0.229038 0.520302
1 0.233433 0.568154
1 0.237812 0.615991
1 0.242206 0.663844
1 0.246586 0.711696
1 0.25098 0.759533
1 0.255375 0.807385
1 0.259754 0.855222
1 0.264149 0.903075
1 0.268528 0.950927
1 0.272923 0.998764
1 0.277302 1
1 0.281697 1
1 0.286076 1
1 0.290471 1
1 0.29485 1
1 0.299245 1
1 0.303624 1
1 0.308019 1
1 0.312413 1
1 0.316793 1
1 0.321187 1
1 0.325567 1
1 0.329961 1
1 0.33434 1
1 0.338735 1
1 0.206592 0.193133
1 0.210986 0.240955
1 0.215366 0.288792
1 0.21976 0.336645
1 0.22414 0.384497
1 0.228534 0.432334
1 0.232914 0.480186
1 0.237308 0.528023
1 0.241688 0.575875
1 0.246082 0.623728
1 0.250462 0.671565
1 0.254856 0.719417
1 0.259251 0.767254
1 0.26363 0.815106
1 0.268025 0.862959
1 0.272404 0.910796
1 0.276799 0.958648
1 0.281178 1
1 0.285573 1
1 0.289952 1
1 0.294347 1
1 0.298726 1
1 0.30312 1
1 0.307515 1
1 0.311894 1
1 0.316289 1
1 0.320668 1
1 0.325063 1
1 0.329442 1
1 0.333837 1
1 0.338216 1
1 0.342611 1
1 0.34699 1
1 0.214862 0.200855
1 0.219242 0.248676
1 0.223636 0.296529
1 0.228016 0.344366
1 0.23241 0.392218
1 0.236789 0.440055
1 0.241184 0.487907
1 0.245563 0.53576
1 0.249958 0.583597
1 0.254337 0.631449
1 0.258732 0.679286
1 0.263127 0.727138
1 0.267506 0.77499
1 0.271901 0.822828
1 0.27628 0.87068
1 0.280674 0.918517
1 0.285054 0.966369
1 0.289448 1
1 0.293828 1
1 0.298222 1
1 0.302602 1
1 0.306996 1
1 0.311391 1
1 0.31577 1
1 0.320165 1
1 0.324544 1
1 0.328939 1
1 0.333318 1
1 0.337713 1
1 0.342092 1
1 0.346487 1
1 0.350866 1
1 0.355261 1
1 0.223117 0.208576
1 0.227512 0.256397
1 0.231891 0.30425
1 0.236286 0.352087
1 0.240665 0.399939
1 0.24506 0.447791
1 0.249439 0.495628
1 0.253834 0.543481
1 0.258228 0.591333
