public/LUTS/Color Shift/ColorShift_80.cube
TITLE "Generated by Resolve"
LUT_3D_SIZE 5
0 0 0
0.347387 0 0.230365
0.694789 0 0.460731
1 0 0.691112
1 0 0.921492
0.1944 0.222782 0
0.541787 0.163943 0
0.889189 0.105104 0.218708
1 0.0462654 0.449073
1 0 0.679454
0.388815 0.445579 0
0.736202 0.38674 0
1 0.327901 0
1 0.269062 0.207034
1 0.210224 0.4374
0.58323 0.668376 0
0.930617 0.609552 0
1 0.550698 0
1 0.491859 0
1 0.433021 0.195361
0.777646 0.891173 0
1 0.832349 0
1 0.77351 0
1 0.714656 0
1 0.655818 0
0 0.0860456 0.261662
0.0555886 0.0272068 0.492027
0.402991 0 0.722393
0.750393 0 0.952773
1 0 1
0 0.308827 0.0196231
0.249989 0.249989 0.249989
0.597391 0.19115 0.480369
0.944793 0.132311 0.710735
1 0.0734722 0.941115
0.0970169 0.531624 0
0.444404 0.472786 0.00793469
0.791806 0.413947 0.238315
1 0.355108 0.468696
1 0.296269 0.699062
0.291432 0.754421 0
0.638819 0.695583 0
0.986221 0.636744 0
1 0.577905 0.226642
1 0.519066 0.457023
0.485847 0.977218 0
0.833234 0.918379 0
1 0.859541 0
1 0.800702 0
1 0.741863 0.214969
0 0.172091 0.523339
0 0.113252 0.753704
0.111177 0.0544137 0.98407
0.458579 0 1
0.805982 0 1
0 0.394873 0.2813
0 0.336034 0.511666
0.305577 0.277195 0.742046
0.652979 0.218357 0.972412
1 0.159518 1
0 0.61767 0.0392615
0.15259 0.558831 0.269612
0.499992 0.499992 0.499992
0.847395 0.441154 0.730373
1 0.382315 0.960739
0 0.840467 0
0.347005 0.781628 0.0275731
0.694408 0.722789 0.257939
1 0.663951 0.488319
1 0.605112 0.7187
0.194034 1 0
0.541421 1 0
0.888823 0.945586 0.0158999
1 0.886748 0.246265
1 0.827909 0.476646
0 0.258137 0.785016
0 0.199298 1
0 0.140459 1
0.166766 0.0816205 1
0.514168 0.0227817 1
0 0.480919 0.542977
0 0.42208 0.773342
0.0137636 0.363241 1
0.361166 0.304402 1
0.708568 0.245563 1
0 0.703716 0.300938
0 0.644877 0.531289
0.208179 0.586038 0.761669
0.555581 0.527199 0.99205
0.902983 0.46836 1
0 0.926513 0.0588846
0.0551919 0.867674 0.28925
0.402594 0.808835 0.519615
0.749996 0.749996 0.749996
1 0.691157 0.980377
0 1 0
0.249607 1 0.0471962
0.597009 1 0.277577
0.944411 0.972793 0.507942
1 0.913954 0.738323
0 0.344182 1
0 0.285344 1
0 0.226505 1
0 0.167666 1
0.222354 0.108827 1
0 0.566964 0.804654
0 0.508125 1
0 0.449287 1
0.0693523 0.390448 1
0.416754 0.331609 1
0 0.789761 0.562615
0 0.730922 0.792966
0 0.672084 1
0.263767 0.613245 1
0.61117 0.554406 1
0 1 0.320562
0 0.953719 0.550927
0.11078 0.894881 0.781292
0.458183 0.836042 1
0.805585 0.777203 1
0 1 0.0785077
0 1 0.308873
0.305196 1 0.539254
0.652598 1 0.769619
1 1 1
