public/LUTS/Color Shift/ColorShift_76.cube
TITLE "Generated by Resolve"
LUT_3D_SIZE 33
0 0 0
0.049897 0 0.00860609
0.0998245 0 0.0172274
0.149752 0 0.0258335
0.19968 0 0.0344549
0.249607 0 0.0430762
0.299535 0 0.0516823
0.349447 0 0.0603037
0.399374 0 0.0689097
0.449302 0 0.0775311
0.499229 0 0.0861524
0.549157 0 0.0947585
0.599084 0 0.10338
0.649012 0 0.111986
0.698924 0 0.120607
0.748852 0 0.129213
0.798779 0 0.137835
0.848707 0 0.146456
0.898634 0 0.155062
0.948562 0 0.163684
0.998489 0 0.17229
1 0 0.180911
1 0 0.189532
1 0 0.198138
1 0 0.20676
1 0 0.215366
1 0 0.223987
1 0 0.232593
1 0 0.241215
1 0 0.249836
1 0 0.258442
1 0 0.267063
1 0 0.275669
0 0.0349279 0
0.0482338 0.0282139 0
0.0981613 0.0215 0
0.148074 0.0148013 0.00105287
0.198001 0.00808728 0.00967422
0.247929 0.00137331 0.0182803
0.297856 0 0.0269017
0.347784 0 0.0355077
0.397711 0 0.0441291
0.447639 0 0.0527352
0.497551 0 0.0613565
0.547478 0 0.0699779
0.597406 0 0.078584
0.647334 0 0.0872053
0.697261 0 0.0958114
0.747189 0 0.104433
0.797116 0 0.113054
0.847028 0 0.12166
0.896956 0 0.130282
0.946883 0 0.138888
0.996811 0 0.147509
1 0 0.156115
1 0 0.164736
1 0 0.173358
1 0 0.181964
1 0 0.190585
1 0 0.199191
1 0 0.207813
1 0 0.216434
1 0 0.22504
1 0 0.233661
1 0 0.242267
1 0 0.250889
0 0.0698711 0
0.0465553 0.0631571 0
0.0964828 0.0564431 0
0.14641 0.0497444 0
0.196338 0.0430304 0
0.246265 0.0363165 0
0.296178 0.0296025 0.00209049
0.346105 0.0228885 0.0107118
0.396033 0.0161898 0.0193332
0.44596 0.00947585 0.0279393
0.495888 0.00276188 0.0365606
0.545815 0 0.0451667
0.595743 0 0.0537881
0.645655 0 0.0624094
0.695583 0 0.0710155
0.74551 0 0.0796368
0.795438 0 0.0882429
0.845365 0 0.0968643
0.895293 0 0.10547
0.94522 0 0.114092
0.995132 0 0.122713
1 0 0.131319
1 0 0.13994
1 0 0.148547
1 0 0.157168
1 0 0.165789
1 0 0.174395
1 0 0.183017
1 0 0.191623
1 0 0.200244
1 0 0.20885
1 0 0.217472
1 0 0.226093
0 0.104799 0
0.0448768 0.0981003 0
0.0948043 0.0913863 0
0.144732 0.0846723 0
0.194659 0.0779736 0
0.244587 0.0712596 0
0.294514 0.0645457 0
0.344442 0.0578317 0
0.394369 0.051133 0
0.444282 0.044419 0.00314336
0.494209 0.037705 0.0117494
0.544137 0.0309911 0.0203708
0.594064 0.0242924 0.0289921
0.643992 0.0175784 0.0375982
0.693919 0.0108644 0.0462196
0.743847 0.00415045 0.0548257
0.793759 0 0.063447
0.843687 0 0.0720684
0.893614 0 0.0806744
0.943542 0 0.0892958
0.993469 0 0.0979019
1 0 0.106523
1 0 0.115129
1 0 0.123751
1 0 0.132372
1 0 0.140978
1 0 0.149599
1 0 0.158206
1 0 0.166827
1 0 0.175448
1 0 0.184054
1 0 0.192676
1 0 0.201282
0 0.139742 0
0.0432136 0.133043 0
0.0931411 0.126329 0
0.143069 0.119615 0
0.192981 0.112902 0
0.242908 0.106203 0
0.292836 0.0994888 0
0.342763 0.0927749 0
0.392691 0.0860609 0
0.442618 0.0793622 0
0.492546 0.0726482 0
0.542458 0.0659342 0
0.592386 0.0592203 0.00418097
0.642313 0.0525216 0.0128023
0.692241 0.0458076 0.0214237
0.742168 0.0390936 0.0300298
0.792096 0.0323796 0.0386511
0.842023 0.0256809 0.0472572
0.891951 0.018967 0.0558785
0.941863 0.012253 0.0644846
0.991791 0.00553903 0.073106
1 0 0.0817273
1 0 0.0903334
1 0 0.0989548
1 0 0.107561
1 0 0.116182
1 0 0.124804
1 0 0.13341
1 0 0.142031
1 0 0.150637
1 0 0.159258
1 0 0.167865
1 0 0.176486
0 0.174685 0
0.0415351 0.167987 0
0.0914626 0.161273 0
0.14139 0.154559 0
0.191318 0.147845 0
0.241245 0.141146 0
0.291173 0.134432 0
0.341085 0.127718 0
0.391012 0.121004 0
0.44094 0.11429 0
0.490867 0.107591 0
0.540795 0.100877 0
0.590723 0.0941634 0
0.64065 0.0874495 0
0.690562 0.0807507 0
0.74049 0.0740368 0.00523384
0.790417 0.0673228 0.0138399
0.840345 0.0606088 0.0224613
0.890272 0.0539101 0.0310826
0.9402 0.0471962 0.0396887
0.990127 0.0404822 0.0483101
1 0.0337682 0.0569162
1 0.0270695 0.0655375
1 0.0203555 0.0741588
1 0.0136416 0.0827649
1 0.0069276 0.0913863
1 0.000228885 0.0999924
1 0 0.108614
1 0 0.11722
1 0 0.125841
1 0 0.134463
1 0 0.143069
1 0 0.15169
0 0.209628 0
0.0398718 0.202914 0
0.0897993 0.196216 0
0.139712 0.189502 0
0.189639 0.182788 0
0.239567 0.176074 0
0.289494 0.169375 0
0.339422 0.162661 0
0.389349 0.155947 0
0.439277 0.149233 0
0.489189 0.142535 0
0.539117 0.135821 0
0.589044 0.129107 0
0.638972 0.122393 0
0.688899 0.115694 0
0.738827 0.10898 0
0.788754 0.102266 0
0.838666 0.095552 0
0.888594 0.088838 0.00627146
0.938521 0.0821393 0.0148928
0.988449 0.0754253 0.0234989
1 0.0687114 0.0321202
1 0.0619974 0.0407416
1 0.0552987 0.0493477
1 0.0485847 0.057969
1 0.0418708 0.0665751
1 0.0351568 0.0751965
1 0.0284581 0.0838178
1 0.0217441 0.0924239
1 0.0150301 0.101045
1 0.00831617 0.109651
1 0.00161746 0.118273
1 0 0.126879
0 0.244572 0
0.0381933 0.237858 0
0.0881208 0.231144 0
0.138048 0.224445 0
0.187976 0.217731 0
0.237888 0.211017 0
0.287816 0.204303 0
0.337743 0.197604 0
0.387671 0.19089 0
0.437598 0.184176 0
0.487526 0.177462 0
0.537453 0.170764 0
0.587381 0.16405 0
0.637293 0.157336 0
0.687221 0.150622 0
0.737148 0.143923 0
0.787076 0.137209 0
0.837003 0.130495 0
0.886931 0.123781 0
0.936858 0.117082 0
0.98677 0.110369 0
1 0.103655 0.00732433
1 0.0969406 0.0159304
1 0.0902419 0.0245518
1 0.0835279 0.0331731
1 0.0768139 0.0417792
1 0.0700999 0.0504005
1 0.063386 0.0590066
1 0.0566873 0.067628
1 0.0499733 0.0762341
1 0.0432593 0.0848554
1 0.0365454 0.0934768
1 0.0298466 0.102083
0 0.279515 0
0.0365148 0.272801 0
0.0864424 0.266087 0
0.13637 0.259388 0
0.186297 0.252674 0
0.236225 0.24596 0
0.286152 0.239246 0
0.33608 0.232547 0
0.385992 0.225834 0
0.43592 0.21912 0
0.485847 0.212406 0
0.535775 0.205692 0
0.585702 0.198993 0
0.63563 0.192279 0
0.685557 0.185565 0
0.73547 0.178851 0
0.785397 0.172152 0
0.835325 0.165438 0
0.885252 0.158724 0
0.93518 0.15201 0
0.985107 0.145312 0
1 0.138598 0
1 0.131884 0
1 0.12517 0
1 0.118471 0.00836194
1 0.111757 0.0169833
1 0.105043 0.0255894
1 0.0983291 0.0342107
1 0.0916304 0.0428321
1 0.0849165 0.0514382
1 0.0782025 0.0600595
1 0.0714885 0.0686656
1 0.0647898 0.0772869
0 0.314443 0
0.0348516 0.307744 0
0.0847791 0.30103 0
0.134707 0.294316 0
0.184619 0.287617 0
0.234546 0.280903 0
0.284474 0.274189 0
0.334401 0.267475 0
0.384329 0.260777 0
0.434256 0.254063 0
0.484184 0.247349 0
0.534096 0.240635 0
0.584024 0.233936 0
0.633951 0.227222 0
0.683879 0.220508 0
0.733806 0.213794 0
0.783734 0.207095 0
0.833661 0.200381 0
0.883574 0.193668 0
0.933501 0.186954 0
0.983429 0.18024 0
1 0.173541 0
1 0.166827 0
1 0.160113 0
1 0.153399 0
1 0.1467 0
1 0.139986 0.000793469
1 0.133272 0.00941482
1 0.126558 0.0180209
1 0.11986 0.0266423
1 0.113146 0.0352483
1 0.106432 0.0438697
1 0.0997177 0.052491
0 0.349386 0
0.0331731 0.342687 0
0.0831006 0.335973 0
0.133028 0.329259 0
0.182956 0.322545 0
0.232883 0.315847 0
0.282811 0.309133 0
0.332723 0.302419 0
0.38265 0.295705 0
0.432578 0.289006 0
0.482506 0.282292 0
0.532433 0.275578 0
0.582361 0.268864 0
0.632288 0.262165 0
0.6822 0.255451 0
0.732128 0.248737 0
0.782055 0.242023 0
0.831983 0.235325 0
0.88191 0.228611 0
0.931838 0.221897 0
0.981765 0.215183 0
1 0.208484 0
1 0.20177 0
1 0.195056 0
1 0.188342 0
1 0.181643 0
1 0.174929 0
1 0.168215 0
1 0.161501 0
1 0.154803 0.00184634
1 0.148089 0.0104524
1 0.141375 0.0190738
1 0.134661 0.0276799
0 0.384329 0
0.0315099 0.37763 0
0.0814221 0.370916 0
0.13135 0.364202 0
0.181277 0.357488 0
0.231205 0.35079 0
0.281132 0.344076 0
0.33106 0.337362 0
0.380987 0.330648 0
0.4309 0.323949 0
0.480827 0.317235 0
0.530755 0.310521 0
0.580682 0.303807 0
0.63061 0.297093 0
0.680537 0.290394 0
0.730465 0.28368 0
0.780392 0.276967 0
0.830304 0.270253 0
0.880232 0.263554 0
0.930159 0.25684 0
0.980087 0.250126 0
1 0.243412 0
1 0.236713 0
1 0.229999 0
1 0.223285 0
1 0.216571 0
1 0.209873 0
1 0.203159 0
1 0.196445 0
1 0.189731 0
1 0.183032 0
1 0.176318 0
1 0.169604 0.00288396
0 0.419272 0
0.0298314 0.412558 0
0.0797589 0.405859 0
0.129686 0.399145 0
0.179614 0.392432 0
0.229526 0.385718 0
0.279454 0.379019 0
0.329381 0.372305 0
0.379309 0.365591 0
0.429236 0.358877 0
0.479164 0.352178 0
0.529091 0.345464 0
0.579004 0.33875 0
0.628931 0.332036 0
0.678859 0.325338 0
0.728786 0.318624 0
0.778714 0.31191 0
0.828641 0.305196 0
0.878569 0.298497 0
0.928481 0.291783 0
0.978408 0.285069 0
1 0.278355 0
1 0.271656 0
1 0.264942 0
1 0.258228 0
1 0.251514 0
1 0.2448 0
1 0.238102 0
1 0.231388 0
1 0.224674 0
1 0.21796 0
1 0.211261 0
1 0.204547 0
0 0.454215 0
0.0281529 0.447501 0
0.0780804 0.440803 0
0.128008 0.434089 0
0.177935 0.427375 0
0.227863 0.420661 0
0.27779 0.413947 0
0.327718 0.407248 0
0.37763 0.400534 0
0.427558 0.39382 0
0.477485 0.387106 0
0.527413 0.380407 0
0.57734 0.373693 0
0.627268 0.366979 0
0.677195 0.360265 0
0.727108 0.353567 0
0.777035 0.346853 0
0.826963 0.340139 0
0.87689 0.333425 0
0.926818 0.326726 0
0.976745 0.320012 0
1 0.313298 0
1 0.306584 0
1 0.299886 0
1 0.293172 0
1 0.286458 0
1 0.279744 0
1 0.273045 0
1 0.266331 0
1 0.259617 0
1 0.252903 0
1 0.246204 0
1 0.23949 0
0 0.489158 0
0.0264897 0.482444 0
0.0764172 0.475731 0
0.126345 0.469032 0
0.176257 0.462318 0
0.226184 0.455604 0
0.276112 0.44889 0
0.32604 0.442191 0
0.375967 0.435477 0
0.425895 0.428763 0
0.475822 0.422049 0
0.525734 0.415351 0
0.575662 0.408637 0
0.625589 0.401923 0
0.675517 0.395209 0
0.725444 0.38851 0
0.775372 0.381796 0
0.825299 0.375082 0
0.875212 0.368368 0
0.925139 0.361654 0
0.975067 0.354955 0
1 0.348241 0
1 0.341527 0
1 0.334813 0
1 0.328115 0
1 0.321401 0
1 0.314687 0
1 0.307973 0
1 0.301274 0
1 0.29456 0
1 0.287846 0
1 0.281132 0
1 0.274434 0
0 0.524102 0
0.0248112 0.517388 0
0.0747387 0.510674 0
0.124666 0.50396 0
0.174594 0.497261 0
0.224521 0.490547 0
0.274434 0.483833 0
0.324361 0.477119 0
0.374289 0.47042 0
0.424216 0.463706 0
0.474144 0.456992 0
0.524071 0.450278 0
0.573999 0.44358 0
0.623911 0.436866 0
0.673838 0.430152 0
0.723766 0.423438 0
0.773693 0.416739 0
0.823621 0.410025 0
0.873549 0.403311 0
0.923476 0.396597 0
0.973404 0.389899 0
1 0.383185 0
1 0.376471 0
1 0.369757 0
1 0.363058 0
1 0.356344 0
1 0.34963 0
1 0.342916 0
1 0.336202 0
1 0.329503 0
1 0.322789 0
1 0.316075 0
1 0.309361 0
0 0.55903 0
0.0231479 0.552331 0
0.0730602 0.545617 0
0.122988 0.538903 0
0.172915 0.532204 0
0.222843 0.52549 0
0.27277 0.518776 0
0.322698 0.512062 0
0.372625 0.505348 0
0.422538 0.49865 0
0.472465 0.491936 0
0.522393 0.485222 0
0.57232 0.478508 0
0.622248 0.471809 0
0.672175 0.465095 0
0.722103 0.458381 0
0.772015 0.451667 0
0.821942 0.444968 0
0.87187 0.438254 0
0.921798 0.43154 0
0.971725 0.424826 0
1 0.418128 0
1 0.411414 0
1 0.4047 0
1 0.397986 0
1 0.391287 0
1 0.384573 0
1 0.377859 0
1 0.371145 0
1 0.364446 0
1 0.357733 0
1 0.351019 0
1 0.344305 0
0 0.593973 0
0.0214694 0.587274 0
0.071397 0.58056 0
0.121324 0.573846 0
0.171252 0.567132 0
0.221164 0.560433 0
0.271092 0.553719 0
0.321019 0.547005 0
0.370947 0.540291 0
0.420874 0.533593 0
0.470802 0.526879 0
0.520729 0.520165 0
0.570642 0.513451 0
0.620569 0.506752 0
0.670497 0.500038 0
0.720424 0.493324 0
0.770352 0.48661 0
0.820279 0.479912 0
0.870207 0.473198 0
0.920119 0.466484 0
0.970047 0.45977 0
1 0.453056 0
1 0.446357 0
1 0.439643 0
1 0.432929 0
1 0.426215 0
1 0.419516 0
1 0.412802 0
1 0.406088 0
1 0.399374 0
1 0.392676 0
1 0.385962 0
1 0.379248 0
0 0.628916 0
0.019791 0.622217 0
0.0697185 0.615503 0
0.119646 0.608789 0
0.169574 0.602075 0
0.219501 0.595361 0
0.269429 0.588663 0
0.319356 0.581949 0
0.369268 0.575235 0
0.419196 0.568521 0
0.469123 0.561822 0
0.519051 0.555108 0
0.568978 0.548394 0
0.618906 0.54168 0
0.668833 0.534981 0
0.718746 0.528267 0
0.768673 0.521553 0
0.818601 0.514839 0
0.868528 0.508141 0
0.918456 0.501427 0
0.968383 0.494713 0
1 0.487999 0
1 0.4813 0
1 0.474586 0
1 0.467872 0
1 0.461158 0
1 0.454459 0
1 0.447745 0
1 0.441032 0
1 0.434318 0
1 0.427604 0
1 0.420905 0
1 0.414191 0
0 0.663859 0
0.0181277 0.657145 0
0.0680552 0.650446 0
0.117968 0.643732 0
0.167895 0.637018 0
0.217823 0.630304 0
0.26775 0.623606 0
0.317678 0.616892 0
0.367605 0.610178 0
0.417533 0.603464 0
0.467445 0.596765 0
0.517372 0.590051 0
0.5673 0.583337 0
0.617227 0.576623 0
0.667155 0.569909 0
0.717083 0.56321 0
0.76701 0.556497 0
0.816922 0.549783 0
0.86685 0.543069 0
0.916777 0.53637 0
0.966705 0.529656 0
1 0.522942 0
1 0.516228 0
1 0.509529 0
1 0.502815 0
1 0.496101 0
1 0.489387 0
1 0.482689 0
1 0.475975 0
1 0.469261 0
1 0.462547 0
1 0.455848 0
1 0.449134 0
0 0.698802 0
0.0164492 0.692088 0
0.0663767 0.685374 0
0.116304 0.678676 0
0.166232 0.671962 0
0.216159 0.665248 0
0.266072 0.658534 0
0.315999 0.651835 0
0.365927 0.645121 0
0.415854 0.638407 0
0.465782 0.631693 0
0.515709 0.624994 0
0.565637 0.61828 0
0.615549 0.611566 0
0.665476 0.604852 0
0.715404 0.598154 0
0.765332 0.59144 0
0.815259 0.584726 0
0.865187 0.578012 0
0.915114 0.571313 0
0.965026 0.564599 0
1 0.557885 0
1 0.551171 0
1 0.544457 0
1 0.537758 0
1 0.531044 0
1 0.52433 0
1 0.517617 0
1 0.510918 0
1 0.504204 0
1 0.49749 0
1 0.490776 0
1 0.484077 0
0 0.733745 0
0.014786 0.727031 0
0.0646983 0.720317 0
0.114626 0.713619 0
0.164553 0.706905 0
0.214481 0.700191 0
0.264408 0.693477 0
0.314336 0.686763 0
0.364263 0.680064 0
0.414176 0.67335 0
0.464103 0.666636 0
0.514031 0.659922 0
0.563958 0.653223 0
0.613886 0.64651 0
0.663813 0.639796 0
0.713741 0.633082 0
0.763653 0.626383 0
0.813581 0.619669 0
0.863508 0.612955 0
0.913436 0.606241 0
0.963363 0.599542 0
1 0.592828 0
1 0.586114 0
1 0.5794 0
1 0.572702 0
1 0.565988 0
1 0.559274 0
1 0.55256 0
1 0.545861 0
1 0.539147 0
1 0.532433 0
1 0.525719 0
1 0.519005 0
0 0.768673 0
0.0131075 0.761975 0
0.063035 0.755261 0
0.112963 0.748547 0
0.162875 0.741848 0
0.212802 0.735134 0
0.26273 0.72842 0
0.312657 0.721706 0
0.362585 0.715007 0
0.412512 0.708293 0
0.46244 0.701579 0
0.512367 0.694865 0
0.56228 0.688167 0
0.612207 0.681453 0
0.662135 0.674739 0
0.712062 0.668025 0
0.76199 0.661311 0
0.811917 0.654612 0
0.861845 0.647898 0
0.911757 0.641184 0
0.961685 0.63447 0
1 0.627771 0
1 0.621057 0
1 0.614343 0
1 0.60763 0
1 0.600931 0
1 0.594217 0
1 0.587503 0
1 0.580789 0
1 0.57409 0
1 0.567376 0
1 0.560662 0
1 0.553948 0
0 0.803616 0
0.011429 0.796918 0
0.0613565 0.790204 0
0.111284 0.78349 0
0.161212 0.776776 0
0.211139 0.770077 0
0.261067 0.763363 0
0.310979 0.756649 0
0.360906 0.749935 0
0.410834 0.743236 0
0.460761 0.736522 0
0.510689 0.729809 0
0.560616 0.723095 0
0.610544 0.716396 0
0.660456 0.709682 0
0.710384 0.702968 0
0.760311 0.696254 0
0.810239 0.689555 0
0.860166 0.682841 0
0.910094 0.676127 0
0.960021 0.669413 0
1 0.662715 0
1 0.656001 0
1 0.649287 0
1 0.642573 0
1 0.635859 0
1 0.62916 0
1 0.622446 0
1 0.615732 0
1 0.609018 0
1 0.602319 0
1 0.595605 0
1 0.588891 0
0 0.83856 0
0.00976577 0.831861 0
0.0596933 0.825147 0
0.109606 0.818433 0
0.159533 0.811719 0
0.209461 0.80502 0
0.259388 0.798306 0
0.309316 0.791592 0
0.359243 0.784878 0
0.409171 0.778164 0
0.459083 0.771466 0
0.50901 0.764752 0
0.558938 0.758038 0
0.608865 0.751324 0
0.658793 0.744625 0
0.708721 0.737911 0
0.758648 0.731197 0
0.80856 0.724483 0
0.858488 0.717784 0
0.908415 0.71107 0
0.958343 0.704356 0
1 0.697643 0
1 0.690944 0
1 0.68423 0
1 0.677516 0
1 0.670802 0
1 0.664103 0
1 0.657389 0
1 0.650675 0
1 0.643961 0
1 0.637263 0
1 0.630549 0
1 0.623835 0
0 0.873503 0
0.00808728 0.866789 0
0.0580148 0.86009 0
0.107942 0.853376 0
0.15787 0.846662 0
0.207797 0.839948 0
0.25771 0.833249 0
0.307637 0.826535 0
0.357565 0.819821 0
0.407492 0.813107 0
0.45742 0.806409 0
0.507347 0.799695 0
0.557275 0.792981 0
0.607187 0.786267 0
0.657115 0.779568 0
0.707042 0.772854 0
0.75697 0.76614 0
0.806897 0.759426 0
0.856825 0.752712 0
0.906752 0.746014 0
0.956664 0.7393 0
1 0.732586 0
1 0.725872 0
1 0.719173 0
1 0.712459 0
1 0.705745 0
1 0.699031 0
1 0.692332 0
1 0.685618 0
1 0.678904 0
1 0.67219 0
1 0.665492 0
1 0.658778 0
0 0.908446 0
0.00640879 0.901732 0
0.0563363 0.895018 0
0.106264 0.888319 0
0.156191 0.881605 0
0.206119 0.874891 0
0.256046 0.868177 0
0.305974 0.861479 0
0.355886 0.854765 0
0.405814 0.848051 0
0.455741 0.841337 0
0.505669 0.834638 0
0.555596 0.827924 0
0.605524 0.82121 0
0.655451 0.814496 0
0.705379 0.807797 0
0.755291 0.801083 0
0.805219 0.794369 0
0.855146 0.787655 0
0.905074 0.780957 0
0.955001 0.774243 0
1 0.767529 0
1 0.760815 0
1 0.754116 0
1 0.747402 0
1 0.740688 0
1 0.733974 0
1 0.727275 0
1 0.720562 0
1 0.713848 0
1 0.707134 0
1 0.70042 0
1 0.693721 0
0 0.943389 0
0.00474556 0.936675 0
0.0546731 0.929961 0
0.104601 0.923262 0
0.154513 0.916548 0
0.20444 0.909834 0
0.254368 0.90312 0
0.304295 0.896422 0
0.354223 0.889708 0
