public/LUTS/Color Shift/ColorShift_51.cube
TITLE "Generated by Resolve"
LUT_3D_SIZE 33
0 0 0
0 0.0198215 0.00450141
0 0.0396582 0.00901808
0 0.0594949 0.0135348
0 0.0793317 0.0180362
0 0.0991684 0.0225528
0 0.119005 0.0270542
0 0.138842 0.0315709
0 0.158679 0.0360723
0 0.178515 0.040589
0 0.198352 0.0451057
0 0.218173 0.0496071
0 0.23801 0.0541238
0 0.257847 0.0586252
0 0.277684 0.0631418
0 0.29752 0.0676585
0 0.317357 0.0721599
0 0.337194 0.0766766
0 0.357031 0.081178
0 0.376867 0.0856947
0 0.396704 0.0901961
0 0.416541 0.0947127
0 0.436377 0.0992294
0 0.456214 0.103731
0 0.476036 0.108248
0 0.495872 0.112749
0 0.515709 0.117266
0 0.535546 0.121767
0 0.555383 0.126284
0 0.575219 0.1308
0 0.595056 0.135302
0 0.614893 0.139818
0 0.63473 0.14432
0.0453956 0.00880446 0.068513
0.00862135 0.0286259 0.0730297
0 0.0484627 0.0775311
0 0.0682994 0.0820478
0 0.0881361 0.0865492
0 0.107973 0.0910658
0 0.12781 0.0955825
0 0.147646 0.100084
0 0.167483 0.104601
0 0.18732 0.109102
0 0.207156 0.113619
0 0.226993 0.11812
0 0.246815 0.122637
0 0.266651 0.127153
0 0.286488 0.131655
0 0.306325 0.136172
0 0.326162 0.140673
0 0.345998 0.14519
0 0.365835 0.149706
0 0.385672 0.154208
0 0.405509 0.158724
0 0.425345 0.163226
0 0.445182 0.167742
0 0.465019 0.172244
0 0.484855 0.176761
0 0.504677 0.181277
0 0.524514 0.185779
0 0.54435 0.190295
0 0.564187 0.194797
0 0.584024 0.199313
0 0.603861 0.203815
0 0.623697 0.208331
0 0.643534 0.212848
0.0908217 0.0176089 0.137072
0.0540475 0.0374456 0.141573
0.0172427 0.0572824 0.14609
0 0.0771191 0.150591
0 0.0969406 0.155108
0 0.116777 0.159625
0 0.136614 0.164126
0 0.156451 0.168643
0 0.176287 0.173144
0 0.196124 0.177661
0 0.215961 0.182162
0 0.235798 0.186679
0 0.255634 0.191196
0 0.275471 0.195697
0 0.295308 0.200214
0 0.315145 0.204715
0 0.334981 0.209232
0 0.354803 0.213733
0 0.37464 0.21825
0 0.394476 0.222766
0 0.414313 0.227268
0 0.43415 0.231785
0 0.453986 0.236286
0 0.473823 0.240803
0 0.49366 0.245304
0 0.513497 0.249821
0 0.533333 0.254337
0 0.55317 0.258839
0 0.573007 0.263355
0 0.592828 0.267857
0 0.612665 0.272374
0 0.632502 0.27689
0 0.652338 0.281392
0.136248 0.0264286 0.205615
0.0994583 0.0462501 0.210132
0.0626688 0.0660868 0.214633
0.025864 0.0859236 0.21915
0 0.10576 0.223651
0 0.125597 0.228168
0 0.145434 0.232685
0 0.16527 0.237186
0 0.185107 0.241703
0 0.204929 0.246204
0 0.224765 0.250721
0 0.244602 0.255222
0 0.264439 0.259739
0 0.284276 0.264256
0 0.304112 0.268757
0 0.323949 0.273274
0 0.343786 0.277775
0 0.363622 0.282292
0 0.383459 0.286809
0 0.403296 0.29131
0 0.423133 0.295827
0 0.442954 0.300328
0 0.462791 0.304845
0 0.482628 0.309346
0 0.502464 0.313863
0 0.522301 0.318379
0 0.542138 0.322881
0 0.561975 0.327398
0 0.581811 0.331899
0 0.601648 0.336416
0 0.621485 0.340917
0 0.641321 0.345434
0 0.661158 0.34995
0.181674 0.0352331 0.274174
0.144884 0.0550546 0.278676
0.108095 0.0748913 0.283192
0.0712902 0.094728 0.287694
0.0344854 0.114565 0.29221
0 0.134401 0.296712
0 0.154238 0.301228
0 0.174075 0.305745
0 0.193912 0.310246
0 0.213748 0.314763
0 0.233585 0.319265
0 0.253422 0.323781
0 0.273259 0.328298
0 0.29308 0.332799
0 0.312917 0.337316
0 0.332753 0.341817
0 0.35259 0.346334
0 0.372427 0.350835
0 0.392264 0.355352
0 0.4121 0.359869
0 0.431937 0.36437
0 0.451774 0.368887
0 0.471611 0.373388
0 0.491447 0.377905
0 0.511284 0.382406
0 0.531106 0.386923
0 0.550942 0.39144
0 0.570779 0.395941
0 0.590616 0.400458
0 0.610452 0.404959
0 0.630289 0.409476
0 0.650126 0.413977
0 0.669963 0.418494
0.2271 0.0440528 0.342718
0.190311 0.0638743 0.347234
0.153506 0.083711 0.351736
0.116716 0.103548 0.356252
0.0799115 0.123384 0.360754
0.0431067 0.143206 0.36527
0.00631724 0.163043 0.369787
0 0.182879 0.374289
0 0.202716 0.378805
0 0.222553 0.383307
0 0.24239 0.387823
0 0.262226 0.392325
0 0.282063 0.396841
0 0.3019 0.401358
0 0.321736 0.405859
0 0.341573 0.410376
0 0.36141 0.414878
0 0.381231 0.419394
0 0.401068 0.423896
0 0.420905 0.428412
0 0.440742 0.432929
0 0.460578 0.43743
0 0.480415 0.441947
0 0.500252 0.446448
0 0.520088 0.450965
0 0.539925 0.455482
0 0.559762 0.459983
0 0.579599 0.4645
0 0.599435 0.469001
0 0.619272 0.473518
0 0.639094 0.478019
0 0.65893 0.482536
0 0.678767 0.487053
0.272511 0.0528573 0.411276
0.235737 0.0726787 0.415778
0.198932 0.0925154 0.420294
0.162127 0.112352 0.424796
0.125338 0.132189 0.429313
0.0885328 0.152026 0.433814
0.0517281 0.171862 0.438331
0.0149386 0.191699 0.442847
0 0.211536 0.447349
0 0.231373 0.451865
0 0.251194 0.456367
0 0.271031 0.460883
0 0.290867 0.465385
0 0.310704 0.469902
0 0.330541 0.474418
0 0.350378 0.47892
0 0.370214 0.483436
0 0.390051 0.487938
0 0.409888 0.492454
0 0.429725 0.496971
0 0.449561 0.501472
0 0.469398 0.505989
0 0.489219 0.510491
0 0.509056 0.515007
0 0.528893 0.519509
0 0.54873 0.524025
0 0.568566 0.528542
0 0.588403 0.533043
0 0.60824 0.53756
0 0.628077 0.542062
0 0.647913 0.546578
0 0.66775 0.55108
0 0.687587 0.555596
0.317937 0.0616617 0.47982
0.281163 0.0814984 0.484337
0.244358 0.10132 0.488838
0.207553 0.121157 0.493355
0.170764 0.140993 0.497856
0.133959 0.16083 0.502373
0.0971542 0.180667 0.506889
0.0603494 0.200504 0.511391
0.0235599 0.22034 0.515908
0 0.240177 0.520409
0 0.260014 0.524926
0 0.27985 0.529427
0 0.299687 0.533944
0 0.319524 0.53846
0 0.339345 0.542962
0 0.359182 0.547478
0 0.379019 0.55198
0 0.398856 0.556497
0 0.418692 0.560998
0 0.438529 0.565515
0 0.458366 0.570031
0 0.478202 0.574533
0 0.498039 0.579049
0 0.517876 0.583551
0 0.537713 0.588067
0 0.557549 0.592569
0 0.577371 0.597086
0 0.597208 0.601602
0 0.617044 0.606104
0 0.636881 0.61062
0 0.656718 0.615122
0 0.676555 0.619638
0 0.696391 0.624155
0.363363 0.0704814 0.548379
0.326589 0.0903029 0.55288
0.289784 0.11014 0.557397
0.252979 0.129976 0.561898
0.216175 0.149813 0.566415
0.179385 0.16965 0.570916
0.14258 0.189471 0.575433
0.105776 0.209308 0.57995
0.068986 0.229145 0.584451
0.0321813 0.248981 0.588968
0 0.268818 0.593469
0 0.288655 0.597986
0 0.308492 0.602487
0 0.328328 0.607004
0 0.348165 0.611521
0 0.368002 0.616022
0 0.387839 0.620539
0 0.407675 0.62504
0 0.427497 0.629557
0 0.447333 0.634058
0 0.46717 0.638575
0 0.487007 0.643091
0 0.506844 0.647593
0 0.52668 0.65211
0 0.546517 0.656611
0 0.566354 0.661128
0 0.586191 0.665644
0 0.606027 0.670146
0 0.625864 0.674662
0 0.645701 0.679164
0 0.665537 0.68368
0 0.685359 0.688182
0 0.705196 0.692699
0.408789 0.0792859 0.616922
0.372 0.0991073 0.621439
0.33521 0.118944 0.62594
0.298405 0.138781 0.630457
0.261601 0.158618 0.634958
0.224811 0.178454 0.639475
0.188006 0.198291 0.643977
0.151202 0.218128 0.648493
0.114397 0.237964 0.65301
0.0776074 0.257801 0.657511
0.0408026 0.277623 0.662028
0.00399786 0.297459 0.666529
0 0.317296 0.671046
0 0.337133 0.675563
0 0.35697 0.680064
0 0.376806 0.684581
0 0.396643 0.689082
0 0.41648 0.693599
0 0.436316 0.6981
0 0.456153 0.702617
0 0.47599 0.707134
0 0.495827 0.711635
0 0.515663 0.716152
0 0.535485 0.720653
0 0.555322 0.72517
0 0.575158 0.729671
0 0.594995 0.734188
0 0.614832 0.738705
0 0.634668 0.743206
0 0.654505 0.747723
0 0.674342 0.752224
0 0.694179 0.756741
0 0.714015 0.761242
0.454215 0.0880903 0.685481
0.417426 0.107927 0.689982
0.380621 0.127749 0.694499
0.343832 0.147585 0.699001
0.307027 0.167422 0.703517
0.270222 0.187259 0.708019
0.233433 0.207095 0.712535
0.196628 0.226932 0.717052
0.159823 0.246769 0.721553
0.123033 0.266606 0.72607
0.0862287 0.286442 0.730571
0.049424 0.306279 0.735088
0.0126192 0.326116 0.73959
0 0.345953 0.744106
0 0.365789 0.748623
0 0.385611 0.753124
0 0.405447 0.757641
0 0.425284 0.762142
0 0.445121 0.766659
0 0.464958 0.77116
0 0.484794 0.775677
0 0.504631 0.780194
0 0.524468 0.784695
0 0.544305 0.789212
0 0.564141 0.793713
0 0.583978 0.79823
0 0.603815 0.802731
0 0.623636 0.807248
0 0.643473 0.811765
0 0.66331 0.816266
0 0.683146 0.820783
0 0.702983 0.825284
0 0.72282 0.829801
0.499626 0.09691 0.754025
0.462852 0.116732 0.758541
0.426047 0.136568 0.763043
0.389258 0.156405 0.767559
0.352453 0.176242 0.772061
0.315648 0.196078 0.776577
0.278843 0.215915 0.781079
0.242054 0.235737 0.785595
0.205249 0.255573 0.790112
0.168444 0.27541 0.794614
0.131655 0.295247 0.79913
0.0948501 0.315084 0.803632
0.0580453 0.33492 0.808148
0.0212558 0.354757 0.81265
0 0.374594 0.817166
0 0.39443 0.821683
0 0.414267 0.826185
0 0.434104 0.830701
0 0.453941 0.835203
0 0.473762 0.839719
0 0.493599 0.844236
0 0.513436 0.848737
0 0.533272 0.853254
0 0.553109 0.857755
0 0.572946 0.862272
0 0.592782 0.866773
0 0.612619 0.87129
0 0.632456 0.875807
0 0.652293 0.880308
0 0.672129 0.884825
0 0.691966 0.889326
0 0.711803 0.893843
0 0.731624 0.898344
0.545052 0.105715 0.822583
0.508278 0.125536 0.827085
0.471473 0.145373 0.831601
0.434669 0.165209 0.836103
0.397879 0.185046 0.84062
0.361074 0.204883 0.845121
0.324269 0.22472 0.849638
0.28748 0.244556 0.854139
0.250675 0.264393 0.858656
0.21387 0.28423 0.863172
0.177066 0.304067 0.867674
0.140276 0.323888 0.87219
0.103471 0.343725 0.876692
0.0666667 0.363561 0.881209
0.0298772 0.383398 0.885725
0 0.403235 0.890227
0 0.423072 0.894743
0 0.442908 0.899245
0 0.462745 0.903761
0 0.482582 0.908263
0 0.502419 0.912779
0 0.522255 0.917296
0 0.542092 0.921798
0 0.561929 0.926314
0 0.58175 0.930816
0 0.601587 0.935332
0 0.621424 0.939834
0 0.64126 0.94435
0 0.661097 0.948867
0 0.680934 0.953368
0 0.700771 0.957885
0 0.720607 0.962386
0 0.740444 0.966903
0.590478 0.114519 0.891127
0.553704 0.134356 0.895644
0.516899 0.154192 0.900145
0.480095 0.174014 0.904662
0.44329 0.193851 0.909163
0.4065 0.213687 0.91368
0.369696 0.233524 0.918181
0.332891 0.253361 0.922698
0.296101 0.273198 0.927214
0.259297 0.293034 0.931716
0.222492 0.312871 0.936233
0.185702 0.332708 0.940734
0.148898 0.352544 0.945251
0.112093 0.372381 0.949752
0.075288 0.392218 0.954269
0.0384985 0.412055 0.958785
0.00169375 0.431876 0.963287
0 0.451713 0.967803
0 0.47155 0.972305
0 0.491386 0.976822
0 0.511223 0.981323
0 0.53106 0.98584
0 0.550896 0.990356
0 0.570733 0.994858
0 0.59057 0.999374
0 0.610407 1
0 0.630243 1
0 0.65008 1
0 0.669902 1
0 0.689738 1
0 0.709575 1
0 0.729412 1
0 0.749249 1
0.635904 0.123339 0.959686
0.599115 0.14316 0.964187
0.562325 0.162997 0.968704
0.525521 0.182834 0.973205
0.488716 0.20267 0.977722
0.451926 0.222507 0.982223
0.415122 0.242344 0.98674
0.378317 0.262181 0.991241
0.341512 0.282002 0.995758
0.304723 0.301839 1
0.267918 0.321675 1
0.231113 0.341512 1
0.194324 0.361349 1
0.157519 0.381186 1
0.120714 0.401022 1
0.0839246 0.420859 1
0.0471199 0.440696 1
0.0103151 0.460533 1
0 0.480369 1
0 0.500206 1
0 0.520027 1
0 0.539864 1
0 0.559701 1
0 0.579538 1
0 0.599374 1
0 0.619211 1
0 0.639048 1
0 0.658885 1
0 0.678721 1
0 0.698558 1
0 0.718395 1
0 0.738231 1
0 0.758068 1
0.681331 0.132143 1
0.644541 0.151965 1
0.607736 0.171801 1
0.570947 0.191638 1
0.534142 0.211475 1
0.497337 0.231312 1
0.460548 0.251148 1
0.423743 0.270985 1
0.386938 0.290822 1
0.350149 0.310658 1
0.313344 0.330495 1
0.276539 0.350332 1
0.239734 0.370153 1
0.202945 0.38999 1
0.16614 0.409827 1
0.129335 0.429664 1
0.092546 0.4495 1
0.0557412 0.469337 1
0.0189364 0.489174 1
0 0.50901 1
0 0.528847 1
0 0.548684 1
0 0.568521 1
0 0.588357 1
0 0.608194 1
0 0.628016 1
0 0.647852 1
0 0.667689 1
0 0.687526 1
0 0.707362 1
0 0.727199 1
0 0.747036 1
0 0.766873 1
0.726757 0.140948 1
0.689967 0.160784 1
0.653162 0.180621 1
0.616373 0.200458 1
0.579568 0.220279 1
0.542763 0.240116 1
0.505959 0.259953 1
0.469169 0.279789 1
0.432364 0.299626 1
0.39556 0.319463 1
0.35877 0.3393 1
0.321965 0.359136 1
0.285161 0.378973 1
0.248371 0.39881 1
0.211566 0.418647 1
0.174762 0.438483 1
0.137957 0.45832 1
0.101167 0.478141 1
0.0643626 0.497978 1
0.0275578 0.517815 1
0 0.537652 1
0 0.557488 1
0 0.577325 1
0 0.597162 1
0 0.616999 1
0 0.636835 1
0 0.656672 1
0 0.676509 1
0 0.696345 1
0 0.716167 1
0 0.736004 1
0 0.75584 1
0 0.775677 1
0.772168 0.149767 1
0.735393 0.169589 1
0.698589 0.189425 1
0.661784 0.209262 1
0.624994 0.229099 1
0.58819 0.248936 1
0.551385 0.268772 1
0.514595 0.288609 1
0.477791 0.308446 1
0.440986 0.328267 1
0.404181 0.348104 1
0.367391 0.367941 1
0.330587 0.387778 1
0.293782 0.407614 1
0.256992 0.427451 1
0.220188 0.447288 1
0.183383 0.467124 1
0.146593 0.486961 1
0.109789 0.506798 1
0.0729839 0.526635 1
0.0361791 0.546471 1
0 0.566293 1
0 0.58613 1
0 0.605966 1
0 0.625803 1
0 0.64564 1
0 0.665476 1
0 0.685313 1
0 0.70515 1
0 0.724987 1
0 0.744823 1
0 0.76466 1
0 0.784497 1
0.817594 0.158572 1
0.780819 0.178393 1
0.744015 0.19823 1
0.70721 0.218067 1
0.670405 0.237903 1
0.633616 0.25774 1
0.596811 0.277577 1
0.560006 0.297414 1
0.523217 0.31725 1
0.486412 0.337087 1
0.449607 0.356924 1
0.412818 0.376761 1
0.376013 0.396597 1
0.339208 0.416419 1
0.302403 0.436255 1
0.265614 0.456092 1
0.228809 0.475929 1
0.192004 0.495766 1
0.155215 0.515602 1
0.11841 0.535439 1
0.0816052 0.555276 1
0.0448157 0.575113 1
0.00801099 0.594949 1
0 0.614786 1
0 0.634623 1
0 0.654444 1
0 0.674281 1
0 0.694118 1
0 0.713954 1
0 0.733791 1
0 0.753628 1
0 0.773465 1
0 0.793301 1
0.86302 0.167391 1
0.82623 0.187213 1
0.789441 0.20705 1
0.752636 0.226886 1
0.715831 0.246723 1
0.679042 0.266545 1
0.642237 0.286381 1
0.605432 0.306218 1
0.568643 0.326055 1
0.531838 0.345892 1
0.495033 0.365728 1
0.458228 0.385565 1
0.421439 0.405402 1
0.384634 0.425238 1
0.347829 0.445075 1
0.31104 0.464912 1
0.274235 0.484749 1
0.23743 0.504585 1
0.200641 0.524407 1
0.163836 0.544244 1
0.127031 0.56408 1
0.0902266 0.583917 1
0.0534371 0.603754 1
0.0166323 0.62359 1
0 0.643427 1
0 0.663264 1
0 0.683101 1
0 0.702937 1
0 0.722774 1
0 0.742611 1
0 0.762432 1
0 0.782269 1
0 0.802106 1
0.908446 0.176196 1
0.871656 0.196017 1
0.834867 0.215854 1
0.798062 0.235691 1
0.761257 0.255528 1
0.724453 0.275364 1
0.687663 0.295201 1
0.650858 0.315038 1
0.614054 0.334874 1
0.577264 0.354711 1
0.540459 0.374533 1
0.503655 0.394369 1
0.466865 0.414206 1
0.43006 0.434043 1
0.393256 0.45388 1
0.356451 0.473716 1
0.319661 0.493553 1
0.282856 0.51339 1
0.246052 0.533227 1
0.209262 0.553063 1
0.172457 0.5729 1
0.135653 0.592737 1
0.0988632 0.612558 1
0.0620584 0.632395 1
0.0252537 0.652232 1
0 0.672068 1
0 0.691905 1
0 0.711742 1
0 0.731579 1
0 0.751415 1
0 0.771252 1
0 0.791089 1
0 0.810925 1
0.953872 0.185 1
0.917082 0.204837 1
0.880278 0.224659 1
0.843488 0.244495 1
0.806683 0.264332 1
0.769879 0.284169 1
0.733089 0.304006 1
0.696284 0.323842 1
0.65948 0.343679 1
0.622675 0.363516 1
0.585885 0.383352 1
0.549081 0.403189 1
0.512276 0.423026 1
0.475486 0.442863 1
0.438682 0.462684 1
0.401877 0.482521 1
0.365087 0.502358 1
0.328283 0.522194 1
0.291478 0.542031 1
0.254673 0.561868 1
0.217884 0.581704 1
0.181079 0.601541 1
0.144274 0.621378 1
0.107485 0.641215 1
0.0706798 0.661051 1
0.033875 0.680888 1
0 0.70071 1
0 0.720546 1
0 0.740383 1
0 0.76022 1
0 0.780056 1
0 0.799893 1
0 0.81973 1
0.999283 0.19382 1
0.962509 0.213642 1
0.925704 0.233478 1
0.888899 0.253315 1
0.85211 0.273152 1
0.815305 0.292988 1
0.7785 0.31281 1
0.741711 0.332647 1
0.704906 0.352483 1
0.668101 0.37232 1
0.631312 0.392157 1
0.594507 0.411994 1
0.557702 0.43183 1
0.520897 0.451667 1
0.484108 0.471504 1
0.447303 0.491341 1
0.410498 0.511177 1
0.373709 0.531014 1
0.336904 0.550835 1
0.300099 0.570672 1
0.26331 0.590509 1
0.226505 0.610346 1
0.1897 0.630182 1
0.152895 0.650019 1
0.116106 0.669856 1
0.0793011 0.689693 1
0.0424964 0.709529 1
0.00570687 0.729366 1
0 0.749203 1
0 0.769039 1
0 0.788876 1
0 0.808698 1
0 0.828534 1
1 0.202625 1
1 0.222446 1
0.97113 0.242283 1
0.934325 0.262119 1
0.897536 0.281956 1
0.860731 0.301793 1
0.823926 0.32163 1
0.787121 0.341466 1
0.750332 0.361303 1
0.713527 0.38114 1
0.676722 0.400961 1
0.639933 0.420798 1
0.603128 0.440635 1
0.566323 0.460472 1
0.529534 0.480308 1
0.492729 0.500145 1
0.455924 0.519982 1
0.41912 0.539818 1
0.38233 0.559655 1
0.345525 0.579492 1
0.308721 0.599329 1
0.271931 0.619165 1
0.235126 0.639002 1
0.198322 0.658824 1
0.161532 0.67866 1
0.124727 0.698497 1
0.0879225 0.718334 1
0.0511177 0.73817 1
0.0143282 0.758007 1
0 0.777844 1
0 0.797681 1
0 0.817517 1
0 0.837354 1
1 0.211429 1
1 0.231266 1
1 0.251102 1
0.979751 0.270924 1
0.942946 0.290761 1
0.906157 0.310597 1
0.869352 0.330434 1
0.832547 0.350271 1
0.795758 0.370108 1
0.758953 0.389944 1
0.722148 0.409781 1
0.685344 0.429618 1
0.648554 0.449454 1
0.611749 0.469291 1
0.574945 0.489128 1
0.538155 0.508949 1
0.50135 0.528786 1
0.464546 0.548623 1
0.427756 0.56846 1
0.390951 0.588296 1
0.354147 0.608133 1
0.317342 0.62797 1
0.280552 0.647807 1
0.243748 0.667643 1
0.206943 0.68748 1
0.170153 0.707317 1
0.133349 0.727153 1
0.0965438 0.746975 1
0.0597543 0.766812 1
0.0229496 0.786648 1
0 0.806485 1
0 0.826322 1
0 0.846159 1
1 0.220249 1
1 0.24007 1
1 0.259907 1
1 0.279744 1
0.988373 0.29958 1
0.951568 0.319417 1
0.914778 0.339254 1
0.877974 0.359075 1
0.841169 0.378912 1
0.804379 0.398749 1
0.767575 0.418585 1
0.73077 0.438422 1
0.69398 0.458259 1
0.657176 0.478096 1
0.620371 0.497932 1
0.583566 0.517769 1
0.546777 0.537606 1
0.509972 0.557443 1
0.473167 0.577279 1
0.436377 0.597101 1
0.399573 0.616938 1
0.362768 0.636774 1
0.325978 0.656611 1
0.289174 0.676448 1
0.252369 0.696284 1
0.215564 0.716121 1
0.178775 0.735958 1
0.14197 0.755795 1
0.105165 0.775631 1
0.0683757 0.795468 1
0.0315709 0.815305 1
0 0.835142 1
0 0.854963 1
1 0.229053 1
1 0.248875 1
1 0.268711 1
1 0.288548 1
1 0.308385 1
0.996994 0.328222 1
0.960204 0.348058 1
0.9234 0.367895 1
0.886595 0.387732 1
0.84979 0.407568 1
0.813001 0.427405 1
0.776196 0.447227 1
0.739391 0.467063 1
0.702602 0.4869 1
0.665797 0.506737 1
0.628992 0.526574 1
0.592203 0.54641 1
0.555398 0.566247 1
0.518593 0.586084 1
0.481788 0.60592 1
0.444999 0.625757 1
0.408194 0.645594 1
0.371389 0.665431 1
0.3346 0.685267 1
0.297795 0.705089 1
0.26099 0.724926 1
0.224201 0.744762 1
0.187396 0.764599 1
0.150591 0.784436 1
0.113787 0.804273 1
0.076997 0.824109 1
0.0401923 0.843946 1
0.0033875 0.863783 1
1 0.237858 1
1 0.257694 1
1 0.277531 1
1 0.297353 1
1 0.317189 1
1 0.337026 1
1 0.356863 1
0.968826 0.376699 1
0.932021 0.396536 1
