public/LUTS/Color Shift/ColorShift_25.cube
TITLE "Generated by Resolve"
LUT_3D_SIZE 33
0 0 0
0.0320287 0 0.00462348
0.0640726 0 0.00926223
0.0961166 0 0.013901
0.128161 0 0.0185245
0.160204 0 0.0231632
0.192248 0 0.0278019
0.224277 0 0.0324254
0.256321 0 0.0370642
0.288365 0 0.0416876
0.320409 0 0.0463264
0.352453 0 0.0509651
0.384497 0 0.0555886
0.416541 0 0.0602274
0.448585 0 0.0648661
0.480629 0 0.0694896
0.512673 0 0.0741283
0.544717 0 0.0787518
0.576761 0 0.0833906
0.608804 0 0.0880293
0.640848 0 0.0926528
0.672892 0 0.0972915
0.704921 0 0.10193
0.736965 0 0.106554
0.769009 0 0.111192
0.801053 0 0.115816
0.833097 0 0.120455
0.865141 0 0.125093
0.897185 0 0.129717
0.929229 0 0.134356
0.961273 0 0.138979
0.993317 0 0.143618
1 0 0.148257
0.00460822 0.0303197 0
0.0366217 0.0294957 0.000991836
0.0686656 0.0286564 0.00561532
0.10071 0.0278172 0.0102541
0.132753 0.0269932 0.0148928
0.164797 0.026154 0.0195163
0.196841 0.02533 0.024155
0.228885 0.0244907 0.0287785
0.260929 0.0236515 0.0334173
0.292973 0.0228275 0.038056
0.325017 0.0219883 0.0426795
0.357061 0.021149 0.0473182
0.389105 0.020325 0.0519417
0.421149 0.0194858 0.0565805
0.453193 0.0186618 0.0612192
0.485222 0.0178225 0.0658427
0.517266 0.0169833 0.0704814
0.54931 0.0161593 0.0751202
0.581353 0.0153201 0.0797436
0.613397 0.0144808 0.0843824
0.645441 0.0136568 0.0890059
0.677485 0.0128176 0.0936446
0.709529 0.0119936 0.0982834
0.741573 0.0111543 0.102907
0.773617 0.0103151 0.107546
0.805661 0.00949111 0.112184
0.837705 0.00865187 0.116808
0.869749 0.00781262 0.121447
0.901793 0.00698863 0.12607
0.933837 0.00614939 0.130709
0.965866 0.0053254 0.135348
0.997909 0.00448615 0.139971
1 0.00364691 0.14461
0.00920119 0.0606546 0
0.0412299 0.0598306 0
0.0732738 0.0589914 0.00196841
0.105318 0.0581674 0.00660716
0.137362 0.0573281 0.0112459
0.169406 0.0564889 0.0158694
0.20145 0.0556649 0.0205081
0.233494 0.0548257 0.0251316
0.265538 0.0539864 0.0297704
0.297581 0.0531624 0.0344091
0.329625 0.0523232 0.0390326
0.361654 0.0514992 0.0436713
0.393698 0.05066 0.0483101
0.425742 0.0498207 0.0529335
0.457786 0.0489967 0.0575723
0.48983 0.0481575 0.0621958
0.521874 0.0473182 0.0668345
0.553918 0.0464942 0.0714733
0.585962 0.045655 0.0760967
0.618006 0.044831 0.0807355
0.65005 0.0439918 0.0853742
0.682094 0.0431525 0.0899977
0.714137 0.0423285 0.0946365
0.746181 0.0414893 0.0992599
0.778225 0.04065 0.103899
0.810269 0.039826 0.108537
0.842298 0.0389868 0.113161
0.874342 0.0381628 0.1178
0.906386 0.0373236 0.122423
0.93843 0.0364843 0.127062
0.970474 0.0356603 0.131701
1 0.0348211 0.136324
1 0.0339971 0.140963
0.0138094 0.0910048 0
0.0458381 0.0901656 0
0.0778821 0.0893263 0
0.109926 0.0885023 0.00296025
0.14197 0.0876631 0.00759899
0.174014 0.0868391 0.0122225
0.206058 0.0859998 0.0168612
0.238087 0.0851606 0.0215
0.27013 0.0843366 0.0261234
0.302174 0.0834974 0.0307622
0.334218 0.0826581 0.0353857
0.366262 0.0818341 0.0400244
0.398306 0.0809949 0.0446632
0.43035 0.0801709 0.0492866
0.462394 0.0793317 0.0539254
0.494438 0.0784924 0.0585489
0.526482 0.0776684 0.0631876
0.558526 0.0768292 0.0678264
0.59057 0.0759899 0.0724498
0.622614 0.0751659 0.0770886
0.654658 0.0743267 0.0817273
0.686687 0.0735027 0.0863508
0.71873 0.0726635 0.0909895
0.750774 0.0718242 0.095613
0.782818 0.0710002 0.100252
0.814862 0.070161 0.104891
0.846906 0.0693217 0.109514
0.87895 0.0684977 0.114153
0.910994 0.0676585 0.118791
0.943038 0.0668345 0.123415
0.975082 0.0659953 0.128054
1 0.065156 0.132677
1 0.064332 0.137316
0.0184176 0.12134 0
0.0504463 0.1205 0
0.082475 0.119677 0
0.114519 0.118837 0
0.146563 0.117998 0.00395209
0.178607 0.117174 0.00857557
0.210651 0.116335 0.0132143
0.242695 0.115511 0.0178531
0.274739 0.114672 0.0224765
0.306783 0.113832 0.0271153
0.338827 0.113008 0.0317388
0.370871 0.112169 0.0363775
0.402914 0.11133 0.0410163
0.434958 0.110506 0.0456397
0.467002 0.109667 0.0502785
0.499046 0.108843 0.0549172
0.53109 0.108003 0.0595407
0.563119 0.107164 0.0641794
0.595163 0.10634 0.0688029
0.627207 0.105501 0.0734417
0.659251 0.104662 0.0780804
0.691295 0.103838 0.0827039
0.723339 0.102998 0.0873426
0.755383 0.102174 0.0919814
0.787427 0.101335 0.0966049
0.819471 0.100496 0.101244
0.851514 0.0996719 0.105867
0.883558 0.0988327 0.110506
0.915602 0.0979934 0.115145
0.947646 0.0971695 0.119768
0.97969 0.0963302 0.124407
1 0.0955062 0.12903
1 0.094667 0.133669
0.0230106 0.151675 0
0.0550393 0.150835 0
0.0870832 0.150011 0
0.119127 0.149172 0
0.151171 0.148348 0.00030518
0.183215 0.147509 0.00492866
0.215259 0.14667 0.00956741
0.247303 0.145846 0.0142061
0.279347 0.145006 0.0188296
0.311391 0.144167 0.0234684
0.343435 0.143343 0.0281071
0.375479 0.142504 0.0327306
0.407507 0.14168 0.0373693
0.439551 0.140841 0.0419928
0.471595 0.140002 0.0466316
0.503639 0.139178 0.0512703
0.535683 0.138338 0.0558938
0.567727 0.137499 0.0605325
0.599771 0.136675 0.065156
0.631815 0.135836 0.0697948
0.663859 0.135012 0.0744335
0.695903 0.134173 0.079057
0.727947 0.133333 0.0836957
0.759991 0.132509 0.0883345
0.792035 0.13167 0.092958
0.824079 0.130831 0.0975967
0.856123 0.130007 0.10222
0.888151 0.129168 0.106859
0.920195 0.128344 0.111498
0.952239 0.127504 0.116121
0.984283 0.126665 0.12076
1 0.125841 0.125399
1 0.125002 0.130022
0.0276188 0.18201 0
0.0596475 0.181186 0
0.0916915 0.180346 0
0.123735 0.179507 0
0.155779 0.178683 0
0.187823 0.177844 0.00128176
0.219867 0.17702 0.0059205
0.251911 0.176181 0.0105592
0.28394 0.175341 0.0151827
0.315984 0.174517 0.0198215
0.348028 0.173678 0.0244602
0.380072 0.172839 0.0290837
0.412116 0.172015 0.0337224
0.44416 0.171176 0.0383459
0.476204 0.170352 0.0429847
0.508247 0.169512 0.0476234
0.540291 0.168673 0.0522469
0.572335 0.167849 0.0568856
0.604379 0.16701 0.0615244
0.636423 0.166171 0.0661479
0.668467 0.165347 0.0707866
0.700511 0.164508 0.0754101
0.73254 0.163684 0.0800488
0.764584 0.162844 0.0846876
0.796628 0.162005 0.0893111
0.828672 0.161181 0.0939498
0.860716 0.160342 0.0985885
0.89276 0.159503 0.103212
0.924804 0.158679 0.107851
0.956847 0.157839 0.112474
0.988891 0.157015 0.117113
1 0.156176 0.121752
1 0.155337 0.126375
0.0322271 0.212345 0
0.0642557 0.211521 0
0.0962997 0.210681 0
0.128344 0.209857 0
0.160372 0.209018 0
0.192416 0.208179 0
0.22446 0.207355 0.00227359
0.256504 0.206516 0.00691234
0.288548 0.205692 0.0115358
0.320592 0.204852 0.0161746
0.352636 0.204013 0.0208133
0.38468 0.203189 0.0254368
0.416724 0.20235 0.0300755
0.448768 0.201511 0.034699
0.480812 0.200687 0.0393378
0.512856 0.199847 0.0439765
0.5449 0.199023 0.0486
0.576944 0.198184 0.0532387
0.608972 0.197345 0.0578775
0.641016 0.196521 0.062501
0.67306 0.195682 0.0671397
0.705104 0.194842 0.0717632
0.737148 0.194018 0.0764019
0.769192 0.193179 0.0810407
0.801236 0.192355 0.0856641
0.83328 0.191516 0.0903029
0.865324 0.190677 0.0949416
0.897368 0.189853 0.0995651
0.929412 0.189014 0.104204
0.961456 0.188174 0.108827
0.9935 0.18735 0.113466
1 0.186511 0.118105
1 0.185687 0.122728
0.03682 0.242695 0
0.0688487 0.241856 0
0.100893 0.241016 0
0.132937 0.240192 0
0.164981 0.239353 0
0.197024 0.238529 0
0.229068 0.23769 0
0.261112 0.236851 0.00326543
0.293156 0.236027 0.00788891
0.3252 0.235187 0.0125277
0.357244 0.234348 0.0171664
0.389288 0.233524 0.0217899
0.421332 0.232685 0.0264286
0.453376 0.231861 0.0310674
0.485405 0.231022 0.0356909
0.517449 0.230182 0.0403296
0.549493 0.229358 0.0449531
0.581537 0.228519 0.0495918
0.613581 0.22768 0.0542306
0.645624 0.226856 0.058854
0.677668 0.226017 0.0634928
0.709712 0.225193 0.0681315
0.741756 0.224353 0.072755
0.7738 0.223514 0.0773938
0.805844 0.22269 0.0820172
0.837888 0.221851 0.086656
0.869932 0.221027 0.0912947
0.901976 0.220188 0.0959182
0.934005 0.219348 0.100557
0.966049 0.218524 0.10518
0.998093 0.217685 0.109819
1 0.216846 0.114458
1 0.216022 0.119081
0.0414282 0.27303 0
0.0734569 0.27219 0
0.105501 0.271366 0
0.137545 0.270527 0
0.169589 0.269688 0
0.201633 0.268864 0
0.233677 0.268025 0
0.265721 0.267201 0
0.297765 0.266361 0.00425727
0.329793 0.265522 0.00888075
0.361837 0.264698 0.0135195
0.393881 0.263859 0.018143
0.425925 0.26302 0.0227817
0.457969 0.262196 0.0274205
0.490013 0.261357 0.0320439
0.522057 0.260533 0.0366827
0.554101 0.259693 0.0413062
0.586145 0.258854 0.0459449
0.618189 0.25803 0.0505837
0.650233 0.257191 0.0552071
0.682277 0.256352 0.0598459
0.714321 0.255528 0.0644846
0.746365 0.254688 0.0691081
0.778408 0.253864 0.0737469
0.810437 0.253025 0.0783703
0.842481 0.252186 0.0830091
0.874525 0.251362 0.0876478
0.906569 0.250523 0.0922713
0.938613 0.249683 0.09691
0.970657 0.248859 0.101549
1 0.24802 0.106172
1 0.247196 0.110811
1 0.246357 0.115434
0.0460365 0.303365 0
0.0780652 0.302541 0
0.110109 0.301701 0
0.142153 0.300862 0
0.174197 0.300038 0
0.206226 0.299199 0
0.23827 0.29836 0
0.270314 0.297536 0
0.302358 0.296696 0.000610361
0.334401 0.295872 0.00523384
0.366445 0.295033 0.00987259
0.398489 0.294194 0.0144961
0.430533 0.29337 0.0191348
0.462577 0.292531 0.0237736
0.494621 0.291691 0.028397
0.526665 0.290867 0.0330358
0.558709 0.290028 0.0376745
0.590753 0.289204 0.042298
0.622797 0.288365 0.0469368
0.654841 0.287526 0.0515602
0.68687 0.286702 0.056199
0.718914 0.285863 0.0608377
0.750957 0.285023 0.0654612
0.783001 0.284199 0.0700999
0.815045 0.28336 0.0747387
0.847089 0.282536 0.0793622
0.879133 0.281697 0.0840009
0.911177 0.280858 0.0886244
0.943221 0.280034 0.0932631
0.975265 0.279194 0.0979019
1 0.278355 0.102525
1 0.277531 0.107164
1 0.276692 0.111788
0.0506447 0.3337 0
0.0826581 0.332876 0
0.114702 0.332036 0
0.146746 0.331197 0
0.17879 0.330373 0
0.210834 0.329534 0
0.242878 0.32871 0
0.274922 0.327871 0
0.306966 0.327031 0
0.33901 0.326207 0.00158694
0.371054 0.325368 0.00622568
0.403098 0.324529 0.0108644
0.435142 0.323705 0.0154879
0.467185 0.322866 0.0201267
0.499229 0.322042 0.0247501
0.531258 0.321202 0.0293889
0.563302 0.320363 0.0340276
0.595346 0.319539 0.0386511
0.62739 0.3187 0.0432898
0.659434 0.317861 0.0479133
0.691478 0.317037 0.0525521
0.723522 0.316197 0.0571908
0.755566 0.315373 0.0618143
0.78761 0.314534 0.066453
0.819654 0.313695 0.0710918
0.851698 0.312871 0.0757153
0.883741 0.312032 0.080354
0.915785 0.311208 0.0849775
0.947829 0.310369 0.0896162
0.979873 0.309529 0.094255
1 0.308705 0.0988785
1 0.307866 0.103517
1 0.307027 0.108156
0.0552377 0.36405 0
0.0872663 0.36321 0
0.11931 0.362371 0
0.151354 0.361547 0
0.183398 0.360708 0
0.215442 0.359869 0
0.247486 0.359045 0
0.27953 0.358206 0
0.311574 0.357382 0
0.343618 0.356542 0
0.375662 0.355703 0.00257877
0.407691 0.354879 0.00721752
0.439734 0.35404 0.011841
0.471778 0.353201 0.0164797
0.503822 0.352377 0.0211032
0.535866 0.351537 0.025742
0.56791 0.350713 0.0303807
0.599954 0.349874 0.0350042
0.631998 0.349035 0.0396429
0.664042 0.348211 0.0442817
0.696086 0.347372 0.0489052
0.72813 0.346532 0.0535439
0.760174 0.345708 0.0581674
0.792218 0.344869 0.0628061
0.824262 0.344045 0.0674449
0.856291 0.343206 0.0720684
0.888334 0.342367 0.0767071
0.920378 0.341543 0.0813458
0.952422 0.340703 0.0859693
0.984466 0.339864 0.0906081
1 0.33904 0.0952316
1 0.338201 0.0998703
1 0.337377 0.104509
0.0598459 0.394385 0
0.0918746 0.393545 0
0.123919 0.392721 0
0.155962 0.391882 0
0.188006 0.391043 0
0.22005 0.390219 0
0.252079 0.38938 0
0.284123 0.38854 0
0.316167 0.387717 0
0.348211 0.386877 0
0.380255 0.386053 0
0.412299 0.385214 0.00357061
0.444343 0.384375 0.00819409
0.476387 0.383551 0.0128328
0.508431 0.382712 0.0174716
0.540475 0.381872 0.0220951
0.572519 0.381048 0.0267338
0.604562 0.380209 0.0313573
0.636606 0.379385 0.035996
0.66865 0.378546 0.0406348
0.700694 0.377707 0.0452583
0.732723 0.376883 0.049897
0.764767 0.376043 0.0545205
0.796811 0.375204 0.0591592
0.828855 0.37438 0.063798
0.860899 0.373541 0.0684215
0.892943 0.372717 0.0730602
0.924987 0.371878 0.0776989
0.957031 0.371038 0.0823224
0.989075 0.370214 0.0869612
1 0.369375 0.0915847
1 0.368536 0.0962234
1 0.367712 0.100862
0.0644541 0.42472 0
0.0964828 0.42388 0
0.128511 0.423056 0
0.160555 0.422217 0
0.192599 0.421378 0
0.224643 0.420554 0
0.256687 0.419715 0
0.288731 0.418891 0
0.320775 0.418051 0
0.352819 0.417212 0
0.384863 0.416388 0
0.416907 0.415549 0
0.448951 0.41471 0.00454719
0.480995 0.413886 0.00918593
0.513039 0.413046 0.0138247
0.545083 0.412222 0.0184482
0.577127 0.411383 0.0230869
0.609155 0.410544 0.0277104
0.641199 0.40972 0.0323491
0.673243 0.408881 0.0369879
0.705287 0.408057 0.0416114
0.737331 0.407218 0.0462501
0.769375 0.406378 0.0508888
0.801419 0.405554 0.0555123
0.833463 0.404715 0.0601511
0.865507 0.403876 0.0647746
0.897551 0.403052 0.0694133
0.929595 0.402213 0.074052
0.961639 0.401389 0.0786755
0.993683 0.400549 0.0833143
1 0.39971 0.087953
1 0.398886 0.0925765
1 0.398047 0.0972152
0.0690471 0.455055 0
0.101076 0.454231 0
0.13312 0.453391 0
0.165164 0.452552 0
0.197208 0.451728 0
0.229252 0.450889 0
0.261295 0.45005 0
0.293339 0.449226 0
0.325383 0.448386 0
0.357427 0.447562 0
0.389471 0.446723 0
0.421515 0.445884 0
0.453544 0.44506 0.000900282
0.485588 0.444221 0.00553903
0.517632 0.443381 0.0101778
0.549676 0.442557 0.0148013
0.58172 0.441718 0.01944
0.613764 0.440894 0.0240787
0.645808 0.440055 0.0287022
0.677852 0.439216 0.033341
0.709895 0.438392 0.0379644
0.741939 0.437552 0.0426032
0.773983 0.436713 0.0472419
0.806027 0.435889 0.0518654
0.838071 0.43505 0.0565042
0.870115 0.434226 0.0611276
0.902159 0.433387 0.0657664
0.934188 0.432547 0.0704051
0.966232 0.431724 0.0750286
0.998276 0.430884 0.0796674
1 0.430045 0.0843061
1 0.429221 0.0889296
1 0.428382 0.0935683
0.0736553 0.48539 0
0.105684 0.484565 0
0.137728 0.483726 0
0.169772 0.482902 0
0.201816 0.482063 0
0.23386 0.481224 0
0.265904 0.4804 0
0.297948 0.479561 0
0.329976 0.478721 0
0.36202 0.477897 0
0.394064 0.477058 0
0.426108 0.476234 0
0.458152 0.475395 0
0.490196 0.474556 0.00189212
0.52224 0.473732 0.00653086
0.554284 0.472892 0.0111543
0.586328 0.472053 0.0157931
0.618372 0.471229 0.0204318
0.650416 0.47039 0.0250553
0.68246 0.469566 0.0296941
0.714504 0.468727 0.0343175
0.746548 0.467887 0.0389563
0.778576 0.467063 0.043595
0.81062 0.466224 0.0482185
0.842664 0.465385 0.0528573
0.874708 0.464561 0.057496
0.906752 0.463722 0.0621195
0.938796 0.462898 0.0667582
0.97084 0.462058 0.0713817
1 0.461219 0.0760204
1 0.460395 0.0806592
1 0.459556 0.0852827
1 0.458717 0.0899214
0.0782635 0.51574 0
0.110292 0.5149 0
0.142336 0.514061 0
0.174365 0.513237 0
0.206409 0.512398 0
0.238453 0.511559 0
0.270497 0.510735 0
0.302541 0.509896 0
0.334585 0.509071 0
0.366629 0.508232 0
0.398672 0.507393 0
0.430716 0.506569 0
0.46276 0.50573 0
0.494804 0.504891 0
0.526848 0.504067 0.00288396
0.558892 0.503227 0.00750744
0.590936 0.502403 0.0121462
0.62298 0.501564 0.0167849
0.655009 0.500725 0.0214084
0.687053 0.499901 0.0260471
0.719097 0.499062 0.0306859
0.751141 0.498238 0.0353094
0.783185 0.497398 0.0399481
0.815229 0.496559 0.0445716
0.847272 0.495735 0.0492103
0.879316 0.494896 0.0538491
0.91136 0.494057 0.0584726
0.943404 0.493233 0.0631113
0.975448 0.492393 0.0677348
1 0.491569 0.0723735
1 0.49073 0.0770123
1 0.489891 0.0816358
1 0.489067 0.0862745
0.0828565 0.546075 0
0.114885 0.545235 0
0.146929 0.544411 0
0.178973 0.543572 0
0.211017 0.542733 0
0.243061 0.541909 0
0.275105 0.54107 0
0.307149 0.54023 0
0.339193 0.539406 0
0.371237 0.538567 0
0.403281 0.537743 0
0.435325 0.536904 0
0.467369 0.536065 0
0.499413 0.535241 0
0.531441 0.534401 0
0.563485 0.533562 0.00386053
0.595529 0.532738 0.00849927
0.627573 0.531899 0.013138
0.659617 0.531075 0.0177615
0.691661 0.530236 0.0224002
0.723705 0.529397 0.027039
0.755749 0.528572 0.0316625
0.787793 0.527733 0.0363012
0.819837 0.526894 0.0409247
0.851881 0.52607 0.0455634
0.883925 0.525231 0.0502022
0.915969 0.524407 0.0548257
0.948013 0.523568 0.0594644
0.980041 0.522728 0.0641031
1 0.521904 0.0687266
1 0.521065 0.0733654
1 0.520226 0.0779889
1 0.519402 0.0826276
0.0874647 0.57641 0
0.119493 0.57557 0
0.151537 0.574746 0
0.183581 0.573907 0
0.215625 0.573083 0
0.247669 0.572244 0
0.279713 0.571405 0
0.311757 0.570581 0
0.343801 0.569741 0
0.37583 0.568902 0
0.407874 0.568078 0
0.439918 0.567239 0
0.471962 0.566415 0
0.504005 0.565576 0
0.536049 0.564736 0
0.568093 0.563912 0.000228885
0.600137 0.563073 0.00485237
0.632181 0.562234 0.00949111
0.664225 0.56141 0.0141146
0.696269 0.560571 0.0187533
0.728313 0.559747 0.0233921
0.760357 0.558907 0.0280156
0.792401 0.558068 0.0326543
0.824445 0.557244 0.0372931
0.856474 0.556405 0.0419165
0.888518 0.555566 0.0465553
0.920562 0.554742 0.0511788
0.952605 0.553903 0.0558175
0.984649 0.553079 0.0604562
1 0.552239 0.0650797
1 0.5514 0.0697185
1 0.550576 0.074342
1 0.549737 0.0789807
0.0920729 0.606744 0
0.124102 0.60592 0
0.156146 0.605081 0
0.18819 0.604242 0
0.220233 0.603418 0
0.252262 0.602579 0
0.284306 0.60174 0
0.31635 0.600916 0
0.348394 0.600076 0
0.380438 0.599252 0
0.412482 0.598413 0
0.444526 0.597574 0
0.47657 0.59675 0
0.508614 0.595911 0
0.540658 0.595087 0
0.572702 0.594247 0
0.604746 0.593408 0.00120546
0.63679 0.592584 0.00584421
0.668833 0.591745 0.0104677
0.700862 0.590906 0.0151064
0.732906 0.590082 0.0197452
0.76495 0.589242 0.0243687
0.796994 0.588418 0.0290074
0.829038 0.587579 0.0336461
0.861082 0.58674 0.0382696
0.893126 0.585916 0.0429084
0.92517 0.585077 0.0475319
0.957214 0.584237 0.0521706
0.989258 0.583413 0.0568093
1 0.582574 0.0614328
1 0.58175 0.0660716
1 0.580911 0.0707103
1 0.580072 0.0753338
0.0966812 0.637079 0
0.128695 0.636255 0
0.160739 0.635416 0
0.192782 0.634592 0
0.224826 0.633753 0
0.25687 0.632914 0
0.288914 0.63209 0
0.320958 0.631251 0
0.353002 0.630411 0
0.385046 0.629587 0
0.41709 0.628748 0
0.449134 0.627924 0
0.481178 0.627085 0
0.513222 0.626245 0
0.545266 0.625422 0
0.577295 0.624582 0
0.609339 0.623743 0
0.641382 0.622919 0.0021973
0.673426 0.62208 0.00683604
0.70547 0.621256 0.0114595
0.737514 0.620417 0.0160983
0.769558 0.619577 0.0207218
0.801602 0.618753 0.0253605
0.833646 0.617914 0.0299992
0.86569 0.617075 0.0346227
0.897734 0.616251 0.0392615
0.929778 0.615412 0.0438849
0.961822 0.614588 0.0485237
0.993866 0.613748 0.0531624
1 0.612909 0.0577859
1 0.612085 0.0624247
1 0.611246 0.0670634
1 0.610407 0.0716869
0.101274 0.66743 0
0.133303 0.66659 0
0.165347 0.665751 0
0.197391 0.664927 0
0.229435 0.664088 0
0.261479 0.663264 0
0.293523 0.662425 0
0.325567 0.661585 0
0.35761 0.660761 0
0.389654 0.659922 0
0.421698 0.659083 0
0.453727 0.658259 0
0.485771 0.65742 0
0.517815 0.656596 0
0.549859 0.655756 0
0.581903 0.654917 0
0.613947 0.654093 0
0.645991 0.653254 0
0.678035 0.652415 0.00318914
0.710079 0.651591 0.00781262
0.742123 0.650752 0.0124514
0.774166 0.649927 0.0170748
0.80621 0.649088 0.0217136
0.838254 0.648249 0.0263523
0.870298 0.647425 0.0309758
0.902327 0.646586 0.0356146
0.934371 0.645747 0.0402533
0.966415 0.644923 0.0448768
0.998459 0.644083 0.0495155
1 0.643259 0.054139
1 0.64242 0.0587778
1 0.641581 0.0634165
1 0.640757 0.06804
0.105882 0.697765 0
0.137911 0.696925 0
0.169955 0.696101 0
0.201999 0.695262 0
0.234043 0.694423 0
0.266087 0.693599 0
0.298116 0.69276 0
0.330159 0.691936 0
0.362203 0.691096 0
0.394247 0.690257 0
0.426291 0.689433 0
0.458335 0.688594 0
0.490379 0.687755 0
0.522423 0.686931 0
0.554467 0.686091 0
0.586511 0.685267 0
0.618555 0.684428 0
0.650599 0.683589 0
0.682643 0.682765 0
0.714687 0.681926 0.00416571
0.746731 0.681086 0.00880446
0.778759 0.680262 0.0134432
0.810803 0.679423 0.0180667
0.842847 0.678599 0.0227054
0.874891 0.67776 0.0273289
0.906935 0.676921 0.0319677
0.938979 0.676097 0.0366064
0.971023 0.675258 0.0412299
1 0.674418 0.0458686
1 0.673594 0.0504921
1 0.672755 0.0551308
1 0.671931 0.0597696
1 0.671092 0.0643931
0.110491 0.728099 0
0.142519 0.72726 0
0.174548 0.726436 0
0.206592 0.725597 0
0.238636 0.724773 0
0.27068 0.723934 0
0.302724 0.723095 0
0.334768 0.722271 0
0.366812 0.721431 0
0.398856 0.720592 0
0.4309 0.719768 0
0.462943 0.718929 0
0.494987 0.718105 0
0.527031 0.717266 0
0.559075 0.716426 0
0.591119 0.715602 0
0.623148 0.714763 0
0.655192 0.713924 0
0.687236 0.7131 0
0.71928 0.712261 0.000518807
0.751324 0.711437 0.00515755
0.783368 0.710597 0.00979629
0.815412 0.709758 0.0144198
0.847456 0.708934 0.0190585
0.879499 0.708095 0.023682
0.911543 0.707256 0.0283207
0.943587 0.706432 0.0329595
0.975631 0.705592 0.037583
1 0.704768 0.0422217
1 0.703929 0.0468605
1 0.70309 0.0514839
1 0.702266 0.0561227
1 0.701427 0.0607462
0.115084 0.758434 0
0.147112 0.75761 0
0.179156 0.756771 0
0.2112 0.755932 0
0.243244 0.755108 0
0.275288 0.754269 0
0.307332 0.753445 0
0.339376 0.752605 0
0.37142 0.751766 0
0.403464 0.750942 0
0.435508 0.750103 0
0.467552 0.749264 0
0.49958 0.74844 0
0.531624 0.7476 0
0.563668 0.746777 0
0.595712 0.745937 0
0.627756 0.745098 0
0.6598 0.744274 0
0.691844 0.743435 0
0.723888 0.742596 0
0.755932 0.741772 0.00151064
0.787976 0.740932 0.00614939
0.82002 0.740108 0.0107729
0.852064 0.739269 0.0154116
0.884108 0.73843 0.0200504
0.916152 0.737606 0.0246738
0.94818 0.736767 0.0293126
0.980224 0.735927 0.0339361
1 0.735103 0.0385748
1 0.734264 0.0432136
1 0.73344 0.047837
1 0.732601 0.0524758
1 0.731762 0.0570993
0.119692 0.788769 0
0.15172 0.787945 0
0.183764 0.787106 0
0.215808 0.786282 0
0.247852 0.785443 0
0.279896 0.784604 0
0.31194 0.78378 0
0.343969 0.78294 0
0.376013 0.782116 0
0.408057 0.781277 0
0.440101 0.780438 0
0.472145 0.779614 0
0.504189 0.778775 0
0.536233 0.777935 0
0.568276 0.777111 0
0.60032 0.776272 0
0.632364 0.775448 0
0.664408 0.774609 0
0.696452 0.77377 0
0.728496 0.772946 0
0.76054 0.772107 0
0.792584 0.771267 0.00250248
0.824613 0.770443 0.00712596
0.856657 0.769604 0.0117647
0.888701 0.76878 0.0164034
0.920745 0.767941 0.0210269
0.952789 0.767102 0.0256657
0.984833 0.766278 0.0302892
1 0.765438 0.0349279
1 0.764599 0.0395666
1 0.763775 0.0441901
1 0.762936 0.0488289
1 0.762112 0.0534676
0.1243 0.81912 0
0.156329 0.81828 0
0.188373 0.817441 0
0.220401 0.816617 0
0.252445 0.815778 0
0.284489 0.814954 0
0.316533 0.814115 0
0.348577 0.813275 0
0.380621 0.812451 0
