public/LUTS/Color Shift/ColorShift_76.cube
TITLE "Generated by Resolve"
LUT_3D_SIZE 9
0 0 0
0.19968 0 0.0344549
0.399374 0 0.0689097
0.599084 0 0.10338
0.798779 0 0.137835
0.998489 0 0.17229
1 0 0.20676
1 0 0.241215
1 0 0.275669
0 0.139742 0
0.192981 0.112902 0
0.392691 0.0860609 0
0.592386 0.0592203 0.00418097
0.792096 0.0323796 0.0386511
0.991791 0.00553903 0.073106
1 0 0.107561
1 0 0.142031
1 0 0.176486
0 0.279515 0
0.186297 0.252674 0
0.385992 0.225834 0
0.585702 0.198993 0
0.785397 0.172152 0
0.985107 0.145312 0
1 0.118471 0.00836194
1 0.0916304 0.0428321
1 0.0647898 0.0772869
0 0.419272 0
0.179614 0.392432 0
0.379309 0.365591 0
0.579004 0.33875 0
0.778714 0.31191 0
0.978408 0.285069 0
1 0.258228 0
1 0.231388 0
1 0.204547 0
0 0.55903 0
0.172915 0.532204 0
0.372625 0.505348 0
0.57232 0.478508 0
0.772015 0.451667 0
0.971725 0.424826 0
1 0.397986 0
1 0.371145 0
1 0.344305 0
0 0.698802 0
0.166232 0.671962 0
0.365927 0.645121 0
0.565637 0.61828 0
0.765332 0.59144 0
0.965026 0.564599 0
1 0.537758 0
1 0.510918 0
1 0.484077 0
0 0.83856 0
0.159533 0.811719 0
0.359243 0.784878 0
0.558938 0.758038 0
0.758648 0.731197 0
0.958343 0.704356 0
1 0.677516 0
1 0.650675 0
1 0.623835 0
0 0.978317 0
0.15285 0.951492 0
0.352544 0.924651 0
0.552254 0.89781 0
0.751949 0.87097 0
0.951659 0.844129 0
1 0.817273 0
1 0.790433 0
1 0.763592 0
0 1 0
0.146151 1 0
0.345861 1 0
0.545556 1 0
0.745266 1 0
0.944961 0.983886 0
1 0.957046 0
1 0.930205 0
1 0.903365 0
0 0.0120851 0.189715
0.13167 0 0.22417
0.33138 0 0.25864
0.531075 0 0.293095
0.730785 0 0.32755
0.93048 0 0.36202
1 0 0.396475
1 0 0.43093
1 0 0.4654
0 0.151827 0.0905318
0.124987 0.124987 0.124987
0.324681 0.098146 0.159442
0.524392 0.0713054 0.193912
0.724086 0.0444648 0.228367
0.923796 0.0176242 0.262821
1 0 0.297292
1 0 0.331746
1 0 0.366201
0 0.291585 0
0.118303 0.264744 0.0257877
0.317998 0.237903 0.0602426
0.517693 0.211063 0.0947127
0.717403 0.184222 0.129168
0.917098 0.157382 0.163622
1 0.130541 0.198093
1 0.1037 0.232547
1 0.0768597 0.267002
0 0.431357 0
0.111604 0.404517 0
0.311315 0.377676 0
0.511009 0.350835 0
0.710704 0.323995 0.0299687
0.910414 0.297154 0.0644236
1 0.270314 0.0988785
1 0.243473 0.133349
1 0.216617 0.167803
0 0.571115 0
0.104921 0.544274 0
0.304616 0.517433 0
0.504326 0.490593 0
0.704021 0.463752 0
0.903716 0.436912 0
1 0.410071 0
1 0.38323 0.0341497
1 0.35639 0.0686046
0 0.710872 0
0.0982223 0.684031 0
0.297932 0.657191 0
0.497627 0.63035 0
0.697337 0.60351 0
0.897032 0.576669 0
1 0.549828 0
1 0.522988 0
1 0.496147 0
0 0.850645 0
0.0915389 0.823804 0
0.291234 0.796963 0
0.490944 0.770123 0
0.690639 0.743282 0
0.890349 0.716442 0
1 0.689601 0
1 0.66276 0
1 0.63592 0
0 0.990402 0
0.0848402 0.963561 0
0.28455 0.936721 0
0.484245 0.90988 0
0.683955 0.88304 0
0.88365 0.856199 0
1 0.829358 0
1 0.802518 0
1 0.775677 0
0 1 0
0.0781567 1 0
0.277852 1 0
0.477562 1 0
0.677256 1 0
0.876967 0.995956 0
1 0.969116 0
1 0.942275 0
1 0.915434 0
0 0.024155 0.379461
0.0636606 0 0.413916
0.263371 0 0.448371
0.463066 0 0.482841
0.662776 0 0.517296
0.86247 0 0.551751
1 0 0.586221
1 0 0.620676
1 0 0.655131
0 0.163897 0.280278
0.0569772 0.137072 0.314733
0.256672 0.110231 0.349187
0.456382 0.0833906 0.383642
0.656077 0.0565499 0.418112
0.855787 0.0297093 0.452567
1 0.00285344 0.487022
1 0 0.521492
1 0 0.555947
0 0.30367 0.181079
0.0502937 0.276829 0.215534
0.249989 0.249989 0.249989
0.449683 0.223148 0.284443
0.649393 0.196307 0.318914
0.849088 0.169467 0.353368
1 0.142626 0.387823
1 0.115785 0.422293
1 0.0889448 0.456748
0 0.443427 0.0818647
0.043595 0.416587 0.116335
0.243305 0.389746 0.15079
0.443 0.362905 0.185245
0.642695 0.336065 0.219715
0.842405 0.309224 0.25417
1 0.282383 0.288624
1 0.255543 0.323095
1 0.228702 0.357549
0 0.5832 0
0.0369116 0.556359 0.0171206
0.236606 0.529519 0.0515908
0.436316 0.502678 0.0860456
0.636011 0.475837 0.1205
0.835706 0.448997 0.154971
1 0.422156 0.189425
1 0.395315 0.22388
1 0.368475 0.25835
0 0.722957 0
0.0302129 0.696117 0
0.229923 0.669276 0
0.429618 0.642435 0
0.629328 0.615595 0.0213016
0.829023 0.588754 0.0557717
1 0.561913 0.0902266
1 0.535073 0.124681
1 0.508232 0.159152
0 0.862715 0
0.0235294 0.835889 0
0.223224 0.809033 0
0.422934 0.782193 0
0.622629 0.755352 0
0.822339 0.728511 0
1 0.701671 0
1 0.67483 0.0254826
1 0.64799 0.0599374
0 1 0
0.0168307 0.975647 0
0.216541 0.948806 0
0.416236 0.921965 0
0.615946 0.895125 0
0.815641 0.868284 0
1 0.841443 0
1 0.814603 0
1 0.787762 0
0 1 0
0.0101472 1 0
0.209842 1 0
0.409552 1 0
0.609247 1 0
0.808957 1 0
1 0.981201 0
1 0.95436 0
1 0.92752 0
0 0.0362402 0.569207
0 0.00939956 0.603662
0.195361 0 0.638117
0.395056 0 0.672587
0.594766 0 0.707042
0.794461 0 0.741497
0.994171 0 0.775967
1 0 0.810422
1 0 0.844877
0 0.175982 0.470024
0 0.149142 0.504479
0.188663 0.122301 0.538933
0.388373 0.0954604 0.573388
0.588067 0.0686198 0.607858
0.787778 0.0417792 0.642313
0.987472 0.0149386 0.676768
1 0 0.711238
1 0 0.745693
0 0.315755 0.370809
0 0.288914 0.405264
0.181979 0.262074 0.439734
0.381674 0.235233 0.474189
0.581384 0.208392 0.508644
0.781079 0.181552 0.543114
0.980789 0.154711 0.577569
1 0.127855 0.612024
1 0.101015 0.646494
0 0.455512 0.271611
0 0.428672 0.306065
0.175296 0.401831 0.340536
0.37499 0.37499 0.37499
0.574685 0.34815 0.409445
0.774395 0.321309 0.443915
0.97409 0.294469 0.47837
1 0.267628 0.512825
1 0.240787 0.547295
0 0.59527 0.172412
0 0.568429 0.206867
0.168597 0.541588 0.241337
0.368307 0.514748 0.275792
0.568002 0.487907 0.310246
0.767697 0.461067 0.344717
0.967407 0.434226 0.379171
1 0.407385 0.413626
1 0.380545 0.448096
0 0.735042 0.0732128
0 0.708202 0.107668
0.161913 0.681361 0.142123
0.361608 0.654521 0.176593
0.561318 0.62768 0.211048
0.761013 0.600839 0.245502
0.960708 0.573999 0.279973
1 0.547158 0.314427
1 0.520317 0.348882
0 0.8748 0
0 0.847959 0.00846876
0.155215 0.821118 0.0429236
0.354925 0.794278 0.0773938
0.55462 0.767437 0.111849
0.75433 0.740597 0.146304
0.954025 0.713756 0.180774
1 0.686915 0.215228
1 0.660075 0.249683
0 1 0
0 0.987732 0
0.148531 0.960891 0
0.348226 0.934035 0
0.547936 0.907195 0.0126497
0.747631 0.880354 0.0471046
0.947341 0.853513 0.0815595
1 0.826673 0.11603
1 0.799832 0.150484
0 1 0
0 1 0
0.141833 1 0
0.341543 1 0
0.541238 1 0
0.740948 1 0
0.940642 0.993286 0
1 0.966445 0.0168307
1 0.939605 0.0512856
0 0.0483253 0.758953
0 0.0214847 0.793408
0.127352 0 0.827863
0.327047 0 0.862318
0.526757 0 0.896788
0.726452 0 0.931243
0.926162 0 0.965698
1 0 1
1 0 1
0 0.188067 0.659754
0 0.161227 0.694209
0.120653 0.134386 0.728679
0.320363 0.107546 0.763134
0.520058 0.080705 0.797589
0.719768 0.0538643 0.832059
0.919463 0.0270237 0.866514
1 0.000183108 0.900969
1 0 0.935439
0 0.327825 0.560555
0 0.300984 0.59501
0.11397 0.274144 0.62948
0.313664 0.247303 0.663935
0.513375 0.220462 0.69839
0.713069 0.193622 0.73286
0.912779 0.166781 0.767315
1 0.13994 0.80177
1 0.1131 0.83624
0 0.467597 0.461357
0 0.440757 0.495811
0.107286 0.413916 0.530266
0.306981 0.387076 0.564736
0.506676 0.360235 0.599191
0.706386 0.333394 0.633646
0.906081 0.306554 0.668116
1 0.279713 0.702571
1 0.252857 0.737026
0 0.607355 0.362158
0 0.580514 0.396612
0.100587 0.553674 0.431067
0.300298 0.526833 0.465537
0.499992 0.499992 0.499992
0.699687 0.473152 0.534447
0.899397 0.446311 0.568917
1 0.419471 0.603372
1 0.39263 0.637827
0 0.747112 0.262959
0 0.720272 0.297414
0.093904 0.693431 0.331868
0.293599 0.66659 0.366339
0.493309 0.63975 0.400793
0.693004 0.612909 0.435248
0.892699 0.586069 0.469718
1 0.559228 0.504173
1 0.532387 0.538628
0 0.886885 0.16376
0 0.860044 0.198215
0.0872053 0.833204 0.23267
0.286915 0.806363 0.267124
0.48661 0.779522 0.301595
0.68632 0.752682 0.336049
0.886015 0.725841 0.370504
1 0.699001 0.404974
1 0.67216 0.439429
0 1 0.0645609
0 0.999802 0.0990158
0.0805219 0.972961 0.133471
0.280217 0.94612 0.167926
0.479927 0.91928 0.202396
0.679622 0.892439 0.236851
0.879332 0.865599 0.271305
1 0.838758 0.305776
1 0.811917 0.34023
0 1 0
0 1 0
0.0738231 1 0.0342718
0.273533 1 0.0687266
0.473228 1 0.103182
0.672938 1 0.137652
0.872633 1 0.172107
1 0.978515 0.206561
1 0.951675 0.241032
0 0.0603952 0.948684
0 0.0335546 0.983154
0.0593423 0.00671397 1
0.259037 0 1
0.458747 0 1
0.658442 0 1
0.858152 0 1
1 0 1
1 0 1
0 0.200137 0.8495
0 0.173312 0.883955
0.0526436 0.146471 0.918425
0.252354 0.119631 0.95288
0.452049 0.0927901 0.987335
0.651759 0.0659495 1
0.851453 0.0390936 1
1 0.012253 1
1 0 1
0 0.33991 0.750301
0 0.313069 0.784756
0.0459602 0.286229 0.819211
0.245655 0.259388 0.853681
0.445365 0.232547 0.888136
0.64506 0.205707 0.922591
0.84477 0.178866 0.957061
1 0.152026 0.991516
1 0.125185 1
0 0.479667 0.651102
0 0.452827 0.685557
0.0392767 0.425986 0.720012
0.238972 0.399145 0.754482
0.438666 0.372305 0.788937
0.638376 0.345464 0.823392
0.838071 0.318624 0.857862
1 0.291783 0.892317
1 0.264942 0.926772
0 0.61944 0.551904
0 0.592599 0.586358
0.032578 0.565759 0.620813
0.232288 0.538918 0.655268
0.431983 0.512078 0.689738
0.631678 0.485237 0.724193
0.831388 0.458396 0.758648
1 0.431556 0.793118
1 0.404715 0.827573
0 0.759197 0.452705
0 0.732357 0.48716
0.0258946 0.705516 0.521614
0.225589 0.678676 0.556069
0.425299 0.651835 0.590539
0.624994 0.624994 0.624994
0.824689 0.598154 0.659449
1 0.571313 0.693919
1 0.544472 0.728374
0 0.898955 0.353491
0 0.872129 0.387961
0.0191958 0.845273 0.422415
0.218906 0.818433 0.45687
0.418601 0.791592 0.491341
0.618311 0.764752 0.525795
0.818006 0.737911 0.56025
1 0.71107 0.59472
1 0.68423 0.629175
0 1 0.254292
0 1 0.288746
0.0125124 0.985046 0.323217
0.212207 0.958206 0.357671
0.411917 0.931365 0.392126
0.611612 0.904524 0.426596
0.811322 0.877684 0.461051
1 0.850843 0.495506
1 0.824002 0.529976
0 1 0.155093
0 1 0.189548
0.00581369 1 0.224018
0.205524 1 0.258473
0.405219 1 0.292927
0.604929 1 0.327398
0.804623 1 0.361852
1 0.9906 0.396307
1 0.96376 0.430777
0 0.0724804 1
0 0.0456397 1
0 0.0187991 1
0.191028 0 1
0.390738 0 1
0.590433 0 1
0.790143 0 1
0.989837 0 1
1 0 1
0 0.212222 1
0 0.185382 1
0 0.158541 1
0.184344 0.131701 1
0.384039 0.10486 1
0.583749 0.0780194 1
0.783444 0.0511788 1
0.983154 0.0243381 1
1 0 1
0 0.351995 0.940047
0 0.325154 0.974502
0 0.298314 1
0.177646 0.271473 1
0.377356 0.244633 1
0.57705 0.217792 1
0.776761 0.190951 1
0.976455 0.164096 1
1 0.137255 1
0 0.491753 0.840848
0 0.464912 0.875303
0 0.438071 0.909758
0.170962 0.411231 0.944213
0.370657 0.38439 0.978683
0.570367 0.357549 1
0.770062 0.330709 1
0.969772 0.303868 1
1 0.277028 1
0 0.63151 0.74165
0 0.604669 0.776104
0 0.577829 0.810559
0.164279 0.550988 0.845014
0.363973 0.524147 0.879484
0.563668 0.497307 0.913939
0.763378 0.470466 0.948394
0.963073 0.443626 0.982864
1 0.416785 1
0 0.771282 0.642435
0 0.744442 0.67689
0 0.717601 0.71136
0.15758 0.690761 0.745815
0.35729 0.66392 0.78027
0.556985 0.637079 0.81474
0.75668 0.610239 0.849195
0.95639 0.583398 0.88365
1 0.556558 0.91812
0 0.91104 0.543236
0 0.884199 0.577691
0 0.857359 0.612161
0.150896 0.830518 0.646616
0.350591 0.803677 0.681071
0.550301 0.776837 0.715541
0.749996 0.749996 0.749996
0.949691 0.723156 0.784451
1 0.696315 0.818921
0 1 0.444038
0 1 0.478492
0 0.997131 0.512963
0.144198 0.970275 0.547417
0.343908 0.943435 0.581872
0.543603 0.916594 0.616342
0.743313 0.889754 0.650797
0.943008 0.862913 0.685252
1 0.836072 0.719722
0 1 0.344839
0 1 0.379294
0 1 0.413748
0.137514 1 0.448218
0.337209 1 0.482673
0.536919 1 0.517128
0.736614 1 0.551598
0.936324 1 0.586053
1 0.975845 0.620508
0 0.0845655 1
0 0.0577249 1
0 0.0308843 1
0.123018 0.00404364 1
0.322728 0 1
0.522423 0 1
0.722133 0 1
0.921828 0 1
1 0 1
0 0.224308 1
0 0.197467 1
0 0.170626 1
0.116335 0.143786 1
0.31603 0.116945 1
0.51574 0.0901045 1
0.715434 0.0632639 1
0.915145 0.0364233 1
1 0.00958267 1
0 0.364065 1
0 0.337224 1
0 0.310384 1
0.109636 0.283543 1
0.309346 0.256703 1
0.509041 0.229862 1
0.708751 0.203021 1
0.908446 0.176181 1
1 0.14934 1
0 0.503838 1
0 0.476997 1
0 0.450156 1
0.102953 0.423316 1
0.302647 0.396475 1
0.502358 0.369635 1
0.702052 0.342794 1
0.901762 0.315953 1
1 0.289097 1
0 0.643595 0.93138
0 0.616754 0.965835
0 0.589914 1
0.0962692 0.563073 1
0.295964 0.536233 1
0.495659 0.509392 1
0.695369 0.482551 1
0.895064 0.455711 1
1 0.42887 1
0 0.783352 0.832181
0 0.756512 0.866636
0 0.729671 0.901106
0.0895705 0.702831 0.935561
0.289281 0.67599 0.970016
0.488975 0.649149 1
0.68867 0.622309 1
0.88838 0.595468 1
1 0.568627 1
0 0.923125 0.732982
0 0.896284 0.767437
0 0.869444 0.801892
0.082887 0.842603 0.836362
0.282582 0.815763 0.870817
0.482292 0.788922 0.905272
0.681987 0.762081 0.939742
0.881682 0.735241 0.974197
1 0.7084 1
0 1 0.633783
0 1 0.668238
0 1 0.702693
0.0761883 0.982361 0.737163
0.275898 0.95552 0.771618
0.475593 0.928679 0.806073
0.675303 0.901839 0.840543
0.874998 0.874998 0.874998
1 0.848157 0.909453
0 1 0.534585
0 1 0.569039
0 1 0.603494
0.0695048 1 0.637964
0.2692 1 0.672419
0.46891 1 0.706874
0.668605 1 0.741344
0.868315 1 0.775799
1 0.987915 0.810254
0 0.0966354 1
0 0.0697948 1
0 0.0429541 1
0.0550088 0.0161135 1
0.254719 0 1
0.454414 0 1
0.654124 0 1
0.853819 0 1
1 0 1
0 0.236378 1
0 0.209552 1
0 0.182712 1
0.0483253 0.155871 1
0.24802 0.12903 1
0.44773 0.10219 1
0.647425 0.0753338 1
0.847135 0.0484932 1
1 0.0216526 1
0 0.37615 1
0 0.34931 1
0 0.322469 1
0.0416266 0.295628 1
0.241337 0.268788 1
0.441032 0.241947 1
0.640742 0.215106 1
0.840436 0.188266 1
1 0.161425 1
0 0.515908 1
0 0.489067 1
0 0.462226 1
0.0349432 0.435386 1
0.234638 0.408545 1
0.434348 0.381704 1
0.634043 0.354864 1
0.833753 0.328023 1
1 0.301183 1
0 0.65568 1
0 0.62884 1
0 0.601999 1
0.0282597 0.575158 1
0.227955 0.548318 1
0.427649 0.521477 1
0.627359 0.494636 1
0.827054 0.467796 1
1 0.440955 1
0 0.795438 1
0 0.768597 1
0 0.741756 1
0.021561 0.714916 1
0.221271 0.688075 1
0.420966 0.661234 1
0.620661 0.634394 1
0.820371 0.607553 1
1 0.580713 1
0 0.935195 0.922728
0 0.90837 0.957183
0 0.881514 0.991638
0.0148775 0.854673 1
0.214572 0.827832 1
0.414282 0.800992 1
0.613977 0.774151 1
0.813672 0.747311 1
1 0.72047 1
0 1 0.823529
0 1 0.857984
0 1 0.892439
0.00817884 0.994446 0.926894
0.207889 0.967605 0.961364
0.407584 0.940764 0.995819
0.607294 0.913924 1
0.806989 0.887083 1
1 0.860243 1
0 1 0.72433
0 1 0.758785
0 1 0.79324
0.00149538 1 0.827695
0.20119 1 0.862165
0.4009 1 0.89662
0.600595 1 0.931075
0.800305 1 0.965545
1 1 1
