public/LUTS/Color Shift/ColorShift_69.cube
TITLE "Generated by Resolve"
LUT_3D_SIZE 9
0 0 0
0.14406 0.00703441 0
0.288151 0.0140688 0
0.432227 0.0211032 0
0.576318 0.0281376 0
0.720394 0.0351873 0
0.864485 0.0422217 0
1 0.0492561 0
1 0.0562905 0
0 0.155825 0.0403296
0.0240024 0.16286 0
0.168078 0.169894 0
0.312169 0.176928 0
0.456245 0.183963 0
0.600336 0.190997 0
0.744411 0.198032 0
0.888502 0.205081 0
1 0.212116 0
0 0.311666 0.0806592
0 0.3187 0
0.0480049 0.325734 0
0.192096 0.332769 0
0.336172 0.339803 0
0.480262 0.346838 0
0.624338 0.353872 0
0.768414 0.360922 0
0.912505 0.367956 0
0 0.467506 0.120989
0 0.47454 0.0217441
0 0.481575 0
0.0720073 0.488609 0
0.216098 0.495644 0
0.360174 0.502678 0
0.504265 0.509712 0
0.648341 0.516762 0
0.792432 0.523796 0
0 0.623346 0.161318
0 0.630381 0.062089
0 0.637415 0
0 0.64445 0
0.096025 0.651484 0
0.240101 0.658518 0
0.384176 0.665553 0
0.528267 0.672602 0
0.672343 0.679637 0
0 0.779187 0.201663
0 0.786221 0.102419
0 0.793256 0.00315862
0 0.80029 0
0 0.807324 0
0.120027 0.814359 0
0.264103 0.821393 0
0.408194 0.828428 0
0.55227 0.835477 0
0 0.935027 0.241993
0 0.942061 0.142748
0 0.949096 0.0434882
0 0.95613 0
0 0.963165 0
0 0.970199 0
0.14403 0.977234 0
0.288106 0.984268 0
0.432197 0.991318 0
0 1 0.282322
0 1 0.183078
0 1 0.0838178
0 1 0
0 1 0
0 1 0
0.0239567 1 0
0.168032 1 0
0.312123 1 0
0 1 0.322652
0 1 0.223407
0 1 0.124163
0 1 0.0249027
0 1 0
0 1 0
0 1 0
0.0479591 1 0
0.192035 1 0
0.100984 0 0.183902
0.245045 0 0.0846571
0.389136 0 0
0.533211 0 0
0.677302 0 0
0.821378 0 0
0.965469 0.00434882 0
1 0.0113832 0
1 0.0184176 0
0 0.117952 0.224231
0.124987 0.124987 0.124987
0.269062 0.132021 0.0257267
0.413153 0.139055 0
0.557229 0.14609 0
0.70132 0.15314 0
0.845396 0.160174 0
0.989487 0.167208 0
1 0.174243 0
0 0.273793 0.264561
0.00491341 0.280827 0.165316
0.148989 0.287861 0.0660563
0.29308 0.294896 0
0.437156 0.30193 0
0.581247 0.308965 0
0.725322 0.316014 0
0.869398 0.323049 0
1 0.330083 0
0 0.429633 0.304891
0 0.436667 0.205646
0.0289158 0.443702 0.106401
0.172992 0.450736 0.00714122
0.317082 0.457771 0
0.461158 0.464805 0
0.605249 0.471855 0
0.749325 0.478889 0
0.893416 0.485924 0
0 0.585473 0.345235
0 0.592508 0.245991
0 0.599542 0.146731
0.0529183 0.606577 0.0474708
0.197009 0.613611 0
0.341085 0.620645 0
0.485161 0.627695 0
0.629252 0.63473 0
0.773327 0.641764 0
0 0.741314 0.385565
0 0.748348 0.28632
0 0.755383 0.18706
0 0.762417 0.0878004
0.0769207 0.769451 0
0.221012 0.776486 0
0.365087 0.783536 0
0.509178 0.79057 0
0.653254 0.797604 0
0 0.897154 0.425895
0 0.904189 0.32665
0 0.911223 0.22739
0 0.918257 0.12813
0 0.925292 0.0288853
0.100938 0.932326 0
0.245014 0.939376 0
0.38909 0.94641 0
0.533181 0.953445 0
0 1 0.466224
0 1 0.366979
0 1 0.26772
0 1 0.168475
0 1 0.0692149
0 1 0
0.124941 1 0
0.269017 1 0
0.413108 1 0
0 1 0.506554
0 1 0.407309
0 1 0.308064
0 1 0.208804
0 1 0.109545
0 1 0.0102846
0.00485237 1 0
0.148943 1 0
0.293019 1 0
0.201984 0 0.367834
0.346044 0 0.268589
0.490135 0 0.169329
0.634211 0 0.0700694
0.778286 0 0
0.922377 0 0
1 0 0
1 0 0
1 0 0
0.0819257 0.0800793 0.408164
0.225986 0.0871138 0.308919
0.370062 0.0941482 0.209659
0.514153 0.101183 0.110399
0.658228 0.108217 0.0111391
0.802319 0.115251 0
0.946395 0.122301 0
1 0.129335 0
1 0.13637 0
0 0.23592 0.448493
0.105913 0.242954 0.349248
0.249989 0.249989 0.249989
0.394064 0.257023 0.150729
0.538155 0.264057 0.0514687
0.682231 0.271092 0
0.826322 0.278126 0
0.970397 0.285176 0
1 0.29221 0
0 0.39176 0.488823
0 0.398795 0.389578
0.129915 0.405829 0.290318
0.273991 0.412863 0.191058
0.418082 0.419898 0.0918135
0.562158 0.426932 0
0.706249 0.433967 0
0.850324 0.441016 0
0.9944 0.448051 0
0 0.547601 0.529152
0 0.554635 0.429908
0.00982681 0.561669 0.330648
0.153918 0.568704 0.231403
0.297993 0.575738 0.132143
0.442084 0.582773 0.0328832
0.58616 0.589807 0
0.730251 0.596857 0
0.874327 0.603891 0
0 0.703441 0.569482
0 0.710475 0.470237
0 0.71751 0.370993
0.0338445 0.724544 0.271733
0.17792 0.731579 0.172473
0.322011 0.738613 0.0732128
0.466087 0.745647 0
0.610162 0.752697 0
0.754253 0.759731 0
0 0.859281 0.609827
0 0.866316 0.510582
0 0.87335 0.411322
0 0.880385 0.312062
0.057847 0.887419 0.212802
0.201923 0.894453 0.113558
0.346014 0.901488 0.0142977
0.490089 0.908537 0
0.63418 0.915572 0
0 1 0.650156
0 1 0.550912
0 1 0.451652
0 1 0.352392
0 1 0.253132
0.0818494 1 0.153887
0.22594 1 0.0546273
0.370016 1 0
0.514092 1 0
0 1 0.690486
0 1 0.591241
0 1 0.491981
0 1 0.392721
0 1 0.293477
0 1 0.194217
0.105852 1 0.0949569
0.249943 1 0
0.394018 1 0
0.302983 0 0.551751
0.447044 0 0.452506
0.591119 0 0.353246
0.73521 0 0.254002
0.879286 0 0.154742
1 0 0.0554818
1 0 0
1 0 0
1 0 0
0.18291 0.0422065 0.592081
0.326986 0.0492409 0.492836
0.471061 0.0562753 0.393576
0.615152 0.0633097 0.294331
0.759228 0.0703441 0.195071
0.903304 0.0773785 0.0958114
1 0.0844129 0
1 0.0914626 0
1 0.098497 0
0.0628367 0.198047 0.63241
0.206897 0.205081 0.533165
0.350988 0.212116 0.433921
0.495064 0.21915 0.334661
0.639155 0.226184 0.235401
0.78323 0.233219 0.136141
0.927321 0.240253 0.0368963
1 0.247303 0
1 0.254337 0
0 0.353887 0.67274
0.0868238 0.360922 0.57351
0.230915 0.367956 0.47425
0.37499 0.37499 0.37499
0.519066 0.382025 0.275731
0.663157 0.389059 0.176471
0.807233 0.396094 0.0772259
0.951324 0.403143 0
1 0.410178 0
0 0.509728 0.713085
0 0.516762 0.61384
0.110826 0.523796 0.51458
0.254917 0.530831 0.41532
0.398993 0.537865 0.31606
0.543084 0.5449 0.216815
0.68716 0.551934 0.117556
0.83125 0.558968 0.0182956
0.975326 0.566018 0
0 0.665568 0.753414
0 0.672602 0.654169
0 0.679637 0.55491
0.134829 0.686671 0.45565
0.27892 0.693706 0.356405
0.422995 0.70074 0.257145
0.567086 0.707774 0.157885
0.711162 0.714809 0.0586252
0.855253 0.721859 0
0 0.821408 0.793744
0 0.828443 0.694499
0 0.835477 0.595239
0.0147555 0.842512 0.495995
0.158846 0.849546 0.396735
0.302922 0.85658 0.297475
0.447013 0.863615 0.198215
0.591089 0.870649 0.09897
0.735164 0.877699 0
0 0.977249 0.834073
0 0.984283 0.734829
0 0.991318 0.635584
0 0.998352 0.536324
0.0387579 1 0.437064
0.182849 1 0.337804
0.326925 1 0.23856
0.471015 1 0.1393
0.615091 1 0.0400397
0 1 0.874403
0 1 0.775174
0 1 0.675914
0 1 0.576654
0 1 0.477394
0.0627756 1 0.378134
0.206851 1 0.278889
0.350942 1 0.179629
0.495018 1 0.0803693
0.403967 0 0.735683
0.548043 0 0.636439
0.692119 0 0.537179
0.83621 0 0.437919
0.980285 0 0.338674
1 0 0.239414
1 0 0.140154
1 0 0.0408942
1 0 0
0.283909 0.00433356 0.776013
0.42797 0.011368 0.676768
0.572061 0.0184024 0.577508
0.716136 0.0254368 0.478248
0.860227 0.0324712 0.378988
1 0.0395056 0.279744
1 0.04654 0.180484
1 0.0535744 0.0812238
1 0.0606241 0
0.163836 0.160174 0.816342
0.307897 0.167208 0.717098
0.451987 0.174243 0.617838
0.596063 0.181277 0.518578
0.740154 0.188312 0.419333
0.88423 0.195346 0.320073
1 0.20238 0.220813
1 0.209415 0.121553
1 0.216464 0.0223087
0.0437629 0.316014 0.856672
0.187823 0.323049 0.757427
0.331899 0.330083 0.658167
0.47599 0.337118 0.558923
0.620066 0.344152 0.459663
0.764157 0.351186 0.360403
0.908232 0.358221 0.261143
1 0.365255 0.161898
1 0.372305 0.0626383
0 0.471855 0.897002
0.0677501 0.478889 0.797757
0.211826 0.485924 0.698512
0.355917 0.492958 0.599252
0.499992 0.499992 0.499992
0.644068 0.507027 0.400732
0.788159 0.514061 0.301472
0.932235 0.521096 0.202228
1 0.52813 0.102968
0 0.627695 0.937331
0 0.63473 0.838087
0.0917525 0.641764 0.738842
0.235828 0.648798 0.639582
0.379919 0.655833 0.540322
0.523995 0.662867 0.441062
0.668086 0.669902 0.341817
0.812161 0.676936 0.242557
0.956252 0.68397 0.143297
0 0.783536 0.977676
0 0.79057 0.878431
0 0.797604 0.779171
0.115755 0.804639 0.679911
0.259831 0.811673 0.580652
0.403922 0.818708 0.481407
0.547997 0.825742 0.382147
0.692088 0.832776 0.282887
0.836164 0.839811 0.183627
0 0.939376 1
0 0.94641 0.918761
0 0.953445 0.819501
0 0.960479 0.720241
0.139757 0.967514 0.620996
0.283848 0.974548 0.521737
0.427924 0.981582 0.422477
0.572015 0.988617 0.323217
0.716091 0.995651 0.223972
0 1 1
0 1 0.959091
0 1 0.859831
0 1 0.760586
0.0196841 1 0.661326
0.16376 1 0.562066
0.307851 1 0.462806
0.451926 1 0.363561
0.596017 1 0.264302
0.504967 0 0.9196
0.649042 0 0.820356
0.793118 0 0.721111
0.937194 0 0.621851
1 0 0.522591
1 0 0.423331
1 0 0.324086
1 0 0.224826
1 0 0.125566
0.384909 0 0.95993
0.528969 0 0.860685
0.67306 0 0.761425
0.817136 0 0.662181
0.961227 0 0.562921
1 0.00163272 0.463661
1 0.00866712 0.364401
1 0.0157015 0.265156
1 0.0227359 0.165896
0.264836 0.122286 1
0.408896 0.129335 0.901015
0.552972 0.13637 0.80177
0.697063 0.143404 0.70251
0.841138 0.150439 0.60325
0.985229 0.157473 0.50399
1 0.164508 0.404746
1 0.171542 0.305486
1 0.178576 0.206226
0.144747 0.278126 1
0.288823 0.285176 0.94136
0.432898 0.29221 0.8421
0.576989 0.299245 0.74284
0.721065 0.306279 0.64358
0.865156 0.313313 0.544335
1 0.320348 0.445075
1 0.327382 0.345815
1 0.334417 0.246555
0.0246738 0.433967 1
0.168734 0.441016 0.981689
0.312825 0.448051 0.882429
0.456901 0.455085 0.783169
0.600992 0.462119 0.683925
0.745068 0.469154 0.584665
0.889158 0.476188 0.485405
1 0.483223 0.386145
1 0.490257 0.2869
0 0.589807 1
0.048661 0.596841 1
0.192752 0.603891 0.922759
0.336828 0.610925 0.823514
0.480919 0.61796 0.724254
0.624994 0.624994 0.624994
0.76907 0.632029 0.525734
0.913161 0.639063 0.426474
1 0.646097 0.32723
0 0.745647 1
0 0.752682 1
0.0726635 0.759731 0.963088
0.216754 0.766766 0.863844
0.36083 0.7738 0.764584
0.504921 0.780835 0.665324
0.648997 0.787869 0.566064
0.793088 0.794903 0.466819
0.937163 0.801938 0.367559
0 0.901488 1
0 0.908522 1
0 0.915572 1
0.0966812 0.922606 0.904173
0.240757 0.929641 0.804913
0.384833 0.936675 0.705653
0.528923 0.943709 0.606409
0.672999 0.950744 0.507149
0.81709 0.957778 0.407889
0 1 1
0 1 1
0 1 1
0 1 0.944503
0.120684 1 0.845243
0.264759 1 0.745998
0.40885 1 0.646738
0.552926 1 0.547478
0.697017 1 0.448218
0.605966 0 1
0.750027 0 1
0.894118 0 0.905028
1 0 0.805768
1 0 0.706523
1 0 0.607263
1 0 0.508003
1 0 0.408743
1 0 0.309499
0.485908 0 1
0.629969 0 1
0.77406 0 0.945357
0.918135 0 0.846098
1 0 0.746853
1 0 0.647593
1 0 0.548333
1 0 0.449073
1 0 0.349828
0.365835 0.0844129 1
0.509896 0.0914473 1
0.653971 0.098497 0.985687
0.798062 0.105531 0.886427
0.942138 0.112566 0.787182
1 0.1196 0.687922
1 0.126635 0.588663
1 0.133669 0.489403
1 0.140703 0.390158
0.245747 0.240253 1
0.389822 0.247288 1
0.533898 0.254337 1
0.677974 0.261372 0.926772
0.822065 0.268406 0.827512
0.96614 0.275441 0.728252
1 0.282475 0.628992
1 0.289509 0.529747
1 0.296544 0.430488
0.125673 0.396094 1
0.269734 0.403128 1
0.413825 0.410178 1
0.5579 0.417212 0.967102
0.701991 0.424247 0.867842
0.846067 0.431281 0.768582
0.990158 0.438315 0.669337
1 0.44535 0.570077
1 0.452384 0.470817
0.00560006 0.551934 1
0.14966 0.558968 1
0.293736 0.566018 1
0.437827 0.573053 1
0.581903 0.580087 0.908171
0.725994 0.587121 0.808927
0.870069 0.594156 0.709667
1 0.60119 0.610407
1 0.608225 0.511147
0 0.707774 1
0.0295872 0.714809 1
0.173663 0.721843 1
0.317754 0.728893 1
0.46183 0.735927 0.948516
0.60592 0.742962 0.849256
0.749996 0.749996 0.749996
0.894072 0.757031 0.650736
1 0.764065 0.551476
0 0.863615 1
0 0.870649 1
0.0535897 0.877684 1
0.197665 0.884733 1
0.341756 0.891768 0.988846
0.485832 0.898802 0.889586
0.629923 0.905837 0.790326
0.773999 0.912871 0.691066
0.91809 0.919905 0.591821
0 1 1
0 1 1
0 1 1
0.0775921 1 1
0.221683 1 1
0.365759 1 0.929915
0.509834 1 0.830655
0.653925 1 0.731411
0.798001 1 0.632151
0.706966 0 1
0.851026 0 1
0.995117 0 1
1 0 0.9897
1 0 0.89044
1 0 0.79118
1 0 0.691936
1 0 0.592676
1 0 0.493416
0.586908 0 1
0.730968 0 1
0.875044 0 1
1 0 1
1 0 0.93077
1 0 0.83151
1 0 0.732265
1 0 0.633005
1 0 0.533745
0.466819 0.04654 1
0.610895 0.0535744 1
0.754971 0.0606088 1
0.899046 0.0676585 1
1 0.0746929 0.971099
1 0.0817273 0.871855
1 0.0887617 0.772595
1 0.0957961 0.673335
1 0.102831 0.574075
0.346746 0.20238 1
0.490806 0.209415 1
0.634897 0.216449 1
0.778973 0.223499 1
0.923064 0.230533 1
1 0.237568 0.912184
1 0.244602 0.812924
1 0.251637 0.713664
1 0.258671 0.614404
0.226673 0.358221 1
0.370733 0.365255 1
0.514824 0.37229 1
0.6589 0.379339 1
0.802976 0.386374 1
0.947066 0.393408 0.952514
1 0.400443 0.853254
1 0.407477 0.753994
1 0.414511 0.654749
0.1066 0.514061 1
0.25066 0.521096 1
0.394736 0.52813 1
0.538827 0.53518 1
0.682902 0.542214 1
0.826993 0.549249 0.992844
0.971069 0.556283 0.893584
1 0.563317 0.794339
1 0.570352 0.695079
0 0.669902 1
0.130587 0.676936 1
0.274662 0.68397 1
0.418738 0.69102 1
0.562829 0.698054 1
0.706905 0.705089 1
0.850996 0.712123 0.933928
0.995071 0.719158 0.834669
1 0.726192 0.735409
0 0.825742 1
0.0104982 0.832776 1
0.154589 0.839811 1
0.298665 0.846845 1
0.442756 0.853895 1
0.586831 0.860929 1
0.730922 0.867964 0.974258
0.874998 0.874998 0.874998
1 0.882033 0.775738
0 0.981582 1
0 0.988617 1
0.0345159 0.995651 1
0.178592 1 1
0.322667 1 1
0.466758 1 1
0.610834 1 1
0.754925 1 0.915328
0.899001 1 0.816068
0.807965 0 1
0.952026 0 1
1 0 1
1 0 1
1 0 1
1 0 0.975113
1 0 0.875853
1 0 0.776593
1 0 0.677348
0.687892 0 1
0.831968 0 1
0.976043 0 1
1 0 1
1 0 1
1 0 1
1 0 0.916182
1 0 0.816922
1 0 0.717678
0.567819 0.00866712 1
0.711879 0.0157015 1
0.85597 0.0227359 1
1 0.0297704 1
1 0.03682 1
1 0.0438544 1
1 0.0508888 0.956512
1 0.0579232 0.857267
1 0.0649577 0.758007
0.447745 0.164508 1
0.591806 0.171542 1
0.735897 0.178576 1
0.879973 0.185611 1
1 0.19266 1
1 0.199695 1
1 0.206729 0.996857
1 0.213764 0.897597
1 0.220798 0.798337
0.327672 0.320348 1
0.471733 0.327382 1
0.615808 0.334417 1
0.759899 0.341451 1
0.903975 0.348501 1
1 0.355535 1
1 0.36257 1
1 0.369604 0.937926
1 0.376638 0.838666
0.207584 0.476188 1
0.351659 0.483223 1
0.495735 0.490257 1
0.639826 0.497292 1
0.783902 0.504341 1
0.927977 0.511376 1
1 0.51841 1
1 0.525444 0.978256
1 0.532479 0.878996
0.0875105 0.632029 1
0.231571 0.639063 1
0.375662 0.646097 1
0.519738 0.653132 1
0.663828 0.660182 1
0.807904 0.667216 1
0.951995 0.67425 1
1 0.681285 1
1 0.688319 0.919341
0 0.787869 1
0.111498 0.794903 1
0.255589 0.801938 1
0.399664 0.808972 1
0.54374 0.816022 1
0.687831 0.823056 1
0.831907 0.830091 1
0.975998 0.837125 1
1 0.84416 0.95967
0 0.943709 1
0 0.950744 1
0.1355 0.957778 1
0.279591 0.964813 1
0.423667 0.971847 1
0.567758 0.978897 1
0.711833 0.985931 1
0.855924 0.992966 1
1 1 1
