public/LUTS/Color Shift/ColorShift_05.cube
TITLE "Generated by Resolve"
LUT_3D_SIZE 33
0 0 0
0 0.0148165 0
0 0.029633 0
0 0.0444495 0
0 0.059266 0
0 0.0740826 0
0 0.0889143 0
0 0.103731 0
0 0.118547 0
0 0.133364 0
0 0.14818 0
0 0.162997 0
0 0.177829 0
0 0.192645 0
0 0.207462 0
0 0.222278 0
0 0.237095 0
0 0.251926 0
0 0.266743 0
0 0.281559 0
0 0.296376 0
0 0.311192 0
0 0.326009 0
0 0.340841 0
0 0.355657 0
0 0.370474 0
0 0.38529 0
0 0.400107 0
0 0.414923 0
0 0.429755 0
0 0.444572 0
0 0.459388 0
0 0.474205 0
0.028275 0.016083 0.0518502
0.0104829 0.0308995 0.0510414
0 0.045716 0.0502327
0 0.0605325 0.049424
0 0.075349 0.0486
0 0.0901808 0.0477913
0 0.104997 0.0469825
0 0.119814 0.0461738
0 0.13463 0.0453498
0 0.149447 0.0445411
0 0.164263 0.0437324
0 0.179095 0.0429236
0 0.193912 0.0420996
0 0.208728 0.0412909
0 0.223545 0.0404822
0 0.238361 0.0396735
0 0.253193 0.0388647
0 0.268009 0.0380407
0 0.282826 0.037232
0 0.297642 0.0364233
0 0.312459 0.0356146
0 0.327276 0.0347906
0 0.342107 0.0339818
0 0.356924 0.0331731
0 0.37174 0.0323644
0 0.386557 0.0315404
0 0.401373 0.0307317
0 0.41619 0.0299229
0 0.431022 0.0291142
0 0.445838 0.0283055
0 0.460655 0.0274815
0 0.475471 0.0266728
0 0.490288 0.025864
0.0565652 0.0321813 0.103731
0.0387732 0.0469978 0.102922
0.0209812 0.0618143 0.102113
0.00317388 0.0766308 0.101289
0 0.0914473 0.100481
0 0.106264 0.0996719
0 0.12108 0.0988632
0 0.135912 0.0980545
0 0.150729 0.0972305
0 0.165545 0.0964218
0 0.180362 0.095613
0 0.195178 0.0948043
0 0.21001 0.0939803
0 0.224826 0.0931716
0 0.239643 0.0923629
0 0.254459 0.0915541
0 0.269276 0.0907301
0 0.284092 0.0899214
0 0.298924 0.0891127
0 0.313741 0.088304
0 0.328557 0.0874952
0 0.343374 0.0866712
0 0.35819 0.0858625
0 0.373007 0.0850538
0 0.387839 0.0842451
0 0.402655 0.0834211
0 0.417472 0.0826123
0 0.432288 0.0818036
0 0.447105 0.0809949
0 0.461936 0.0801709
0 0.476753 0.0793622
0 0.491569 0.0785534
0 0.506386 0.0777447
0.0848554 0.0482795 0.155612
0.0670634 0.0630808 0.154803
0.0492714 0.0778973 0.153994
0.0314641 0.0927291 0.15317
0.0136721 0.107546 0.152361
0 0.122362 0.151553
0 0.137179 0.150744
0 0.151995 0.14992
0 0.166827 0.149111
0 0.181643 0.148302
0 0.19646 0.147494
0 0.211276 0.14667
0 0.226093 0.145861
0 0.240909 0.145052
0 0.255741 0.144244
0 0.270558 0.143435
0 0.285374 0.142611
0 0.300191 0.141802
0 0.315007 0.140993
0 0.329824 0.140185
0 0.344656 0.139361
0 0.359472 0.138552
0 0.374289 0.137743
0 0.389105 0.136934
0 0.403922 0.13611
0 0.418753 0.135302
0 0.43357 0.134493
0 0.448386 0.133684
0 0.463203 0.132876
0 0.478019 0.132052
0 0.492836 0.131243
0 0.507668 0.130434
0 0.522484 0.129625
0.113146 0.0643626 0.207492
0.0953536 0.0791791 0.206683
0.0775464 0.0939956 0.205859
0.0597543 0.108812 0.205051
0.0419623 0.123644 0.204242
0.024155 0.13846 0.203433
0.00636301 0.153277 0.202609
0 0.168093 0.201801
0 0.18291 0.200992
0 0.197726 0.200183
0 0.212558 0.199374
0 0.227375 0.19855
0 0.242191 0.197742
0 0.257008 0.196933
0 0.271824 0.196124
0 0.286641 0.1953
0 0.301472 0.194491
0 0.316289 0.193683
0 0.331106 0.192874
0 0.345922 0.192065
0 0.360739 0.191241
0 0.37557 0.190433
0 0.390387 0.189624
0 0.405203 0.188815
0 0.42002 0.187991
0 0.434836 0.187182
0 0.449653 0.186374
0 0.464485 0.185565
0 0.479301 0.184741
0 0.494118 0.183932
0 0.508934 0.183124
0 0.523751 0.182315
0 0.538567 0.181506
0.141436 0.0804608 0.259373
0.123644 0.0952773 0.258564
0.105837 0.110094 0.25774
0.0880446 0.12491 0.256931
0.0702525 0.139727 0.256123
0.0524453 0.154543 0.255314
0.0346532 0.169375 0.25449
0.016846 0.184192 0.253681
0 0.199008 0.252872
0 0.213825 0.252064
0 0.228641 0.25124
0 0.243458 0.250431
0 0.258289 0.249622
0 0.273106 0.248814
0 0.287922 0.248005
0 0.302739 0.247181
0 0.317556 0.246372
0 0.332387 0.245563
0 0.347204 0.244755
0 0.36202 0.243931
0 0.376837 0.243122
0 0.391653 0.242313
0 0.40647 0.241505
0 0.421302 0.240681
0 0.436118 0.239872
0 0.450935 0.239063
0 0.465751 0.238254
0 0.480568 0.237446
0 0.495384 0.236622
0 0.510216 0.235813
0 0.525032 0.235004
0 0.539849 0.234195
0 0.554665 0.233371
0.169726 0.0965591 0.311254
0.151934 0.11136 0.31043
0.134127 0.126192 0.309621
0.116335 0.141009 0.308812
0.0985275 0.155825 0.308003
0.0807355 0.170642 0.307179
0.0629435 0.185458 0.306371
0.0451362 0.200275 0.305562
0.0273442 0.215106 0.304753
0.00953689 0.229923 0.303944
0 0.244739 0.30312
0 0.259556 0.302312
0 0.274372 0.301503
0 0.289204 0.300694
0 0.304021 0.29987
0 0.318837 0.299062
0 0.333654 0.298253
0 0.34847 0.297444
0 0.363287 0.29662
0 0.378119 0.295811
0 0.392935 0.295003
0 0.407752 0.294194
0 0.422568 0.293385
0 0.437385 0.292561
0 0.452201 0.291752
0 0.467033 0.290944
0 0.481849 0.290135
0 0.496666 0.289311
0 0.511482 0.288502
0 0.526299 0.287694
0 0.541131 0.286885
0 0.555947 0.286076
0 0.570764 0.285252
0.198016 0.112642 0.363119
0.180224 0.127459 0.36231
0.162417 0.142275 0.361501
0.144625 0.157092 0.360693
0.126818 0.171923 0.359884
0.109026 0.18674 0.35906
0.0912337 0.201556 0.358251
0.0734264 0.216373 0.357443
0.0556344 0.231189 0.356634
0.0378271 0.246021 0.35581
0.0200351 0.260838 0.355001
0.00222782 0.275654 0.354192
0 0.290471 0.353384
0 0.305287 0.352575
0 0.320104 0.351751
0 0.334936 0.350942
0 0.349752 0.350134
0 0.364569 0.349325
0 0.379385 0.348501
0 0.394202 0.347692
0 0.409018 0.346883
0 0.42385 0.346075
0 0.438666 0.345251
0 0.453483 0.344442
0 0.468299 0.343633
0 0.483116 0.342824
0 0.497948 0.342016
0 0.512764 0.341192
0 0.527581 0.340383
0 0.542397 0.339574
0 0.557214 0.338766
0 0.57203 0.337942
0 0.586862 0.337133
0.226291 0.12874 0.415
0.208515 0.143557 0.414191
0.190707 0.158373 0.413382
0.172915 0.17319 0.412573
0.155108 0.188006 0.411749
0.137316 0.202838 0.410941
0.119509 0.217655 0.410132
0.101717 0.232471 0.409323
0.0839246 0.247288 0.408515
0.0661173 0.262104 0.407691
0.0483253 0.276921 0.406882
0.030518 0.291752 0.406073
0.012726 0.306569 0.405264
0 0.321386 0.40444
0 0.336202 0.403632
0 0.351019 0.402823
0 0.365835 0.402014
0 0.380667 0.40119
0 0.395483 0.400381
0 0.4103 0.399573
0 0.425116 0.398764
0 0.439933 0.397955
0 0.454765 0.397131
0 0.469581 0.396323
0 0.484398 0.395514
0 0.499214 0.394705
0 0.514031 0.393881
0 0.528847 0.393072
0 0.543679 0.392264
0 0.558495 0.391455
0 0.573312 0.390631
0 0.588129 0.389822
0 0.602945 0.389013
0.254582 0.144839 0.46688
0.236805 0.159655 0.466072
0.218997 0.174472 0.465263
0.201205 0.189288 0.464454
0.183398 0.204105 0.46363
0.165606 0.218921 0.462821
0.147799 0.233738 0.462013
0.130007 0.248569 0.461204
0.112215 0.263386 0.46038
0.0944076 0.278202 0.459571
0.0766155 0.293019 0.458762
0.0588083 0.307836 0.457954
0.0410163 0.322652 0.45713
0.023209 0.337484 0.456321
0.00541695 0.3523 0.455512
0 0.367117 0.454704
0 0.381933 0.453895
0 0.39675 0.453071
0 0.411582 0.452262
0 0.426398 0.451453
0 0.441215 0.450645
0 0.456031 0.449821
0 0.470848 0.449012
0 0.485664 0.448203
0 0.500496 0.447395
0 0.515312 0.446586
0 0.530129 0.445762
0 0.544945 0.444953
0 0.559762 0.444144
0 0.574578 0.443336
0 0.58941 0.442512
0 0.604227 0.441703
0 0.619043 0.440894
0.282872 0.160937 0.518761
0.26508 0.175738 0.517952
0.247288 0.190555 0.517143
0.229496 0.205386 0.51632
0.211688 0.220203 0.515511
0.193896 0.235019 0.514702
0.176089 0.249836 0.513893
0.158297 0.264652 0.513085
0.14049 0.279469 0.512261
0.122698 0.294301 0.511452
0.104906 0.309117 0.510643
0.0870985 0.323934 0.509834
0.0693065 0.33875 0.50901
0.0514992 0.353567 0.508202
0.0337072 0.368399 0.507393
0.0159152 0.383215 0.506584
0 0.398032 0.50576
0 0.412848 0.504952
0 0.427665 0.504143
0 0.442481 0.503334
0 0.457313 0.502525
0 0.472129 0.501701
0 0.486946 0.500893
0 0.501762 0.500084
0 0.516579 0.499275
0 0.531395 0.498451
0 0.546227 0.497642
0 0.561044 0.496834
0 0.57586 0.496025
0 0.590677 0.495201
0 0.605493 0.494392
0 0.62031 0.493584
0 0.635142 0.492775
0.311162 0.17702 0.570642
0.29337 0.191836 0.569833
0.275578 0.206653 0.569024
0.257786 0.221469 0.5682
0.239979 0.236286 0.567391
0.222187 0.251118 0.566583
0.204379 0.265934 0.565774
0.186587 0.280751 0.56495
0.16878 0.295567 0.564141
0.150988 0.310384 0.563333
0.133196 0.325216 0.562524
0.115389 0.340032 0.5617
0.0975967 0.354849 0.560891
0.0797894 0.369665 0.560082
0.0619974 0.384482 0.559274
0.0441901 0.399298 0.558465
0.0263981 0.41413 0.557641
0.00860609 0.428946 0.556832
0 0.443763 0.556023
0 0.458579 0.555215
0 0.473396 0.554391
0 0.488212 0.553582
0 0.503044 0.552773
0 0.517861 0.551965
0 0.532677 0.551141
0 0.547494 0.550332
0 0.56231 0.549523
0 0.577127 0.548714
0 0.591959 0.547906
0 0.606775 0.547082
0 0.621592 0.546273
0 0.636408 0.545464
0 0.651225 0.544656
0.339452 0.193118 0.622522
0.32166 0.207935 0.621714
0.303868 0.222751 0.62089
0.286061 0.237568 0.620081
0.268269 0.252384 0.619272
0.250477 0.267201 0.618463
0.23267 0.282032 0.617655
0.214878 0.296849 0.616831
0.19707 0.311666 0.616022
0.179278 0.326482 0.615213
0.161471 0.341299 0.614404
0.143679 0.356115 0.613581
0.125887 0.370947 0.612772
0.10808 0.385763 0.611963
0.0902876 0.40058 0.611154
0.0724804 0.415396 0.61033
0.0546883 0.430213 0.609522
0.0368963 0.445029 0.608713
0.019089 0.459861 0.607904
0.00129702 0.474678 0.607095
0 0.489494 0.606271
0 0.504311 0.605463
0 0.519127 0.604654
0 0.533944 0.603845
0 0.548775 0.603021
0 0.563592 0.602213
0 0.578408 0.601404
0 0.593225 0.600595
0 0.608042 0.599771
0 0.622873 0.598962
0 0.63769 0.598154
0 0.652506 0.597345
0 0.667323 0.596536
0.367742 0.209216 0.674403
0.34995 0.224018 0.673594
0.332158 0.238849 0.67277
0.314351 0.253666 0.671962
0.296559 0.268482 0.671153
0.278767 0.283299 0.670344
0.26096 0.298116 0.66952
0.243168 0.312932 0.668711
0.22536 0.327764 0.667903
0.207568 0.34258 0.667094
0.189761 0.357397 0.66627
0.171969 0.372213 0.665461
0.154177 0.38703 0.664652
0.13637 0.401846 0.663844
0.118578 0.416678 0.663035
0.100771 0.431495 0.662211
0.0829786 0.446311 0.661402
0.0651713 0.461128 0.660594
0.0473793 0.475944 0.659785
0.0295872 0.490761 0.658961
0.01178 0.505592 0.658152
0 0.520409 0.657343
0 0.535225 0.656535
0 0.550042 0.655711
0 0.564858 0.654902
0 0.57969 0.654093
0 0.594507 0.653284
0 0.609323 0.652476
0 0.62414 0.651652
0 0.638956 0.650843
0 0.653773 0.650034
0 0.668605 0.649226
0 0.683421 0.648402
0.396033 0.225299 0.726284
0.378241 0.240116 0.72546
0.360449 0.254932 0.724651
0.342641 0.269749 0.723842
0.324849 0.284581 0.723033
0.307042 0.299397 0.72221
0.28925 0.314214 0.721401
0.271458 0.32903 0.720592
0.253651 0.343847 0.719783
0.235859 0.358663 0.718975
0.218051 0.373495 0.718151
0.200259 0.388312 0.717342
0.182452 0.403128 0.716533
0.16466 0.417945 0.715724
0.146868 0.432761 0.7149
0.129061 0.447578 0.714092
0.111269 0.462409 0.713283
0.0934615 0.477226 0.712474
0.0756695 0.492042 0.711666
0.0578622 0.506859 0.710842
0.0400702 0.521675 0.710033
0.0222782 0.536507 0.709224
0.00447089 0.551324 0.708415
0 0.56614 0.707591
0 0.580957 0.706783
0 0.595773 0.705974
0 0.61059 0.705165
0 0.625422 0.704341
0 0.640238 0.703532
0 0.655055 0.702724
0 0.669871 0.701915
0 0.684688 0.701106
0 0.699504 0.700282
0.424323 0.241398 0.778149
0.406531 0.256214 0.77734
0.388739 0.271031 0.776532
0.370932 0.285847 0.775723
0.35314 0.300664 0.774914
0.335332 0.31548 0.77409
0.31754 0.330312 0.773281
0.299733 0.345129 0.772473
0.281941 0.359945 0.771664
0.264149 0.374762 0.77084
0.246342 0.389578 0.770031
0.22855 0.404395 0.769223
0.210742 0.419226 0.768414
0.19295 0.434043 0.767605
0.175158 0.448859 0.766781
0.157351 0.463676 0.765972
0.139559 0.478492 0.765164
0.121752 0.493324 0.764355
0.10396 0.508141 0.763531
0.0861524 0.522957 0.762722
0.0683604 0.537774 0.761913
0.0505684 0.55259 0.761105
0.0327611 0.567407 0.760281
0.0149691 0.582238 0.759472
0 0.597055 0.758663
0 0.611872 0.757855
0 0.626688 0.757046
0 0.641505 0.756222
0 0.656321 0.755413
0 0.671153 0.754604
0 0.685969 0.753796
0 0.700786 0.752972
0 0.715602 0.752163
0.452613 0.257496 0.83003
0.434821 0.272297 0.829221
0.417029 0.287129 0.828412
0.399222 0.301946 0.827604
0.38143 0.316762 0.82678
0.363622 0.331579 0.825971
0.34583 0.346395 0.825162
0.328023 0.361212 0.824353
0.310231 0.376043 0.823545
0.292439 0.39086 0.822721
0.274632 0.405676 0.821912
0.25684 0.420493 0.821103
0.239033 0.435309 0.820294
0.221241 0.450141 0.819471
0.203433 0.464958 0.818662
0.185641 0.479774 0.817853
0.167849 0.494591 0.817044
0.150042 0.509407 0.81622
0.13225 0.524224 0.815412
0.114443 0.539055 0.814603
0.0966506 0.553872 0.813794
0.0788434 0.568689 0.812985
0.0610513 0.583505 0.812161
0.0432593 0.598321 0.811353
0.025452 0.613138 0.810544
0.00766003 0.62797 0.809735
0 0.642786 0.808911
0 0.657603 0.808103
0 0.672419 0.807294
0 0.687236 0.806485
0 0.702068 0.805676
0 0.716884 0.804852
0 0.731701 0.804044
0.480903 0.273579 0.88191
0.463111 0.288396 0.881102
0.445304 0.303212 0.880293
0.427512 0.318029 0.879484
0.40972 0.33286 0.87866
0.391913 0.347677 0.877852
0.374121 0.362493 0.877043
0.356313 0.37731 0.876234
0.338521 0.392126 0.87541
0.320714 0.406958 0.874601
0.302922 0.421775 0.873793
0.28513 0.436591 0.872984
0.267323 0.451408 0.872175
0.249531 0.466224 0.871351
0.231724 0.481041 0.870542
0.213931 0.495872 0.869734
0.196139 0.510689 0.868925
0.178332 0.525505 0.868101
0.16054 0.540322 0.867292
0.142733 0.555138 0.866484
0.124941 0.569955 0.865675
0.107134 0.584787 0.864851
0.0893416 0.599603 0.864042
0.0715496 0.61442 0.863233
0.0537423 0.629236 0.862425
0.0359503 0.644053 0.861616
0.018143 0.658885 0.860792
0.000350958 0.673701 0.859983
0 0.688518 0.859174
0 0.703334 0.858366
0 0.718151 0.857542
0 0.732967 0.856733
0 0.747799 0.855924
0.509194 0.289677 0.933791
0.491402 0.304494 0.932982
0.473594 0.31931 0.932174
0.455802 0.334127 0.93135
0.43801 0.348943 0.930541
0.420203 0.363775 0.929732
0.402411 0.378592 0.928923
0.384604 0.393408 0.928115
0.366812 0.408225 0.927291
0.349004 0.423041 0.926482
0.331212 0.437858 0.925673
0.31342 0.452689 0.924865
0.295613 0.467506 0.924041
0.277821 0.482322 0.923232
0.260014 0.497139 0.922423
0.242222 0.511955 0.921614
0.224414 0.526772 0.92079
0.206622 0.541604 0.919982
0.18883 0.55642 0.919173
0.171023 0.571237 0.918364
0.153231 0.586053 0.917556
0.135424 0.60087 0.916732
0.117632 0.615702 0.915923
0.0998245 0.630518 0.915114
0.0820325 0.645335 0.914305
0.0642405 0.660151 0.913481
0.0464332 0.674968 0.912673
0.0286412 0.689784 0.911864
0.0108339 0.704616 0.911055
0 0.719432 0.910231
0 0.734249 0.909422
0 0.749065 0.908614
0 0.763882 0.907805
0.537484 0.305776 0.985672
0.519692 0.320592 0.984863
0.501884 0.335409 0.984054
0.484092 0.350225 0.98323
0.466285 0.365042 0.982422
0.448493 0.379858 0.981613
0.430701 0.394675 0.980804
0.412894 0.409506 0.97998
0.395102 0.424323 0.979171
0.377295 0.439139 0.978363
0.359503 0.453956 0.977554
0.341695 0.468772 0.97673
0.323903 0.483589 0.975921
0.306111 0.498421 0.975113
0.288304 0.513237 0.974304
0.270512 0.528054 0.973495
0.252705 0.54287 0.972671
0.234913 0.557687 0.971862
0.217121 0.572519 0.971054
0.199313 0.587335 0.970245
0.181521 0.602152 0.969421
0.163714 0.616968 0.968612
0.145922 0.631785 0.967803
0.128115 0.646601 0.966995
0.110323 0.661433 0.966186
0.0925307 0.676249 0.965362
0.0747234 0.691066 0.964553
0.0569314 0.705882 0.963745
0.0391241 0.720699 0.962936
0.0213321 0.735515 0.962112
0.00352483 0.750347 0.961303
0 0.765164 0.960494
0 0.77998 0.959686
0.565759 0.321874 1
0.547982 0.336675 1
0.530175 0.351492 1
0.512383 0.366323 1
0.494575 0.38114 1
0.476783 0.395956 1
0.458991 0.410773 1
0.441184 0.425589 1
0.423392 0.440406 1
0.405585 0.455238 1
0.387793 0.470054 1
0.369985 0.484871 1
0.352193 0.499687 1
0.334401 0.514504 1
0.316594 0.529335 1
0.298802 0.544152 1
0.280995 0.558968 1
0.263203 0.573785 1
0.245396 0.588602 1
0.227604 0.603418 1
0.209812 0.61825 1
0.192004 0.633066 1
0.174212 0.647883 1
0.156405 0.662699 1
0.138613 0.677516 1
0.120806 0.692332 1
0.103014 0.707164 1
0.0852216 0.721981 1
0.0674144 0.736797 1
0.0496223 0.751614 1
0.0318151 0.76643 1
0.014023 0.781262 1
0 0.796078 1
0.594049 0.337957 1
0.576272 0.352773 1
0.558465 0.36759 1
0.540673 0.382406 1
0.522866 0.397223 1
0.505074 0.412055 1
0.487266 0.426871 1
0.469474 0.441688 1
0.451682 0.456504 1
0.433875 0.471321 1
0.416083 0.486152 1
0.398276 0.500969 1
0.380484 0.515785 1
0.362676 0.530602 1
0.344884 0.545419 1
0.327092 0.560235 1
0.309285 0.575067 1
0.291493 0.589883 1
0.273686 0.6047 1
0.255894 0.619516 1
0.238102 0.634333 1
0.220295 0.649149 1
0.202502 0.663981 1
0.184695 0.678798 1
0.166903 0.693614 1
0.149096 0.708431 1
0.131304 0.723247 1
0.113512 0.738079 1
0.0957046 0.752895 1
0.0779126 0.767712 1
0.0601053 0.782528 1
0.0423133 0.797345 1
0.024506 0.812161 1
0.622339 0.354055 1
0.604547 0.368872 1
0.586755 0.383688 1
0.568963 0.398505 1
0.551156 0.413321 1
0.533364 0.428138 1
0.515557 0.442969 1
0.497765 0.457786 1
0.479973 0.472602 1
0.462165 0.487419 1
0.444373 0.502235 1
0.426566 0.517052 1
0.408774 0.531884 1
0.390967 0.5467 1
0.373175 0.561517 1
0.355383 0.576333 1
0.337575 0.59115 1
0.319783 0.605966 1
0.301976 0.620798 1
0.284184 0.635615 1
0.266377 0.650431 1
0.248585 0.665248 1
0.230793 0.680064 1
0.212985 0.694896 1
0.195193 0.709712 1
0.177386 0.724529 1
0.159594 0.739345 1
0.141787 0.754162 1
0.123995 0.768978 1
0.106203 0.78381 1
0.0883955 0.798627 1
0.0706035 0.813443 1
0.0527962 0.82826 1
0.650629 0.370153 1
0.632837 0.384955 1
0.615045 0.399786 1
0.597253 0.414603 1
0.579446 0.429419 1
0.561654 0.444236 1
0.543847 0.459052 1
0.526055 0.473869 1
0.508247 0.488701 1
0.490455 0.503517 1
0.472663 0.518334 1
0.454856 0.53315 1
0.437064 0.547967 1
0.419257 0.562783 1
0.401465 0.577615 1
0.383658 0.592432 1
0.365866 0.607248 1
0.348074 0.622065 1
0.330266 0.636881 1
0.312474 0.651713 1
0.294667 0.666529 1
0.276875 0.681346 1
0.259083 0.696162 1
0.241276 0.710979 1
0.223484 0.725795 1
0.205676 0.740627 1
0.187884 0.755444 1
0.170077 0.77026 1
0.152285 0.785077 1
0.134493 0.799893 1
0.116686 0.81471 1
0.0988937 0.829541 1
0.0810864 0.844358 1
0.67892 0.386236 1
0.661128 0.401053 1
0.643336 0.415869 1
0.625528 0.430686 1
0.607736 0.445518 1
0.589944 0.460334 1
0.572137 0.475151 1
0.554345 0.489967 1
0.536538 0.504784 1
0.518746 0.5196 1
0.500954 0.534432 1
0.483146 0.549249 1
0.465354 0.564065 1
0.447547 0.578882 1
0.429755 0.593698 1
0.411948 0.60853 1
0.394156 0.623346 1
0.376364 0.638163 1
0.358557 0.652979 1
0.340764 0.667796 1
0.322957 0.682612 1
0.305165 0.697444 1
0.287358 0.712261 1
0.269566 0.727077 1
0.251774 0.741894 1
0.233967 0.75671 1
0.216175 0.771527 1
0.198367 0.786358 1
0.180575 0.801175 1
0.162768 0.815991 1
0.144976 0.830808 1
0.127184 0.845624 1
0.109377 0.860456 1
0.70721 0.402335 1
0.689418 0.417151 1
0.671626 0.431968 1
0.653819 0.446784 1
0.636027 0.461601 1
0.618235 0.476417 1
0.600427 0.491249 1
0.582635 0.506065 1
0.564828 0.520882 1
0.547036 0.535698 1
0.529229 0.550515 1
0.511437 0.565347 1
0.493645 0.580163 1
0.475837 0.59498 1
0.458045 0.609796 1
0.440238 0.624613 1
0.422446 0.639429 1
0.404639 0.654261 1
0.386847 0.669078 1
0.369055 0.683894 1
0.351247 0.698711 1
0.333455 0.713527 1
0.315648 0.728344 1
0.297856 0.743175 1
0.280049 0.757992 1
0.262257 0.772808 1
0.244465 0.787625 1
0.226658 0.802441 1
0.208865 0.817273 1
0.191058 0.83209 1
0.173266 0.846906 1
0.155474 0.861723 1
0.137667 0.876539 1
0.7355 0.418433 1
0.717708 0.433234 1
0.699916 0.448066 1
0.682109 0.462882 1
0.664317 0.477699 1
0.64651 0.492515 1
0.628717 0.507332 1
0.610925 0.522164 1
0.593118 0.53698 1
0.575326 0.551797 1
0.557519 0.566613 1
0.539727 0.58143 1
0.521935 0.596246 1
0.504128 0.611078 1
0.486336 0.625895 1
0.468528 0.640711 1
0.450736 0.655528 1
0.432929 0.670344 1
0.415137 0.685161 1
0.397345 0.699992 1
0.379538 0.714809 1
0.361746 0.729625 1
0.343938 0.744442 1
0.326146 0.759258 1
0.308339 0.77409 1
0.290547 0.788907 1
0.272755 0.803723 1
0.254948 0.81854 1
0.237156 0.833356 1
0.219348 0.848173 1
0.201556 0.863005 1
0.183749 0.877821 1
0.165957 0.892638 1
0.76379 0.434516 1
0.745998 0.449332 1
0.728206 0.464149 1
0.710399 0.478981 1
0.692607 0.493797 1
0.6748 0.508614 1
0.657008 0.52343 1
0.639216 0.538247 1
0.621408 0.553063 1
