public/LUTS/Color Shift/ColorShift_13.cube
TITLE "Generated by Resolve"
LUT_3D_SIZE 5
0 0 0
0 0.0930343 0
0 0.186084 0
0 0.279118 0
0 0.372168 0
0 0.206851 0.347173
0 0.299886 0.206851
0 0.392935 0.0665141
0 0.485985 0
0 0.579019 0
0 0.413718 0.694377
0 0.506752 0.554055
0 0.599802 0.413718
0 0.692851 0.273381
0 0.785885 0.133043
0 0.620584 1
0 0.713619 0.901244
0 0.806668 0.760922
0 0.899702 0.620584
0 0.992752 0.480247
0 0.827451 1
0 0.920485 1
0 1 1
0 1 0.967773
0 1 0.827436
0.254994 0 0.0431373
0.254994 0.0431373 0
0.254994 0.136187 0
0.254994 0.229221 0
0.254994 0.322271 0
0.249989 0.156954 0.390311
0.249989 0.249989 0.249989
0.249989 0.343038 0.109651
0.249989 0.436072 0
0.249989 0.529122 0
0.244984 0.363821 0.737514
0.244984 0.456855 0.597192
0.244984 0.549905 0.456855
0.244984 0.642939 0.316518
0.244984 0.735988 0.176181
0.239994 0.570687 1
0.239994 0.663722 0.944381
0.239994 0.756756 0.804059
0.239994 0.849805 0.663722
0.239994 0.942855 0.523384
0.234989 0.777554 1
0.234989 0.870588 1
0.234989 0.963623 1
0.234989 1 1
0.234989 1 0.870573
0.509987 0 0.0862745
0.509987 0 0
0.509987 0.0862745 0
0.509987 0.179324 0
0.509987 0.272358 0
0.504997 0.107042 0.433448
0.504997 0.200076 0.293126
0.504997 0.293126 0.152789
0.504997 0.386175 0.0124514
0.504997 0.47921 0
0.499992 0.313909 0.780652
0.499992 0.406943 0.64033
0.499992 0.499992 0.499992
0.499992 0.593042 0.359655
0.499992 0.686076 0.219318
0.494987 0.520775 1
0.494987 0.613809 0.987533
0.494987 0.706859 0.847196
0.494987 0.799908 0.706859
0.494987 0.892943 0.566522
0.489998 0.727642 1
0.489998 0.820676 1
0.489998 0.913725 1
0.489998 1 1
0.489998 1 0.913725
0.764996 0 0.129412
0.764996 0 0
0.764996 0.0363622 0
0.764996 0.129412 0
0.764996 0.222461 0
0.759991 0.057145 0.4766
0.759991 0.150179 0.336263
0.759991 0.243229 0.195926
0.759991 0.336263 0.0556039
0.759991 0.429313 0
0.755001 0.264012 0.823789
0.755001 0.357046 0.683467
0.755001 0.45008 0.54313
0.755001 0.54313 0.402792
0.755001 0.636179 0.262455
0.749996 0.470878 1
0.749996 0.563912 1
0.749996 0.656947 0.890333
0.749996 0.749996 0.749996
0.749996 0.843046 0.609659
0.744991 0.677729 1
0.744991 0.770779 1
0.744991 0.863813 1
0.744991 0.956863 1
0.744991 1 0.956863
1 0 0.172564
1 0 0.0322271
1 0 0
1 0.0795148 0
1 0.172549 0
1 0.00723278 0.519738
1 0.100267 0.379416
1 0.193317 0.239078
1 0.286366 0.0987411
1 0.3794 0
1 0.214099 0.866941
1 0.307134 0.726604
1 0.400183 0.586267
1 0.493233 0.44593
1 0.586267 0.305608
1 0.420966 1
1 0.514 1
1 0.60705 0.933471
1 0.700084 0.793133
1 0.793133 0.652796
1 0.627832 1
1 0.720867 1
1 0.813916 1
1 0.90695 1
1 1 1
