public/LUTS/Color Shift/ColorShift_52.cube
TITLE "Generated by Resolve"
LUT_3D_SIZE 5
0 0 0
0 0.1626 0
0 0.3252 0
0 0.4878 0
0 0.650416 0
0.313878 0.0826886 0.568795
0.0245975 0.245289 0.562478
0 0.407889 0.556161
0 0.570504 0.549828
0 0.733104 0.543511
0.627787 0.165393 1
0.338506 0.327993 1
0.0491951 0.490593 1
0 0.653193 1
0 0.815808 1
0.941695 0.248096 1
0.652399 0.410681 1
0.363104 0.573297 1
0.0738079 0.735897 1
0 0.898497 1
1 0.330785 1
0.966308 0.493385 1
0.677012 0.655985 1
0.387701 0.818601 1
0.0984054 0.981201 1
0.225391 0.00469978 0
0 0.1673 0
0 0.3299 0
0 0.4925 0
0 0.655116 0
0.539269 0.0873884 0.256306
0.249989 0.249989 0.249989
0 0.412589 0.243671
0 0.575204 0.237339
0 0.737804 0.231022
0.853178 0.170092 0.825147
0.563897 0.332692 0.81883
0.274586 0.495293 0.812497
0 0.657893 0.80618
0 0.820508 0.799863
1 0.252796 1
0.877791 0.415381 1
0.588495 0.577996 1
0.299199 0.740597 1
0.00988785 0.903197 1
1 0.335485 1
1 0.498085 1
0.902388 0.660685 1
0.613092 0.823301 1
0.323796 0.985901 1
0.450797 0.00939956 0
0.161501 0.172 0
0 0.3346 0
0 0.4972 0
0 0.659815 0
0.764675 0.0920882 0
0.475395 0.254688 0
0.186084 0.417288 0
0 0.579904 0
0 0.742504 0
1 0.174792 0.512642
0.789288 0.337392 0.50631
0.499992 0.499992 0.499992
0.210697 0.662593 0.493675
0 0.825208 0.487343
1 0.257496 1
1 0.420081 1
0.813901 0.582696 1
0.52459 0.745296 1
0.235294 0.907897 1
1 0.340185 1
1 0.502785 1
1 0.665385 1
0.838499 0.828 1
0.549203 0.9906 1
0.676188 0.0140993 0
0.386908 0.176699 0
0.097612 0.3393 0
0 0.5019 0
0 0.664515 0
0.990082 0.096788 0
0.700786 0.259388 0
0.41149 0.421988 0
0.122194 0.584604 0
0 0.747204 0
1 0.179492 0.200122
1 0.342092 0.193805
0.725399 0.504692 0.187488
0.436088 0.667292 0.181155
0.146792 0.829908 0.174838
1 0.262196 0.768963
1 0.424781 0.762646
1 0.587396 0.756313
0.749996 0.749996 0.749996
0.4607 0.912596 0.743679
1 0.344884 1
1 0.507485 1
1 0.670085 1
1 0.8327 1
0.774594 0.9953 1
0.901595 0.0187991 0
0.612314 0.181399 0
0.323018 0.343999 0
0.0337072 0.5066 0
0 0.669215 0
1 0.101488 0
0.926192 0.264088 0
0.636896 0.426688 0
0.347601 0.589303 0
0.0582895 0.751904 0
1 0.184192 0
1 0.346792 0
0.95079 0.509392 0
0.661494 0.671992 0
0.372198 0.834607 0
1 0.266896 0.456458
1 0.42948 0.450126
1 0.592096 0.443809
0.975402 0.754696 0.437491
0.686091 0.917296 0.431159
1 0.349584 1
1 0.512184 1
1 0.674784 1
1 0.8374 1
1 1 1
