public/LUTS/Color Shift/ColorShift_74.cube
TITLE "Generated by Resolve"
LUT_3D_SIZE 9
0 0 0
0.196582 0 0
0.393179 0 0
0.589776 0 0
0.786374 0 0
0.982971 0 0
1 0 0
1 0 0
1 0 0
0 0.149401 0
0.145235 0.128954 0
0.341833 0.108507 0
0.53843 0.0880598 0
0.735027 0.0675975 0
0.931624 0.0471504 0
1 0.0267033 0
1 0.00624094 0
1 0 0
0 0.298833 0
0.0938735 0.278386 0
0.290486 0.257939 0
0.487083 0.237476 0
0.68368 0.217029 0
0.880278 0.196582 0
1 0.17612 0
1 0.155673 0
1 0.135225 0
0 0.448264 0
0.0425269 0.427817 0
0.239124 0.407355 0
0.435721 0.386908 0
0.632334 0.366461 0
0.828931 0.345998 0
1 0.325551 0
1 0.305104 0
1 0.284642 0
0 0.597681 0
0 0.577234 0
0.187778 0.556786 0
0.384375 0.536339 0
0.580972 0.515877 0
0.777569 0.49543 0
0.974166 0.474983 0
1 0.45452 0
1 0.434073 0
0 0.747112 0
0 0.726665 0
0.136431 0.706218 0
0.333028 0.685756 0
0.529625 0.665309 0
0.726223 0.644862 0
0.92282 0.624399 0
1 0.603952 0
1 0.583505 0
0 0.896544 0
0 0.876081 0
0.0850843 0.855634 0
0.281682 0.835187 0
0.478279 0.81474 0
0.674876 0.794278 0
0.871473 0.773831 0
1 0.753384 0
1 0.732921 0
0 1 0
0 1 0
0.0337224 1 0
0.23032 0.984604 0
0.426932 0.964157 0
0.623529 0.943709 0
0.820127 0.923262 0
1 0.9028 0
1 0.882353 0
0 1 0
0 1 0
0 1 0
0.178973 1 0
0.37557 1 0
0.572168 1 0
0.76878 1 0
0.965377 1 0
1 1 0
0 0 0.203128
0.176333 0 0.195132
0.37293 0 0.187137
0.569528 0 0.179141
0.766125 0 0.171145
0.962722 0 0.163149
1 0 0.155154
1 0 0.147158
1 0 0.139162
0 0.145434 0.132982
0.124987 0.124987 0.124987
0.321584 0.10454 0.116991
0.518181 0.0840772 0.108995
0.714778 0.0636301 0.100999
0.911376 0.043183 0.0930037
1 0.0227207 0.085008
1 0.00227359 0.0770123
1 0 0.0690166
0 0.294865 0.0628367
0.07364 0.274418 0.0548409
0.270237 0.253956 0.0468452
0.466835 0.233509 0.0388495
0.663432 0.213062 0.0308537
0.860029 0.192599 0.022858
1 0.172152 0.0148623
1 0.151705 0.00686656
1 0.131243 0
0 0.444282 0
0.0222934 0.423835 0
0.218891 0.403388 0
0.415488 0.38294 0
0.612085 0.362478 0
0.808682 0.342031 0
1 0.321584 0
1 0.301122 0
1 0.280674 0
0 0.593713 0
0 0.573266 0
0.167529 0.552819 0
0.364126 0.532357 0
0.560739 0.51191 0
0.757336 0.491463 0
0.953933 0.471 0
1 0.450553 0
1 0.430106 0
0 0.743145 0
0 0.722698 0
0.116182 0.702235 0
0.312779 0.681788 0
0.509377 0.661341 0
0.705974 0.640879 0
0.902586 0.620432 0
1 0.599985 0
1 0.579522 0
0 0.892561 0
0 0.872114 0
0.0648356 0.851667 0
0.261433 0.83122 0
0.45803 0.810758 0
0.654627 0.790311 0
0.851225 0.769863 0
1 0.749401 0
1 0.728954 0
0 1 0
0 1 0
0.013489 1 0
0.210086 0.980636 0
0.406683 0.960189 0
0.603281 0.939742 0
0.799878 0.91928 0
0.996475 0.898833 0
1 0.878386 0
0 1 0
0 1 0
0 1 0
0.15874 1 0
0.355337 1 0
0.551934 1 0
0.748531 1 0
0.945129 1 0
1 1 0
0 0 0.406271
0.156085 0 0.398276
0.352682 0 0.39028
0.549279 0 0.382284
0.745876 0 0.374289
0.942473 0 0.366293
1 0 0.358297
1 0 0.350301
1 0 0.342306
0 0.141466 0.336126
0.104738 0.121019 0.32813
0.301335 0.100557 0.320134
0.497932 0.0801099 0.312139
0.69453 0.0596628 0.304143
0.891142 0.0392004 0.296147
1 0.0187533 0.288151
1 0 0.280156
1 0 0.27216
0 0.290883 0.26598
0.0533913 0.270436 0.257984
0.249989 0.249989 0.249989
0.446586 0.229541 0.241993
0.643183 0.209079 0.233997
0.83978 0.188632 0.226001
1 0.168185 0.218006
1 0.147723 0.21001
1 0.127275 0.202014
0 0.440314 0.195834
0.00204471 0.419867 0.187839
0.198642 0.39942 0.179843
0.395239 0.378958 0.171847
0.591836 0.358511 0.163851
0.788434 0.338064 0.155856
0.985031 0.317601 0.14786
1 0.297154 0.139864
1 0.276707 0.131868
0 0.589746 0.125689
0 0.569299 0.117693
0.147295 0.548837 0.109697
0.343893 0.528389 0.101701
0.54049 0.507942 0.0937057
0.737087 0.48748 0.0857099
0.933684 0.467033 0.0777142
1 0.446586 0.0697185
1 0.426123 0.0617227
0 0.739162 0.0555276
0 0.718715 0.0475319
0.0959335 0.698268 0.0395361
0.292531 0.677821 0.0315557
0.489128 0.657359 0.0235599
0.68574 0.636912 0.0155642
0.882338 0.616464 0.00756847
1 0.596002 0
1 0.575555 0
0 0.888594 0
0 0.868147 0
0.0445869 0.8477 0
0.241184 0.827237 0
0.437781 0.80679 0
0.634379 0.786343 0
0.830976 0.765881 0
1 0.745434 0
1 0.724987 0
0 1 0
0 1 0
0 0.997116 0
0.189837 0.976669 0
0.386435 0.956222 0
0.583032 0.93576 0
0.779629 0.915312 0
0.976226 0.894865 0
1 0.874403 0
0 1 0
0 1 0
0 1 0
0.138491 1 0
0.335088 1 0
0.531685 1 0
0.728283 1 0
0.92488 1 0
1 1 0
0 0 0.609415
0.135836 0 0.601419
0.332433 0 0.593423
0.52903 0 0.585428
0.725628 0 0.577432
0.92224 0 0.569436
1 0 0.56144
1 0 0.553445
1 0 0.545449
0 0.137499 0.539269
0.0844892 0.117037 0.531273
0.281086 0.0965896 0.523278
0.477684 0.0761425 0.515282
0.674296 0.0556802 0.507286
0.870893 0.0352331 0.49929
1 0.014786 0.491295
1 0 0.483299
1 0 0.475303
0 0.286915 0.469123
0.0331426 0.266468 0.461128
0.22974 0.246021 0.453132
0.426337 0.225559 0.445136
0.622934 0.205112 0.43714
0.819532 0.184665 0.429145
1 0.164202 0.421149
1 0.143755 0.413153
1 0.123308 0.405158
0 0.436347 0.398978
0 0.4159 0.390982
0.178393 0.395438 0.382986
0.37499 0.37499 0.37499
0.571588 0.354543 0.366995
0.768185 0.334081 0.358999
0.964782 0.313634 0.351003
1 0.293187 0.343008
1 0.272725 0.335012
0 0.585763 0.328832
0 0.565316 0.320836
0.127047 0.544869 0.31284
0.323644 0.524422 0.304845
0.520241 0.50396 0.296849
0.716838 0.483513 0.288853
0.913436 0.463066 0.280858
1 0.442603 0.272862
1 0.422156 0.264866
0 0.735195 0.258686
0 0.714748 0.25069
0.0756847 0.694301 0.242695
0.272297 0.673838 0.234699
0.468894 0.653391 0.226703
0.665492 0.632944 0.218708
0.862089 0.612482 0.210712
1 0.592035 0.202716
1 0.571588 0.19472
0 0.884627 0.188525
0 0.864179 0.180529
0.0243381 0.843717 0.172534
0.220935 0.82327 0.164538
0.417533 0.802823 0.156558
0.61413 0.782361 0.148562
0.810742 0.761913 0.140566
1 0.741466 0.13257
1 0.721004 0.124575
0 1 0.118379
0 1 0.110384
0 0.993149 0.102388
0.169589 0.972702 0.0943923
0.366186 0.952239 0.0863966
0.562783 0.931792 0.0784009
0.75938 0.911345 0.0704051
0.955978 0.890883 0.0624094
1 0.870436 0.0544137
0 1 0.0482338
0 1 0.040238
0 1 0.0322423
0.118242 1 0.0242466
0.314839 1 0.0162509
0.511437 1 0.00825513
0.708034 1 0.000259403
0.904631 1 0
1 1 0
0 0 0.812558
0.115587 0 0.804562
0.312184 0 0.796567
0.508782 0 0.788571
0.705394 0 0.780575
0.901991 0 0.77258
1 0 0.764584
1 0 0.756588
1 0 0.748592
0 0.133516 0.742412
0.0642405 0.113069 0.734417
0.260853 0.0926223 0.726421
0.45745 0.0721599 0.718425
0.654047 0.0517128 0.710445
0.850645 0.0312657 0.702449
1 0.0108034 0.694453
1 0 0.686458
1 0 0.678462
0 0.282948 0.672267
0.0128939 0.262501 0.664271
0.209491 0.242039 0.656275
0.406088 0.221592 0.64828
0.602686 0.201144 0.640284
0.799298 0.180682 0.632288
0.995895 0.160235 0.624292
1 0.139788 0.616297
1 0.119326 0.608301
0 0.432364 0.602121
0 0.411917 0.594125
0.158145 0.39147 0.58613
0.354742 0.371023 0.578134
0.551339 0.350561 0.570138
0.747936 0.330114 0.562142
0.944533 0.309667 0.554147
1 0.289204 0.546151
1 0.268757 0.538155
0 0.581796 0.531975
0 0.561349 0.52398
0.106798 0.540902 0.515984
0.303395 0.520439 0.507988
0.499992 0.499992 0.499992
0.69659 0.479545 0.491997
0.893187 0.459083 0.484001
1 0.438636 0.476005
1 0.418189 0.468009
0 0.731228 0.46183
0 0.710781 0.453834
0.0554513 0.690318 0.445838
0.252049 0.669871 0.437842
0.448646 0.649424 0.429847
0.645243 0.628962 0.421851
0.84184 0.608515 0.413855
1 0.588067 0.405859
1 0.567605 0.397864
0 0.880644 0.391669
0 0.860197 0.383688
0.00408942 0.83975 0.375692
0.200687 0.819303 0.367697
0.397299 0.79884 0.359701
0.593896 0.778393 0.351705
0.790494 0.757946 0.343709
0.987091 0.737484 0.335714
1 0.717037 0.327718
0 1 0.321523
0 1 0.313527
0 0.989181 0.305531
0.14934 0.968719 0.297536
0.345937 0.948272 0.28954
0.542535 0.927825 0.281559
0.739132 0.907362 0.273564
0.935744 0.886915 0.265568
1 0.866468 0.257572
0 1 0.251377
0 1 0.243381
0 1 0.235386
0.0979934 1 0.22739
0.294591 1 0.219394
0.491188 1 0.211398
0.687785 1 0.203403
0.884382 1 0.195407
1 1 0.187411
0 0 1
0.0953384 0 1
0.291951 0 0.99971
0.488548 0 0.991714
0.685145 0 0.983719
0.881743 0 0.975723
1 0 0.967727
1 0 0.959731
1 0 0.951736
0 0.129549 0.945571
0.044007 0.109102 0.937575
0.240604 0.0886397 0.92958
0.437201 0.0681926 0.921584
0.633799 0.0477455 0.913588
0.830396 0.0272831 0.905592
1 0.00683604 0.897597
1 0 0.889601
1 0 0.881605
0 0.278981 0.87541
0 0.258518 0.867414
0.189242 0.238071 0.859419
0.385855 0.217624 0.851423
0.582452 0.197162 0.843427
0.779049 0.176715 0.835447
0.975647 0.156268 0.827451
1 0.135805 0.819455
1 0.115358 0.81146
0 0.428397 0.805264
0 0.40795 0.797269
0.137896 0.387503 0.789273
0.334493 0.367041 0.781277
0.53109 0.346593 0.773281
0.727687 0.326146 0.765286
0.9243 0.305684 0.75729
1 0.285237 0.749294
1 0.26479 0.741299
0 0.577829 0.735119
0 0.557382 0.727123
0.0865492 0.536919 0.719127
0.283146 0.516472 0.711131
0.479744 0.496025 0.703136
0.676341 0.475563 0.69514
0.872938 0.455116 0.687144
1 0.434669 0.679149
1 0.414206 0.671153
0 0.727245 0.664973
0 0.706798 0.656977
0.0352026 0.686351 0.648981
0.2318 0.665904 0.640986
0.428397 0.645441 0.63299
0.624994 0.624994 0.624994
0.821591 0.604547 0.616999
1 0.584085 0.609003
1 0.563638 0.601007
0 0.876677 0.594827
0 0.856229 0.586831
0 0.835782 0.578836
0.180453 0.81532 0.57084
0.37705 0.794873 0.562844
0.573648 0.774426 0.554849
0.770245 0.753964 0.546853
0.966842 0.733516 0.538857
1 0.713069 0.530861
0 1 0.524666
0 1 0.516686
0 0.985199 0.50869
0.129091 0.964752 0.500694
0.325689 0.944305 0.492699
0.522301 0.923842 0.484703
0.718898 0.903395 0.476707
0.915496 0.882948 0.468711
1 0.862486 0.460716
0 1 0.45452
0 1 0.446525
0 1 0.438529
0.0777447 1 0.430533
0.274342 1 0.422538
0.470939 1 0.414542
0.667536 1 0.406561
0.864134 1 0.398566
1 1 0.39057
0 0 1
0.0751049 0 1
0.271702 0 1
0.468299 0 1
0.664897 0 1
0.861494 0 1
1 0 1
1 0 1
1 0 1
0 0.125582 1
0.0237583 0.105119 1
0.220356 0.0846723 1
0.416953 0.0642252 1
0.61355 0.0437629 1
0.810147 0.0233158 1
1 0.0028687 1
1 0 1
1 0 1
0 0.274998 1
0 0.254551 1
0.169009 0.234104 1
0.365606 0.213642 1
0.562203 0.193194 1
0.758801 0.172747 1
0.955398 0.152285 1
1 0.131838 1
1 0.111391 1
0 0.42443 1
0 0.403983 1
0.117647 0.38352 0.992416
0.314244 0.363073 0.984421
0.510857 0.342626 0.976425
0.707454 0.322164 0.968444
0.904051 0.301717 0.960449
1 0.28127 0.952453
1 0.260807 0.944457
0 0.573846 0.938262
0 0.553399 0.930266
0.0663005 0.532952 0.922271
0.262898 0.512505 0.914275
0.459495 0.492042 0.906279
0.656092 0.471595 0.898283
0.852689 0.451148 0.890288
1 0.430686 0.882292
1 0.410239 0.874296
0 0.723278 0.868116
0 0.702831 0.860121
0.0149538 0.682383 0.852125
0.211551 0.661921 0.844129
0.408148 0.641474 0.836133
0.604746 0.621027 0.828138
0.801343 0.600565 0.820142
0.99794 0.580118 0.812146
1 0.55967 0.80415
0 0.872709 0.797971
0 0.852262 0.789975
0 0.8318 0.781979
0.160204 0.811353 0.773983
0.356802 0.790906 0.765988
0.553399 0.770443 0.757992
0.749996 0.749996 0.749996
0.946593 0.729549 0.742
1 0.709087 0.734005
0 1 0.727825
0 1 0.719829
0 0.981231 0.711833
0.108843 0.960784 0.703838
0.305455 0.940322 0.695842
0.502052 0.919875 0.687846
0.69865 0.899428 0.67985
0.895247 0.878965 0.671855
1 0.858518 0.663859
0 1 0.657664
0 1 0.649683
0 1 0.641688
0.057496 1 0.633692
0.254093 1 0.625696
0.45069 1 0.6177
0.647303 1 0.609705
0.8439 1 0.601709
1 1 0.593713
0 0 1
0.0548562 0 1
0.251453 0 1
0.448051 0 1
0.644648 0 1
0.841245 0 1
1 0 1
1 0 1
1 0 1
0 0.121599 1
0.00350958 0.101152 1
0.200107 0.080705 1
0.396704 0.0602426 1
0.593301 0.0397955 1
0.789899 0.0193484 1
0.986496 0 1
1 0 1
1 0 1
0 0.271031 1
0 0.250584 1
0.14876 0.230121 1
0.345357 0.209674 1
0.541955 0.189227 1
0.738552 0.168765 1
0.935149 0.148318 1
1 0.127871 1
1 0.107408 1
0 0.420462 1
0 0.4 1
0.0973983 0.379553 1
0.294011 0.359106 1
0.490608 0.338643 1
0.687205 0.318196 1
0.883803 0.297749 1
1 0.277287 1
1 0.25684 1
0 0.569879 1
0 0.549432 1
0.0460517 0.528984 1
0.242649 0.508522 1
0.439246 0.488075 1
0.635859 0.467628 1
0.832456 0.447166 1
1 0.426719 1
1 0.406271 1
0 0.71931 1
0 0.698863 1
0 0.678401 1
0.191302 0.657954 1
0.3879 0.637507 1
0.584497 0.617044 1
0.781094 0.596597 1
0.977691 0.57615 1
1 0.555688 1
0 0.868727 1
0 0.84828 0.993118
0 0.827832 0.985122
0.139956 0.807385 0.977127
0.336553 0.786923 0.969131
0.53315 0.766476 0.961135
0.729747 0.746029 0.95314
0.926345 0.725567 0.945144
1 0.705119 0.937148
0 1 0.930968
0 0.997711 0.922972
0 0.977264 0.914977
0.0886091 0.956802 0.906981
0.285206 0.936355 0.898985
0.481804 0.915908 0.89099
0.678401 0.895445 0.882994
0.874998 0.874998 0.874998
1 0.854551 0.867002
0 1 0.860822
0 1 0.852827
0 1 0.844831
0.0372473 1 0.836835
0.233845 1 0.82884
0.430457 1 0.820844
0.627054 1 0.812848
0.823651 1 0.804852
1 1 0.796857
0 0 1
0.0346075 0 1
0.231205 0 1
0.427802 0 1
0.624399 0 1
0.820996 0 1
1 0 1
1 0 1
1 0 1
0 0.117632 1
0 0.0971847 1
0.179858 0.0767224 1
0.376455 0.0562753 1
0.573053 0.0358282 1
0.76965 0.0153658 1
0.966262 0 1
1 0 1
1 0 1
0 0.267063 1
0 0.246601 1
0.128511 0.226154 1
0.325109 0.205707 1
0.521706 0.185245 1
0.718303 0.164797 1
0.9149 0.14435 1
1 0.123888 1
1 0.103441 1
0 0.41648 1
0 0.396033 1
0.0771649 0.375586 1
0.273762 0.355123 1
0.470359 0.334676 1
0.666957 0.314229 1
0.863554 0.293767 1
1 0.27332 1
1 0.252872 1
0 0.565911 1
0 0.545464 1
0.025803 0.525002 1
0.2224 0.504555 1
0.419013 0.484108 1
0.61561 0.463645 1
0.812207 0.443198 1
1 0.422751 1
1 0.402289 1
0 0.715328 1
0 0.694881 1
0 0.674434 1
0.171054 0.653986 1
0.367651 0.633524 1
0.564248 0.613077 1
0.760861 0.59263 1
0.957458 0.572168 1
1 0.55172 1
0 0.864759 1
0 0.844312 1
0 0.823865 1
0.119707 0.803403 1
0.316304 0.782956 1
0.512901 0.762509 1
0.709499 0.742046 1
0.906096 0.721599 1
1 0.701152 1
0 1 1
0 0.993744 1
0 0.973281 1
0.0683604 0.952834 1
0.264958 0.932387 1
0.461555 0.911925 1
0.658152 0.891478 1
0.854749 0.871031 1
1 0.850568 1
0 1 1
0 1 1
0 1 1
0.0169985 1 1
0.213611 1 1
0.410208 1 1
0.606806 1 1
0.803403 1 1
1 1 1
