public/LUTS/Color Shift/ColorShift_37.cube
TITLE "Generated by Resolve"
LUT_3D_SIZE 33
0 0 0
0.0099794 0.00234989 0.031281
0.0199588 0.00471504 0.0625772
0.0299382 0.00706493 0.0938888
0.0399176 0.00943008 0.125185
0.049897 0.01178 0.156481
0.0598764 0.0141451 0.187778
0.0698558 0.016495 0.219089
0.0798352 0.0188602 0.250385
0.0898146 0.02121 0.281682
0.099794 0.0235752 0.312978
0.109773 0.0259251 0.344274
0.119753 0.0282902 0.375586
0.129732 0.0306401 0.406882
0.139712 0.0330053 0.438178
0.149691 0.0353552 0.469474
0.15967 0.0377203 0.500771
0.16965 0.0400702 0.532082
0.179614 0.0424353 0.563378
0.189593 0.0447852 0.594675
0.199573 0.0471504 0.625971
0.209552 0.0495003 0.657282
0.219532 0.0518654 0.688579
0.229511 0.0542153 0.719875
0.23949 0.0565652 0.751171
0.24947 0.0589303 0.782467
0.259449 0.0612802 0.813779
0.269429 0.0636454 0.845075
0.279408 0.0659953 0.876371
0.289387 0.0683604 0.907668
0.299367 0.0707103 0.938964
0.309346 0.0730755 0.970275
0.319326 0.0754253 1
0.0469215 0.0167391 0.00326543
0.0568856 0.0191043 0.0345464
0.066865 0.0214542 0.0658427
0.0768444 0.0238041 0.0971389
0.0868238 0.0261692 0.12845
0.0968032 0.0285191 0.159747
0.106783 0.0308843 0.191043
0.116762 0.0332341 0.222339
0.126741 0.0355993 0.253635
0.136721 0.0379492 0.284947
0.1467 0.0403143 0.316243
0.15668 0.0426642 0.347539
0.166659 0.0450294 0.378836
0.176638 0.0473793 0.410132
0.186618 0.0497444 0.441444
0.196597 0.0520943 0.47274
0.206577 0.0544594 0.504036
0.216556 0.0568093 0.535332
0.226535 0.0591745 0.566644
0.236515 0.0615244 0.59794
0.246494 0.0638895 0.629236
0.256474 0.0662394 0.660533
0.266453 0.0686046 0.691829
0.276432 0.0709544 0.72314
0.286412 0.0733196 0.754437
0.296391 0.0756695 0.785733
0.306371 0.0780346 0.817029
0.31635 0.0803845 0.848341
0.326329 0.0827344 0.879637
0.336309 0.0850996 0.910933
0.346288 0.0874495 0.942229
0.356268 0.0898146 0.973526
0.366247 0.0921645 1
0.0938582 0.0334936 0.0065156
0.103838 0.0358434 0.0378119
0.113817 0.0382086 0.0691081
0.123796 0.0405585 0.100404
0.133776 0.0429236 0.131701
0.143755 0.0452735 0.163012
0.153735 0.0476387 0.194308
0.163714 0.0499886 0.225605
0.173693 0.0523537 0.256901
0.183673 0.0547036 0.288197
0.193637 0.0570535 0.319509
0.203616 0.0594186 0.350805
0.213596 0.0617685 0.382101
0.223575 0.0641337 0.413397
0.233555 0.0664836 0.444709
0.243534 0.0688487 0.476005
0.253513 0.0711986 0.507301
0.263493 0.0735637 0.538598
0.273472 0.0759136 0.569894
0.283452 0.0782788 0.601205
0.293431 0.0806287 0.632502
0.30341 0.0829938 0.663798
0.31339 0.0853437 0.695094
0.323369 0.0877089 0.72639
0.333349 0.0900587 0.757702
0.343328 0.0924239 0.788998
0.353307 0.0947738 0.820294
0.363287 0.0971389 0.851591
0.373266 0.0994888 0.882902
0.383246 0.101854 0.914199
0.393225 0.104204 0.945495
0.403204 0.106569 0.976791
0.413184 0.108919 1
0.140795 0.0502327 0.00978103
0.150774 0.0525978 0.041062
0.160754 0.0549477 0.0723735
0.170733 0.0573129 0.10367
0.180713 0.0596628 0.134966
0.190692 0.0620279 0.166262
0.200671 0.0643778 0.197574
0.210651 0.066743 0.22887
0.22063 0.0690929 0.260166
0.23061 0.071458 0.291463
0.240589 0.0738079 0.322759
0.250568 0.076173 0.35407
0.260548 0.0785229 0.385367
0.270527 0.0808881 0.416663
0.280507 0.083238 0.447959
0.290486 0.0856031 0.479271
0.300465 0.087953 0.510567
0.310445 0.0903029 0.541863
0.320424 0.092668 0.573159
0.330404 0.0950179 0.604456
0.340383 0.0973831 0.635767
0.350362 0.099733 0.667063
0.360342 0.102098 0.69836
0.370321 0.104448 0.729656
0.380301 0.106813 0.760952
0.39028 0.109163 0.792264
0.400259 0.111528 0.82356
0.410239 0.113878 0.854856
0.420218 0.116243 0.886152
0.430198 0.118593 0.917464
0.440162 0.120958 0.94876
0.450141 0.123308 0.980056
0.460121 0.125673 1
0.187732 0.0669871 0.0130465
0.197711 0.069337 0.0443275
0.207691 0.0717021 0.0756237
0.21767 0.074052 0.106935
0.227649 0.0764172 0.138231
0.237629 0.0787671 0.169528
0.247608 0.0811322 0.200824
0.257588 0.0834821 0.232136
0.267567 0.0858473 0.263432
0.277546 0.0881971 0.294728
0.287526 0.0905623 0.326024
0.297505 0.0929122 0.357321
0.307485 0.0952773 0.388632
0.317464 0.0976272 0.419928
0.327443 0.0999924 0.451225
0.337423 0.102342 0.482521
0.347402 0.104707 0.513832
0.357382 0.107057 0.545129
0.367361 0.109422 0.576425
0.37734 0.111772 0.607721
0.38732 0.114137 0.639017
0.397299 0.116487 0.670329
0.407279 0.118853 0.701625
0.417258 0.121202 0.732921
0.427237 0.123552 0.764218
0.437217 0.125917 0.795514
0.447196 0.128267 0.826825
0.457176 0.130632 0.858122
0.467155 0.132982 0.889418
0.477134 0.135348 0.920714
0.487114 0.137697 0.952026
0.497093 0.140063 0.983322
0.507073 0.142412 1
0.234684 0.0837415 0.0163119
0.244648 0.0860914 0.0475929
0.254627 0.0884565 0.0788891
0.264607 0.0908064 0.110185
0.274586 0.0931716 0.141497
0.284566 0.0955215 0.172793
0.294545 0.0978714 0.204089
0.304524 0.100237 0.235386
0.314504 0.102586 0.266697
0.324483 0.104952 0.297993
0.334462 0.107301 0.32929
0.344442 0.109667 0.360586
0.354421 0.112016 0.391882
0.364401 0.114382 0.423194
0.37438 0.116732 0.45449
0.38436 0.119097 0.485786
0.394339 0.121447 0.517082
0.404318 0.123812 0.548394
0.414298 0.126162 0.57969
0.424277 0.128527 0.610986
0.434256 0.130877 0.642283
0.444236 0.133242 0.673579
0.454215 0.135592 0.70489
0.464195 0.137957 0.736187
0.474174 0.140307 0.767483
0.484154 0.142672 0.798779
0.494133 0.145022 0.830076
0.504112 0.147387 0.861387
0.514092 0.149737 0.892683
0.524071 0.152102 0.92398
0.534051 0.154452 0.955276
0.54403 0.156802 0.986587
0.554009 0.159167 1
0.281621 0.100481 0.0195773
0.291585 0.102846 0.0508583
0.301564 0.105196 0.0821546
0.311543 0.107561 0.113451
0.321523 0.109911 0.144747
0.331502 0.112276 0.176059
0.341482 0.114626 0.207355
0.351461 0.116991 0.238651
0.36144 0.119341 0.269947
0.37142 0.121706 0.301259
0.381399 0.124056 0.332555
0.391379 0.126421 0.363851
0.401358 0.128771 0.395148
0.411337 0.131121 0.426444
0.421317 0.133486 0.457755
0.431296 0.135836 0.489052
0.441276 0.138201 0.520348
0.451255 0.140551 0.551644
0.461234 0.142916 0.582956
0.471214 0.145266 0.614252
0.481193 0.147631 0.645548
0.491173 0.149981 0.676844
0.501152 0.152346 0.708141
0.511131 0.154696 0.739452
0.521111 0.157061 0.770748
0.53109 0.159411 0.802045
0.54107 0.161776 0.833341
0.551049 0.164126 0.864637
0.561028 0.166491 0.895949
0.571008 0.168841 0.927245
0.580987 0.171206 0.958541
0.590967 0.173556 0.989837
0.600946 0.175921 1
0.328557 0.117235 0.0228275
0.338537 0.119585 0.0541238
0.348516 0.12195 0.08542
0.358495 0.1243 0.116716
0.368475 0.126665 0.148013
0.378454 0.129015 0.179324
0.388434 0.13138 0.21062
0.398413 0.13373 0.241917
0.408392 0.136095 0.273213
0.418372 0.138445 0.304509
0.428351 0.14081 0.335821
0.438331 0.14316 0.367117
0.44831 0.145525 0.398413
0.458289 0.147875 0.429709
0.468269 0.15024 0.461006
0.478233 0.15259 0.492317
0.488212 0.154955 0.523613
0.498192 0.157305 0.55491
0.508171 0.15967 0.586206
0.518151 0.16202 0.617517
0.52813 0.16437 0.648814
0.538109 0.166735 0.68011
0.548089 0.169085 0.711406
0.558068 0.17145 0.742702
0.568048 0.1738 0.774014
0.578027 0.176165 0.80531
0.588006 0.178515 0.836606
0.597986 0.18088 0.867903
0.607965 0.18323 0.899199
0.617945 0.185595 0.93051
0.627924 0.187945 0.961807
0.637903 0.190311 0.993103
0.647883 0.19266 1
0.375494 0.133989 0.0260929
0.385473 0.136339 0.0573739
0.395453 0.138689 0.0886854
0.405432 0.141054 0.119982
0.415412 0.143404 0.151278
0.425391 0.145769 0.182574
0.43537 0.148119 0.213886
0.44535 0.150484 0.245182
0.455329 0.152834 0.276478
0.465309 0.1552 0.307774
0.475288 0.157549 0.339071
0.485267 0.159915 0.370382
0.495247 0.162264 0.401679
0.505226 0.16463 0.432975
0.515206 0.166979 0.464271
0.525185 0.169345 0.495567
0.535164 0.171695 0.526879
0.545144 0.17406 0.558175
0.555123 0.17641 0.589471
0.565103 0.178775 0.620768
0.575082 0.181125 0.652079
0.585061 0.18349 0.683375
0.595041 0.18584 0.714672
0.60502 0.188205 0.745968
0.615 0.190555 0.777264
0.624979 0.19292 0.808576
0.634958 0.19527 0.839872
0.644938 0.19762 0.871168
0.654917 0.199985 0.902464
0.664897 0.202335 0.933761
0.674876 0.2047 0.965072
0.684855 0.20705 0.996368
0.694835 0.209415 1
0.422431 0.150729 0.0293584
0.43241 0.153094 0.0606394
0.44239 0.155444 0.0919356
0.452369 0.157809 0.123247
0.462348 0.160159 0.154543
0.472328 0.162524 0.18584
0.482307 0.164874 0.217136
0.492287 0.167224 0.248447
0.502266 0.169589 0.279744
0.512245 0.171939 0.31104
0.522225 0.174304 0.342336
0.532204 0.176654 0.373632
0.542184 0.179019 0.404944
0.552163 0.181369 0.43624
0.562142 0.183734 0.467536
0.572122 0.186084 0.498833
0.582101 0.188449 0.530129
0.592081 0.190799 0.56144
0.60206 0.193164 0.592737
0.612039 0.195514 0.624033
0.622019 0.197879 0.655329
0.631998 0.200229 0.686641
0.641978 0.202594 0.717937
0.651957 0.204944 0.749233
0.661936 0.207309 0.780529
0.671916 0.209659 0.811826
0.681895 0.212024 0.843137
0.691875 0.214374 0.874434
0.701854 0.216739 0.90573
0.711833 0.219089 0.937026
0.721813 0.221454 0.968322
0.731792 0.223804 0.999634
0.741772 0.226169 1
0.469383 0.167483 0.0326238
0.479347 0.169833 0.0639048
0.489326 0.172198 0.095201
0.499306 0.174548 0.126497
0.509285 0.176913 0.157809
0.519265 0.179263 0.189105
0.529244 0.181628 0.220401
0.539223 0.183978 0.251698
0.549203 0.186343 0.283009
0.559182 0.188693 0.314305
0.569162 0.191058 0.345602
0.579141 0.193408 0.376898
0.58912 0.195773 0.408194
0.5991 0.198123 0.439506
0.609079 0.200488 0.470802
0.619058 0.202838 0.502098
0.629038 0.205188 0.533394
0.639017 0.207553 0.564691
0.648997 0.209903 0.596002
0.658976 0.212268 0.627298
0.668956 0.214618 0.658595
0.678935 0.216983 0.689891
0.688914 0.219333 0.721202
0.698894 0.221698 0.752499
0.708873 0.224048 0.783795
0.718853 0.226413 0.815091
0.728832 0.228763 0.846387
0.738811 0.231128 0.877699
0.748791 0.233478 0.908995
0.75877 0.235843 0.940291
0.76875 0.238193 0.971588
0.778729 0.240558 1
0.788708 0.242908 1
0.51632 0.184222 0.0358892
0.526284 0.186587 0.0671702
0.536263 0.188937 0.0984665
0.546242 0.191302 0.129763
0.556222 0.193652 0.161059
0.566201 0.196017 0.19237
0.576181 0.198367 0.223667
0.58616 0.200732 0.254963
0.596139 0.203082 0.286259
0.606119 0.205447 0.317571
0.616098 0.207797 0.348867
0.626078 0.210163 0.380163
0.636057 0.212512 0.41146
0.646036 0.214878 0.442756
0.656016 0.217227 0.474067
0.665995 0.219593 0.505364
0.675975 0.221942 0.53666
0.685954 0.224308 0.567956
0.695933 0.226658 0.599252
0.705913 0.229023 0.630564
0.715892 0.231373 0.66186
0.725872 0.233738 0.693156
0.735851 0.236088 0.724453
0.74583 0.238437 0.755764
0.75581 0.240803 0.78706
0.765789 0.243153 0.818357
0.775769 0.245518 0.849653
0.785748 0.247868 0.880949
0.795727 0.250233 0.912261
0.805707 0.252583 0.943557
0.815686 0.254948 0.974853
0.825666 0.257298 1
0.835645 0.259663 1
0.563256 0.200977 0.0391394
0.573236 0.203342 0.0704356
0.583215 0.205692 0.101732
0.593194 0.208042 0.133028
0.603174 0.210407 0.164324
0.613153 0.212757 0.195621
0.623133 0.215122 0.226932
0.633112 0.217472 0.258228
0.643091 0.219837 0.289525
0.653071 0.222187 0.320821
0.66305 0.224552 0.352132
0.67303 0.226902 0.383429
0.683009 0.229267 0.414725
0.692988 0.231617 0.446021
0.702968 0.233982 0.477317
0.712947 0.236332 0.508629
0.722927 0.238697 0.539925
0.732906 0.241047 0.571221
0.742885 0.243412 0.602518
0.752865 0.245762 0.633814
0.762829 0.248127 0.665125
0.772808 0.250477 0.696422
0.782788 0.252842 0.727718
0.792767 0.255192 0.759014
0.802747 0.257557 0.790326
0.812726 0.259907 0.821622
0.822705 0.262272 0.852918
0.832685 0.264622 0.884215
0.842664 0.266987 0.915511
0.852644 0.269337 0.946822
0.862623 0.271687 0.978119
0.872602 0.274052 1
0.882582 0.276402 1
0.610193 0.217731 0.0424048
0.620172 0.220081 0.0736858
0.630152 0.222446 0.104997
0.640131 0.224796 0.136294
0.650111 0.227161 0.16759
0.66009 0.229511 0.198886
0.670069 0.231876 0.230182
0.680049 0.234226 0.261494
0.690028 0.236591 0.29279
0.700008 0.238941 0.324086
0.709987 0.241291 0.355383
0.719966 0.243656 0.386694
0.729946 0.246006 0.41799
0.739925 0.248371 0.449287
0.749905 0.250721 0.480583
0.759884 0.253086 0.511879
0.769863 0.255436 0.543191
0.779843 0.257801 0.574487
0.789822 0.260151 0.605783
0.799802 0.262516 0.637079
0.809781 0.264866 0.668376
0.81976 0.267231 0.699687
0.82974 0.269581 0.730983
0.839719 0.271946 0.76228
0.849699 0.274296 0.793576
0.859678 0.276661 0.824887
0.869657 0.279011 0.856184
0.879637 0.281376 0.88748
0.889616 0.283726 0.918776
0.899596 0.286091 0.950072
0.909575 0.288441 0.981384
0.919554 0.290806 1
0.929534 0.293156 1
0.65713 0.23447 0.0456703
0.667109 0.236835 0.0769513
0.677089 0.239185 0.108248
0.687068 0.24155 0.139559
0.697047 0.2439 0.170855
0.707027 0.246265 0.202152
0.717006 0.248615 0.233448
0.726986 0.25098 0.264744
0.736965 0.25333 0.296056
0.746944 0.255695 0.327352
0.756924 0.258045 0.358648
0.766903 0.26041 0.389944
0.776883 0.26276 0.421256
0.786862 0.265126 0.452552
0.796841 0.267475 0.483848
0.806821 0.269841 0.515145
0.8168 0.27219 0.546441
0.82678 0.27454 0.577752
0.836759 0.276905 0.609049
0.846738 0.279255 0.640345
0.856718 0.281621 0.671641
0.866697 0.28397 0.702937
0.876677 0.286336 0.734249
0.886656 0.288685 0.765545
0.896635 0.291051 0.796841
0.906615 0.2934 0.828138
0.916594 0.295766 0.859449
0.926574 0.298116 0.890745
0.936553 0.300481 0.922042
0.946532 0.302831 0.953338
0.956512 0.305196 0.984634
0.966491 0.307546 1
0.976471 0.309911 1
0.704082 0.251225 0.0489357
0.714046 0.253574 0.0802167
0.724025 0.25594 0.111513
0.734005 0.258289 0.142809
0.743984 0.260655 0.174121
0.753964 0.263005 0.205417
0.763943 0.26537 0.236713
0.773922 0.26772 0.268009
0.783902 0.270085 0.299306
0.793881 0.272435 0.330617
0.803861 0.2748 0.361913
0.81384 0.27715 0.39321
0.823819 0.279515 0.424506
0.833799 0.281865 0.455817
0.843778 0.28423 0.487114
0.853758 0.28658 0.51841
0.863737 0.288945 0.549706
0.873716 0.291295 0.581003
0.883696 0.29366 0.612314
0.893675 0.29601 0.64361
0.903655 0.298375 0.674907
0.913634 0.300725 0.706203
0.923613 0.30309 0.737499
0.933593 0.30544 0.768811
0.943572 0.30779 0.800107
0.953552 0.310155 0.831403
0.963531 0.312505 0.862699
0.97351 0.31487 0.894011
0.98349 0.31722 0.925307
0.993469 0.319585 0.956603
1 0.321935 0.9879
1 0.3243 1
1 0.32665 1
0.751019 0.267979 0.0522011
0.760998 0.270329 0.0834821
0.770977 0.272694 0.114778
0.780957 0.275044 0.146075
0.790936 0.277409 0.177371
0.8009 0.279759 0.208682
0.81088 0.282109 0.239979
0.820859 0.284474 0.271275
0.830839 0.286824 0.302571
0.840818 0.289189 0.333867
0.850797 0.291539 0.365179
0.860777 0.293904 0.396475
0.870756 0.296254 0.427771
0.880735 0.298619 0.459068
0.890715 0.300969 0.490379
0.900694 0.303334 0.521675
0.910674 0.305684 0.552972
0.920653 0.308049 0.584268
0.930632 0.310399 0.615564
0.940612 0.312764 0.646876
0.950591 0.315114 0.678172
0.960571 0.317479 0.709468
0.97055 0.319829 0.740764
0.980529 0.322194 0.772061
0.990509 0.324544 0.803372
1 0.326909 0.834669
1 0.329259 0.865965
1 0.331624 0.897261
1 0.333974 0.928573
1 0.336339 0.959869
1 0.338689 0.991165
1 0.341039 1
1 0.343404 1
0.797955 0.284718 0.0554513
0.807935 0.287083 0.0867475
0.817914 0.289433 0.118044
0.827893 0.291798 0.14934
0.837873 0.294148 0.180636
0.847852 0.296513 0.211933
0.857832 0.298863 0.243244
0.867811 0.301228 0.27454
0.877791 0.303578 0.305837
0.88777 0.305943 0.337133
0.897749 0.308293 0.368429
0.907729 0.310658 0.399741
0.917708 0.313008 0.431037
0.927687 0.315358 0.462333
0.937667 0.317723 0.493629
0.947646 0.320073 0.524941
0.957626 0.322438 0.556237
0.967605 0.324788 0.587533
0.977584 0.327153 0.61883
0.987564 0.329503 0.650126
0.997543 0.331868 0.681437
1 0.334218 0.712734
1 0.336583 0.74403
1 0.338933 0.775326
1 0.341299 0.806638
1 0.343648 0.837934
1 0.346014 0.86923
1 0.348363 0.900526
1 0.350729 0.931823
1 0.353079 0.963134
1 0.355444 0.99443
1 0.357794 1
1 0.360159 1
0.844892 0.301472 0.0587167
0.854871 0.303822 0.0899977
0.864851 0.306188 0.121309
0.87483 0.308537 0.152605
0.88481 0.310903 0.183902
0.894789 0.313252 0.215198
0.904768 0.315618 0.246494
0.914748 0.317968 0.277806
0.924727 0.320333 0.309102
0.934707 0.322683 0.340398
0.944686 0.325048 0.371695
0.954665 0.327398 0.402991
0.964645 0.329763 0.434302
0.974624 0.332113 0.465599
0.984604 0.334478 0.496895
0.994583 0.336828 0.528191
1 0.339193 0.559503
1 0.341543 0.590799
1 0.343908 0.622095
1 0.346258 0.653391
1 0.348608 0.684688
1 0.350973 0.715999
1 0.353323 0.747295
1 0.355688 0.778592
1 0.358038 0.809888
1 0.360403 0.841199
1 0.362753 0.872496
1 0.365118 0.903792
1 0.367468 0.935088
1 0.369833 0.966384
1 0.372183 0.997696
1 0.374548 1
1 0.376898 1
0.891829 0.318227 0.0619821
0.901808 0.320577 0.0932631
0.911788 0.322927 0.124559
0.921767 0.325292 0.155871
0.931746 0.327642 0.187167
0.941726 0.330007 0.218463
0.951705 0.332357 0.24976
0.961685 0.334722 0.281056
0.971664 0.337072 0.312367
0.981643 0.339437 0.343664
0.991623 0.341787 0.37496
1 0.344152 0.406256
1 0.346502 0.437552
1 0.348867 0.468864
1 0.351217 0.50016
1 0.353582 0.531456
1 0.355932 0.562753
1 0.358297 0.594064
1 0.360647 0.62536
1 0.363012 0.656657
1 0.365362 0.687953
1 0.367727 0.719249
1 0.370077 0.750561
1 0.372442 0.781857
1 0.374792 0.813153
1 0.377157 0.84445
1 0.379507 0.875761
1 0.381857 0.907057
1 0.384222 0.938354
1 0.386572 0.96965
1 0.388937 1
1 0.391287 1
1 0.393652 1
0.938781 0.334966 0.0652476
0.948745 0.337331 0.0965286
0.958724 0.339681 0.127825
0.968704 0.342046 0.159121
0.978683 0.344396 0.190433
0.988663 0.346761 0.221729
0.998642 0.349111 0.253025
1 0.351476 0.284321
1 0.353826 0.315618
1 0.356176 0.346929
1 0.358541 0.378225
1 0.360891 0.409522
1 0.363256 0.440818
1 0.365606 0.472114
1 0.367971 0.503426
1 0.370321 0.534722
1 0.372686 0.566018
1 0.375036 0.597314
1 0.377401 0.628626
1 0.379751 0.659922
1 0.382116 0.691218
1 0.384466 0.722515
1 0.386831 0.753811
1 0.389181 0.785122
1 0.391546 0.816419
1 0.393896 0.847715
1 0.396262 0.879011
1 0.398611 0.910323
1 0.400977 0.941619
1 0.403326 0.972915
1 0.405692 1
1 0.408042 1
1 0.410407 1
0.985718 0.35172 0.0684977
0.995697 0.35407 0.099794
1 0.356435 0.13109
1 0.358785 0.162387
1 0.361151 0.193683
1 0.3635 0.224994
1 0.365866 0.256291
1 0.368215 0.287587
1 0.370581 0.318883
1 0.37293 0.350179
1 0.375296 0.381491
1 0.377646 0.412787
1 0.380011 0.444083
1 0.382361 0.47538
1 0.384726 0.506676
1 0.387076 0.537987
1 0.389425 0.569284
1 0.391791 0.60058
1 0.394141 0.631876
1 0.396506 0.663188
1 0.398856 0.694484
1 0.401221 0.72578
1 0.403571 0.757076
1 0.405936 0.788373
1 0.408286 0.819684
1 0.410651 0.85098
1 0.413001 0.882277
1 0.415366 0.913573
1 0.417716 0.944884
1 0.420081 0.976181
1 0.422431 1
1 0.424796 1
1 0.427146 1
1 0.36846 0.0717632
1 0.370825 0.103044
1 0.373175 0.134356
1 0.37554 0.165652
1 0.37789 0.196948
1 0.380255 0.228244
1 0.382605 0.259556
1 0.38497 0.290852
1 0.38732 0.322148
1 0.389685 0.353445
1 0.392035 0.384741
1 0.3944 0.416052
1 0.39675 0.447349
1 0.399115 0.478645
1 0.401465 0.509941
1 0.40383 0.541238
1 0.40618 0.572549
1 0.408545 0.603845
1 0.410895 0.635142
1 0.41326 0.666438
1 0.41561 0.697749
1 0.417975 0.729046
1 0.420325 0.760342
1 0.422675 0.791638
1 0.42504 0.822934
1 0.42739 0.854246
1 0.429755 0.885542
1 0.432105 0.916838
1 0.43447 0.948135
1 0.43682 0.979446
1 0.439185 1
1 0.441535 1
1 0.4439 1
1 0.385214 0.0750286
1 0.387579 0.10631
1 0.389929 0.137606
1 0.392294 0.168917
1 0.394644 0.200214
1 0.396994 0.23151
1 0.399359 0.262806
1 0.401709 0.294118
1 0.404074 0.325414
1 0.406424 0.35671
1 0.408789 0.388006
1 0.411139 0.419303
1 0.413504 0.450614
1 0.415854 0.48191
1 0.418219 0.513207
1 0.420569 0.544503
1 0.422934 0.575814
1 0.425284 0.607111
1 0.427649 0.638407
1 0.429999 0.669703
1 0.432364 0.700999
1 0.434714 0.732311
1 0.437079 0.763607
1 0.439429 0.794903
1 0.441794 0.8262
1 0.444144 0.857496
1 0.44651 0.888808
1 0.448859 0.920104
1 0.451225 0.9514
1 0.453574 0.982696
1 0.455924 1
1 0.458289 1
1 0.460639 1
1 0.401968 0.078294
1 0.404318 0.109575
1 0.406683 0.140871
1 0.409033 0.172168
1 0.411399 0.203479
1 0.413748 0.234775
1 0.416114 0.266072
1 0.418463 0.297368
1 0.420829 0.328679
1 0.423178 0.359976
1 0.425528 0.391272
1 0.427893 0.422568
1 0.430243 0.453864
1 0.432609 0.485176
1 0.434958 0.516472
1 0.437324 0.547768
1 0.439673 0.579065
1 0.442039 0.610376
1 0.444389 0.641672
1 0.446754 0.672969
1 0.449104 0.704265
1 0.451469 0.735561
1 0.453819 0.766873
1 0.456184 0.798169
1 0.458534 0.829465
1 0.460899 0.860761
1 0.463249 0.892058
1 0.465614 0.923369
1 0.467964 0.954665
1 0.470329 0.985962
1 0.472679 1
1 0.475044 1
1 0.477394 1
1 0.418708 0.0815595
1 0.421073 0.11284
1 0.423423 0.144137
1 0.425788 0.175433
1 0.428138 0.206729
1 0.430503 0.238041
1 0.432853 0.269337
1 0.435218 0.300633
1 0.437568 0.33193
1 0.439933 0.363241
1 0.442283 0.394537
1 0.444648 0.425834
1 0.446998 0.45713
1 0.449363 0.488426
1 0.451713 0.519738
1 0.454078 0.551034
1 0.456428 0.58233
1 0.458793 0.613626
1 0.461143 0.644938
1 0.463493 0.676234
1 0.465858 0.70753
1 0.468208 0.738827
1 0.470573 0.770123
1 0.472923 0.801434
1 0.475288 0.832731
1 0.477638 0.864027
1 0.480003 0.895323
1 0.482353 0.926619
1 0.484718 0.957931
1 0.487068 0.989227
1 0.489433 1
1 0.491783 1
1 0.494148 1
1 0.435462 0.0848096
1 0.437812 0.116106
1 0.440177 0.147402
1 0.442527 0.178698
1 0.444892 0.209995
1 0.447242 0.241291
1 0.449607 0.272602
1 0.451957 0.303899
1 0.454322 0.335195
1 0.456672 0.366491
1 0.459037 0.397803
1 0.461387 0.429099
1 0.463752 0.460395
1 0.466102 0.491691
1 0.468467 0.522988
1 0.470817 0.554299
1 0.473182 0.585595
1 0.475532 0.616892
1 0.477897 0.648188
1 0.480247 0.6795
1 0.482612 0.710796
1 0.484962 0.742092
1 0.487327 0.773388
1 0.489677 0.804685
1 0.492042 0.835996
1 0.494392 0.867292
1 0.496742 0.898589
1 0.499107 0.929885
1 0.501457 0.961181
1 0.503822 0.992493
1 0.506172 1
1 0.508537 1
1 0.510887 1
1 0.452216 0.0880751
1 0.454566 0.119356
1 0.456931 0.150668
1 0.459281 0.181964
1 0.461646 0.21326
1 0.463996 0.244556
1 0.466346 0.275853
1 0.468711 0.307164
1 0.471061 0.33846
