public/LUTS/Color Shift/ColorShift_24.cube
TITLE "Generated by Resolve"
LUT_3D_SIZE 9
0 0 0
0.118318 0.00425727 0
0.236652 0.00852979 0
0.354986 0.0127871 0
0.47332 0.0170443 0
0.591653 0.0213169 0
0.709987 0.0255741 0
0.828321 0.0298466 0
0.946654 0.0341039 0
0 0.127306 0.0176852
0.103014 0.131563 7.62951e-05
0.221347 0.135836 0
0.339681 0.140093 0
0.458015 0.144366 0
0.576349 0.148623 0
0.694682 0.15288 0
0.813016 0.157153 0
0.93135 0.16141 0
0 0.254627 0.0353704
0.0876936 0.2589 0.0177615
0.206027 0.263157 0.000167849
0.324361 0.267414 0
0.442695 0.271687 0
0.561028 0.275944 0
0.679362 0.280201 0
0.797696 0.284474 0
0.91603 0.288731 0
0 0.381949 0.0530404
0.0723735 0.386221 0.0354467
0.190707 0.390478 0.0178378
0.309041 0.394736 0.000244144
0.427375 0.399008 0
0.545708 0.403265 0
0.664042 0.407538 0
0.782376 0.411795 0
0.90071 0.416052 0
0 0.50927 0.0707256
0.0570687 0.513542 0.0531319
0.175402 0.5178 0.035523
0.293736 0.522072 0.0179294
0.41207 0.526329 0.000320439
0.530404 0.530587 0
0.648737 0.534859 0
0.767071 0.539117 0
0.885405 0.543374 0
0 0.636606 0.0884108
0.0417487 0.640864 0.0708171
0.160082 0.645121 0.0532082
0.278416 0.649393 0.0356146
0.39675 0.653651 0.0180056
0.515084 0.657908 0.000396735
0.633417 0.662181 0
0.751751 0.666438 0
0.870085 0.670695 0
0 0.763928 0.106096
0.0264286 0.768185 0.0885023
0.144762 0.772442 0.0708934
0.263096 0.776715 0.0532845
0.38143 0.780972 0.0356909
0.499763 0.785229 0.0180819
0.618097 0.789502 0.000488289
0.736431 0.793759 0
0.854765 0.798032 0
0 0.891249 0.123781
0.0111238 0.895506 0.106172
0.129458 0.899763 0.0885786
0.247791 0.904036 0.0709697
0.366125 0.908293 0.0533761
0.484459 0.912566 0.0357671
0.602792 0.916823 0.0181735
0.721126 0.92108 0.000564584
0.83946 0.925353 0
0 1 0.141466
0 1 0.123857
0.114137 1 0.106264
0.232471 1 0.0886549
0.350805 1 0.0710613
0.469139 1 0.0534524
0.587472 1 0.0358434
0.705806 1 0.0182498
0.82414 1 0.000640879
0.021973 0 0.12491
0.140307 0 0.107301
0.25864 0.0019379 0.0897078
0.376974 0.00621042 0.0720989
0.495308 0.0104677 0.0545052
0.613642 0.014725 0.0368963
0.731975 0.0189975 0.0193027
0.850309 0.0232548 0.00169375
0.968643 0.0275273 0
0.00666819 0.120729 0.14258
0.124987 0.124987 0.124987
0.24332 0.129244 0.107378
0.361654 0.133516 0.0897841
0.479988 0.137774 0.0721752
0.598321 0.142031 0.0545815
0.716655 0.146304 0.0369726
0.834989 0.150561 0.019379
0.953323 0.154833 0.00177005
0 0.248051 0.160266
0.109667 0.252308 0.142672
0.228 0.256565 0.125063
0.346334 0.260838 0.107469
0.464668 0.265095 0.0898604
0.583001 0.269368 0.0722667
0.701335 0.273625 0.0546578
0.819669 0.277882 0.0370642
0.938003 0.282155 0.0194553
0 0.375372 0.177951
0.0943618 0.379629 0.160357
0.212696 0.383902 0.142748
0.331029 0.388159 0.125154
0.449363 0.392416 0.107546
0.567697 0.396689 0.0899367
0.68603 0.400946 0.072343
0.804364 0.405203 0.0547341
0.922698 0.409476 0.0371405
0 0.502693 0.195636
0.0790417 0.50695 0.178042
0.197375 0.511223 0.160433
0.315709 0.51548 0.142824
0.434043 0.519738 0.125231
0.552377 0.52401 0.107622
0.67071 0.528267 0.0900282
0.789044 0.53254 0.0724193
0.907378 0.536797 0.0548257
0 0.630014 0.213321
0.0637217 0.634272 0.195712
0.182055 0.638544 0.178119
0.300389 0.642802 0.16051
0.418723 0.647074 0.142916
0.537057 0.651331 0.125307
0.65539 0.655589 0.107713
0.773724 0.659861 0.0901045
0.892058 0.664118 0.0725109
0 0.757336 0.231006
0.0484169 0.761608 0.213397
0.166751 0.765866 0.195804
0.285084 0.770123 0.178195
0.403418 0.774395 0.160601
0.521752 0.778653 0.142992
0.640085 0.78291 0.125383
0.758419 0.787182 0.10779
0.876753 0.79144 0.0901808
0 0.884657 0.248676
0.0330968 0.88893 0.231083
0.151431 0.893187 0.213489
0.269764 0.897444 0.19588
0.388098 0.901717 0.178271
0.506432 0.905974 0.160678
0.624765 0.910246 0.143069
0.743099 0.914504 0.125475
0.861433 0.918761 0.107866
0 1 0.266361
0.0177768 1 0.248768
0.13611 1 0.231159
0.254444 1 0.213565
0.372793 1 0.195956
0.491127 1 0.178363
0.609461 1 0.160754
0.727794 1 0.14316
0.846128 1 0.125551
0.0439612 0 0.249821
0.16228 0 0.232227
0.280613 0 0.214618
0.398947 0 0.197024
0.517281 0.00389105 0.179416
0.635615 0.00814832 0.161822
0.753948 0.0124056 0.144213
0.872282 0.0166781 0.126619
0.990616 0.0209354 0.10901
0.0286564 0.114137 0.267506
0.146975 0.11841 0.249912
0.265309 0.122667 0.232303
0.383642 0.126925 0.21471
0.501976 0.131197 0.197101
0.62031 0.135454 0.179507
0.738643 0.139712 0.161898
0.856977 0.143984 0.144289
0.975311 0.148241 0.126696
0.0133364 0.241459 0.285191
0.131655 0.245731 0.267597
0.249989 0.249989 0.249989
0.368322 0.254246 0.23238
0.486656 0.258518 0.214786
0.60499 0.262776 0.197177
0.723323 0.267033 0.179583
0.841657 0.271305 0.161975
0.959991 0.275563 0.144381
0 0.36878 0.302876
0.116335 0.373053 0.285267
0.234668 0.37731 0.267674
0.353002 0.381567 0.250065
0.471336 0.38584 0.232471
0.58967 0.390097 0.214862
0.708003 0.394369 0.197269
0.826337 0.398627 0.17966
0.944671 0.402884 0.162066
0 0.496117 0.320562
0.10103 0.500374 0.302953
0.219364 0.504631 0.285359
0.337697 0.508904 0.26775
0.456031 0.513161 0.250156
0.574365 0.517418 0.232547
0.692699 0.521691 0.214939
0.811032 0.525948 0.197345
0.929366 0.530205 0.179736
0 0.623438 0.338231
0.0857099 0.627695 0.320638
0.204044 0.631952 0.303044
0.322377 0.636225 0.285435
0.440711 0.640482 0.267826
0.559045 0.644739 0.250233
0.677378 0.649012 0.232624
0.795712 0.653269 0.21503
0.914046 0.657542 0.197421
0 0.750759 0.355917
0.0703899 0.755016 0.338323
0.188724 0.759274 0.320714
0.307057 0.763546 0.30312
0.425391 0.767803 0.285512
0.543725 0.772076 0.267918
0.662058 0.776333 0.250309
0.780392 0.780591 0.232715
0.898726 0.784863 0.215106
0 0.87808 0.373602
0.0550851 0.882338 0.356008
0.173419 0.88661 0.338399
0.291752 0.890867 0.320806
0.410086 0.895125 0.303197
0.52842 0.899397 0.285603
0.646754 0.903655 0.267994
0.765087 0.907912 0.250385
0.883421 0.912184 0.232792
0 1 0.391287
0.039765 1 0.373693
0.158099 1 0.356085
0.276432 1 0.338491
0.394766 1 0.320882
0.5131 1 0.303273
0.631434 1 0.285679
0.749767 1 0.26807
0.868101 1 0.250477
0.0659495 0 0.374746
0.184268 0 0.357153
0.302602 0 0.339544
0.420935 0 0.32195
0.539269 0 0.304341
0.657603 0.00155642 0.286748
0.775937 0.00582895 0.269139
0.89427 0.0100862 0.25153
1 0.0143587 0.233936
0.0506294 0.107561 0.392432
0.168948 0.111818 0.374823
0.287282 0.116075 0.357229
0.405615 0.120348 0.33962
0.523949 0.124605 0.322026
0.642283 0.128878 0.304417
0.760616 0.133135 0.286824
0.87895 0.137392 0.269215
0.997284 0.141665 0.251621
0.0353246 0.234882 0.410117
0.153643 0.239139 0.392508
0.271977 0.243412 0.374914
0.390311 0.247669 0.357305
0.508644 0.251926 0.339712
0.626978 0.256199 0.322103
0.745312 0.260456 0.304509
0.863645 0.264714 0.2869
0.981979 0.268986 0.269291
0.0200046 0.362203 0.427802
0.138323 0.366461 0.410193
0.256657 0.370733 0.392599
0.37499 0.37499 0.37499
0.493324 0.379248 0.357382
0.611658 0.38352 0.339788
0.729992 0.387778 0.322179
0.848325 0.392035 0.304585
0.966659 0.396307 0.286976
0.00468452 0.489525 0.445472
0.123003 0.493782 0.427878
0.241337 0.498054 0.410269
0.35967 0.502312 0.392676
0.478004 0.506569 0.375067
0.596338 0.510842 0.357473
0.714672 0.515099 0.339864
0.833005 0.519371 0.322271
0.951339 0.523629 0.304662
0 0.616846 0.463157
0.107698 0.621103 0.445563
0.226032 0.625376 0.427955
0.344366 0.629633 0.410361
0.462699 0.633906 0.392752
0.581033 0.638163 0.375158
0.699367 0.64242 0.357549
0.8177 0.646693 0.33994
0.936034 0.65095 0.322347
0 0.744167 0.480842
0.0923781 0.74844 0.463249
0.210712 0.752697 0.44564
0.329046 0.756954 0.428046
0.447379 0.761227 0.410437
0.565713 0.765484 0.392828
0.684047 0.769741 0.375235
0.80238 0.774014 0.357626
0.920714 0.778271 0.340032
0 0.871489 0.498527
0.0770581 0.875761 0.480919
0.195392 0.880018 0.463325
0.313726 0.884276 0.445716
0.432059 0.888548 0.428122
0.550393 0.892805 0.410513
0.668727 0.897078 0.39292
0.78706 0.901335 0.375311
0.905394 0.905592 0.357717
0 0.99881 0.516213
0.0617533 1 0.498604
0.180087 1 0.48101
0.298421 1 0.463401
0.416754 1 0.445808
0.535088 1 0.428199
0.653422 1 0.410605
0.771756 1 0.392996
0.890089 1 0.375387
0.0879225 0 0.499672
0.206241 0 0.482063
0.324575 0 0.464469
0.442908 0 0.44686
0.561242 0 0.429267
0.679576 0 0.411658
0.797925 0 0.394064
0.916259 0.00350958 0.376455
1 0.00776684 0.358862
0.0726177 0.100969 0.517357
0.190936 0.105241 0.499748
0.30927 0.109499 0.482155
0.427604 0.113756 0.464546
0.545937 0.118029 0.446937
0.664271 0.122286 0.429343
0.782605 0.126543 0.411734
0.900938 0.130816 0.394141
1 0.135073 0.376532
0.0572976 0.22829 0.535027
0.175616 0.232563 0.517433
0.29395 0.23682 0.499825
0.412284 0.241077 0.482231
0.530617 0.24535 0.464622
0.648951 0.249607 0.447028
0.767285 0.25388 0.429419
0.885618 0.258137 0.411826
1 0.262394 0.394217
0.0419928 0.355612 0.552712
0.160311 0.359884 0.535119
0.278645 0.364141 0.51751
0.396979 0.368414 0.499916
0.515312 0.372671 0.482307
0.633646 0.376928 0.464714
0.75198 0.381201 0.447105
0.870314 0.385458 0.429511
0.988647 0.389715 0.411902
0.0266728 0.482948 0.570397
0.144991 0.487205 0.552804
0.263325 0.491463 0.535195
0.381659 0.495735 0.517601
0.499992 0.499992 0.499992
0.618326 0.50425 0.482383
0.73666 0.508522 0.46479
0.854994 0.512779 0.447181
0.973327 0.517037 0.429587
0.0113527 0.610269 0.588083
0.129671 0.614527 0.570474
0.248005 0.618784 0.55288
0.366339 0.623056 0.535271
0.484672 0.627314 0.517678
0.603006 0.631571 0.500069
0.72134 0.635843 0.482475
0.839673 0.640101 0.464866
0.958007 0.644373 0.447272
0 0.737591 0.605768
0.114366 0.741848 0.588159
0.2327 0.746105 0.570565
0.351034 0.750378 0.552956
0.469368 0.754635 0.535363
0.587701 0.758907 0.517754
0.706035 0.763165 0.50016
0.824369 0.767422 0.482551
0.942702 0.771695 0.464942
0 0.864912 0.623453
0.0990463 0.869169 0.605844
0.21738 0.873442 0.588251
0.335714 0.877699 0.570642
0.454047 0.881956 0.553048
0.572381 0.886229 0.535439
0.690715 0.890486 0.51783
0.809049 0.894743 0.500237
0.927382 0.899016 0.482628
0 0.992233 0.641123
0.0837262 0.99649 0.623529
0.20206 1 0.60592
0.320394 1 0.588327
0.438727 1 0.570718
0.557061 1 0.553124
0.675395 1 0.535515
0.793729 1 0.517922
0.912062 1 0.500313
0.109911 0 0.624598
0.228229 0 0.606989
0.346563 0 0.589395
0.464897 0 0.571786
0.58323 0 0.554177
0.701564 0 0.536583
0.819898 0 0.518975
0.938231 0 0.501381
1 0.0011902 0.483772
0.0945907 0.0943923 0.642267
0.212924 0.0986496 0.624674
0.331258 0.102907 0.607065
0.449592 0.107179 0.589471
0.567926 0.111437 0.571862
0.686259 0.115709 0.554269
0.804593 0.119966 0.53666
0.922927 0.124224 0.519066
1 0.128496 0.501457
0.0792859 0.221714 0.659953
0.197604 0.225971 0.642359
0.315938 0.230243 0.62475
0.434272 0.234501 0.607156
0.552605 0.238758 0.589548
0.670939 0.24303 0.571939
0.789273 0.247288 0.554345
0.907607 0.251545 0.536736
1 0.255818 0.519142
0.0639658 0.349035 0.677638
0.182284 0.353292 0.660044
0.300618 0.357565 0.642435
0.418952 0.361822 0.624826
0.537285 0.366079 0.607233
0.655619 0.370352 0.589624
0.773953 0.374609 0.57203
0.892287 0.378882 0.554421
1 0.383139 0.536828
0.048661 0.476356 0.695323
0.166979 0.480613 0.677714
0.285313 0.484886 0.660121
0.403647 0.489143 0.642512
0.521981 0.493416 0.624918
0.640314 0.497673 0.607309
0.758648 0.50193 0.589715
0.876982 0.506203 0.572106
0.995315 0.51046 0.554513
0.033341 0.603677 0.713008
0.151659 0.60795 0.695399
0.269993 0.612207 0.677806
0.388327 0.616464 0.660197
0.506661 0.620737 0.642603
0.624994 0.624994 0.624994
0.743328 0.629252 0.607385
0.861662 0.633524 0.589792
0.979995 0.637781 0.572183
0.0180209 0.730999 0.730678
0.136339 0.735271 0.713085
0.254673 0.739528 0.695476
0.373007 0.743786 0.677882
0.491341 0.748058 0.660273
0.609674 0.752316 0.64268
0.728008 0.756573 0.625071
0.846342 0.760845 0.607477
0.964675 0.765103 0.589868
0.00271611 0.85832 0.748363
0.121035 0.862593 0.73077
0.239368 0.86685 0.713161
0.357702 0.871107 0.695567
0.476036 0.87538 0.677958
0.594369 0.879637 0.660365
0.712703 0.883909 0.642756
0.831037 0.888167 0.625162
0.949371 0.892424 0.607553
0 0.985656 0.766049
0.105715 0.989914 0.748455
0.224048 0.994171 0.730846
0.342382 0.998444 0.713252
0.460716 1 0.695644
0.579049 1 0.67805
0.697383 1 0.660441
0.815717 1 0.642832
0.934051 1 0.625238
0.131899 0 0.749508
0.250217 0 0.731914
0.368551 0 0.714305
0.486885 0 0.696712
0.605219 0 0.679103
0.723552 0 0.661509
0.841886 0 0.6439
0.96022 0 0.626307
1 0 0.608698
0.116579 0.0878004 0.767193
0.234897 0.0920729 0.749599
0.353231 0.0963302 0.731991
0.471565 0.100587 0.714382
0.589899 0.10486 0.696788
0.708232 0.109117 0.679179
0.826566 0.113375 0.661585
0.9449 0.117647 0.643977
1 0.121904 0.626383
0.101259 0.215122 0.784878
0.219593 0.219394 0.767269
0.337926 0.223651 0.749676
0.45626 0.227909 0.732067
0.574594 0.232181 0.714473
0.692927 0.236439 0.696864
0.811261 0.240711 0.679271
0.929595 0.244968 0.661662
1 0.249226 0.644068
0.0859541 0.342443 0.802563
0.204273 0.346716 0.784955
0.322606 0.350973 0.767361
0.44094 0.355245 0.749752
0.559274 0.359503 0.732158
0.677607 0.36376 0.714549
0.795941 0.368032 0.696941
0.914275 0.37229 0.679347
1 0.376547 0.661738
0.070634 0.46978 0.820233
0.188952 0.474037 0.80264
0.307286 0.478294 0.785046
0.42562 0.482567 0.767437
0.543954 0.486824 0.749828
0.662287 0.491081 0.732235
0.780621 0.495354 0.714626
0.898955 0.499611 0.697032
1 0.503883 0.679423
0.0553292 0.597101 0.837919
0.173648 0.601358 0.820325
0.291981 0.605615 0.802716
0.410315 0.609888 0.785122
0.528649 0.614145 0.767514
0.646983 0.618418 0.74992
0.765316 0.622675 0.732311
0.88365 0.626932 0.714717
1 0.631205 0.697108
0.0400092 0.724422 0.855604
0.158328 0.728679 0.83801
0.276661 0.732952 0.820401
0.394995 0.737209 0.802808
0.513329 0.741466 0.785199
0.631662 0.745739 0.767605
0.749996 0.749996 0.749996
0.86833 0.754253 0.732387
0.986664 0.758526 0.714794
0.0246891 0.851743 0.873289
0.143008 0.856001 0.855695
0.261341 0.860273 0.838087
0.379675 0.86453 0.820478
0.498009 0.868788 0.802884
0.616342 0.87306 0.785275
0.734676 0.877317 0.767681
0.85301 0.881575 0.750072
0.971344 0.885847 0.732479
0.0093843 0.979065 0.890974
0.127703 0.983322 0.873365
0.246036 0.987594 0.855772
0.36437 0.991852 0.838163
0.482704 0.996109 0.820569
0.601038 1 0.80296
0.719371 1 0.785367
0.837705 1 0.767758
0.956039 1 0.750164
0.153872 0 0.874434
0.27219 0 0.85684
0.390524 0 0.839231
0.508858 0 0.821622
0.627192 0 0.804028
0.745525 0 0.786419
0.863859 0 0.768826
0.982193 0 0.751217
1 0 0.733623
0.138567 0.0812238 0.892119
0.256886 0.085481 0.87451
0.375219 0.0897383 0.856916
0.493553 0.0940108 0.839307
0.611887 0.0982681 0.821714
0.73022 0.102541 0.804105
0.848554 0.106798 0.786496
0.966888 0.111055 0.768902
1 0.115328 0.751293
0.123247 0.208545 0.909789
0.241566 0.212802 0.892195
0.359899 0.217075 0.874601
0.478233 0.221332 0.856992
0.596567 0.225589 0.839384
0.7149 0.229862 0.82179
0.833234 0.234119 0.804181
0.951568 0.238376 0.786587
1 0.242649 0.768978
0.107927 0.335866 0.927474
0.226261 0.340124 0.90988
0.344594 0.344396 0.892271
0.462928 0.348653 0.874678
0.581262 0.352911 0.857069
0.699596 0.357183 0.839475
0.817929 0.36144 0.821866
0.936263 0.365713 0.804273
1 0.36997 0.786664
0.0926223 0.463188 0.945159
0.210941 0.467445 0.927565
0.329274 0.471717 0.909957
0.447608 0.475975 0.892363
0.565942 0.480247 0.874754
0.684276 0.484504 0.85716
0.802609 0.488762 0.839551
0.920943 0.493034 0.821942
1 0.497292 0.804349
0.0773022 0.590509 0.962844
0.195621 0.594781 0.945251
0.313954 0.599039 0.927642
0.432288 0.603296 0.910048
0.550622 0.607569 0.892439
0.668956 0.611826 0.87483
0.787289 0.616083 0.857237
0.905623 0.620356 0.839628
1 0.624613 0.822034
0.0619974 0.71783 0.980529
0.180316 0.722103 0.962921
0.29865 0.72636 0.945327
0.416983 0.730617 0.927718
0.535317 0.73489 0.910124
0.653651 0.739147 0.892515
0.771984 0.74342 0.874922
0.890318 0.747677 0.857313
1 0.751934 0.839719
0.0466773 0.845151 0.998215
0.164996 0.849424 0.980606
0.28333 0.853681 0.963012
0.401663 0.857954 0.945403
0.519997 0.862211 0.92781
0.638331 0.866468 0.910201
0.756664 0.870741 0.892607
0.874998 0.874998 0.874998
0.993332 0.879255 0.857389
0.0313573 0.972488 1
0.149676 0.976745 0.998291
0.268009 0.981003 0.980697
0.386343 0.985275 0.963088
0.504677 0.989532 0.94548
0.623011 0.99379 0.927886
0.741344 0.998062 0.910277
0.859678 1 0.892683
0.978012 1 0.875074
0.17586 0 0.999359
0.294179 0 0.98175
0.412512 0 0.964157
0.530846 0 0.946548
0.64918 0 0.928954
0.767514 0 0.911345
0.885847 0 0.893736
1 0 0.876143
1 0 0.858534
0.16054 0.0746319 1
0.278859 0.0789044 0.999435
0.397192 0.0831617 0.981826
0.515526 0.0874189 0.964233
0.63386 0.0916915 0.946624
0.752194 0.0959487 0.92903
0.870542 0.100206 0.911421
0.988876 0.104479 0.893828
1 0.108736 0.876219
0.145235 0.201953 1
0.263554 0.206226 1
0.381888 0.210483 0.999512
0.500221 0.21474 0.981918
0.618555 0.219013 0.964309
0.736889 0.22327 0.946715
0.855222 0.227543 0.929107
0.973556 0.2318 0.911498
1 0.236057 0.893904
0.129915 0.329274 1
0.248234 0.333547 1
0.366567 0.337804 1
0.484901 0.342077 0.999603
0.603235 0.346334 0.981994
0.721569 0.350591 0.964385
0.839902 0.354864 0.946792
0.958236 0.359121 0.929183
1 0.363378 0.911589
0.114595 0.456611 1
0.232929 0.460868 1
0.351263 0.465126 1
0.469596 0.469398 1
0.58793 0.473655 0.99968
0.706264 0.477913 0.982071
0.824598 0.482185 0.964477
0.942931 0.486442 0.946868
1 0.490715 0.929274
0.0992905 0.583932 1
0.217609 0.58819 1
0.335943 0.592447 1
0.454276 0.596719 1
0.57261 0.600977 1
0.690944 0.605249 0.999756
0.809277 0.609506 0.982162
0.927611 0.613764 0.964553
1 0.618036 0.946944
0.0839704 0.711254 1
0.202289 0.715511 1
0.320623 0.719783 1
0.438956 0.724041 1
0.55729 0.728298 1
0.675624 0.73257 1
0.793957 0.736828 0.999832
0.912291 0.741085 0.982238
1 0.745357 0.96463
0.0686503 0.838575 1
0.186984 0.842832 1
0.305318 0.847105 1
0.423651 0.851362 1
0.541985 0.855619 1
0.660319 0.859892 1
0.778653 0.864149 1
0.896986 0.868421 0.999924
1 0.872679 0.982315
0.0533455 0.965896 1
0.171664 0.970153 1
0.289998 0.974426 1
0.408331 0.978683 1
0.526665 0.982956 1
0.644999 0.987213 1
0.763333 0.99147 1
0.881666 0.995743 1
1 1 1
