public/LUTS/Color Shift/ColorShift_24.cube
TITLE "Generated by Resolve"
LUT_3D_SIZE 5
0 0 0
0.236652 0.00852979 0
0.47332 0.0170443 0
0.709987 0.0255741 0
0.946654 0.0341039 0
0 0.254627 0.0353704
0.206027 0.263157 0.000167849
0.442695 0.271687 0
0.679362 0.280201 0
0.91603 0.288731 0
0 0.50927 0.0707256
0.175402 0.5178 0.035523
0.41207 0.526329 0.000320439
0.648737 0.534859 0
0.885405 0.543374 0
0 0.763928 0.106096
0.144762 0.772442 0.0708934
0.38143 0.780972 0.0356909
0.618097 0.789502 0.000488289
0.854765 0.798032 0
0 1 0.141466
0.114137 1 0.106264
0.350805 1 0.0710613
0.587472 1 0.0358434
0.82414 1 0.000640879
0.0439612 0 0.249821
0.280613 0 0.214618
0.517281 0.00389105 0.179416
0.753948 0.0124056 0.144213
0.990616 0.0209354 0.10901
0.0133364 0.241459 0.285191
0.249989 0.249989 0.249989
0.486656 0.258518 0.214786
0.723323 0.267033 0.179583
0.959991 0.275563 0.144381
0 0.496117 0.320562
0.219364 0.504631 0.285359
0.456031 0.513161 0.250156
0.692699 0.521691 0.214939
0.929366 0.530205 0.179736
0 0.750759 0.355917
0.188724 0.759274 0.320714
0.425391 0.767803 0.285512
0.662058 0.776333 0.250309
0.898726 0.784863 0.215106
0 1 0.391287
0.158099 1 0.356085
0.394766 1 0.320882
0.631434 1 0.285679
0.868101 1 0.250477
0.0879225 0 0.499672
0.324575 0 0.464469
0.561242 0 0.429267
0.797925 0 0.394064
1 0.00776684 0.358862
0.0572976 0.22829 0.535027
0.29395 0.23682 0.499825
0.530617 0.24535 0.464622
0.767285 0.25388 0.429419
1 0.262394 0.394217
0.0266728 0.482948 0.570397
0.263325 0.491463 0.535195
0.499992 0.499992 0.499992
0.73666 0.508522 0.46479
0.973327 0.517037 0.429587
0 0.737591 0.605768
0.2327 0.746105 0.570565
0.469368 0.754635 0.535363
0.706035 0.763165 0.50016
0.942702 0.771695 0.464942
0 0.992233 0.641123
0.20206 1 0.60592
0.438727 1 0.570718
0.675395 1 0.535515
0.912062 1 0.500313
0.131899 0 0.749508
0.368551 0 0.714305
0.605219 0 0.679103
0.841886 0 0.6439
1 0 0.608698
0.101259 0.215122 0.784878
0.337926 0.223651 0.749676
0.574594 0.232181 0.714473
0.811261 0.240711 0.679271
1 0.249226 0.644068
0.070634 0.46978 0.820233
0.307286 0.478294 0.785046
0.543954 0.486824 0.749828
0.780621 0.495354 0.714626
1 0.503883 0.679423
0.0400092 0.724422 0.855604
0.276661 0.732952 0.820401
0.513329 0.741466 0.785199
0.749996 0.749996 0.749996
0.986664 0.758526 0.714794
0.0093843 0.979065 0.890974
0.246036 0.987594 0.855772
0.482704 0.996109 0.820569
0.719371 1 0.785367
0.956039 1 0.750164
0.17586 0 0.999359
0.412512 0 0.964157
0.64918 0 0.928954
0.885847 0 0.893736
1 0 0.858534
0.145235 0.201953 1
0.381888 0.210483 0.999512
0.618555 0.219013 0.964309
0.855222 0.227543 0.929107
1 0.236057 0.893904
0.114595 0.456611 1
0.351263 0.465126 1
0.58793 0.473655 0.99968
0.824598 0.482185 0.964477
1 0.490715 0.929274
0.0839704 0.711254 1
0.320623 0.719783 1
0.55729 0.728298 1
0.793957 0.736828 0.999832
1 0.745357 0.96463
0.0533455 0.965896 1
0.289998 0.974426 1
0.526665 0.982956 1
0.763333 0.99147 1
1 1 1
