public/LUTS/Color Shift/ColorShift_21.cube
TITLE "Generated by Resolve"
LUT_3D_SIZE 33
0 0 0
0.0238804 0.00373846 0
0.047776 0.00747692 0
0.0716564 0.0112154 0
0.095552 0.0149386 0
0.119448 0.018677 0
0.143328 0.0224155 0
0.167224 0.026154 0
0.191119 0.0298924 0
0.215 0.0336309 0
0.238895 0.0373693 0
0.262791 0.0411078 0
0.286671 0.0448463 0
0.310567 0.0485847 0
0.334462 0.0523232 0
0.358358 0.0560464 0
0.382239 0.0597848 0
0.406134 0.0635233 0
0.43003 0.0672618 0
0.45391 0.0710002 0
0.477806 0.0747387 0
0.501701 0.0784772 0
0.525582 0.0822156 0
0.549477 0.0859541 0
0.573373 0.0896925 0
0.597253 0.0934157 0
0.621149 0.0971542 0
0.645045 0.100893 0
0.668925 0.104631 0
0.692821 0.10837 0
0.716716 0.112108 0
0.740612 0.115846 0
0.764492 0.119585 0
0 0.0319066 0.0149386
0.0152285 0.0356451 0.00303655
0.0391241 0.0393835 0
0.0630198 0.043122 0
0.0869001 0.0468605 0
0.110796 0.0505989 0
0.134691 0.0543221 0
0.158572 0.0580606 0
0.182467 0.061799 0
0.206363 0.0655375 0
0.230243 0.069276 0
0.254139 0.0730144 0
0.278035 0.0767529 0
0.30193 0.0804913 0
0.325811 0.0842298 0
0.349706 0.0879683 0
0.373602 0.0917067 0
0.397482 0.0954299 0
0.421378 0.0991684 0
0.445274 0.102907 0
0.469154 0.106645 0
0.49305 0.110384 0
0.516945 0.114122 0
0.540825 0.117861 0
0.564721 0.121599 0
0.588617 0.125338 0
0.612497 0.129076 0
0.636393 0.132799 0
0.660288 0.136538 0
0.684169 0.140276 0
0.708064 0.144015 0
0.73196 0.147753 0
0.755856 0.151492 0
0 0.0638285 0.0298772
0.00657664 0.0675669 0.0179751
0.0304723 0.0713054 0.00608835
0.0543679 0.0750439 0
0.0782483 0.0787823 0
0.102144 0.0825208 0
0.12604 0.0862593 0
0.14992 0.0899977 0
0.173816 0.0937362 0
0.197711 0.0974594 0
0.221607 0.101198 0
0.245487 0.104936 0
0.269383 0.108675 0
0.293278 0.112413 0
0.317159 0.116152 0
0.341054 0.11989 0
0.36495 0.123629 0
0.38883 0.127367 0
0.412726 0.131106 0
0.436622 0.134829 0
0.460502 0.138567 0
0.484398 0.142306 0
0.508293 0.146044 0
0.532174 0.149783 0
0.556069 0.153521 0
0.579965 0.157259 0
0.603845 0.160998 0
0.627741 0.164736 0
0.651637 0.168475 0
0.675532 0.172213 0
0.699413 0.175937 0
0.723308 0.179675 0
0.747204 0.183413 0
0 0.0957656 0.0448157
0 0.0994888 0.0329137
0.0218204 0.103227 0.0210269
0.045716 0.106966 0.0091249
0.0695964 0.110704 0
0.093492 0.114443 0
0.117388 0.118181 0
0.141283 0.12192 0
0.165164 0.125658 0
0.189059 0.129397 0
0.212955 0.133135 0
0.236835 0.136858 0
0.260731 0.140597 0
0.284627 0.144335 0
0.308507 0.148074 0
0.332403 0.151812 0
0.356298 0.15555 0
0.380179 0.159289 0
0.404074 0.163027 0
0.42797 0.166766 0
0.45185 0.170504 0
0.475746 0.174228 0
0.499641 0.177966 0
0.523522 0.181704 0
0.547417 0.185443 0
0.571313 0.189181 0
0.595209 0.19292 0
0.619089 0.196658 0
0.642985 0.200397 0
0.66688 0.204135 0
0.690761 0.207874 0
0.714656 0.211612 0
0.738552 0.215335 0
0 0.127687 0.0597543
0 0.131426 0.0478523
0.0131685 0.135164 0.0359655
0.0370642 0.138888 0.0240635
0.0609598 0.142626 0.0121767
0.0848402 0.146365 0.000289921
0.108736 0.150103 0
0.132631 0.153841 0
0.156512 0.15758 0
0.180407 0.161318 0
0.204303 0.165057 0
0.228183 0.168795 0
0.252079 0.172534 0
0.275975 0.176257 0
0.299855 0.179995 0
0.323751 0.183734 0
0.347646 0.187472 0
0.371527 0.191211 0
0.395422 0.194949 0
0.419318 0.198688 0
0.443198 0.202426 0
0.467094 0.206165 0
0.49099 0.209903 0
0.514885 0.213642 0
0.538766 0.217365 0
0.562661 0.221103 0
0.586557 0.224842 0
0.610437 0.22858 0
0.634333 0.232319 0
0.658228 0.236057 0
0.682109 0.239796 0
0.706004 0.243534 0
0.7299 0.247272 0
0 0.159609 0.0746929
0 0.163348 0.0627909
0.00451667 0.167086 0.0509041
0.0284123 0.170825 0.0390021
0.0523079 0.174563 0.0271153
0.0761883 0.178286 0.0152285
0.100084 0.182025 0.00332647
0.12398 0.185763 0
0.14786 0.189502 0
0.171756 0.19324 0
0.195651 0.196979 0
0.219532 0.200717 0
0.243427 0.204456 0
0.267323 0.208194 0
0.291203 0.211933 0
0.315099 0.215671 0
0.338994 0.219394 0
0.36289 0.223133 0
0.38677 0.226871 0
0.410666 0.23061 0
0.434562 0.234348 0
0.458442 0.238087 0
0.482338 0.241825 0
0.506233 0.245563 0
0.530114 0.249302 0
0.554009 0.25304 0
0.577905 0.256764 0
0.601785 0.260502 0
0.625681 0.26424 0
0.649577 0.267979 0
0.673457 0.271717 0
0.697353 0.275456 0
0.721248 0.279194 0
0 0.191531 0.0896315
0 0.19527 0.0777295
0 0.199008 0.0658427
0.0197604 0.202747 0.0539559
0.0436561 0.206485 0.0420539
0.0675364 0.210224 0.0301671
0.0914321 0.213962 0.018265
0.115328 0.217685 0.00637827
0.139208 0.221424 0
0.163104 0.225162 0
0.186999 0.228901 0
0.21088 0.232639 0
0.234775 0.236378 0
0.258671 0.240116 0
0.282567 0.243854 0
0.306447 0.247593 0
0.330343 0.251331 0
0.354238 0.25507 0
0.378119 0.258793 0
0.402014 0.262531 0
0.42591 0.26627 0
0.44979 0.270008 0
0.473686 0.273747 0
0.497581 0.277485 0
0.521462 0.281224 0
0.545357 0.284962 0
0.569253 0.288701 0
0.593133 0.292439 0
0.617029 0.296162 0
0.640925 0.299901 0
0.664805 0.303639 0
0.688701 0.307378 0
0.712596 0.311116 0
0 0.223453 0.10457
0 0.227192 0.092668
0 0.23093 0.0807813
0.0111086 0.234668 0.0688945
0.0350042 0.238407 0.0569924
0.0588846 0.242145 0.0451057
0.0827802 0.245884 0.0332036
0.106676 0.249622 0.0213169
0.130556 0.253361 0.00941482
0.154452 0.257099 0
0.178347 0.260822 0
0.202243 0.264561 0
0.226123 0.268299 0
0.250019 0.272038 0
0.273915 0.275776 0
0.297795 0.279515 0
0.321691 0.283253 0
0.345586 0.286992 0
0.369467 0.29073 0
0.393362 0.294469 0
0.417258 0.298192 0
0.441138 0.30193 0
0.465034 0.305669 0
0.48893 0.309407 0
0.51281 0.313146 0
0.536706 0.316884 0
0.560601 0.320623 0
0.584482 0.324361 0
0.608377 0.328099 0
0.632273 0.331838 0
0.656168 0.335561 0
0.680049 0.3393 0
0.703944 0.343038 0
0 0.25539 0.119509
0 0.259113 0.107622
0 0.262852 0.0957198
0.0024567 0.26659 0.0838331
0.0263523 0.270329 0.071931
0.0502327 0.274067 0.0600443
0.0741283 0.277806 0.0481422
0.098024 0.281544 0.0362554
0.12192 0.285283 0.0243534
0.1458 0.289021 0.0124666
0.169696 0.29276 0.000564584
0.193591 0.296498 0
0.217472 0.300221 0
0.241367 0.30396 0
0.265263 0.307698 0
0.289143 0.311437 0
0.313039 0.315175 0
0.336934 0.318914 0
0.360815 0.322652 0
0.38471 0.32639 0
0.408606 0.330129 0
0.432486 0.333867 0
0.456382 0.337591 0
0.480278 0.341329 0
0.504158 0.345068 0
0.528054 0.348806 0
0.551949 0.352544 0
0.575845 0.356283 0
0.599725 0.360021 0
0.623621 0.36376 0
0.647517 0.367498 0
0.671397 0.371237 0
0.695293 0.374975 0
0 0.287312 0.134447
0 0.291051 0.12256
0 0.294789 0.110658
0 0.298528 0.0987716
0.0177005 0.302251 0.0868696
0.0415961 0.305989 0.0749828
0.0654765 0.309728 0.0630808
0.0893721 0.313466 0.051194
0.113268 0.317205 0.039292
0.137148 0.320943 0.0274052
0.161044 0.324681 0.0155032
0.184939 0.32842 0.00361639
0.20882 0.332158 0
0.232715 0.335897 0
0.256611 0.33962 0
0.280491 0.343359 0
0.304387 0.347097 0
0.328283 0.350835 0
0.352163 0.354574 0
0.376059 0.358312 0
0.399954 0.362051 0
0.423835 0.365789 0
0.44773 0.369528 0
0.471626 0.373266 0
0.495521 0.377005 0
0.519402 0.380728 0
0.543297 0.384466 0
0.567193 0.388205 0
0.591073 0.391943 0
0.614969 0.395682 0
0.638865 0.39942 0
0.662745 0.403159 0
0.686641 0.406897 0
0 0.319234 0.149386
0 0.322972 0.137499
0 0.326711 0.125597
0 0.330449 0.11371
0.0090486 0.334188 0.101808
0.0329442 0.337926 0.0899214
0.0568246 0.34165 0.0780194
0.0807202 0.345388 0.0661326
0.104616 0.349126 0.0542306
0.128496 0.352865 0.0423438
0.152392 0.356603 0.0304417
0.176287 0.360342 0.018555
0.200168 0.36408 0.00665293
0.224063 0.367819 0
0.247959 0.371557 0
0.271839 0.375296 0
0.295735 0.379019 0
0.319631 0.382757 0
0.343526 0.386496 0
0.367407 0.390234 0
0.391302 0.393973 0
0.415198 0.397711 0
0.439078 0.40145 0
0.462974 0.405188 0
0.48687 0.408927 0
0.51075 0.412665 0
0.534646 0.416403 0
0.558541 0.420127 0
0.582422 0.423865 0
0.606317 0.427604 0
0.630213 0.431342 0
0.654093 0.43508 0
0.677989 0.438819 0
0 0.351156 0.164324
0 0.354894 0.152438
0 0.358633 0.140536
0 0.362371 0.128649
0.000396735 0.36611 0.116747
0.0242924 0.369848 0.10486
0.0481727 0.373587 0.092958
0.0720684 0.377325 0.0810712
0.095964 0.381048 0.0691691
0.119844 0.384787 0.0572824
0.14374 0.388525 0.0453803
0.167636 0.392264 0.0334936
0.191516 0.396002 0.0215915
0.215412 0.399741 0.00970474
0.239307 0.403479 0
0.263203 0.407218 0
0.287083 0.410956 0
0.310979 0.414694 0
0.334874 0.418433 0
0.358755 0.422156 0
0.38265 0.425895 0
0.406546 0.429633 0
0.430426 0.433371 0
0.454322 0.43711 0
0.478218 0.440848 0
0.502098 0.444587 0
0.525994 0.448325 0
0.549889 0.452064 0
0.57377 0.455802 0
0.597665 0.459525 0
0.621561 0.463264 0
0.645441 0.467002 0
0.669337 0.470741 0
0 0.383093 0.179263
0 0.386816 0.167376
0 0.390555 0.155474
0 0.394293 0.143587
0 0.398032 0.131685
0.0156405 0.40177 0.119799
0.0395209 0.405509 0.107897
0.0634165 0.409247 0.0960098
0.0873121 0.412985 0.0841077
0.111192 0.416724 0.072221
0.135088 0.420447 0.0603189
0.158984 0.424186 0.0484321
0.182879 0.427924 0.0365301
0.20676 0.431662 0.0246433
0.230655 0.435401 0.0127413
0.254551 0.439139 0.000854505
0.278431 0.442878 0
0.302327 0.446616 0
0.326223 0.450355 0
0.350103 0.454093 0
0.373999 0.457832 0
0.397894 0.461555 0
0.421775 0.465293 0
0.44567 0.469032 0
0.469566 0.47277 0
0.493446 0.476509 0
0.517342 0.480247 0
0.541238 0.483986 0
0.565118 0.487724 0
0.589014 0.491463 0
0.612909 0.495201 0
0.636805 0.498924 0
0.660685 0.502663 0
0 0.415015 0.194202
0 0.418753 0.182315
0 0.422477 0.170413
0 0.426215 0.158526
0 0.429953 0.146624
0.00698863 0.433692 0.134737
0.030869 0.43743 0.122835
0.0547646 0.441169 0.110948
0.0786603 0.444907 0.0990463
0.102556 0.448646 0.0871595
0.126436 0.452384 0.0752575
0.150332 0.456123 0.0633707
0.174228 0.459861 0.0514687
0.198108 0.463584 0.0395819
0.222004 0.467323 0.0276799
0.245899 0.471061 0.0157931
0.26978 0.4748 0.00389105
0.293675 0.478538 0
0.317571 0.482277 0
0.341451 0.486015 0
0.365347 0.489754 0
0.389242 0.493492 0
0.413123 0.49723 0
0.437018 0.500954 0
0.460914 0.504692 0
0.484794 0.508431 0
0.50869 0.512169 0
0.532586 0.515908 0
0.556481 0.519646 0
0.580362 0.523384 0
0.604257 0.527123 0
0.628153 0.530861 0
0.652033 0.5346 0
0 0.446937 0.20914
0 0.450675 0.197253
0 0.454414 0.185351
0 0.458152 0.173465
0 0.461875 0.161563
0 0.465614 0.149676
0.0222324 0.469352 0.137774
0.0461128 0.473091 0.125887
0.0700084 0.476829 0.113985
0.093904 0.480568 0.102098
0.117784 0.484306 0.0901961
0.14168 0.488045 0.0783093
0.165576 0.491783 0.0664073
0.189456 0.495521 0.0545205
0.213352 0.49926 0.0426184
0.237247 0.502983 0.0307317
0.261128 0.506722 0.0188296
0.285023 0.51046 0.00694286
0.308919 0.514199 0
0.332799 0.517937 0
0.356695 0.521675 0
0.380591 0.525414 0
0.404471 0.529152 0
0.428367 0.532891 0
0.452262 0.536629 0
0.476158 0.540352 0
0.500038 0.544091 0
0.523934 0.547829 0
0.547829 0.551568 0
0.57171 0.555306 0
0.595605 0.559045 0
0.619501 0.562783 0
0.643381 0.566522 0
0 0.478859 0.224079
0 0.482597 0.212192
0 0.486336 0.20029
0 0.490074 0.188403
0 0.493812 0.176501
0 0.497551 0.164614
0.0135805 0.501289 0.152712
0.0374609 0.505013 0.140826
0.0613565 0.508751 0.128923
0.0852522 0.512489 0.117037
0.109133 0.516228 0.105135
0.133028 0.519966 0.0932479
0.156924 0.523705 0.0813458
0.180804 0.527443 0.0694591
0.2047 0.531182 0.057557
0.228595 0.53492 0.0456703
0.252476 0.538659 0.0337682
0.276371 0.542382 0.0218814
0.300267 0.54612 0.0099794
0.324163 0.549859 0
0.348043 0.553597 0
0.371939 0.557336 0
0.395834 0.561074 0
0.419715 0.564813 0
0.44361 0.568551 0
0.467506 0.57229 0
0.491386 0.576028 0
0.515282 0.579767 0
0.539178 0.58349 0
0.563058 0.587228 0
0.586954 0.590967 0
0.610849 0.594705 0
0.63473 0.598444 0
0 0.510781 0.239017
0 0.514519 0.227131
0 0.518257 0.215228
0 0.521996 0.203342
0 0.525734 0.19144
0 0.529473 0.179553
0.00492866 0.533211 0.167651
0.028809 0.53695 0.155764
0.0527047 0.540688 0.143862
0.0766003 0.544411 0.131975
0.100481 0.54815 0.120073
0.124376 0.551888 0.108186
0.148272 0.555627 0.0962844
0.172152 0.559365 0.0843977
0.196048 0.563104 0.0724956
0.219944 0.566842 0.0606088
0.243839 0.570581 0.0487068
0.26772 0.574319 0.03682
0.291615 0.578058 0.024918
0.315511 0.581781 0.0130312
0.339391 0.585519 0.00112917
0.363287 0.589258 0
0.387182 0.592996 0
0.411063 0.596735 0
0.434958 0.600473 0
0.458854 0.604212 0
0.482734 0.60795 0
0.50663 0.611688 0
0.530526 0.615427 0
0.554406 0.619165 0
0.578302 0.622889 0
0.602197 0.626627 0
0.626078 0.630365 0
0 0.542718 0.253956
0 0.546441 0.242069
0 0.550179 0.230167
0 0.553918 0.21828
0 0.557656 0.206378
0 0.561395 0.194491
0 0.565133 0.182589
0.0201572 0.568872 0.170703
0.0440528 0.57261 0.158801
0.0679484 0.576349 0.146914
0.0918288 0.580087 0.135012
0.115724 0.58381 0.123125
0.13962 0.587549 0.111223
0.163516 0.591287 0.0993362
0.187396 0.595026 0.0874342
0.211292 0.598764 0.0755474
0.235187 0.602502 0.0636454
0.259068 0.606241 0.0517586
0.282963 0.609979 0.0398566
0.306859 0.613718 0.0279698
0.330739 0.617456 0.0160678
0.354635 0.621195 0.00418097
0.378531 0.624918 0
0.402411 0.628656 0
0.426307 0.632395 0
0.450202 0.636133 0
0.474083 0.639872 0
0.497978 0.64361 0
0.521874 0.647349 0
0.545754 0.651087 0
0.56965 0.654826 0
0.593545 0.658564 0
0.617441 0.662287 0
0 0.574639 0.268894
0 0.578378 0.257008
0 0.582116 0.245106
0 0.58584 0.233219
0 0.589578 0.221317
0 0.593317 0.20943
0 0.597055 0.197528
0.0115053 0.600793 0.185641
0.0354009 0.604532 0.173739
0.0592966 0.60827 0.161852
0.0831922 0.612009 0.14995
0.107073 0.615747 0.138064
0.130968 0.619486 0.126162
0.154864 0.623209 0.114275
0.178744 0.626947 0.102373
0.20264 0.630686 0.090486
0.226535 0.634424 0.078584
0.250416 0.638163 0.0666972
0.274311 0.641901 0.0547951
0.298207 0.64564 0.0429084
0.322087 0.649378 0.0310063
0.345983 0.653117 0.0191196
0.369879 0.656855 0.00721752
0.393759 0.660594 0
0.417655 0.664317 0
0.44155 0.668055 0
0.465431 0.671794 0
0.489326 0.675532 0
0.513222 0.679271 0
0.537118 0.683009 0
0.560998 0.686748 0
0.584894 0.690486 0
0.608789 0.694224 0
0 0.606561 0.283833
0 0.6103 0.271946
0 0.614038 0.260044
0 0.617777 0.248157
0 0.621515 0.236255
0 0.625238 0.224369
0 0.628977 0.212467
0.0028687 0.632715 0.20058
0.0267491 0.636454 0.188678
0.0506447 0.640192 0.176791
0.0745403 0.643931 0.164889
0.0984207 0.647669 0.153002
0.122316 0.651408 0.1411
0.146212 0.655146 0.129213
0.170092 0.658885 0.117311
0.193988 0.662623 0.105425
0.217884 0.666346 0.0935225
0.241764 0.670085 0.0816358
0.26566 0.673823 0.0697337
0.289555 0.677562 0.057847
0.313436 0.6813 0.0459449
0.337331 0.685039 0.0340581
0.361227 0.688777 0.0221561
0.385122 0.692515 0.0102693
0.409003 0.696254 0
0.432898 0.699992 0
0.456794 0.703716 0
0.480674 0.707454 0
0.50457 0.711192 0
0.528466 0.714931 0
0.552346 0.718669 0
0.576242 0.722408 0
0.600137 0.726146 0
0 0.638483 0.298772
0 0.642222 0.286885
0 0.64596 0.274983
0 0.649699 0.263096
0 0.653437 0.251194
0 0.657176 0.239307
0 0.660914 0.227405
0 0.664637 0.215518
0.0180972 0.668376 0.203616
0.0419928 0.672114 0.19173
0.0658885 0.675853 0.179828
0.0897688 0.679591 0.167941
0.113664 0.68333 0.156039
0.13756 0.687068 0.144152
0.16144 0.690806 0.13225
0.185336 0.694545 0.120363
0.209232 0.698283 0.108461
0.233112 0.702022 0.0965744
0.257008 0.705745 0.0846723
0.280903 0.709484 0.0727855
0.304784 0.713222 0.0608835
0.328679 0.71696 0.0489967
0.352575 0.720699 0.0370947
0.376471 0.724437 0.0252079
0.400351 0.728176 0.0133059
0.424247 0.731914 0.00141909
0.448142 0.735653 0
0.472023 0.739391 0
0.495918 0.743114 0
0.519814 0.746853 0
0.543694 0.750591 0
0.56759 0.75433 0
0.591485 0.758068 0
0 0.67042 0.31371
0 0.674144 0.301823
0 0.677882 0.289921
0 0.68162 0.278035
0 0.685359 0.266133
0 0.689097 0.254246
0 0.692836 0.242344
0 0.696574 0.230457
0.00944533 0.700313 0.218555
0.033341 0.704051 0.206668
0.0572366 0.707774 0.194766
0.081117 0.711513 0.182879
0.105013 0.715251 0.170977
0.128908 0.71899 0.159091
0.152789 0.722728 0.147189
0.176684 0.726467 0.135302
0.20058 0.730205 0.1234
0.224475 0.733944 0.111513
0.248356 0.737682 0.0996109
0.272251 0.741421 0.0877241
0.296147 0.745144 0.0758221
0.320027 0.748882 0.0639353
0.343923 0.752621 0.0520333
0.367819 0.756359 0.0401465
0.391699 0.760098 0.0282444
0.415595 0.763836 0.0163577
0.43949 0.767575 0.00445563
0.463371 0.771313 0
0.487266 0.775051 0
0.511162 0.77879 0
0.535042 0.782528 0
0.558938 0.786252 0
0.582834 0.78999 0
0 0.702342 0.328649
0 0.706081 0.316762
0 0.709804 0.30486
0 0.713542 0.292973
0 0.717281 0.281071
0 0.721019 0.269184
0 0.724758 0.257282
0 0.728496 0.245396
0.000793469 0.732235 0.233494
0.0246891 0.735973 0.221607
0.0485847 0.739712 0.209705
0.0724651 0.74345 0.197818
0.0963607 0.747173 0.185916
0.120256 0.750912 0.174029
0.144152 0.75465 0.162127
0.168032 0.758389 0.15024
0.191928 0.762127 0.138338
0.215824 0.765866 0.126452
0.239704 0.769604 0.114549
0.2636 0.773342 0.102663
0.287495 0.777081 0.0907607
0.311376 0.780819 0.0788739
0.335271 0.784543 0.0669718
0.359167 0.788281 0.0550851
0.383047 0.79202 0.043183
0.406943 0.795758 0.0312963
0.430838 0.799496 0.0193942
0.454719 0.803235 0.00750744
0.478614 0.806973 0
0.50251 0.810712 0
0.52639 0.81445 0
0.550286 0.818189 0
0.574182 0.821927 0
0 0.734264 0.343587
0 0.738003 0.331701
0 0.741741 0.319799
0 0.74548 0.307912
0 0.749203 0.29601
0 0.752941 0.284123
0 0.75668 0.272221
0 0.760418 0.260334
0 0.764157 0.248432
0.0160372 0.767895 0.236545
0.0399329 0.771634 0.224643
0.0638285 0.775372 0.212757
0.0877089 0.77911 0.200855
0.111604 0.782849 0.188968
0.1355 0.786572 0.177066
0.15938 0.790311 0.165179
0.183276 0.794049 0.153277
0.207172 0.797787 0.14139
0.231052 0.801526 0.129488
0.254948 0.805264 0.117601
0.278843 0.809003 0.105699
0.302724 0.812741 0.0938125
0.326619 0.81648 0.0819104
0.350515 0.820218 0.0700236
0.374395 0.823957 0.0581216
0.398291 0.82768 0.0462348
0.422187 0.831418 0.0343328
0.446067 0.835157 0.022446
0.469963 0.838895 0.010544
0.493858 0.842634 0
0.517754 0.846372 0
0.541634 0.850111 0
0.56553 0.853849 0
0 0.766186 0.358526
0 0.769924 0.346639
0 0.773663 0.334737
0 0.777401 0.32285
0 0.78114 0.310948
0 0.784878 0.299062
0 0.788602 0.28716
0 0.79234 0.275273
0 0.796078 0.263371
0.00738537 0.799817 0.251484
0.031281 0.803555 0.239582
0.0551766 0.807294 0.227695
0.079057 0.811032 0.215793
0.102953 0.814771 0.203906
0.126848 0.818509 0.192004
0.150729 0.822248 0.180117
0.174624 0.825986 0.168215
0.19852 0.829709 0.156329
0.2224 0.833448 0.144427
0.246296 0.837186 0.13254
0.270191 0.840925 0.120638
0.294072 0.844663 0.108751
0.317968 0.848402 0.096849
0.341863 0.85214 0.0849622
0.365743 0.855879 0.0730602
0.389639 0.859617 0.0611734
0.413535 0.863355 0.0492714
0.43743 0.867079 0.0373846
0.461311 0.870817 0.0254826
0.485206 0.874556 0.0135958
0.509102 0.878294 0.00169375
0.532982 0.882033 0
0.556878 0.885771 0
0 0.798108 0.373465
0 0.801846 0.361578
0 0.805585 0.349676
0 0.809323 0.337789
0 0.813062 0.325887
0 0.8168 0.314
0 0.820539 0.302098
0 0.824277 0.290211
0 0.828 0.278309
0 0.831739 0.266423
0.0226291 0.835477 0.25452
0.0465248 0.839216 0.242634
0.0704051 0.842954 0.230732
0.0943008 0.846693 0.218845
0.118196 0.850431 0.206943
0.142077 0.85417 0.195056
0.165972 0.857908 0.183154
0.189868 0.861646 0.171267
0.213748 0.865385 0.159365
0.237644 0.869108 0.147478
0.26154 0.872847 0.135576
0.28542 0.876585 0.12369
0.309316 0.880323 0.111788
0.333211 0.884062 0.0999008
0.357107 0.8878 0.0879988
0.380987 0.891539 0.076112
0.404883 0.895277 0.06421
0.428779 0.899016 0.0523232
0.452659 0.902754 0.0404212
0.476555 0.906477 0.0285344
0.50045 0.910216 0.0166476
0.52433 0.913954 0.00474556
0.548226 0.917693 0
0 0.830045 0.388403
0 0.833768 0.376516
0 0.837507 0.364614
0 0.841245 0.352728
0 0.844984 0.340826
0 0.848722 0.328939
0 0.852461 0.317037
0 0.856199 0.30515
0 0.859937 0.293248
0 0.863676 0.281361
0.0139773 0.867414 0.269459
0.0378729 0.871138 0.257572
0.0617533 0.874876 0.24567
0.0856489 0.878614 0.233783
0.109545 0.882353 0.221881
0.133425 0.886091 0.209995
0.157321 0.88983 0.198093
0.181216 0.893568 0.186206
0.205112 0.897307 0.174304
0.228992 0.901045 0.162417
0.252888 0.904784 0.150515
0.276783 0.908507 0.138628
0.300664 0.912245 0.126726
0.324559 0.915984 0.114839
0.348455 0.919722 0.102937
0.372335 0.923461 0.0910506
0.396231 0.927199 0.0791485
0.420127 0.930938 0.0672618
0.444007 0.934676 0.0553597
0.467903 0.938415 0.043473
0.491798 0.942153 0.0315862
0.515679 0.945876 0.0196841
0.539574 0.949615 0.00779736
0 0.861967 0.403342
0 0.865705 0.391455
0 0.869429 0.379553
0 0.873167 0.367666
0 0.876905 0.355764
0 0.880644 0.343877
0 0.884382 0.331975
0 0.888121 0.320089
0 0.891859 0.308186
