public/LUTS/Color Shift/ColorShift_67.cube
TITLE "Generated by Resolve"
LUT_3D_SIZE 9
0 0 0
0.108629 0.0208133 0
0.217273 0.0416419 0
0.325902 0.0624704 0
0.434546 0.0832837 0
0.543191 0.104112 0
0.65182 0.124941 0
0.760464 0.145754 0
0.869108 0.166583 0
0 0.150866 0.0923629
0 0.171679 0
0.0914168 0.192508 0
0.200061 0.213336 0
0.308705 0.23415 0
0.417334 0.254978 0
0.525979 0.275807 0
0.634623 0.29662 0
0.743267 0.317449 0
0 0.301747 0.184726
0 0.322576 0.0609598
0 0.343389 0
0.0742046 0.364218 0
0.182834 0.385046 0
0.291478 0.405859 0
0.400122 0.426688 0
0.508766 0.447501 0
0.617395 0.46833 0
0 0.452644 0.277104
0 0.473457 0.153323
0 0.494285 0.0295415
0 0.515099 0
0.0569772 0.535927 0
0.165621 0.556741 0
0.274266 0.577569 0
0.382895 0.598398 0
0.491539 0.619211 0
0 0.603525 0.369467
0 0.624338 0.245701
0 0.645167 0.12192
0 0.66598 0
0 0.686809 0
0.039765 0.707637 0
0.148394 0.72845 0
0.257038 0.749279 0
0.365682 0.770108 0
0 0.754406 0.461845
0 0.775219 0.338064
0 0.796048 0.214282
0 0.816876 0.0905013
0 0.83769 0
0 0.858518 0
0.0225376 0.879347 0
0.131182 0.90016 0
0.239811 0.920989 0
0 0.905287 0.554208
0 0.926116 0.430442
0 0.946929 0.306661
0 0.967758 0.182879
0 0.988586 0.0590829
0 1 0
0 1 0
0.00531014 1 0
0.113954 1 0
0 1 0.646586
0 1 0.522805
0 1 0.399023
0 1 0.275242
0 1 0.151461
0 1 0.0276799
0 1 0
0 1 0
0 1 0
0 1 0.738949
0 1 0.615183
0 1 0.491402
0 1 0.36762
0 1 0.243824
0 1 0.120043
0 1 0
0 1 0
0 1 0
0.142199 0 0.15639
0.250828 0 0.0326238
0.359472 0 0
0.468116 0.0157626 0
0.576745 0.0365911 0
0.685389 0.0574044 0
0.794034 0.078233 0
0.902678 0.0990616 0
1 0.119875 0
0.0163577 0.104173 0.248753
0.124987 0.124987 0.124987
0.233631 0.145815 0.00120546
0.34226 0.166629 0
0.450904 0.187457 0
0.559548 0.20827 0
0.668193 0.229099 0
0.776822 0.249928 0
0.885466 0.270741 0
0 0.255055 0.341131
0 0.275868 0.21735
0.107759 0.296696 0.0935683
0.216403 0.31751 0
0.325048 0.338338 0
0.433692 0.359167 0
0.542321 0.37998 0
0.650965 0.400809 0
0.759609 0.421637 0
0 0.405936 0.433494
0 0.426749 0.309728
0 0.447578 0.185946
0.090547 0.468406 0.0621653
0.199191 0.489219 0
0.30782 0.510048 0
0.416464 0.530877 0
0.525109 0.55169 0
0.633738 0.572519 0
0 0.556817 0.525872
0 0.577646 0.40209
0 0.598459 0.278309
0 0.619287 0.154528
0.0733196 0.640116 0.0307469
0.181964 0.660929 0
0.290608 0.681758 0
0.399237 0.702571 0
0.507881 0.7234 0
0 0.707713 0.618235
0 0.728527 0.494469
0 0.749355 0.370687
0 0.770169 0.246906
0 0.790997 0.12311
0.0561074 0.81181 0
0.164736 0.832639 0
0.273381 0.853468 0
0.382025 0.874281 0
0 0.858595 0.710613
0 0.879408 0.586831
0 0.900236 0.46305
0 0.92105 0.339269
0 0.941878 0.215488
0 0.962707 0.0917067
0.03888 0.98352 0
0.147524 1 0
0.256168 1 0
0 1 0.802976
0 1 0.67921
0 1 0.555428
0 1 0.431632
0 1 0.307851
0 1 0.18407
0 1 0.0602884
0.0216678 1 0
0.130297 1 0
0 1 0.895338
0 1 0.771572
0 1 0.647791
0 1 0.52401
0 1 0.400229
0 1 0.276448
0 1 0.152651
0 1 0.0288701
0.00444038 1 0
0.284428 0 0.31281
0.393057 0 0.189044
0.501701 0 0.0652628
0.61033 0 0
0.718975 0 0
0.827619 0.0107118 0
0.936248 0.0315251 0
1 0.0523537 0
1 0.073167 0
0.158587 0.0574655 0.405173
0.267216 0.0782788 0.281407
0.375845 0.0991073 0.157626
0.484489 0.119921 0.0338293
0.593133 0.140749 0
0.701762 0.161578 0
0.810407 0.182391 0
0.919051 0.20322 0
1 0.224033 0
0.0327153 0.208347 0.497536
0.141344 0.22916 0.37377
0.249989 0.249989 0.249989
0.358633 0.270817 0.126207
0.467262 0.29163 0.00242618
0.575906 0.312459 0
0.68455 0.333272 0
0.793194 0.354101 0
0.901823 0.374929 0
0 0.359228 0.589914
0.0154879 0.380056 0.466148
0.124132 0.40087 0.342351
0.232761 0.421698 0.21857
0.341405 0.442512 0.094789
0.45005 0.46334 0
0.558694 0.484169 0
0.667323 0.504982 0
0.775967 0.525811 0
0 0.510109 0.682277
0 0.530938 0.558511
0 0.551751 0.43473
0.106905 0.57258 0.310948
0.215549 0.593408 0.187167
0.324193 0.614221 0.0633707
0.432822 0.63505 0
0.541466 0.655879 0
0.650111 0.676692 0
0 0.661006 0.774655
0 0.681819 0.650889
0 0.702647 0.527092
0 0.723461 0.403311
0.0896925 0.744289 0.27953
0.198322 0.765118 0.155749
0.306966 0.785931 0.0319677
0.41561 0.80676 0
0.524239 0.827573 0
0 0.811887 0.867018
0 0.8327 0.743252
0 0.853529 0.619471
0 0.874357 0.495689
0 0.895171 0.371908
0.0724651 0.915999 0.248112
0.181109 0.936812 0.124331
0.289738 0.957641 0.000549325
0.398383 0.978469 0
0 0.962768 0.959396
0 0.983597 0.83563
0 1 0.711833
0 1 0.588052
0 1 0.464271
0 1 0.34049
0.0552377 1 0.216709
0.163882 1 0.0929274
0.272526 1 0
0 1 1
0 1 0.927993
0 1 0.804211
0 1 0.68043
0 1 0.556634
0 1 0.432853
0 1 0.309071
0.0380255 1 0.18529
0.14667 1 0.0615091
0.426657 0 0.46923
0.535271 0 0.345464
0.643915 0 0.221668
0.75256 0 0.0978866
0.861204 0 0
0.969833 0 0
1 0 0
1 0.00564584 0
1 0.0264744 0
0.300801 0.0107576 0.561593
0.40943 0.0315709 0.437812
0.518074 0.0523995 0.314031
0.626719 0.073228 0.190249
0.735348 0.0940414 0.0664683
0.843992 0.11487 0
0.952636 0.135683 0
1 0.156512 0
1 0.17734 0
0.174945 0.161639 0.653956
0.283574 0.182467 0.53019
0.392218 0.203281 0.406409
0.500847 0.224109 0.282628
0.609491 0.244923 0.158831
0.718135 0.265751 0.03505
0.826764 0.28658 0
0.935409 0.307393 0
1 0.328222 0
0.0490883 0.31252 0.746334
0.157717 0.333349 0.622553
0.266346 0.354162 0.498772
0.37499 0.37499 0.37499
0.483635 0.395819 0.251209
0.592264 0.416632 0.127428
0.700908 0.437461 0.00363165
0.809552 0.458274 0
0.918196 0.479103 0
0 0.463416 0.838697
0.0318456 0.48423 0.714931
0.14049 0.505058 0.59115
0.249134 0.525872 0.467353
0.357763 0.5467 0.343572
0.466407 0.567514 0.219791
0.575051 0.588342 0.0960098
0.683696 0.609171 0
0.792325 0.629984 0
0 0.614298 0.93106
0 0.635111 0.807294
0.0146334 0.65594 0.683513
0.123262 0.676753 0.559731
0.231907 0.697581 0.43595
0.340551 0.71841 0.312169
0.449195 0.739223 0.188373
0.557824 0.760052 0.0645914
0.666468 0.78088 0
0 0.765179 1
0 0.785992 0.899672
0 0.806821 0.775891
0 0.827649 0.652094
0.10605 0.848463 0.528313
0.214694 0.869291 0.404532
0.323323 0.89012 0.280751
0.431968 0.910933 0.15697
0.540612 0.931762 0.0331884
0 0.91606 1
0 0.936889 0.992035
0 0.957702 0.868254
0 0.978531 0.744472
0 0.999359 0.620691
0.0888228 1 0.49691
0.197467 1 0.373114
0.306111 1 0.249332
0.41474 1 0.125551
0 1 1
0 1 1
0 1 0.960632
0 1 0.836835
0 1 0.713054
0 1 0.589273
0.0716106 1 0.465492
0.18024 1 0.341711
0.288884 1 0.217929
0.568872 0 0.62565
0.677501 0 0.501869
0.786145 0 0.378088
0.894774 0 0.254307
1 0 0.130526
1 0 0.00674449
1 0 0
1 0 0
1 0 0
0.44303 0 0.717998
0.551659 0 0.594232
0.660288 0.00569162 0.470451
0.768933 0.0265202 0.34667
0.877577 0.0473335 0.222889
0.986221 0.0681621 0.0990921
1 0.0889906 0
1 0.109804 0
1 0.130632 0
0.317174 0.114931 0.810376
0.425788 0.13576 0.68661
0.534432 0.156573 0.562814
0.643076 0.177401 0.439033
0.75172 0.19823 0.315251
0.860349 0.219043 0.19147
0.968994 0.239872 0.067689
1 0.260685 0
1 0.281514 0
0.191302 0.265812 0.902739
0.299931 0.286641 0.778973
0.408576 0.307469 0.655192
0.51722 0.328283 0.531411
0.625849 0.349111 0.40763
0.734493 0.369924 0.283833
0.843137 0.390753 0.160052
0.951766 0.411582 0.0362707
1 0.432395 0
0.0654459 0.416709 0.995117
0.174075 0.437522 0.871351
0.282719 0.458351 0.747555
0.391348 0.479164 0.623774
0.499992 0.499992 0.499992
0.608637 0.520821 0.376211
0.717266 0.541634 0.25243
0.82591 0.562463 0.128634
0.934554 0.583276 0.00485237
0 0.56759 1
0.0482185 0.588403 0.963714
0.156847 0.609232 0.839933
0.265492 0.63006 0.716152
0.374136 0.650874 0.592355
0.482765 0.671702 0.468574
0.591409 0.692515 0.344793
0.700053 0.713344 0.221012
0.808698 0.734173 0.0972305
0 0.718471 1
0 0.7393 1
0.0309911 0.760113 0.932296
0.139635 0.780941 0.808515
0.248264 0.801755 0.684733
0.356909 0.822583 0.560952
0.465553 0.843412 0.437171
0.574197 0.864225 0.313375
0.682826 0.885054 0.189593
0 0.869352 1
0 0.890181 1
0 0.910994 1
0.0137636 0.931823 0.900893
0.122408 0.952651 0.777096
0.231052 0.973465 0.653315
0.339696 0.994293 0.529534
0.448325 1 0.405753
0.55697 1 0.281971
0 1 1
0 1 1
0 1 1
0 1 0.993255
0 1 0.869474
0.105196 1 0.745693
0.213825 1 0.621912
0.322469 1 0.498116
0.431113 1 0.374334
0.711101 0 0.782055
0.81973 0 0.658289
0.928359 0 0.534508
1 0 0.410727
1 0 0.286946
1 0 0.163149
1 0 0.0393683
1 0 0
1 0 0
0.585245 0 0.874418
0.693874 0 0.750652
0.802518 0 0.626871
0.911162 0 0.503075
1 0.00062562 0.379294
1 0.0214542 0.255512
1 0.0422827 0.131731
1 0.0630961 0.00794995
1 0.0839246 0
0.459388 0.0682231 0.966781
0.568017 0.0890516 0.843015
0.676661 0.109865 0.719234
0.78529 0.130694 0.595453
0.893935 0.151522 0.471672
1 0.172335 0.34789
1 0.193164 0.224094
1 0.213993 0.100313
1 0.234806 0
0.333532 0.21912 1
0.442161 0.239933 0.935393
0.55079 0.260761 0.811612
0.659434 0.281575 0.687816
0.768078 0.302403 0.564034
0.876722 0.323232 0.440253
0.985351 0.344045 0.316472
1 0.364874 0.192691
1 0.385687 0.0689097
0.207675 0.370001 1
0.316289 0.390814 1
0.424933 0.411643 0.903975
0.533578 0.432471 0.780194
0.642222 0.453285 0.656413
0.750851 0.474113 0.532631
0.859495 0.494926 0.408835
0.968139 0.515755 0.285054
1 0.536583 0.161273
0.0818036 0.520882 1
0.190433 0.541711 1
0.299077 0.562524 0.996353
0.407721 0.583352 0.872557
0.51635 0.604166 0.748775
0.624994 0.624994 0.624994
0.733639 0.645823 0.501213
0.842268 0.666636 0.377432
0.950912 0.687465 0.253635
0 0.671763 1
0.0645762 0.692592 1
0.17322 0.713405 1
0.281849 0.734234 0.964935
0.390494 0.755062 0.841154
0.499138 0.775876 0.717357
0.607767 0.796704 0.593576
0.716411 0.817517 0.469795
0.825055 0.838346 0.346014
0 0.82266 1
0 0.843473 1
0.0473487 0.864302 1
0.155993 0.885115 1
0.264637 0.905943 0.933516
0.373266 0.926757 0.809735
0.48191 0.947585 0.685954
0.590555 0.968414 0.562173
0.699199 0.989227 0.438376
0 0.973541 1
0 0.994354 1
0 1 1
0.0301366 1 1
0.138766 1 1
0.24741 1 0.902098
0.356054 1 0.778317
0.464698 1 0.654536
0.573327 1 0.530755
0.853315 0 0.938476
0.961944 0 0.81471
1 0 0.690929
1 0 0.567132
1 0 0.443351
1 0 0.31957
1 0 0.195789
1 0 0.0720073
1 0 0
0.727474 0 1
0.836103 0 0.907073
0.944747 0 0.783276
1 0 0.659495
1 0 0.535714
1 0 0.411933
1 0 0.288151
1 0.0163882 0.164355
1 0.0372168 0.0405737
0.601617 0.0215152 1
0.710246 0.0423438 0.999435
0.818875 0.0631723 0.875654
0.92752 0.0839857 0.751873
1 0.104814 0.628077
1 0.125628 0.504295
1 0.146456 0.380514
1 0.167285 0.256733
1 0.188098 0.132952
0.475746 0.172412 1
0.584375 0.193225 1
0.693019 0.214054 0.968017
0.801663 0.234867 0.844236
0.910292 0.255695 0.720455
1 0.276524 0.596674
1 0.297337 0.472892
1 0.318166 0.349096
1 0.338994 0.225315
0.349889 0.323293 1
0.458518 0.344106 1
0.567163 0.364935 1
0.675792 0.385763 0.936614
0.784436 0.406577 0.812818
0.89308 0.427405 0.689036
1 0.448234 0.565255
1 0.469047 0.441474
1 0.489876 0.317693
0.224033 0.474174 1
0.332662 0.495003 1
0.441291 0.515816 1
0.549935 0.536645 1
0.658579 0.557473 0.905196
0.767224 0.578286 0.781415
0.875853 0.599115 0.657633
0.984497 0.619928 0.533837
1 0.640757 0.410056
0.0981765 0.625055 1
0.20679 0.645884 1
0.315435 0.666712 1
0.424079 0.687526 1
0.532723 0.708354 0.997559
0.641352 0.729168 0.873777
0.749996 0.749996 0.749996
0.85864 0.770825 0.626215
0.967269 0.791638 0.502434
0 0.775952 1
0.0809339 0.796765 1
0.189578 0.817594 1
0.298222 0.838407 1
0.406851 0.859236 1
0.515496 0.880064 0.966155
0.62414 0.900877 0.842359
0.732769 0.921706 0.718578
0.841413 0.942519 0.594797
0 0.926833 1
0 0.947646 1
0.0637217 0.968475 1
0.172351 0.989303 1
0.280995 1 1
0.389639 1 1
0.498268 1 0.934737
0.606912 1 0.810956
0.715557 1 0.687175
0.995544 0 1
1 0 0.971115
1 0 0.847333
1 0 0.723552
1 0 0.599771
1 0 0.47599
1 0 0.352209
1 0 0.228412
1 0 0.104631
0.869703 0 1
0.978317 0 1
1 0 0.939696
1 0 0.815915
1 0 0.692134
1 0 0.568353
1 0 0.444556
1 0 0.320775
1 0 0.196994
0.743832 0 1
0.852461 0 1
0.961105 0.0164645 1
1 0.0372778 0.908278
1 0.0581064 0.784497
1 0.0789349 0.660716
1 0.0997482 0.536934
1 0.120577 0.413153
1 0.14139 0.289357
0.617975 0.125704 1
0.726604 0.146517 1
0.835248 0.167346 1
0.943877 0.188174 1
1 0.208988 0.876875
1 0.229816 0.753079
1 0.250629 0.629297
1 0.271458 0.505516
1 0.292287 0.381735
0.492119 0.276585 1
0.600748 0.297414 1
0.709377 0.318227 1
0.818021 0.339055 1
0.926665 0.359869 0.969238
1 0.380697 0.845457
1 0.401526 0.721675
1 0.422339 0.597894
1 0.443168 0.474098
0.366247 0.427466 1
0.474876 0.448295 1
0.58352 0.469108 1
0.692164 0.489937 1
0.800793 0.510765 1
0.909438 0.531579 0.937819
1 0.552407 0.814038
1 0.573236 0.690257
1 0.594049 0.566476
0.240391 0.578363 1
0.34902 0.599176 1
0.457664 0.620005 1
0.566293 0.640818 1
0.674937 0.661646 1
0.783581 0.682475 1
0.892226 0.703288 0.906416
1 0.724117 0.782635
1 0.74493 0.658839
0.114534 0.729244 1
0.223163 0.750057 1
0.331792 0.770886 1
0.440436 0.791714 1
0.549081 0.812528 1
0.657725 0.833356 1
0.766354 0.85417 0.998779
0.874998 0.874998 0.874998
0.983642 0.895827 0.751217
0 0.880125 1
0.0972915 0.900954 1
0.205936 0.921767 1
0.31458 0.942596 1
0.423224 0.963409 1
0.531853 0.984237 1
0.640497 1 1
0.749142 1 0.967361
0.857771 1 0.84358
1 0 1
1 0 1
1 0 1
1 0 0.879973
1 0 0.756191
1 0 0.632395
1 0 0.508614
1 0 0.384833
1 0 0.261051
1 0 1
1 0 1
1 0 1
1 0 0.972335
1 0 0.848539
1 0 0.724758
1 0 0.600977
1 0 0.477195
1 0 0.353414
0.886061 0 1
0.99469 0 1
1 0 1
1 0 1
1 0.0113985 0.940917
1 0.0322271 0.817136
1 0.0530404 0.693355
1 0.0738689 0.569558
1 0.0946975 0.445777
0.760204 0.078996 1
0.868818 0.0998093 1
0.977462 0.120638 1
1 0.141466 1
1 0.16228 1
1 0.183108 0.909499
1 0.203937 0.785718
1 0.22475 0.661936
1 0.245579 0.538155
0.634333 0.229877 1
0.742962 0.250706 1
0.851606 0.271519 1
0.96025 0.292348 1
1 0.313176 1
1 0.333989 1
1 0.354818 0.87808
1 0.375631 0.754299
1 0.39646 0.630518
0.508476 0.380774 1
0.617105 0.401587 1
0.72575 0.422415 1
0.834379 0.443229 1
0.943023 0.464057 1
1 0.484871 1
1 0.505699 0.970459
1 0.526528 0.846677
1 0.547341 0.722896
0.38262 0.531655 1
0.491249 0.552468 1
0.599878 0.573297 1
0.708522 0.59411 1
0.817166 0.614939 1
0.925795 0.635767 1
1 0.65658 1
1 0.677409 0.93904
1 0.698238 0.815259
0.256748 0.682536 1
0.365377 0.703349 1
0.474022 0.724178 1
0.582666 0.745007 1
0.691295 0.76582 1
0.799939 0.786648 1
0.908583 0.807477 1
1 0.82829 1
1 0.849119 0.907637
0.130892 0.833417 1
0.239521 0.854246 1
0.348165 0.875059 1
0.456794 0.895888 1
0.565438 0.916716 1
0.674083 0.93753 1
0.782727 0.958358 1
0.891356 0.979171 1
1 1 1
