public/LUTS/Color Shift/ColorShift_04.cube
TITLE "Generated by Resolve"
LUT_3D_SIZE 5
0 0 0
0 0.117266 0.0178988
0 0.234531 0.0357977
0 0.351797 0.0536965
0 0.469062 0.0715953
0.256687 0.120699 0.406638
0.108141 0.237964 0.424536
0 0.35523 0.442435
0 0.472496 0.460334
0 0.589761 0.478233
0.513405 0.241398 0.813306
0.364858 0.358663 0.831205
0.216297 0.475929 0.849104
0.0677348 0.593194 0.867002
0 0.710475 0.884901
0.770108 0.362112 1
0.621561 0.479377 1
0.472999 0.596643 1
0.324437 0.713909 1
0.175875 0.831174 1
1 0.482811 1
0.878264 0.600076 1
0.729702 0.717342 1
0.581155 0.834607 1
0.432593 0.951888 1
0.141848 0.0120241 0
0 0.12929 0
0 0.246555 0
0 0.363821 0
0 0.481102 0
0.398535 0.132723 0.23209
0.249989 0.249989 0.249989
0.101427 0.367254 0.267887
0 0.48452 0.285786
0 0.601801 0.303685
0.655253 0.253437 0.638758
0.506691 0.370687 0.656657
0.358144 0.487968 0.674556
0.209583 0.605234 0.692454
0.0610208 0.722499 0.710353
0.911955 0.374136 1
0.763409 0.491402 1
0.614847 0.608667 1
0.466285 0.725933 1
0.317723 0.843198 1
1 0.49485 1
1 0.6121 1
0.87155 0.729381 1
0.723003 0.846647 1
0.574441 0.963912 1
0.283696 0.0240635 0
0.135149 0.141314 0
0 0.258595 0
0 0.37586 0
0 0.493126 0
0.540398 0.144762 0.0575265
0.391836 0.262013 0.0754253
0.24329 0.379294 0.0933242
0.094728 0.496559 0.111223
0 0.613825 0.129122
0.797101 0.265461 0.464195
0.648554 0.382727 0.482094
0.499992 0.499992 0.499992
0.351431 0.617258 0.517891
0.202869 0.734524 0.53579
1 0.386175 0.870863
0.905257 0.503426 0.888762
0.756695 0.620691 0.906661
0.608148 0.737972 0.924559
0.459586 0.855238 0.942458
1 0.506874 1
1 0.62414 1
1 0.741405 1
0.864851 0.858671 1
0.716289 0.975937 1
0.425559 0.0360876 0
0.277012 0.153353 0
0.12845 0.270619 0
0 0.387884 0
0 0.50515 0
0.682246 0.156786 0
0.5337 0.274052 0
0.385138 0.391318 0
0.236576 0.508583 0
0.088014 0.625849 0
0.938949 0.277485 0.289631
0.790402 0.394751 0.30753
0.64184 0.512016 0.325429
0.493294 0.629297 0.343328
0.344732 0.746563 0.361227
1 0.398199 0.6963
1 0.515465 0.714199
0.898558 0.632731 0.732097
0.749996 0.749996 0.749996
0.601434 0.867262 0.767895
1 0.518898 1
1 0.636164 1
1 0.753429 1
1 0.870695 1
0.858152 0.987976 1
0.567407 0.0481117 0
0.41886 0.165377 0
0.270298 0.282643 0
0.121736 0.399908 0
0 0.517189 0
0.824109 0.168811 0
0.675547 0.286076 0
0.526986 0.403342 0
0.378439 0.520607 0
0.229877 0.637888 0
1 0.289525 0.115068
0.932265 0.40679 0.132967
0.783703 0.524056 0.150866
0.635142 0.641321 0.168765
0.48658 0.758587 0.186664
1 0.410224 0.521737
1 0.527489 0.539635
1 0.644755 0.557534
0.891844 0.76202 0.575433
0.743297 0.879301 0.593332
1 0.530938 0.928405
1 0.648188 0.946303
1 0.765469 0.964202
1 0.882734 0.982101
1 1 1
