public/LUTS/Color Shift/ColorShift_27.cube
TITLE "Generated by Resolve"
LUT_3D_SIZE 9
0 0 0
0.126772 0 0.0435492
0.253544 0 0.0870985
0.380331 0 0.130648
0.507103 0 0.174197
0.63389 0 0.217746
0.760662 0 0.261295
0.887449 0 0.304845
1 0 0.348409
0.0466468 0.114641 0
0.173404 0.108507 0.0152132
0.300191 0.102373 0.0587625
0.426963 0.0962387 0.102327
0.55375 0.0901045 0.145876
0.680522 0.0839704 0.189425
0.807309 0.0778363 0.232975
0.934096 0.0717021 0.276524
1 0.065568 0.320073
0.0932937 0.229282 0
0.22005 0.223148 0
0.346838 0.217014 0.0304417
0.47361 0.21088 0.073991
0.600397 0.204746 0.11754
0.727184 0.198627 0.161089
0.853956 0.192493 0.204639
0.980743 0.186358 0.248188
1 0.180224 0.291737
0.13994 0.343938 0
0.266697 0.337804 0
0.393484 0.33167 0.00210575
0.520272 0.325536 0.045655
0.647044 0.319402 0.0892042
0.773831 0.313268 0.132753
0.900603 0.307134 0.176318
1 0.300999 0.219867
1 0.294865 0.263416
0.186587 0.458579 0
0.313359 0.452445 0
0.440131 0.446326 0
0.566918 0.440192 0.017319
0.69369 0.434058 0.0608835
0.820478 0.427924 0.104433
0.94725 0.42179 0.147982
1 0.415656 0.191531
1 0.409522 0.23508
0.233234 0.573236 0
0.360006 0.567102 0
0.486778 0.560967 0
0.613565 0.554833 0
0.740337 0.548699 0.0325475
0.867124 0.542565 0.0760967
0.993896 0.536431 0.119646
1 0.530297 0.163195
1 0.524163 0.206744
0.279881 0.687877 0
0.406653 0.681758 0
0.533425 0.675624 0
0.660212 0.66949 0
0.786984 0.663355 0.00421149
0.913771 0.657221 0.0477607
1 0.651087 0.09131
1 0.644953 0.134874
1 0.638819 0.178424
0.326528 0.802533 0
0.4533 0.796399 0
0.580072 0.790265 0
0.706859 0.784131 0
0.833646 0.777996 0
0.960418 0.771862 0.01944
1 0.765728 0.0629892
1 0.759594 0.106538
1 0.753475 0.150088
0.373175 0.917189 0
0.499947 0.911055 0
0.626734 0.904921 0
0.753506 0.898787 0
0.880293 0.892653 0
1 0.886519 0
1 0.880385 0.0346532
1 0.87425 0.0782025
1 0.868116 0.121752
0 0.0164797 0.109773
0.0783398 0.0103456 0.153307
0.205127 0.00421149 0.196872
0.331899 0 0.240421
0.458686 0 0.28397
0.585458 0 0.32752
0.712245 0 0.371069
0.839033 0 0.414618
0.965805 0 0.458167
0 0.131121 0.0814374
0.124987 0.124987 0.124987
0.251774 0.118853 0.168536
0.378546 0.112718 0.212085
0.505333 0.106584 0.255634
0.632105 0.10045 0.299184
0.758892 0.094316 0.342748
0.885664 0.0881819 0.386297
1 0.0820478 0.429847
0.0448768 0.245762 0.0531167
0.171633 0.239643 0.0966506
0.298421 0.233509 0.1402
0.425193 0.227375 0.183764
0.55198 0.221241 0.227314
0.678752 0.215106 0.270863
0.805539 0.208972 0.314412
0.932311 0.202838 0.357961
1 0.196704 0.401511
0.0915236 0.360418 0.0247807
0.21828 0.354284 0.0683299
0.345068 0.34815 0.111879
0.471839 0.342016 0.155428
0.598627 0.335882 0.198978
0.725399 0.329747 0.242527
0.852186 0.323613 0.286076
0.978973 0.317479 0.329625
1 0.31136 0.373175
0.13817 0.475074 0
0.264927 0.46894 0.0399939
0.391714 0.462806 0.0835431
0.518486 0.456672 0.127092
0.645274 0.450538 0.170642
0.772061 0.444404 0.214191
0.898833 0.43827 0.257755
1 0.432135 0.301305
1 0.426001 0.344854
0.184817 0.589715 0
0.311574 0.583581 0.0116579
0.438361 0.577447 0.0552071
0.565148 0.571313 0.0987564
0.69192 0.565179 0.142321
0.818708 0.559045 0.18587
0.94548 0.552926 0.229419
1 0.546792 0.272969
1 0.540658 0.316518
0.231464 0.704372 0
0.358236 0.698238 0
0.485008 0.692103 0.0268864
0.611795 0.685969 0.0704356
0.738567 0.679835 0.113985
0.865354 0.673701 0.157534
0.992126 0.667567 0.201083
1 0.661433 0.244633
1 0.655299 0.288182
0.278111 0.819013 0
0.404883 0.812879 0
0.531655 0.806745 0
0.658442 0.800626 0.0420996
0.785214 0.794491 0.0856489
0.912001 0.788357 0.129198
1 0.782223 0.172747
1 0.776089 0.216312
1 0.769955 0.259861
0.324758 0.933669 0
0.45153 0.927535 0
0.578302 0.921401 0
0.705089 0.915267 0.0137636
0.831861 0.909133 0.0573129
0.958648 0.902998 0.100877
1 0.896864 0.144427
1 0.89073 0.187976
1 0.884596 0.231525
0 0.0329747 0.219547
0.0299229 0.0268406 0.263096
0.156695 0.0207065 0.306645
0.283482 0.0145724 0.350195
0.410254 0.00843824 0.393744
0.537041 0.00230411 0.437308
0.663813 0 0.480858
0.7906 0 0.524407
0.917372 0 0.567956
0 0.147601 0.191226
0.0765545 0.141466 0.234775
0.203342 0.135332 0.278325
0.330114 0.129198 0.321874
0.456901 0.123079 0.365423
0.583688 0.116945 0.408972
0.71046 0.110811 0.452522
0.837247 0.104677 0.496071
0.964019 0.0985428 0.53962
0 0.262257 0.16289
0.123201 0.256123 0.206439
0.249989 0.249989 0.249989
0.376776 0.243854 0.293538
0.503548 0.23772 0.337087
0.630335 0.231586 0.380636
0.757107 0.225452 0.424186
0.883894 0.219318 0.46775
1 0.213184 0.511299
0.0430915 0.376898 0.134554
0.169863 0.370779 0.178103
0.296635 0.364645 0.221653
0.423423 0.358511 0.265202
0.550195 0.352377 0.308766
0.676982 0.346242 0.352316
0.803754 0.340108 0.395865
0.930541 0.333974 0.439414
1 0.32784 0.482963
0.0897383 0.491554 0.106233
0.21651 0.48542 0.149767
0.343282 0.479286 0.193332
0.470069 0.473152 0.236881
0.596841 0.467018 0.28043
0.723629 0.460883 0.32398
0.850401 0.454749 0.367529
0.977188 0.448615 0.411078
1 0.442481 0.454627
0.136385 0.60621 0.0778973
0.263157 0.600076 0.121447
0.389929 0.593942 0.164996
0.516716 0.587808 0.208545
0.643488 0.581674 0.252094
0.770275 0.57554 0.295644
0.897063 0.569406 0.339193
1 0.563272 0.382757
1 0.557137 0.426307
0.183032 0.720851 0.0495613
0.309804 0.714717 0.0931106
0.436576 0.708583 0.13666
0.563363 0.702449 0.180209
0.69015 0.696315 0.223758
0.816922 0.690181 0.267323
0.943709 0.684047 0.310872
1 0.677928 0.354421
1 0.671794 0.397971
0.229679 0.835508 0.0212406
0.356451 0.829374 0.0647746
0.483238 0.82324 0.108339
0.61001 0.817105 0.151888
0.736797 0.810971 0.195438
0.863569 0.804837 0.238987
0.990356 0.798703 0.282536
1 0.792569 0.326085
1 0.786435 0.369635
0.276341 0.950149 0
0.403098 0.944015 0.0364538
0.529885 0.937881 0.0800031
0.656657 0.931746 0.123552
0.783444 0.925628 0.167102
0.910216 0.919493 0.210651
1 0.913359 0.2542
1 0.907225 0.297749
1 0.901091 0.341314
0 0.0494545 0.329335
0 0.0433204 0.372885
0.108278 0.0371862 0.416434
0.23505 0.0310521 0.459983
0.361837 0.024918 0.503532
0.488609 0.0187839 0.547082
0.615396 0.0126497 0.590631
0.742168 0.0065156 0.63418
0.868955 0.000381476 0.677729
0 0.164096 0.300999
0.0281376 0.157961 0.344549
0.15491 0.151827 0.388098
0.281697 0.145693 0.431647
0.408469 0.139559 0.475212
0.535256 0.133425 0.518761
0.662028 0.127291 0.56231
0.788815 0.121157 0.605859
0.915602 0.115023 0.649409
0 0.278737 0.272679
0.0747845 0.272602 0.316213
0.201556 0.266468 0.359777
0.328344 0.260334 0.403326
0.455116 0.2542 0.446876
0.581903 0.248081 0.490425
0.70869 0.241947 0.533974
0.835462 0.235813 0.577523
0.962249 0.229679 0.621073
0 0.393393 0.244343
0.121431 0.387259 0.287892
0.248203 0.381125 0.331441
0.37499 0.37499 0.37499
0.501778 0.368856 0.41854
0.62855 0.362722 0.462089
0.755337 0.356588 0.505638
0.882109 0.350454 0.549187
1 0.34432 0.592752
0.0413062 0.508034 0.216007
0.168078 0.5019 0.259556
0.294865 0.495781 0.303105
0.421637 0.489647 0.346654
0.548424 0.483513 0.390204
0.675196 0.477378 0.433768
0.801984 0.471244 0.477317
0.928756 0.46511 0.520867
1 0.458976 0.564416
0.0879683 0.62269 0.187686
0.214725 0.616556 0.23122
0.341512 0.610422 0.274769
0.468284 0.604288 0.318334
0.595071 0.598154 0.361883
0.721843 0.59202 0.405432
0.84863 0.585885 0.448981
0.975402 0.579751 0.492531
1 0.573617 0.53608
0.134615 0.737331 0.15935
0.261372 0.731212 0.202899
0.388159 0.725078 0.246448
0.514931 0.718944 0.289998
0.641718 0.71281 0.333547
0.76849 0.706676 0.377096
0.895277 0.700542 0.420645
1 0.694408 0.464195
1 0.688273 0.507759
0.181262 0.851987 0.131014
0.308019 0.845853 0.174563
0.434806 0.839719 0.218112
0.561578 0.833585 0.261662
0.688365 0.827451 0.305211
0.815152 0.821317 0.34876
0.941924 0.815183 0.392325
1 0.809049 0.435874
1 0.80293 0.479423
0.227909 0.966644 0.102693
0.354665 0.96051 0.146227
0.481453 0.954376 0.189776
0.60824 0.948241 0.233341
0.735012 0.942107 0.27689
0.861799 0.935973 0.320439
0.988571 0.929839 0.363989
1 0.923705 0.407538
1 0.917571 0.451087
0 0.0659342 0.439109
0 0.0598001 0.482658
0.0598459 0.0536812 0.526207
0.186618 0.0475471 0.569757
0.313405 0.041413 0.613321
0.440177 0.0352789 0.65687
0.566964 0.0291447 0.70042
0.693751 0.0230106 0.743969
0.820523 0.0168765 0.787518
0 0.180575 0.410788
0 0.174441 0.454337
0.106493 0.168307 0.497887
0.233265 0.162173 0.541436
0.360052 0.156039 0.584985
0.486824 0.149905 0.628534
0.613611 0.143771 0.672084
0.740383 0.137636 0.715633
0.86717 0.131518 0.759197
0 0.295232 0.382452
0.0263523 0.289097 0.426001
0.15314 0.282963 0.469551
0.279911 0.276829 0.5131
0.406699 0.270695 0.556649
0.533471 0.264561 0.600214
0.660258 0.258427 0.643763
0.78703 0.252293 0.687312
0.913817 0.246159 0.730861
0 0.409873 0.354131
0.0729992 0.403738 0.397665
0.199786 0.397604 0.441215
0.326558 0.39147 0.484779
0.453346 0.385336 0.528328
0.580118 0.379202 0.571878
0.706905 0.373083 0.615427
0.833692 0.366949 0.658976
0.960464 0.360815 0.702525
0 0.524529 0.325795
0.119646 0.518395 0.369345
0.246433 0.512261 0.412894
0.373205 0.506127 0.456443
0.499992 0.499992 0.499992
0.62678 0.493858 0.543542
0.753552 0.487724 0.587091
0.880339 0.48159 0.63064
1 0.475456 0.674189
0.0395361 0.63917 0.297459
0.166293 0.633036 0.341009
0.29308 0.626902 0.384558
0.419867 0.620783 0.428107
0.546639 0.614649 0.471656
0.673426 0.608515 0.515206
0.800198 0.60238 0.55877
0.926986 0.596246 0.602319
1 0.590112 0.645869
0.086183 0.753826 0.269123
0.212955 0.747692 0.312673
0.339727 0.741558 0.356222
0.466514 0.735424 0.399771
0.593286 0.72929 0.443336
0.720073 0.723156 0.486885
0.846845 0.717021 0.530434
0.973632 0.710887 0.573983
1 0.704753 0.617533
0.13283 0.868467 0.240803
0.259602 0.862348 0.284352
0.386374 0.856214 0.327901
0.513161 0.85008 0.37145
0.639933 0.843946 0.415
0.76672 0.837812 0.458549
0.893492 0.831678 0.502098
1 0.825544 0.545647
1 0.819409 0.589197
0.179477 0.983124 0.212467
0.306249 0.976989 0.256016
0.433021 0.970855 0.299565
0.559808 0.964721 0.343114
0.68658 0.958587 0.386664
0.813367 0.952453 0.430213
0.940154 0.946319 0.473762
1 0.940185 0.517327
1 0.934051 0.560876
0 0.0824292 0.548898
0 0.0762951 0.592447
0.0114137 0.070161 0.635996
0.138201 0.0640269 0.679545
0.264973 0.0578927 0.723095
0.39176 0.0517586 0.766644
0.518532 0.0456245 0.810193
0.645319 0.0394903 0.853742
0.772091 0.0333562 0.897307
0 0.197055 0.520577
0 0.190936 0.564111
0.0580606 0.184802 0.60766
0.184833 0.178668 0.651225
0.31162 0.172534 0.694774
0.438407 0.1664 0.738323
0.565179 0.160266 0.781872
0.691966 0.154131 0.825422
0.818738 0.147997 0.868971
0 0.311711 0.492241
0 0.305577 0.53579
0.104707 0.299443 0.579339
0.231495 0.293309 0.622889
0.358267 0.287175 0.666438
0.485054 0.281041 0.709987
0.611826 0.274907 0.753536
0.738613 0.268772 0.797086
0.865385 0.262638 0.840635
0 0.426368 0.463905
0.0245823 0.420233 0.507454
0.151354 0.414099 0.551003
0.278141 0.407965 0.594553
0.404913 0.401831 0.638102
0.531701 0.395697 0.681651
0.658473 0.389563 0.725216
0.78526 0.383429 0.768765
0.912032 0.377295 0.812314
0 0.541009 0.435569
0.0712291 0.534874 0.479118
0.198001 0.52874 0.522667
0.324788 0.522606 0.566217
0.45156 0.516472 0.609781
0.578347 0.510338 0.65333
0.705119 0.504204 0.69688
0.831907 0.498085 0.740429
0.958694 0.491951 0.783978
0 0.655665 0.407248
0.117876 0.649531 0.450797
0.244648 0.643397 0.494347
0.371435 0.637263 0.537896
0.498207 0.631128 0.581445
0.624994 0.624994 0.624994
0.751781 0.61886 0.668544
0.878553 0.612726 0.712093
1 0.606592 0.755642
0.0377508 0.770306 0.378912
0.164523 0.764172 0.422461
0.291295 0.758038 0.466011
0.418082 0.751904 0.50956
0.544869 0.745785 0.553109
0.671641 0.739651 0.596658
0.798428 0.733516 0.640208
0.9252 0.727382 0.683772
1 0.721248 0.727321
0.0843977 0.884962 0.350576
0.21117 0.878828 0.394125
0.337957 0.872694 0.437675
0.464729 0.86656 0.481224
0.591516 0.860426 0.524773
0.718288 0.854292 0.568338
0.845075 0.848157 0.611887
0.971847 0.842023 0.655436
1 0.835889 0.698985
0.13106 0.999603 0.322255
0.257816 0.993469 0.365789
0.384604 0.98735 0.409354
0.511376 0.981216 0.452903
0.638163 0.975082 0.496452
0.764935 0.968948 0.540002
0.891722 0.962814 0.583551
1 0.95668 0.6271
1 0.950545 0.670649
0 0.098909 0.658686
0 0.0927749 0.70222
0 0.0866407 0.745769
0.0897688 0.0805066 0.789334
0.216556 0.0743725 0.832883
0.343328 0.0682383 0.876432
0.470115 0.0621195 0.919982
0.596887 0.0559854 0.963531
0.723674 0.0498512 1
0 0.21355 0.63035
0 0.207416 0.673899
0.00962844 0.201282 0.717449
0.136416 0.195148 0.760998
0.263188 0.189014 0.804547
0.389975 0.182879 0.848096
0.516747 0.176745 0.891646
0.643534 0.170611 0.93521
0.770321 0.164477 0.978759
0 0.328191 0.602014
0 0.322057 0.645563
0.0562753 0.315938 0.689113
0.183062 0.309804 0.732662
0.309834 0.30367 0.776226
0.436622 0.297536 0.819776
0.563409 0.291402 0.863325
0.690181 0.285267 0.906874
0.816968 0.279133 0.950423
0 0.442847 0.573693
0 0.436713 0.617243
0.102922 0.430579 0.660792
0.229709 0.424445 0.704341
0.356497 0.418311 0.74789
0.483268 0.412177 0.79144
0.610056 0.406043 0.834989
0.736828 0.399908 0.878538
0.863615 0.393774 0.922087
0 0.557488 0.545357
0.022797 0.551369 0.588907
0.149584 0.545235 0.632456
0.276356 0.539101 0.676005
0.403143 0.532967 0.719554
0.529915 0.526833 0.763104
0.656703 0.520699 0.806653
0.783475 0.514565 0.850217
0.910262 0.508431 0.893767
0 0.672145 0.517021
0.0694438 0.66601 0.560571
0.196231 0.659876 0.60412
0.323003 0.653742 0.647669
0.44979 0.647608 0.691218
0.576562 0.641474 0.734783
0.703349 0.63534 0.778332
0.830121 0.629206 0.821881
0.956909 0.623087 0.865431
0 0.786801 0.488701
0.116091 0.780667 0.532235
0.242878 0.774533 0.575799
0.36965 0.768399 0.619348
0.496437 0.762264 0.662898
0.623209 0.75613 0.706447
0.749996 0.749996 0.749996
0.876783 0.743862 0.793545
1 0.737728 0.837095
0.0359808 0.901442 0.460365
0.162737 0.895308 0.503914
0.289525 0.889174 0.547463
0.416297 0.88304 0.591012
0.543084 0.876905 0.634562
0.669871 0.870787 0.678111
0.796643 0.864652 0.72166
0.92343 0.858518 0.765209
1 0.852384 0.808774
0.0826276 1 0.432029
0.209384 1 0.475578
0.336172 1 0.519127
0.462959 0.997696 0.562676
0.589731 0.991562 0.606226
0.716518 0.985428 0.649775
0.84329 0.979294 0.693339
0.970077 0.973159 0.736889
1 0.967025 0.780438
0 0.115404 0.76846
0 0.10927 0.812009
0 0.103136 0.855558
0.0413367 0.0970016 0.899107
0.168124 0.0908675 0.942657
0.294911 0.0847334 0.986206
0.421683 0.0785992 1
0.54847 0.0724651 1
0.675242 0.066331 1
0 0.23003 0.740139
0 0.223896 0.783673
0 0.217762 0.827237
0.0879835 0.211627 0.870787
0.214771 0.205493 0.914336
0.341543 0.199359 0.957885
0.46833 0.19324 1
0.595102 0.187106 1
0.721889 0.180972 1
0 0.344686 0.711803
0 0.338552 0.755352
0.0078584 0.332418 0.798901
0.13463 0.326284 0.842451
0.261418 0.32015 0.886
0.38819 0.314015 0.929549
0.514977 0.307881 0.973098
0.641749 0.301747 1
0.768536 0.295613 1
0 0.459327 0.683467
0 0.453193 0.727016
0.0545052 0.447059 0.770565
0.181277 0.44094 0.814115
0.308064 0.434806 0.857664
0.434836 0.428672 0.901228
0.561624 0.422538 0.944778
0.688411 0.416403 0.988327
0.815183 0.410269 1
0 0.573983 0.655146
0 0.567849 0.69868
0.101152 0.561715 0.742229
0.227924 0.555581 0.785794
0.354711 0.549447 0.829343
0.481498 0.543313 0.872892
0.60827 0.537179 0.916442
0.735058 0.531044 0.959991
0.86183 0.52491 1
0 0.688624 0.62681
0.0210269 0.682506 0.670359
0.147799 0.676371 0.713909
0.274586 0.670237 0.757458
0.401358 0.664103 0.801007
0.528145 0.657969 0.844556
0.654917 0.651835 0.888106
0.781704 0.645701 0.931655
0.908476 0.639567 0.975219
0 0.803281 0.598474
0.0676738 0.797147 0.642023
0.194446 0.791012 0.685573
0.321233 0.784878 0.729122
0.448005 0.778744 0.772671
0.574792 0.77261 0.81622
0.701564 0.766476 0.859785
0.828351 0.760342 0.903334
0.955123 0.754208 0.946883
0 0.917937 0.570153
0.114321 0.911803 0.613687
0.241093 0.905669 0.657237
0.36788 0.899535 0.700801
0.494652 0.8934 0.74435
0.621439 0.887266 0.7879
0.748211 0.881132 0.831449
0.874998 0.874998 0.874998
1 0.868864 0.918547
0.0341955 1 0.541817
0.160967 1 0.585367
0.287739 1 0.628916
0.414527 1 0.672465
0.541299 1 0.716014
0.668086 1 0.759564
0.794873 0.995789 0.803113
0.921645 0.989654 0.846662
1 0.98352 0.890211
0 0.131884 0.878248
0 0.12575 0.921798
0 0.119615 0.965347
0 0.113481 1
0.119692 0.107347 1
0.246479 0.101213 1
0.373251 0.095079 1
0.500038 0.0889448 1
0.626825 0.0828107 1
0 0.246525 0.849912
0 0.240391 0.893462
0 0.234257 0.937011
0.0395666 0.228122 0.98056
0.166339 0.221988 1
0.293126 0.215854 1
0.419898 0.20972 1
0.546685 0.203586 1
0.673457 0.197452 1
0 0.361166 0.821591
0 0.355032 0.865125
0 0.348898 0.908675
0.0862135 0.342763 0.952239
0.212985 0.336629 0.995789
0.339773 0.330495 1
0.466545 0.324361 1
0.593332 0.318242 1
0.720104 0.312108 1
0 0.475822 0.793256
0 0.469688 0.836805
0.00607309 0.463554 0.880354
0.13286 0.45742 0.923903
0.259632 0.451286 0.967453
0.386419 0.445151 1
0.513191 0.439017 1
0.639979 0.432883 1
0.766751 0.426749 1
0 0.590463 0.76492
0 0.584329 0.808469
0.0527199 0.578195 0.852018
0.179507 0.572061 0.895567
0.306279 0.565942 0.939116
0.433066 0.559808 0.982666
0.559838 0.553674 1
0.686625 0.547539 1
0.813413 0.541405 1
0 0.705119 0.736584
0 0.698985 0.780133
0.0993668 0.692851 0.823682
0.226154 0.686717 0.867231
0.352926 0.680583 0.910796
0.479713 0.674449 0.954345
0.6065 0.668315 0.997894
0.733272 0.662181 1
0.860059 0.656046 1
0 0.81976 0.708263
0.0192416 0.813626 0.751812
0.146014 0.807507 0.795361
0.272801 0.801373 0.838911
0.399588 0.795239 0.88246
0.52636 0.789105 0.926009
0.653147 0.782971 0.969558
0.779919 0.776837 1
0.906706 0.770703 1
0 0.934417 0.679927
0.0658885 0.928283 0.723476
0.192676 0.922148 0.767025
0.319448 0.916014 0.810575
0.446235 0.90988 0.854124
0.573007 0.903746 0.897673
0.699794 0.897612 0.941222
0.826566 0.891478 0.984787
0.953353 0.885344 1
0 1 0.651591
0.112535 1 0.69514
0.239322 1 0.738689
0.366094 1 0.782238
0.492882 1 0.825803
0.619654 1 0.869352
0.746441 1 0.912902
0.873213 1 0.956451
1 1 1
