public/LUTS/Color Shift/ColorShift_03.cube
TITLE "Generated by Resolve"
LUT_3D_SIZE 5
0 0 0
0 0.114961 0.0428473
0 0.229923 0.0856794
0 0.344884 0.128527
0 0.459846 0.171374
0.285801 0.113512 0.394629
0.134249 0.228473 0.437461
0 0.343435 0.480308
0 0.458396 0.523156
0 0.573358 0.566003
0.571618 0.227024 0.789288
0.420066 0.341985 0.83212
0.268513 0.456947 0.874968
0.116945 0.571908 0.9178
0 0.68687 0.960647
0.857435 0.340551 1
0.705882 0.455497 1
0.554314 0.570459 1
0.402762 0.68542 1
0.251209 0.800381 1
1 0.454063 1
0.991699 0.569024 1
0.840131 0.683986 1
0.688579 0.798947 1
0.537026 0.913909 1
0.11574 0.0215152 0
0 0.136477 0
0 0.251438 0
0 0.3664 0
0 0.481361 0
0.401541 0.135027 0.207141
0.249989 0.249989 0.249989
0.098436 0.36495 0.292836
0 0.479912 0.335668
0 0.594873 0.378515
0.687358 0.248554 0.601801
0.535805 0.3635 0.644648
0.384253 0.478462 0.68748
0.232685 0.593423 0.730327
0.0811322 0.708385 0.773175
0.973175 0.362066 0.99646
0.821622 0.477028 1
0.670054 0.591989 1
0.518502 0.70695 1
0.366949 0.821912 1
1 0.475593 1
1 0.590539 1
0.955871 0.705501 1
0.804318 0.820462 1
0.652766 0.935424 1
0.231479 0.0430457 0
0.079942 0.158007 0
0 0.272969 0
0 0.38793 0
0 0.502892 0
0.517281 0.156558 0.0196536
0.365728 0.271519 0.062501
0.214176 0.386481 0.105333
0.062623 0.501442 0.14818
0 0.616403 0.191028
0.803098 0.270069 0.414313
0.651545 0.385031 0.457145
0.499992 0.499992 0.499992
0.34844 0.614954 0.54284
0.196872 0.729915 0.585672
1 0.383597 0.808957
0.937362 0.498543 0.851804
0.785809 0.613504 0.894652
0.634256 0.728466 0.937484
0.482689 0.843427 0.980331
1 0.497108 1
1 0.61207 1
1 0.727031 1
0.920058 0.841993 1
0.768505 0.956954 1
0.347234 0.0645762 0
0.195682 0.179522 0
0.0441291 0.294484 0
0 0.409445 0
0 0.524407 0
0.633036 0.178088 0
0.481483 0.293034 0
0.329931 0.407996 0
0.178363 0.522957 0
0.0268101 0.637919 0.00354009
0.918853 0.2916 0.226825
0.7673 0.406561 0.269657
0.615732 0.521523 0.312505
0.464179 0.636484 0.355337
0.312627 0.751446 0.398184
1 0.405112 0.621469
1 0.520073 0.664317
0.901549 0.635035 0.707149
0.749996 0.749996 0.749996
0.598444 0.864958 0.792844
1 0.518639 1
1 0.633585 1
1 0.748547 1
1 0.863508 1
0.88426 0.978469 1
0.462974 0.0860914 0
0.311437 0.201053 0
0.159869 0.316014 0
0.00831617 0.430976 0
0 0.545937 0
0.748775 0.199603 0
0.597223 0.314565 0
0.44567 0.429526 0
0.294118 0.544488 0
0.14255 0.659449 0
1 0.31313 0.0393225
0.88304 0.428077 0.0821698
0.731487 0.543038 0.125017
0.579934 0.658 0.167849
0.428367 0.772961 0.210697
1 0.426642 0.433982
1 0.541604 0.476814
1 0.656565 0.519661
0.865736 0.771527 0.562509
0.714183 0.886488 0.605341
1 0.540154 0.828626
1 0.655116 0.871473
1 0.770077 0.914321
1 0.885039 0.957153
1 1 1
