public/LUTS/Color Shift/ColorShift_53.cube
TITLE "Generated by Resolve"
LUT_3D_SIZE 9
0 0 0
0 0.0823835 0
0 0.164782 0
0 0.247181 0
0 0.329564 0
0 0.411963 0
0 0.494362 0
0 0.576761 0
0 0.659159 0
0.131106 0.048188 0.291493
0 0.130571 0.267597
0 0.212955 0.243702
0 0.295354 0.219791
0 0.377752 0.195895
0 0.460151 0.172
0 0.542535 0.148104
0 0.624933 0.124208
0 0.707332 0.100298
0.262211 0.0963607 0.583017
0.12282 0.178759 0.559121
0 0.261143 0.535225
0 0.343542 0.511315
0 0.42594 0.487419
0 0.508339 0.463523
0 0.590723 0.439628
0 0.673121 0.415732
0 0.75552 0.391836
0.393332 0.144549 0.87454
0.253941 0.226932 0.850645
0.114534 0.309331 0.826749
0 0.39173 0.802853
0 0.474128 0.778943
0 0.556527 0.755047
0 0.638911 0.731151
0 0.721309 0.707256
0 0.803708 0.68336
0.524437 0.192737 1
0.385046 0.27512 1
0.245655 0.357519 1
0.106249 0.439918 1
0 0.522316 1
0 0.6047 1
0 0.687099 1
0 0.769497 0.998779
0 0.851896 0.974884
0.655558 0.240925 1
0.516167 0.323308 1
0.376761 0.405707 1
0.237354 0.488106 1
0.0979477 0.570504 1
0 0.652888 1
0 0.735286 1
0 0.817685 1
0 0.900084 1
0.786664 0.289113 1
0.647288 0.371496 1
0.507881 0.453895 1
0.368475 0.536294 1
0.229068 0.618677 1
0.089662 0.701076 1
0 0.783475 1
0 0.865873 1
0 0.948272 1
0.917784 0.337301 1
0.778393 0.419684 1
0.638987 0.502083 1
0.49958 0.584482 1
0.360174 0.666865 1
0.220783 0.749264 1
0.0813764 0.831662 1
0 0.914061 1
0 0.996445 1
1 0.385489 1
0.909514 0.467872 1
0.770108 0.550271 1
0.630701 0.632654 1
0.491295 0.715053 1
0.351888 0.797452 1
0.212482 0.87985 1
0.0730755 0.962249 1
0 1 1
0.133272 0 0
0 0.0767987 0
0 0.159197 0
0 0.241596 0
0 0.323995 0
0 0.406394 0
0 0.488777 0
0 0.571176 0
0 0.653574 0
0.264378 0.0426032 0.148882
0.124987 0.124987 0.124987
0 0.207385 0.101091
0 0.289784 0.0771954
0 0.372168 0.0532845
0 0.454566 0.0293889
0 0.536965 0.00549325
0 0.619364 0
0 0.701747 0
0.395483 0.0907912 0.440406
0.256107 0.173175 0.41651
0.116701 0.255573 0.392615
0 0.337957 0.368719
0 0.420356 0.344823
0 0.502754 0.320912
0 0.585153 0.297017
0 0.667552 0.273121
0 0.749935 0.249226
0.526604 0.138979 0.731929
0.387213 0.221363 0.708034
0.247807 0.303761 0.684138
0.1084 0.386145 0.660243
0 0.468544 0.636347
0 0.550942 0.612436
0 0.633341 0.58854
0 0.715724 0.564645
0 0.798123 0.540749
0.657725 0.187167 1
0.518334 0.269551 0.999557
0.378927 0.351934 0.975662
0.239521 0.434333 0.951766
0.100114 0.516732 0.927871
0 0.59913 0.90396
0 0.681529 0.880064
0 0.763912 0.856168
0 0.846311 0.832273
0.78883 0.23534 1
0.649439 0.317739 1
0.510033 0.400122 1
0.370626 0.482521 1
0.231235 0.56492 1
0.0918288 0.647318 1
0 0.729702 1
0 0.8121 1
0 0.894499 1
0.919951 0.283528 1
0.78056 0.365927 1
0.641154 0.44831 1
0.501747 0.530709 1
0.362341 0.613108 1
0.222934 0.695506 1
0.0835279 0.77789 1
0 0.860288 1
0 0.942687 1
1 0.331716 1
0.911665 0.414099 1
0.772274 0.496498 1
0.632868 0.578897 1
0.493462 0.661295 1
0.354055 0.743694 1
0.214649 0.826078 1
0.0752422 0.908476 1
0 0.990875 1
1 0.379904 1
1 0.462287 1
0.90338 0.544686 1
0.763973 0.627085 1
0.624567 0.709484 1
0.485161 0.791867 1
0.345754 0.874266 1
0.206363 0.956664 1
0.0669566 1 1
0.266575 0 0
0.127184 0.0712291 0
0 0.153628 0
0 0.236011 0
0 0.31841 0
0 0.400809 0
0 0.483207 0
0 0.565591 0
0 0.64799 0
0.397665 0.0370184 0.0062562
0.258274 0.119402 0
0.118868 0.201801 0
0 0.284199 0
0 0.366598 0
0 0.448981 0
0 0.53138 0
0 0.613779 0
0 0.696178 0
0.528786 0.0852064 0.29778
0.389395 0.16759 0.273884
0.249989 0.249989 0.249989
0.110582 0.332387 0.226093
0 0.414786 0.202197
0 0.497169 0.178286
0 0.579568 0.154391
0 0.661967 0.130495
0 0.744366 0.1066
0.659892 0.133394 0.589303
0.5205 0.215778 0.565408
0.381109 0.298177 0.541512
0.241703 0.380575 0.517617
0.102296 0.462959 0.493721
0 0.545357 0.469825
0 0.627756 0.445914
0 0.710155 0.422019
0 0.792554 0.398123
0.791012 0.181582 0.880827
0.651621 0.263966 0.856931
0.512215 0.346365 0.833036
0.372808 0.428763 0.80914
0.233402 0.511147 0.785245
0.0939956 0.593545 0.761349
0 0.675944 0.737438
0 0.758343 0.713542
0 0.840726 0.689647
0.922118 0.22977 1
0.782742 0.312154 1
0.643336 0.394553 1
0.503929 0.476936 1
0.364523 0.559335 1
0.225116 0.641733 1
0.0857099 0.724132 1
0 0.806531 1
0 0.888914 0.98117
1 0.277958 1
0.913848 0.360342 1
0.774441 0.442741 1
0.635035 0.525124 1
0.495644 0.607523 1
0.356237 0.689921 1
0.216831 0.77232 1
0.0774243 0.854704 1
0 0.937102 1
1 0.326146 1
1 0.40853 1
0.905562 0.490929 1
0.766155 0.573312 1
0.626749 0.655711 1
0.487343 0.738109 1
0.347936 0.820508 1
0.20853 0.902892 1
0.0691234 0.98529 1
1 0.374334 1
1 0.456718 1
1 0.539101 1
0.897276 0.6215 1
0.75787 0.703899 1
0.618463 0.786297 1
0.479057 0.868681 1
0.339651 0.95108 1
0.200244 1 1
0.399863 0 0
0.260471 0.0656443 0
0.121065 0.148043 0
0 0.230442 0
0 0.312825 0
0 0.395224 0
0 0.477623 0
0 0.560021 0
0 0.64242 0
0.530953 0.0314488 0
0.391577 0.113832 0
0.252171 0.196216 0
0.112764 0.278614 0
0 0.361013 0
0 0.443412 0
0 0.525811 0
0 0.608194 0
0 0.690593 0
0.662074 0.0796216 0.155154
0.522683 0.16202 0.131258
0.383276 0.244404 0.107362
0.24387 0.326802 0.0834669
0.104479 0.409201 0.0595712
0 0.4916 0.0356756
0 0.573983 0.0117647
0 0.656382 0
0 0.738781 0
0.793194 0.12781 0.446677
0.653803 0.210193 0.422782
0.514397 0.292592 0.398886
0.37499 0.37499 0.37499
0.235584 0.457389 0.351095
0.0961776 0.539788 0.327199
0 0.622171 0.303288
0 0.70457 0.279393
0 0.786969 0.255497
0.9243 0.175998 0.738201
0.784909 0.258381 0.714305
0.645502 0.34078 0.69041
0.506111 0.423178 0.666514
0.366705 0.505577 0.642618
0.227298 0.587961 0.618723
0.087892 0.670359 0.594827
0 0.752758 0.570916
0 0.835157 0.547021
1 0.224186 1
0.91603 0.306569 1
0.776623 0.388968 0.981933
0.637217 0.471366 0.958038
0.49781 0.553765 0.934142
0.358404 0.636149 0.910246
0.218997 0.718547 0.886351
0.0796063 0.800946 0.86244
0 0.883345 0.838544
1 0.272374 1
1 0.354757 1
0.907744 0.437156 1
0.768338 0.519554 1
0.628931 0.601938 1
0.489525 0.684337 1
0.350118 0.766735 1
0.210712 0.849134 1
0.0713054 0.931533 1
1 0.320562 1
1 0.402945 1
1 0.485344 1
0.899443 0.567742 1
0.760037 0.650126 1
0.62063 0.732525 1
0.481239 0.814923 1
0.341833 0.897322 1
0.202426 0.979706 1
1 0.36875 1
1 0.451133 1
1 0.533532 1
1 0.615915 1
0.891157 0.698314 1
0.751751 0.780713 1
0.612345 0.863111 1
0.472938 0.94551 1
0.333532 1 1
0.53315 0 0
0.393759 0.0600595 0
0.254368 0.142458 0
0.114961 0.224857 0
0 0.307256 0
0 0.389654 0
0 0.472038 0
0 0.554437 0
0 0.636835 0
0.664256 0.025864 0
0.524865 0.108248 0
0.385458 0.190646 0
0.246052 0.273045 0
0.106645 0.355428 0
0 0.437827 0
0 0.520226 0
0 0.602625 0
0 0.685008 0
0.795361 0.074052 0.0125277
0.655985 0.156435 0
0.516579 0.238834 0
0.377172 0.321218 0
0.237766 0.403616 0
0.0983597 0.486015 0
0 0.568414 0
0 0.650813 0
0 0.733196 0
0.926482 0.12224 0.304051
0.787091 0.204623 0.280156
0.647684 0.287022 0.25626
0.508278 0.369406 0.232364
0.368872 0.451804 0.208469
0.22948 0.534203 0.184573
0.090074 0.616602 0.160678
0 0.698985 0.136767
0 0.781384 0.112871
1 0.170428 0.59559
0.918212 0.252811 0.571694
0.778805 0.335195 0.547784
0.639399 0.417594 0.523888
0.499992 0.499992 0.499992
0.360586 0.582391 0.476097
0.22118 0.66479 0.452201
0.0817731 0.747173 0.42829
0 0.829572 0.404395
1 0.218601 0.887114
1 0.300999 0.863218
0.909911 0.383383 0.839307
0.770504 0.465782 0.815412
0.631113 0.54818 0.791516
0.491707 0.630579 0.76762
0.3523 0.712963 0.743725
0.212894 0.795361 0.719829
0.0734875 0.87776 0.695918
1 0.266789 1
1 0.349172 1
1 0.431571 1
0.901625 0.51397 1
0.762219 0.596368 1
0.622812 0.678767 1
0.483406 0.761151 1
0.343999 0.843549 1
0.204608 0.925948 0.987442
1 0.314977 1
1 0.39736 1
1 0.479759 1
1 0.562158 1
0.893339 0.644556 1
0.753933 0.72694 1
0.614527 0.809339 1
0.47512 0.891737 1
0.335714 0.974136 1
1 0.363165 1
1 0.445548 1
1 0.527947 1
1 0.610346 1
1 0.692744 1
0.885039 0.775128 1
0.745632 0.857527 1
0.606241 0.939925 1
0.466835 1 1
0.666453 0 0
0.527062 0.05449 0
0.387655 0.136889 0
0.248249 0.219272 0
0.108843 0.301671 0
0 0.38407 0
0 0.466468 0
0 0.548852 0
0 0.631251 0
0.797543 0.0202792 0
0.658152 0.102663 0
0.518746 0.185061 0
0.379355 0.26746 0
0.239948 0.349859 0
0.100542 0.432242 0
0 0.514641 0
0 0.59704 0
0 0.679438 0
0.928664 0.0684672 0
0.789273 0.150851 0
0.649866 0.233249 0
0.51046 0.315648 0
0.371054 0.398047 0
0.231647 0.48043 0
0.0922408 0.562829 0
0 0.645228 0
0 0.727626 0
1 0.116655 0.16144
0.920378 0.199039 0.137545
0.780987 0.281437 0.113634
0.641581 0.363836 0.0897383
0.502174 0.44622 0.0658427
0.362768 0.528618 0.0419471
0.223362 0.611017 0.0180514
0.0839551 0.693416 0
0 0.775814 0
1 0.164843 0.452964
1 0.247227 0.429068
0.912093 0.329625 0.405158
0.772686 0.412024 0.381262
0.63328 0.494408 0.357366
0.493874 0.576806 0.333471
0.354482 0.659205 0.309575
0.215076 0.741604 0.285679
0.0756695 0.823987 0.261769
1 0.213031 0.744488
1 0.295415 0.720592
1 0.377813 0.696696
0.903807 0.460197 0.672786
0.764401 0.542596 0.64889
0.624994 0.624994 0.624994
0.485588 0.707393 0.601099
0.346181 0.789792 0.577203
0.206775 0.872175 0.553292
1 0.261219 1
1 0.343603 1
1 0.426001 0.98822
1 0.508385 0.964309
0.895506 0.590784 0.940414
0.756115 0.673182 0.916518
0.616709 0.755581 0.892622
0.477302 0.837964 0.868727
0.337896 0.920363 0.844831
1 0.309407 1
1 0.391791 1
1 0.474174 1
1 0.556573 1
1 0.638972 1
0.887221 0.72137 1
0.747814 0.803769 1
0.608408 0.886152 1
0.469001 0.968551 1
1 0.35758 1
1 0.439979 1
1 0.522362 1
1 0.604761 1
1 0.68716 1
1 0.769558 1
0.878935 0.851942 1
0.739528 0.93434 1
0.600122 1 1
0.799741 0 0
0.660349 0.0489052 0
0.520943 0.131304 0
0.381537 0.213703 0
0.24213 0.296086 0
0.102739 0.378485 0
0 0.460883 0
0 0.543282 0
0 0.625681 0
0.930831 0.0147097 0
0.791455 0.0970932 0
0.652049 0.179477 0
0.512642 0.261875 0
0.373236 0.344274 0
0.233829 0.426673 0
0.0944228 0.509071 0
0 0.591455 0
0 0.673854 0
1 0.0628824 0
0.92256 0.145281 0
0.783154 0.227665 0
0.643748 0.310063 0
0.504356 0.392462 0
0.36495 0.474861 0
0.225544 0.557244 0
0.0861372 0.639643 0
0 0.722042 0
1 0.11107 0.0188144
1 0.193454 0
0.914275 0.275853 0
0.774868 0.358251 0
0.635462 0.44065 0
0.496056 0.523049 0
0.356649 0.605432 0
0.217243 0.687831 0
0.0778363 0.77023 0
1 0.159258 0.310338
1 0.241642 0.286442
1 0.324041 0.262547
0.905989 0.406439 0.238636
0.766583 0.488838 0.21474
0.627176 0.571221 0.190845
0.48777 0.65362 0.166949
0.348363 0.736019 0.143053
0.208957 0.818418 0.119142
1 0.207446 0.601862
1 0.28983 0.577966
1 0.372229 0.55407
1 0.454627 0.530159
0.897688 0.537026 0.506264
0.758282 0.61941 0.482368
0.618875 0.701808 0.458473
0.479484 0.784207 0.434577
0.340078 0.866606 0.410681
1 0.255634 0.893385
1 0.338018 0.86949
1 0.420417 0.845594
1 0.502815 0.821698
1 0.585199 0.797787
0.889403 0.667597 0.773892
0.749996 0.749996 0.749996
0.61059 0.832395 0.726101
0.471183 0.914794 0.702205
1 0.303822 1
1 0.386206 1
1 0.468605 1
1 0.551003 1
1 0.633387 1
1 0.715785 1
0.881117 0.798184 1
0.741711 0.880583 1
0.602304 0.962966 0.993729
1 0.35201 1
1 0.434394 1
1 0.516793 1
1 0.599176 1
1 0.681575 1
1 0.763973 1
1 0.846372 1
0.872816 0.928771 1
0.73341 1 1
0.933028 0 0
0.793637 0.0433204 0
0.654246 0.125719 0
0.514839 0.208118 0
0.375433 0.290517 0
0.236027 0.372915 0
0.0966201 0.455299 0
0 0.537697 0
0 0.620096 0
1 0.0091249 0
0.924743 0.0915084 0
0.785336 0.173907 0
0.64593 0.256306 0
0.506523 0.338689 0
0.367117 0.421088 0
0.22771 0.503487 0
0.0883192 0.585885 0
0 0.668269 0
1 0.0573129 0
1 0.139696 0
0.916457 0.222095 0
0.77705 0.304479 0
0.637644 0.386877 0
0.498238 0.469276 0
0.358831 0.551675 0
0.219425 0.634073 0
0.0800183 0.716457 0
1 0.105501 0
1 0.187884 0
1 0.270283 0
0.908156 0.352667 0
0.76875 0.435065 0
0.629358 0.517464 0
0.489952 0.599863 0
0.350545 0.682246 0
0.211139 0.764645 0
1 0.153689 0.167712
1 0.236072 0.143816
1 0.318456 0.119921
1 0.400854 0.0960098
0.89987 0.483253 0.0721141
0.760464 0.565652 0.0482185
0.621057 0.648051 0.0243229
0.481651 0.730434 0.000427253
0.342245 0.812833 0
1 0.201862 0.459236
1 0.28426 0.43534
1 0.366644 0.411444
1 0.449042 0.387549
1 0.531441 0.363638
0.891585 0.61384 0.339742
0.752178 0.696223 0.315847
0.612772 0.778622 0.291951
0.473365 0.861021 0.268055
1 0.25005 0.750759
1 0.332433 0.726864
1 0.414832 0.702968
1 0.49723 0.679072
1 0.579629 0.655161
1 0.662028 0.631266
0.883284 0.744411 0.60737
0.743877 0.82681 0.583474
0.604486 0.909209 0.559579
1 0.298238 1
1 0.380621 1
1 0.46302 0.994492
1 0.545419 0.970596
1 0.627817 0.9467
1 0.710201 0.922789
1 0.792599 0.898894
0.874998 0.874998 0.874998
0.735592 0.957397 0.851102
1 0.346426 1
1 0.428809 1
1 0.511208 1
1 0.593606 1
1 0.676005 1
1 0.758389 1
1 0.840787 1
1 0.923186 1
0.866712 1 1
1 0 0
0.92694 0.0377508 0
0.787533 0.12015 0
0.648127 0.202533 0
0.508721 0.284932 0
0.369314 0.36733 0
0.229908 0.449729 0
0.0905013 0.532113 0
0 0.614511 0
1 0.00354009 0
1 0.0859236 0
0.918624 0.168322 0
0.779217 0.250721 0
0.639826 0.33312 0
0.50042 0.415503 0
0.361013 0.497902 0
0.221607 0.580301 0
0.0822003 0.662699 0
1 0.0517281 0
1 0.134112 0
1 0.21651 0
0.910338 0.298909 0
0.770932 0.381308 0
0.631525 0.463691 0
0.492119 0.54609 0
0.352712 0.628489 0
0.213321 0.710887 0
1 0.0999161 0
1 0.1823 0
1 0.264698 0
1 0.347097 0
0.902052 0.42948 0
0.762646 0.511879 0
0.62324 0.594278 0
0.483833 0.676677 0
0.344427 0.759075 0
1 0.148104 0.0250858
1 0.230488 0.0011902
1 0.312886 0
1 0.395285 0
1 0.477668 0
0.893751 0.560067 0
0.75436 0.642466 0
0.614954 0.724865 0
0.475547 0.807248 0
1 0.196292 0.316609
1 0.278676 0.292714
1 0.361074 0.268818
1 0.443458 0.244923
1 0.525856 0.221012
1 0.608255 0.197116
0.885466 0.690654 0.17322
0.746059 0.773053 0.149325
0.606653 0.855436 0.125429
1 0.24448 0.608133
1 0.326863 0.584237
1 0.409262 0.560342
1 0.491646 0.536446
1 0.574044 0.512551
1 0.656443 0.48864
1 0.738842 0.464744
0.87718 0.821225 0.440848
0.737774 0.903624 0.416953
1 0.292668 0.899657
1 0.375051 0.875761
1 0.457435 0.851865
1 0.539834 0.82797
1 0.622232 0.804074
1 0.704631 0.780163
1 0.78703 0.756268
1 0.869413 0.732372
0.868879 0.951812 0.708476
1 0.340841 1
1 0.423239 1
1 0.505623 1
1 0.588022 1
1 0.67042 1
1 0.752819 1
1 0.835203 1
1 0.917601 1
1 1 1
