public/LUTS/Color Shift/ColorShift_22.cube
TITLE "Generated by Resolve"
LUT_3D_SIZE 33
0 0 0
0.0260929 0.00277714 0
0.0522011 0.00556954 0
0.0783093 0.00834669 0
0.104417 0.0111238 0
0.130526 0.0139162 0
0.156634 0.0166934 0
0.182727 0.0194705 0
0.208835 0.0222629 0
0.234943 0.0250401 0
0.261051 0.0278172 0
0.28716 0.0306096 0
0.313268 0.0333867 0
0.339376 0.0361639 0
0.365484 0.0389563 0
0.391592 0.0417334 0
0.4177 0.0445106 0
0.443793 0.047303 0
0.469902 0.0500801 0
0.49601 0.0528573 0
0.522118 0.0556497 0
0.548226 0.0584268 0
0.574334 0.0612039 0
0.600443 0.0639963 0
0.626551 0.0667735 0
0.652659 0.0695506 0
0.678767 0.072343 0
0.70486 0.0751202 0
0.730968 0.0778973 0
0.757076 0.0806897 0
0.783185 0.0834669 0
0.809293 0.086244 0
0.835401 0.0890364 0
0 0.0320439 0.0112459
0.0186007 0.0348211 0.0016022
0.0447089 0.0375982 0
0.0708171 0.0403906 0
0.0969253 0.0431678 0
0.123033 0.0459449 0
0.149126 0.0487373 0
0.175235 0.0515145 0
0.201343 0.0542916 0
0.227451 0.057084 0
0.253559 0.0598611 0
0.279667 0.0626383 0
0.305776 0.0654307 0
0.331884 0.0682078 0
0.357992 0.070985 0
0.384085 0.0737774 0
0.410193 0.0765545 0
0.436301 0.0793317 0
0.462409 0.0821241 0
0.488518 0.0849012 0
0.514626 0.0876783 0
0.540734 0.0904707 0
0.566842 0.0932479 0
0.59295 0.096025 0
0.619058 0.0988174 0
0.645151 0.101595 0
0.67126 0.104372 0
0.697368 0.107164 0
0.723476 0.109941 0
0.749584 0.112718 0
0.775692 0.115511 0
0.801801 0.118288 0
0.827909 0.121065 0
0 0.0640879 0.0224918
0.0111086 0.0668803 0.0128481
0.0372015 0.0696574 0.00321965
0.0633097 0.0724346 0
0.0894179 0.075227 0
0.115526 0.0780041 0
0.141634 0.0807813 0
0.167742 0.0835737 0
0.193851 0.0863508 0
0.219959 0.089128 0
0.246067 0.0919203 0
0.27216 0.0946975 0
0.298268 0.0974746 0
0.324376 0.100267 0
0.350484 0.103044 0
0.376593 0.105821 0
0.402701 0.108614 0
0.428809 0.111391 0
0.454917 0.114168 0
0.481025 0.11696 0
0.507134 0.119738 0
0.533227 0.122515 0
0.559335 0.125307 0
0.585443 0.128084 0
0.611551 0.130861 0
0.637659 0.133654 0
0.663767 0.136431 0
0.689876 0.139208 0
0.715984 0.142 0
0.742092 0.144778 0
0.7682 0.147555 0
0.794293 0.150347 0
0.820401 0.153124 0
0 0.0961471 0.0337377
0.00360113 0.0989242 0.024094
0.0297093 0.101717 0.0144656
0.0558175 0.104494 0.00482185
0.0819257 0.107271 0
0.108034 0.110063 0
0.134142 0.11284 0
0.16025 0.115618 0
0.186343 0.11841 0
0.212451 0.121187 0
0.23856 0.123964 0
0.264668 0.126757 0
0.290776 0.129534 0
0.316884 0.132311 0
0.342992 0.135103 0
0.3691 0.137881 0
0.395209 0.140658 0
0.421302 0.14345 0
0.44741 0.146227 0
0.473518 0.149004 0
0.499626 0.151797 0
0.525734 0.154574 0
0.551843 0.157351 0
0.577951 0.160143 0
0.604059 0.162921 0
0.630167 0.165698 0
0.656275 0.16849 0
0.682368 0.171267 0
0.708476 0.174044 0
0.734585 0.176837 0
0.760693 0.179614 0
0.786801 0.182391 0
0.812909 0.185183 0
0 0.128206 0.0449836
0 0.130983 0.0353399
0.0222171 0.133761 0.0257115
0.0483253 0.136553 0.0160678
0.0744182 0.13933 0.00642405
0.100526 0.142107 0
0.126635 0.1449 0
0.152743 0.147677 0
0.178851 0.150454 0
0.204959 0.153246 0
0.231067 0.156024 0
0.257176 0.158801 0
0.283284 0.161593 0
0.309392 0.16437 0
0.335485 0.167147 0
0.361593 0.16994 0
0.387701 0.172717 0
0.413809 0.175494 0
0.439918 0.178286 0
0.466026 0.181064 0
0.492134 0.183841 0
0.518242 0.186633 0
0.54435 0.18941 0
0.570443 0.192187 0
0.596551 0.19498 0
0.62266 0.197757 0
0.648768 0.200534 0
0.674876 0.203326 0
0.700984 0.206104 0
0.727092 0.208881 0
0.753201 0.211673 0
0.779309 0.21445 0
0.805417 0.217227 0
0 0.16025 0.0562295
0 0.163043 0.0466011
0.0147097 0.16582 0.0369573
0.0408179 0.168597 0.0273136
0.0669261 0.171389 0.0176852
0.0930343 0.174166 0.0080415
0.119142 0.176944 0
0.145251 0.179736 0
0.171359 0.182513 0
0.197467 0.18529 0
0.22356 0.188083 0
0.249668 0.19086 0
0.275776 0.193637 0
0.301885 0.196429 0
0.327993 0.199207 0
0.354101 0.201984 0
0.380209 0.204776 0
0.406317 0.207553 0
0.432425 0.21033 0
0.458518 0.213123 0
0.484627 0.2159 0
0.510735 0.218677 0
0.536843 0.221469 0
0.562951 0.224247 0
0.589059 0.227024 0
0.615167 0.229816 0
0.641276 0.232593 0
0.667384 0.23537 0
0.693492 0.238163 0
0.719585 0.24094 0
0.745693 0.243717 0
0.771801 0.246509 0
0.797909 0.249287 0
0 0.192309 0.0674754
0 0.195087 0.057847
0.00721752 0.197879 0.0482032
0.0333257 0.200656 0.0385595
0.0594339 0.203433 0.0289311
0.0855421 0.206226 0.0192874
0.111635 0.209003 0.0096437
0.137743 0.21178 1.5259e-05
0.163851 0.214572 0
0.18996 0.21735 0
0.216068 0.220127 0
0.242176 0.222919 0
0.268284 0.225696 0
0.294392 0.228473 0
0.3205 0.231266 0
0.346609 0.234043 0
0.372702 0.23682 0
0.39881 0.239612 0
0.424918 0.24239 0
0.451026 0.245167 0
0.477134 0.247959 0
0.503243 0.250736 0
0.529351 0.253513 0
0.555459 0.256306 0
0.581567 0.259083 0
0.60766 0.26186 0
0.633768 0.264652 0
0.659876 0.26743 0
0.685985 0.270207 0
0.712093 0.272999 0
0.738201 0.275776 0
0.764309 0.278553 0
0.790417 0.281346 0
0 0.224369 0.0787213
0 0.227146 0.0690929
0 0.229923 0.0594492
0.0258183 0.232715 0.0498054
0.0519265 0.235492 0.040177
0.0780346 0.23827 0.0305333
0.104143 0.241062 0.0208896
0.130251 0.243839 0.0112612
0.156359 0.246616 0.00161746
0.182467 0.249409 0
0.208576 0.252186 0
0.234684 0.254963 0
0.260777 0.257755 0
0.286885 0.260533 0
0.312993 0.26331 0
0.339101 0.266102 0
0.365209 0.268879 0
0.391318 0.271656 0
0.417426 0.274449 0
0.443534 0.277226 0
0.469642 0.280003 0
0.495735 0.282795 0
0.521843 0.285573 0
0.547951 0.28835 0
0.57406 0.291142 0
0.600168 0.293919 0
0.626276 0.296696 0
0.652384 0.299489 0
0.678492 0.302266 0
0.704601 0.305043 0
0.730709 0.307836 0
0.756802 0.310613 0
0.78291 0.31339 0
0 0.256413 0.0899672
0 0.259205 0.0803388
0 0.261982 0.0706951
0.0183261 0.264759 0.0610513
0.0444343 0.267552 0.0514229
0.0705425 0.270329 0.0417792
0.0966506 0.273106 0.0321355
0.122759 0.275898 0.0225071
0.148852 0.278676 0.0128634
0.17496 0.281453 0.00321965
0.201068 0.284245 0
0.227176 0.287022 0
0.253285 0.289799 0
0.279393 0.292592 0
0.305501 0.295369 0
0.331609 0.298146 0
0.357717 0.300938 0
0.383825 0.303716 0
0.409918 0.306493 0
0.436027 0.309285 0
0.462135 0.312062 0
0.488243 0.314839 0
0.514351 0.317632 0
0.540459 0.320409 0
0.566567 0.323186 0
0.592676 0.325978 0
0.618784 0.328756 0
0.644877 0.331533 0
0.670985 0.334325 0
0.697093 0.337102 0
0.723201 0.339879 0
0.74931 0.342672 0
0.775418 0.345449 0
0 0.288472 0.101213
0 0.291249 0.0915847
0 0.294041 0.0819409
0.0108339 0.296818 0.0722972
0.0369268 0.299596 0.0626688
0.063035 0.302388 0.0530251
0.0891432 0.305165 0.0433814
0.115251 0.307942 0.033753
0.14136 0.310735 0.0241093
0.167468 0.313512 0.0144656
0.193576 0.316289 0.00483711
0.219684 0.319081 0
0.245792 0.321859 0
0.271901 0.324636 0
0.297993 0.327428 0
0.324102 0.330205 0
0.35021 0.332982 0
0.376318 0.335775 0
0.402426 0.338552 0
0.428534 0.341329 0
0.454643 0.344121 0
0.480751 0.346899 0
0.506859 0.349676 0
0.532967 0.352468 0
0.55906 0.355245 0
0.585168 0.358022 0
0.611276 0.360815 0
0.637385 0.363592 0
0.663493 0.366369 0
0.689601 0.369162 0
0.715709 0.371939 0
0.741817 0.374716 0
0.767926 0.377508 0
0 0.320531 0.112459
0 0.323308 0.102831
0 0.326085 0.0931868
0.00332647 0.328878 0.0835431
0.0294347 0.331655 0.0739147
0.0555428 0.334432 0.064271
0.081651 0.337224 0.0546273
0.107759 0.340002 0.0449989
0.133867 0.342779 0.0353552
0.159976 0.345571 0.0257115
0.186069 0.348348 0.016083
0.212177 0.351125 0.00643931
0.238285 0.353918 0
0.264393 0.356695 0
0.290501 0.359472 0
0.316609 0.362264 0
0.342718 0.365042 0
0.368826 0.367819 0
0.394934 0.370611 0
0.421042 0.373388 0
0.447135 0.376165 0
0.473243 0.378958 0
0.499352 0.381735 0
0.52546 0.384512 0
0.551568 0.387304 0
0.577676 0.390082 0
0.603784 0.392859 0
0.629892 0.395651 0
0.656001 0.398428 0
0.682094 0.401205 0
0.708202 0.403998 0
0.73431 0.406775 0
0.760418 0.409552 0
0 0.352575 0.123705
0 0.355367 0.114076
0 0.358144 0.104433
0 0.360922 0.094789
0.0219425 0.363714 0.0851606
0.0480507 0.366491 0.0755169
0.0741436 0.369268 0.0658732
0.100252 0.372061 0.0562448
0.12636 0.374838 0.0466011
0.152468 0.377615 0.0369573
0.178576 0.380407 0.0273289
0.204685 0.383185 0.0176852
0.230793 0.385962 0.0080415
0.256901 0.388754 0
0.283009 0.391531 0
0.309117 0.394308 0
0.33521 0.397101 0
0.361318 0.399878 0
0.387427 0.402655 0
0.413535 0.405447 0
0.439643 0.408225 0
0.465751 0.411002 0
0.491859 0.413794 0
0.517968 0.416571 0
0.544076 0.419348 0
0.570184 0.422141 0
0.596277 0.424918 0
0.622385 0.427695 0
0.648493 0.430488 0
0.674601 0.433265 0
0.70071 0.436042 0
0.726818 0.438834 0
0.752926 0.441611 0
0 0.384634 0.134951
0 0.387411 0.125322
0 0.390188 0.115679
0 0.392981 0.106035
0.014435 0.395758 0.0964065
0.0405432 0.39855 0.0867628
0.0666514 0.401328 0.0771191
0.0927596 0.404105 0.0674907
0.118868 0.406897 0.057847
0.144976 0.409674 0.0482032
0.171084 0.412451 0.0385748
0.197192 0.415244 0.0289311
0.223285 0.418021 0.0192874
0.249393 0.420798 0.00965896
0.275502 0.42359 1.5259e-05
0.30161 0.426368 0
0.327718 0.429145 0
0.353826 0.431937 0
0.379934 0.434714 0
0.406043 0.437491 0
0.432151 0.440284 0
0.458259 0.443061 0
0.484352 0.445838 0
0.51046 0.448631 0
0.536568 0.451408 0
0.562676 0.454185 0
0.588785 0.456977 0
0.614893 0.459754 0
0.641001 0.462531 0
0.667109 0.465324 0
0.693217 0.468101 0
0.71931 0.470878 0
0.745418 0.473671 0
0 0.416693 0.146197
0 0.419471 0.136568
0 0.422248 0.126925
0 0.425025 0.117296
0.00694286 0.427817 0.107652
0.033051 0.430594 0.0980087
0.0591592 0.433387 0.0883803
0.0852674 0.436164 0.0787366
0.11136 0.438941 0.0690929
0.137469 0.441733 0.0594644
0.163577 0.444511 0.0498207
0.189685 0.447288 0.040177
0.215793 0.45008 0.0305486
0.241901 0.452857 0.0209049
0.268009 0.455634 0.0112612
0.294118 0.458427 0.00163272
0.320226 0.461204 0
0.346334 0.463981 0
0.372427 0.466773 0
0.398535 0.469551 0
0.424643 0.472328 0
0.450752 0.47512 0
0.47686 0.477897 0
0.502968 0.480674 0
0.529076 0.483467 0
0.555184 0.486244 0
0.581292 0.489021 0
0.607401 0.491814 0
0.633494 0.494591 0
0.659602 0.497368 0
0.68571 0.50016 0
0.711818 0.502937 0
0.737926 0.505714 0
0 0.448737 0.157443
0 0.451514 0.147814
0 0.454307 0.13817
0 0.457084 0.128542
0 0.459861 0.118898
0.0255436 0.462654 0.109255
0.0516518 0.465431 0.0996262
0.07776 0.468208 0.0899825
0.103868 0.471 0.0803388
0.129976 0.473777 0.0707103
0.156085 0.47657 0.0610666
0.182193 0.479347 0.0514229
0.208301 0.482124 0.0417945
0.234409 0.484916 0.0321508
0.260502 0.487694 0.0225071
0.28661 0.490471 0.0128786
0.312718 0.493263 0.00323491
0.338827 0.49604 0
0.364935 0.498817 0
0.391043 0.50161 0
0.417151 0.504387 0
0.443259 0.507164 0
0.469368 0.509957 0
0.495476 0.512734 0
0.521569 0.515511 0
0.547677 0.518303 0
0.573785 0.52108 0
0.599893 0.523857 0
0.626001 0.52665 0
0.65211 0.529427 0
0.678218 0.532204 0
0.704326 0.534997 0
0.730434 0.537774 0
0 0.480797 0.168688
0 0.483574 0.15906
0 0.486351 0.149416
0 0.489143 0.139788
0 0.49192 0.130144
0.0180514 0.494697 0.1205
0.0441596 0.49749 0.110872
0.0702678 0.500267 0.101228
0.096376 0.503044 0.0915847
0.122484 0.505837 0.0819562
0.148577 0.508614 0.0723125
0.174685 0.511391 0.0626688
0.200793 0.514183 0.0530404
0.226902 0.51696 0.0433967
0.25301 0.519753 0.033753
0.279118 0.52253 0.0241245
0.305226 0.525307 0.0144808
0.331334 0.528099 0.00483711
0.357443 0.530877 0
0.383551 0.533654 0
0.409644 0.536446 0
0.435752 0.539223 0
0.46186 0.542 0
0.487968 0.544793 0
0.514076 0.54757 0
0.540185 0.550347 0
0.566293 0.55314 0
0.592401 0.555917 0
0.618509 0.558694 0
0.644617 0.561486 0
0.67071 0.564263 0
0.696818 0.567041 0
0.722927 0.569833 0
0 0.512856 0.179934
0 0.515633 0.170306
0 0.51841 0.160662
0 0.521187 0.151034
0 0.52398 0.14139
0.0105592 0.526757 0.131746
0.0366522 0.529534 0.122118
0.0627604 0.532326 0.112474
0.0888685 0.535103 0.102831
0.114977 0.537881 0.0932021
0.141085 0.540673 0.0835584
0.167193 0.54345 0.0739147
0.193301 0.546227 0.0642863
0.219409 0.54902 0.0546426
0.245518 0.551797 0.0449989
0.271626 0.554589 0.0353704
0.297719 0.557366 0.0257267
0.323827 0.560143 0.016083
0.349935 0.562936 0.00645457
0.376043 0.565713 0
0.402152 0.56849 0
0.42826 0.571283 0
0.454368 0.57406 0
0.480476 0.576837 0
0.506584 0.579629 0
0.532692 0.582406 0
0.558785 0.585184 0
0.584894 0.587976 0
0.611002 0.590753 0
0.63711 0.59353 0
0.663218 0.596323 0
0.689326 0.5991 0
0.715434 0.601877 0
0 0.5449 0.19118
0 0.547677 0.181552
0 0.550469 0.171908
0 0.553246 0.16228
0 0.556023 0.152636
0.0030518 0.558816 0.142992
0.02916 0.561593 0.133364
0.0552682 0.56437 0.12372
0.0813764 0.567163 0.114076
0.107485 0.56994 0.104448
0.133593 0.572717 0.0948043
0.159701 0.575509 0.0851606
0.185794 0.578286 0.0755322
0.211902 0.581064 0.0658885
0.23801 0.583856 0.0562448
0.264118 0.586633 0.0466163
0.290227 0.58941 0.0369726
0.316335 0.592203 0.0273289
0.342443 0.59498 0.0177005
0.368551 0.597772 0.00805676
0.394659 0.600549 0
0.420768 0.603326 0
0.44686 0.606119 0
0.472969 0.608896 0
0.499077 0.611673 0
0.525185 0.614466 0
0.551293 0.617243 0
0.577401 0.62002 0
0.60351 0.622812 0
0.629618 0.625589 0
0.655726 0.628367 0
0.681834 0.631159 0
0.707927 0.633936 0
0 0.576959 0.202426
0 0.579736 0.192798
0 0.582513 0.183154
0 0.585306 0.173526
0 0.588083 0.163882
0 0.59086 0.154238
0.0216678 0.593652 0.14461
0.047776 0.596429 0.134966
0.0738689 0.599207 0.125322
0.0999771 0.601999 0.115694
0.126085 0.604776 0.10605
0.152193 0.607553 0.0964065
0.178302 0.610346 0.0867781
0.20441 0.613123 0.0771344
0.230518 0.6159 0.0674907
0.256626 0.618692 0.0578622
0.282734 0.621469 0.0482185
0.308843 0.624247 0.0385748
0.334936 0.627039 0.0289464
0.361044 0.629816 0.0193027
0.387152 0.632609 0.00965896
0.41326 0.635386 3.0518e-05
0.439368 0.638163 0
0.465476 0.640955 0
0.491585 0.643732 0
0.517693 0.64651 0
0.543801 0.649302 0
0.569909 0.652079 0
0.596002 0.654856 0
0.62211 0.657649 0
0.648219 0.660426 0
0.674327 0.663203 0
0.700435 0.665995 0
0 0.609018 0.213672
0 0.611795 0.204044
0 0.614572 0.1944
0 0.61735 0.184771
0 0.620142 0.175128
0 0.622919 0.165484
0.0141604 0.625696 0.155856
0.0402686 0.628489 0.146212
0.0663767 0.631266 0.136568
0.0924849 0.634043 0.12694
0.118593 0.636835 0.117296
0.144701 0.639612 0.107652
0.170809 0.64239 0.098024
0.196918 0.645182 0.0883803
0.223011 0.647959 0.0787366
0.249119 0.650736 0.0691081
0.275227 0.653529 0.0594644
0.301335 0.656306 0.0498207
0.327443 0.659083 0.0401923
0.353552 0.661875 0.0305486
0.37966 0.664652 0.0209049
0.405768 0.66743 0.0112764
0.431876 0.670222 0.00163272
0.457984 0.672999 0
0.484077 0.675792 0
0.510185 0.678569 0
0.536294 0.681346 0
0.562402 0.684138 0
0.58851 0.686915 0
0.614618 0.689693 0
0.640726 0.692485 0
0.666835 0.695262 0
0.692943 0.698039 0
0 0.641062 0.224933
0 0.643839 0.21529
0 0.646632 0.205661
0 0.649409 0.196017
0 0.652186 0.186374
0 0.654978 0.176745
0.00666819 0.657755 0.167102
0.0327764 0.660533 0.157458
0.0588846 0.663325 0.147829
0.0849928 0.666102 0.138186
0.111086 0.668879 0.128542
0.137194 0.671672 0.118914
0.163302 0.674449 0.10927
0.18941 0.677226 0.0996262
0.215518 0.680018 0.0899977
0.241627 0.682795 0.080354
0.267735 0.685573 0.0707103
0.293843 0.688365 0.0610666
0.319951 0.691142 0.0514382
0.346059 0.693919 0.0417945
0.372152 0.696712 0.0321508
0.39826 0.699489 0.0225223
0.424369 0.702266 0.0128786
0.450477 0.705058 0.00323491
0.476585 0.707835 0
0.502693 0.710628 0
0.528801 0.713405 0
0.55491 0.716182 0
0.581018 0.718975 0
0.607126 0.721752 0
0.633219 0.724529 0
0.659327 0.727321 0
0.685435 0.730098 0
0 0.673121 0.236179
0 0.675898 0.226535
0 0.678676 0.216907
0 0.681468 0.207263
0 0.684245 0.19762
0 0.687022 0.187991
0 0.689815 0.178347
0.0252689 0.692592 0.168704
0.0513771 0.695369 0.159075
0.0774853 0.698161 0.149432
0.103593 0.700938 0.139788
0.129702 0.703716 0.130159
0.15581 0.706508 0.120516
0.181918 0.709285 0.110872
0.208026 0.712062 0.101244
0.234134 0.714855 0.0915999
0.260227 0.717632 0.0819562
0.286336 0.720409 0.0723278
0.312444 0.723201 0.0626841
0.338552 0.725978 0.0530404
0.36466 0.728756 0.0434119
0.390768 0.731548 0.0337682
0.416876 0.734325 0.0241245
0.442985 0.737102 0.0144961
0.469093 0.739895 0.00485237
0.495201 0.742672 0
0.521294 0.745449 0
0.547402 0.748241 0
0.57351 0.751019 0
0.599619 0.753811 0
0.625727 0.756588 0
0.651835 0.759365 0
0.677943 0.762158 0
0 0.70518 0.247425
0 0.707958 0.237781
0 0.710735 0.228153
0 0.713512 0.218509
0 0.716304 0.208865
0 0.719081 0.199237
0 0.721859 0.189593
0.0177768 0.724651 0.17995
0.0438849 0.727428 0.170321
0.0699931 0.730205 0.160678
0.0961013 0.732998 0.151034
0.12221 0.735775 0.141405
0.148302 0.738552 0.131762
0.174411 0.741344 0.122118
0.200519 0.744121 0.11249
0.226627 0.746899 0.102846
0.252735 0.749691 0.0932021
0.278843 0.752468 0.0835737
0.304952 0.755245 0.07393
0.33106 0.758038 0.0642863
0.357168 0.760815 0.0546578
0.383276 0.763592 0.0450141
0.409369 0.766384 0.0353704
0.435477 0.769162 0.025742
0.461585 0.771939 0.0160983
0.487694 0.774731 0.00645457
0.513802 0.777508 0
0.53991 0.780285 0
0.566018 0.783078 0
0.592126 0.785855 0
0.618235 0.788647 0
0.644343 0.791424 0
0.670436 0.794202 0
0 0.737224 0.258671
0 0.740001 0.249027
0 0.742794 0.239399
0 0.745571 0.229755
0 0.748348 0.220111
0 0.751141 0.210483
0 0.753918 0.200839
0.0102846 0.756695 0.191196
0.0363775 0.759487 0.181567
0.0624857 0.762264 0.171923
0.0885939 0.765042 0.16228
0.114702 0.767834 0.152651
0.14081 0.770611 0.143008
0.166918 0.773388 0.133364
0.193027 0.776181 0.123735
0.219135 0.778958 0.114092
0.245243 0.781735 0.104448
0.271351 0.784527 0.0948196
0.297444 0.787305 0.0851759
0.323552 0.790082 0.0755322
0.34966 0.792874 0.0659037
0.375769 0.795651 0.05626
0.401877 0.798428 0.0466163
0.427985 0.801221 0.0369879
0.454093 0.803998 0.0273442
0.480201 0.806775 0.0177005
0.50631 0.809567 0.00807202
0.532418 0.812345 0
0.558511 0.815122 0
0.584619 0.817914 0
0.610727 0.820691 0
0.636835 0.823468 0
0.662943 0.826261 0
0 0.769284 0.269917
0 0.772061 0.260273
0 0.774838 0.250645
0 0.77763 0.241001
0 0.780407 0.231357
0 0.783185 0.221729
0 0.785977 0.212085
0.00277714 0.788754 0.202441
0.0288853 0.791531 0.192813
0.0549935 0.794324 0.183169
0.0811017 0.797101 0.173526
0.10721 0.799878 0.163897
0.133318 0.80267 0.154253
0.159426 0.805447 0.14461
0.185519 0.808225 0.134981
0.211627 0.811017 0.125338
0.237736 0.813794 0.115694
0.263844 0.816571 0.106065
0.289952 0.819364 0.0964218
0.31606 0.822141 0.0867781
0.342168 0.824918 0.0771496
0.368277 0.82771 0.0675059
0.394385 0.830488 0.0578622
0.420493 0.833265 0.0482338
0.446586 0.836057 0.0385901
0.472694 0.838834 0.0289464
0.498802 0.841611 0.0193179
0.52491 0.844404 0.00967422
0.551019 0.847181 3.0518e-05
0.577127 0.849958 0
0.603235 0.85275 0
0.629343 0.855528 0
0.655451 0.858305 0
0 0.801343 0.281163
0 0.80412 0.271519
0 0.806897 0.261891
0 0.809674 0.252247
0 0.812467 0.242603
0 0.815244 0.232975
0 0.818021 0.223331
0 0.820813 0.213687
0.0213931 0.82359 0.204059
0.0475013 0.826368 0.194415
0.0735943 0.82916 0.184771
0.0997024 0.831937 0.175143
0.125811 0.834714 0.165499
0.151919 0.837507 0.155856
0.178027 0.840284 0.146227
0.204135 0.843061 0.136584
0.230243 0.845853 0.12694
0.256352 0.84863 0.117311
0.28246 0.851408 0.107668
0.308568 0.8542 0.098024
0.334661 0.856977 0.0883955
0.360769 0.859754 0.0787518
0.386877 0.862547 0.0691081
0.412985 0.865324 0.0594797
0.439094 0.868101 0.049836
0.465202 0.870893 0.0401923
0.49131 0.873671 0.0305638
0.517418 0.876448 0.0209201
0.543526 0.87924 0.0112764
0.569635 0.882017 0.00164797
0.595728 0.884794 0
0.621836 0.887587 0
0.647944 0.890364 0
0 0.833387 0.292409
0 0.836164 0.282765
0 0.838956 0.273136
0 0.841733 0.263493
0 0.844511 0.253849
0 0.847303 0.244221
0 0.85008 0.234577
0 0.852857 0.224933
0.0138857 0.85565 0.215305
0.0399939 0.858427 0.205661
0.0661021 0.861204 0.196017
0.0922103 0.863996 0.186389
0.118318 0.866773 0.176745
0.144427 0.869551 0.167102
0.170535 0.872343 0.157473
0.196643 0.87512 0.147829
0.222736 0.877897 0.138186
0.248844 0.88069 0.128557
0.274952 0.883467 0.118914
0.30106 0.886244 0.10927
0.327169 0.889036 0.0996414
0.353277 0.891814 0.0899977
0.379385 0.894591 0.080354
0.405493 0.897383 0.0707256
0.431601 0.90016 0.0610819
0.45771 0.902937 0.0514382
0.483803 0.90573 0.0418097
0.509911 0.908507 0.032166
0.536019 0.911284 0.0225223
0.562127 0.914076 0.0128939
0.588235 0.916854 0.00325017
0.614343 0.919631 0
0.640452 0.922423 0
0 0.865446 0.303655
0 0.868223 0.294026
0 0.871 0.284382
0 0.873793 0.274739
0 0.87657 0.26511
0 0.879347 0.255467
0 0.882139 0.245823
0 0.884916 0.236179
0.00639353 0.887694 0.226551
