public/LUTS/Color Shift/ColorShift_44.cube
TITLE "Generated by Resolve"
LUT_3D_SIZE 5
0 0 0
0 0.0751049 0.200137
0 0.15021 0.400305
0 0.225315 0.600458
0 0.30042 0.80061
0.419181 0.0946059 0.230488
0.333074 0.169696 0.430625
0.246937 0.2448 0.630777
0.160815 0.319905 0.83093
0.0746929 0.39501 1
0.838407 0.189197 0.460975
0.752285 0.264302 0.661112
0.666148 0.339406 0.86128
0.580026 0.414511 1
0.493904 0.489616 1
1 0.283803 0.691478
1 0.358907 0.891615
1 0.434012 1
0.999237 0.509117 1
0.913115 0.584222 1
1 0.378408 0.921965
1 0.453513 1
1 0.528618 1
1 0.603723 1
1 0.678828 1
0 0.080293 0
0 0.155398 0.019501
0 0.230503 0.219669
0 0.305608 0.419821
0 0.380713 0.619974
0.33611 0.174884 0.0498512
0.249989 0.249989 0.249989
0.163867 0.325093 0.450141
0.0777447 0.400198 0.650294
0 0.475303 0.850462
0.755322 0.26949 0.280339
0.6692 0.344594 0.480491
0.583078 0.419699 0.680644
0.496956 0.494804 0.880796
0.410819 0.569909 1
1 0.364096 0.510842
1 0.4392 0.710979
1 0.514305 0.911131
0.916167 0.58941 1
0.830045 0.664515 1
1 0.458701 0.741329
1 0.533806 0.941482
1 0.608911 1
1 0.684016 1
1 0.759121 1
0 0.160586 0
0 0.235691 0
0 0.310796 0.0390173
0 0.385901 0.23917
0 0.461006 0.439323
0.253025 0.255177 0
0.166903 0.330282 0.069337
0.0807813 0.405386 0.26949
0 0.480491 0.469657
0 0.555596 0.66981
0.672236 0.349783 0.0996872
0.586114 0.424887 0.29984
0.499992 0.499992 0.499992
0.41387 0.575097 0.700145
0.327749 0.650202 0.900298
1 0.444389 0.33019
1 0.519493 0.530327
0.919203 0.594598 0.730495
0.833082 0.669703 0.930648
0.74696 0.744808 1
1 0.538994 0.560678
1 0.614099 0.76083
1 0.689204 0.960983
1 0.764309 1
1 0.839414 1
0 0.240879 0
0 0.315984 0
0 0.391089 0
0 0.466194 0.0585184
0 0.541299 0.258686
0.16994 0.33547 0
0.0838178 0.410574 0
0 0.485679 0.0888533
0 0.560784 0.289006
0 0.635889 0.489158
0.589151 0.430076 0
0.503029 0.50518 0.119188
0.416907 0.580285 0.319341
0.330785 0.65539 0.519493
0.244663 0.730495 0.719661
1 0.524681 0.149538
0.92224 0.599786 0.349691
0.836118 0.674891 0.549844
0.749996 0.749996 0.749996
0.663874 0.825101 0.950149
1 0.619287 0.380041
1 0.694392 0.580179
1 0.769497 0.780331
1 0.844602 0.980499
1 0.919707 1
0 0.321172 0
0 0.396277 0
0 0.471382 0
0 0.546487 0
0 0.621592 0.0780346
0.0868544 0.415763 0
0.000732433 0.490867 0
0 0.565972 0
0 0.641077 0.108354
0 0.716182 0.308507
0.506065 0.510369 0
0.419944 0.585473 0
0.333822 0.660578 0.138705
0.2477 0.735683 0.338857
0.161578 0.810788 0.53901
0.925277 0.604974 0
0.83917 0.680079 0.169039
0.753033 0.755184 0.369192
0.666911 0.830289 0.569345
0.580789 0.905394 0.769497
1 0.69958 0.19939
1 0.774685 0.399527
1 0.84979 0.599695
1 0.924895 0.799847
1 1 1
