public/LUTS/Color Shift/ColorShift_78.cube
TITLE "Generated by Resolve"
LUT_3D_SIZE 9
0 0 0
0.191882 0 0.0763867
0.383795 0 0.152789
0.575692 0 0.229191
0.767605 0 0.305592
0.959503 0 0.381994
1 0 0.458381
1 0 0.534783
1 0 0.611185
0.0438849 0.126802 0
0.235767 0.09691 0
0.427665 0.0670176 0.036286
0.619577 0.0371252 0.112688
0.81149 0.00723278 0.189075
1 0 0.265476
1 0 0.341878
1 0 0.41828
1 0 0.494682
0.0877699 0.25362 0
0.279652 0.223728 0
0.471565 0.193835 0
0.663462 0.163943 0
0.855375 0.134035 0.0725567
1 0.104143 0.148959
1 0.0742504 0.22536
1 0.044358 0.301762
1 0.0144656 0.378149
0.131655 0.380438 0
0.323537 0.350545 0
0.51545 0.320653 0
0.707347 0.290761 0
0.89926 0.260853 0
1 0.230961 0.0324407
1 0.201068 0.108827
1 0.171176 0.185229
1 0.141283 0.261631
0.175555 0.507256 0
0.367437 0.477363 0
0.559335 0.447471 0
0.751247 0.417563 0
0.943145 0.387671 0
1 0.357778 0
1 0.327886 0
1 0.297993 0.0687114
1 0.268101 0.145113
0.21944 0.634058 0
0.411322 0.604181 0
0.60322 0.574273 0
0.795132 0.544381 0
0.98703 0.514488 0
1 0.484596 0
1 0.454704 0
1 0.424811 0
1 0.394919 0.0285954
0.263325 0.760876 0
0.455207 0.730983 0
0.64712 0.701091 0
0.839017 0.671199 0
1 0.641306 0
1 0.611414 0
1 0.581521 0
1 0.551629 0
1 0.521737 0
0.30721 0.887694 0
0.499092 0.857801 0
0.691005 0.827909 0
0.882902 0.798016 0
1 0.768124 0
1 0.738231 0
1 0.708339 0
1 0.678447 0
1 0.648539 0
0.351095 1 0
0.542977 0.984619 0
0.73489 0.954726 0
0.926802 0.924834 0
1 0.894942 0
1 0.865049 0
1 0.835157 0
1 0.805249 0
1 0.775357 0
0 0.0280766 0.165103
0.0811017 0 0.241489
0.273014 0 0.317891
0.464912 0 0.394293
0.656825 0 0.470695
0.848722 0 0.547097
1 0 0.623484
1 0 0.699886
1 0 0.776287
0 0.154879 0.0486
0.124987 0.124987 0.124987
0.316899 0.0950942 0.201389
0.508797 0.0652018 0.27779
0.70071 0.0353094 0.354177
0.892607 0.00540169 0.430579
1 0 0.506981
1 0 0.583383
1 0 0.659785
0 0.281697 0
0.168872 0.251804 0.00846876
0.360784 0.221912 0.0848707
0.552682 0.19202 0.161257
0.744595 0.162127 0.237659
0.936492 0.132219 0.314061
1 0.102327 0.390463
1 0.0724346 0.466865
1 0.0425422 0.543267
0.0208743 0.408515 0
0.212757 0.378622 0
0.404669 0.34873 0
0.596582 0.318837 0.0447395
0.788479 0.28893 0.121141
0.980392 0.259037 0.197543
1 0.229145 0.273945
1 0.199252 0.350332
1 0.16936 0.426734
0.0647746 0.535332 0
0.256657 0.50544 0
0.448554 0.475547 0
0.640467 0.44564 0
0.832364 0.415747 0.00462348
1 0.385855 0.0810101
1 0.355962 0.157412
1 0.32607 0.233814
1 0.296178 0.310216
0.108659 0.662135 0
0.300542 0.632258 0
0.492439 0.60235 0
0.684352 0.572457 0
0.876265 0.542565 0
1 0.512673 0
1 0.48278 0.0408942
1 0.452888 0.117296
1 0.422995 0.193698
0.152544 0.788952 0
0.344427 0.759075 0
0.536339 0.729168 0
0.728237 0.699275 0
0.92015 0.669383 0
1 0.63949 0
1 0.609598 0
1 0.579705 0.00077821
1 0.549813 0.0771649
0.196429 0.91577 0
0.388312 0.885878 0
0.580224 0.855985 0
0.772122 0.826093 0
0.964034 0.796201 0
1 0.766308 0
1 0.736416 0
1 0.706523 0
1 0.676616 0
0.24033 1 0
0.432212 1 0
0.624109 0.982803 0
0.816022 0.952911 0
1 0.923018 0
1 0.893126 0
1 0.863233 0
1 0.833326 0
1 0.803433 0
0 0.0561532 0.330236
0 0.0262608 0.406622
0.162219 0 0.483024
0.354116 0 0.559411
0.546029 0 0.635813
0.737942 0 0.712215
0.929839 0 0.788617
1 0 0.865019
1 0 0.941421
0 0.182956 0.213718
0.0141909 0.153063 0.290105
0.206104 0.123171 0.366506
0.398001 0.0932784 0.442908
0.589914 0.063386 0.51931
0.781811 0.0334936 0.595712
0.973724 0.00360113 0.672114
1 0 0.748501
1 0 0.824903
0 0.309773 0.0972
0.0580758 0.279881 0.173587
0.249989 0.249989 0.249989
0.441901 0.220096 0.32639
0.633799 0.190204 0.402792
0.825711 0.160311 0.479179
1 0.130404 0.555581
1 0.100511 0.631983
1 0.0706188 0.708385
0 0.436591 0
0.101976 0.406699 0.0570687
0.293873 0.376806 0.133471
0.485786 0.346914 0.209873
0.677684 0.317021 0.286259
0.869596 0.287129 0.362661
1 0.257221 0.439063
1 0.227329 0.515465
1 0.197436 0.591867
0 0.563409 0
0.145861 0.533516 0
0.337758 0.503624 0.0169375
0.529671 0.473732 0.0933394
0.721584 0.443839 0.169741
0.913481 0.413931 0.246143
1 0.384039 0.322545
1 0.354147 0.398947
1 0.324254 0.475334
0 0.690227 0
0.189746 0.660334 0
0.381659 0.630442 0
0.573556 0.600549 0
0.765469 0.570642 0.0532235
0.957366 0.540749 0.129625
1 0.510857 0.206012
1 0.480964 0.282414
1 0.451072 0.358816
0.0417487 0.817044 0
0.233631 0.787152 0
0.425544 0.757259 0
0.617441 0.727352 0
0.809354 0.697459 0
1 0.667567 0.0130922
1 0.637675 0.0894942
1 0.607782 0.165896
1 0.57789 0.242298
0.0856489 0.943862 0
0.277531 0.91397 0
0.469429 0.884077 0
0.661341 0.85417 0
0.853239 0.824277 0
1 0.794385 0
1 0.764492 0
1 0.7346 0.0493782
1 0.704707 0.12578
0.129534 1 0
0.321416 1 0
0.513313 1 0
0.705226 0.980987 0
0.897124 0.951095 0
1 0.921202 0
1 0.89131 0
1 0.861418 0
1 0.831525 0.00924697
0 0.0842298 0.495354
0 0.0543526 0.57174
0.0514229 0.024445 0.648142
0.243336 0 0.724544
0.435233 0 0.800946
0.627146 0 0.877348
0.819043 0 0.953735
1 0 1
1 0 1
0 0.211032 0.378851
0 0.18114 0.455238
0.0953078 0.151247 0.53164
0.287221 0.121355 0.608042
0.479118 0.0914626 0.684428
0.671031 0.0615702 0.76083
0.862928 0.0316777 0.837232
1 0.00178531 0.913634
1 0 0.990036
0 0.33785 0.262318
0 0.307958 0.33872
0.139193 0.278065 0.415106
0.331106 0.248173 0.491508
0.523003 0.21828 0.56791
0.714916 0.188388 0.644312
0.906813 0.158495 0.720714
1 0.128603 0.797116
1 0.0986954 0.873503
0 0.464668 0.1458
0 0.434775 0.222187
0.183078 0.404883 0.298589
0.37499 0.37499 0.37499
0.566903 0.345098 0.451392
0.758801 0.315206 0.527794
0.950713 0.285313 0.604181
1 0.255406 0.680583
1 0.225513 0.756985
0 0.591485 0.0292821
0.0350652 0.561593 0.105669
0.226978 0.531701 0.182071
0.418875 0.501808 0.258473
0.610788 0.471916 0.334874
0.802686 0.442023 0.411261
0.994598 0.412116 0.487663
1 0.382223 0.564065
1 0.352331 0.640467
0 0.718303 0
0.0789502 0.688411 0
0.270863 0.658518 0.0655528
0.46276 0.628626 0.141939
0.654673 0.598733 0.218341
0.846586 0.568841 0.294743
1 0.538933 0.371145
1 0.509041 0.447547
1 0.479149 0.523949
0 0.845121 0
0.12285 0.815229 0
0.314748 0.785336 0
0.506661 0.755444 0.0254215
0.698558 0.725551 0.101823
0.890471 0.695644 0.178225
1 0.665751 0.254627
1 0.635859 0.331014
1 0.605966 0.407416
0 0.971939 0
0.166735 0.942046 0
0.358633 0.912154 0
0.550546 0.882261 0
0.742443 0.852354 0
0.934356 0.822461 0.0617075
1 0.792569 0.138094
1 0.762676 0.214496
1 0.732784 0.290898
0.0187381 1 0
0.21062 1 0
0.402533 1 0
0.59443 1 0
0.786343 0.979171 0
0.978241 0.949279 0
1 0.919387 0.0215763
1 0.889494 0.0979782
1 0.859602 0.17438
0 0.112322 0.660471
0 0.0824292 0.736873
0 0.0525368 0.813275
0.13254 0.0226444 0.889662
0.324437 0 0.966064
0.51635 0 1
0.708263 0 1
0.90016 0 1
1 0 1
0 0.239124 0.543969
0 0.209232 0.620356
0 0.179339 0.696757
0.176425 0.149432 0.773159
0.368322 0.119539 0.849561
0.560235 0.0896468 0.925963
0.752132 0.0597543 1
0.944045 0.0298619 1
1 0 1
0 0.365927 0.427451
0 0.336049 0.503838
0.028397 0.306142 0.58024
0.22031 0.276249 0.656641
0.412222 0.246357 0.733043
0.60412 0.216464 0.80943
0.796033 0.186572 0.885832
0.98793 0.15668 0.962234
1 0.126787 1
0 0.492744 0.310933
0 0.462867 0.38732
0.0722972 0.432959 0.463722
0.264195 0.403067 0.540108
0.456107 0.373175 0.61651
0.648005 0.343282 0.692912
0.839918 0.31339 0.769314
1 0.283497 0.845716
1 0.253605 0.922118
0 0.619562 0.1944
0 0.58967 0.270802
0.116182 0.559777 0.347189
0.30808 0.529885 0.42359
0.499992 0.499992 0.499992
0.691905 0.4701 0.576394
0.883803 0.440208 0.652796
1 0.410315 0.729183
1 0.380407 0.805585
0 0.74638 0.0778821
0 0.716487 0.154269
0.160067 0.686595 0.230671
0.35198 0.656703 0.307073
0.543877 0.62681 0.383474
0.73579 0.596918 0.459876
0.927687 0.567025 0.536263
1 0.537133 0.612665
1 0.507225 0.689067
0 0.873198 0
0.0120546 0.843305 0.0377508
0.203952 0.813413 0.114153
0.395865 0.78352 0.190555
0.587762 0.753628 0.266941
0.779675 0.723735 0.343343
0.971588 0.693843 0.419745
1 0.663935 0.496147
1 0.634043 0.572549
0 1 0
0.0559396 0.970123 0
0.247852 0.94023 0
0.43975 0.910338 0.0740215
0.631662 0.880446 0.150423
0.82356 0.850553 0.226825
1 0.820645 0.303227
1 0.790753 0.379629
1 0.760861 0.456016
0 1 0
0.0998245 1 0
0.291737 1 0
0.483635 1 0
0.675547 1 0.0339055
0.867445 0.977356 0.110307
1 0.947463 0.186709
1 0.917571 0.263096
1 0.887678 0.339498
0 0.140398 0.825605
0 0.110506 0.901991
0 0.0806134 0.978393
0.0217441 0.050721 1
0.213657 0.0208286 1
0.405554 0 1
0.597467 0 1
0.789364 0 1
0.981277 0 1
0 0.267201 0.709102
0 0.237308 0.785489
0 0.207416 0.861891
0.0656291 0.177523 0.938277
0.257542 0.147631 1
0.449439 0.117723 1
0.641352 0.0878309 1
0.833249 0.0579385 1
1 0.0280461 1
0 0.394018 0.592569
0 0.364126 0.668971
0 0.334234 0.745357
0.109514 0.304341 0.821759
0.301427 0.274434 0.898161
0.493324 0.244541 0.974563
0.685237 0.214649 1
0.877134 0.184756 1
1 0.154864 1
0 0.520836 0.476051
0 0.490944 0.552438
0 0.461051 0.62884
0.153399 0.431144 0.705242
0.345312 0.401251 0.781643
0.537224 0.371359 0.858045
0.729122 0.341466 0.934432
0.921035 0.311574 1
1 0.281682 1
0 0.647654 0.359533
0 0.617761 0.43592
0.00538643 0.587869 0.512322
0.197299 0.557961 0.588724
0.389197 0.528069 0.66511
0.581109 0.498177 0.741512
0.773007 0.468284 0.817914
0.96492 0.438392 0.894316
1 0.408499 0.970718
0 0.774456 0.243
0 0.744579 0.319402
0.0492714 0.714672 0.395804
0.241184 0.684779 0.47219
0.433082 0.654887 0.548592
0.624994 0.624994 0.624994
0.816907 0.595102 0.701396
1 0.565209 0.777798
1 0.535317 0.854185
0 0.901274 0.126482
0 0.871382 0.202869
0.0931716 0.841489 0.279271
0.285069 0.811597 0.355673
0.476982 0.781704 0.432074
0.668879 0.751812 0.508476
0.860792 0.72192 0.584878
1 0.692027 0.661265
1 0.662135 0.737667
0 1 0.00996414
0 0.998199 0.0863508
0.137057 0.968307 0.162753
0.328954 0.938415 0.239155
0.520867 0.908522 0.315557
0.712764 0.87863 0.391943
0.904677 0.848737 0.468345
1 0.818845 0.544747
1 0.788937 0.621149
0 1 0
0 1 0
0.180941 1 0.0462348
0.372854 1 0.122637
0.564752 1 0.199023
0.756664 1 0.275425
0.948562 0.975555 0.351827
1 0.945647 0.428229
1 0.915755 0.504631
0 0.168475 0.990723
0 0.138582 1
0 0.10869 1
0 0.0787976 1
0.102861 0.0489052 1
0.294759 0.0190127 1
0.486671 0 1
0.678584 0 1
0.870481 0 1
0 0.295277 0.87422
0 0.265385 0.950607
0 0.235492 1
0 0.2056 1
0.146746 0.175708 1
0.338643 0.145815 1
0.530556 0.115923 1
0.722454 0.0860151 1
0.914366 0.0561227 1
0 0.422095 0.757702
0 0.392203 0.834089
0 0.36231 0.910491
0 0.332418 0.986893
0.190631 0.302525 1
0.382544 0.272633 1
0.574441 0.242725 1
0.766354 0.212833 1
0.958251 0.18294 1
0 0.548913 0.641169
0 0.51902 0.717571
0 0.489128 0.793973
0.0426184 0.459236 0.870359
0.234516 0.429343 0.946761
0.426429 0.399435 1
0.618326 0.369543 1
0.810239 0.339651 1
1 0.309758 1
0 0.675731 0.524651
0 0.645838 0.601038
0 0.615946 0.67744
0.0865034 0.586053 0.753841
0.278401 0.556146 0.830243
0.470314 0.526253 0.906645
0.662226 0.496361 0.983047
0.854124 0.466468 1
1 0.436576 1
0 0.802548 0.408133
0 0.772656 0.48452
0 0.742763 0.560922
0.130388 0.712856 0.637324
0.322301 0.682963 0.713726
0.514199 0.653071 0.790112
0.706111 0.623178 0.866514
0.898009 0.593286 0.942916
1 0.563394 1
0 0.929366 0.291615
0 0.899474 0.368002
0 0.869581 0.444404
0.174273 0.839673 0.520806
0.366186 0.809781 0.597192
0.558083 0.779889 0.673594
0.749996 0.749996 0.749996
0.941909 0.720104 0.826398
1 0.690211 0.9028
0 1 0.175082
0 1 0.251484
0.0262608 0.996384 0.327871
0.218173 0.966491 0.404273
0.410071 0.936599 0.480674
0.601984 0.906706 0.557076
0.793881 0.876814 0.633478
0.985794 0.846922 0.70988
1 0.817029 0.786267
0 1 0.0585641
0 1 0.134951
0.0701457 1 0.211353
0.262058 1 0.287755
0.453956 1 0.364157
0.645869 1 0.440558
0.837766 1 0.516945
1 0.973739 0.593347
1 0.943847 0.669749
0 0.196551 1
0 0.166674 1
0 0.136767 1
0 0.106874 1
0 0.0769818 1
0.183978 0.0470893 1
0.375875 0.0171969 1
0.567788 0 1
0.759686 0 1
0 0.323354 1
0 0.293462 1
0 0.263569 1
0 0.233677 1
0.0359503 0.203784 1
0.227863 0.173892 1
0.41976 0.143999 1
0.611673 0.114107 1
0.803571 0.0841993 1
0 0.450172 0.92282
0 0.420279 0.999207
0 0.390387 1
0 0.360494 1
0.0798352 0.330602 1
0.271748 0.30071 1
0.463645 0.270817 1
0.655558 0.240925 1
0.847456 0.211017 1
0 0.576989 0.806302
0 0.547097 0.882689
0 0.517205 0.959091
0 0.487312 1
0.12372 0.45742 1
0.315633 0.427527 1
0.507546 0.397635 1
0.699443 0.367727 1
0.891356 0.337835 1
0 0.703807 0.689784
0 0.673915 0.766171
0 0.644022 0.842573
0 0.61413 0.918975
0.16762 0.584237 0.995361
0.359518 0.554345 1
0.551431 0.524437 1
0.743328 0.494545 1
0.935241 0.464652 1
0 0.830625 0.573251
0 0.800732 0.649653
0 0.77084 0.72604
0.0195926 0.740948 0.802441
0.211505 0.711055 0.878843
0.403403 0.681147 0.955245
0.595315 0.651255 1
0.787228 0.621363 1
0.979126 0.59147 1
0 0.957443 0.456733
0 0.92755 0.53312
0 0.897658 0.609522
0.0634928 0.867765 0.685924
0.25539 0.837873 0.762325
0.447303 0.807965 0.838727
0.6392 0.778073 0.915114
0.831113 0.74818 0.991516
1 0.718288 1
0 1 0.340215
0 1 0.416602
0 1 0.493004
0.107378 0.994583 0.569406
0.299275 0.964675 0.645808
0.491188 0.934783 0.722194
0.683085 0.904891 0.798596
0.874998 0.874998 0.874998
1 0.845106 0.9514
0 1 0.223697
0 1 0.300084
0 1 0.376486
0.151263 1 0.452873
0.343175 1 0.529274
0.535073 1 0.605676
0.726986 1 0.682078
0.918883 1 0.75848
1 0.971923 0.834882
0 0.224643 1
0 0.194751 1
0 0.164858 1
0 0.134951 1
0 0.105058 1
0.0731823 0.0751659 1
0.26508 0.0452735 1
0.456992 0.0153811 1
0.648905 0 1
0 0.351446 1
0 0.321553 1
0 0.291661 1
0 0.261753 1
0 0.231861 1
0.117067 0.201968 1
0.308965 0.172076 1
0.500877 0.142184 1
0.692775 0.112291 1
0 0.478248 1
0 0.448371 1
0 0.418463 1
0 0.388571 1
0 0.358679 1
0.160952 0.328786 1
0.352865 0.298894 1
0.544762 0.269001 1
0.736675 0.239109 1
0 0.605066 0.97142
0 0.575174 1
0 0.545281 1
0 0.515389 1
0.0129397 0.485496 1
0.204837 0.455604 1
0.39675 0.425711 1
0.588647 0.395819 1
0.78056 0.365927 1
0 0.731884 0.854902
0 0.701991 0.931289
0 0.672099 1
0 0.642206 1
0.0568246 0.612314 1
0.248722 0.582422 1
0.440635 0.552529 1
0.632547 0.522637 1
0.824445 0.492729 1
0 0.858701 0.738384
0 0.828809 0.814771
0 0.798917 0.891173
0 0.769024 0.967575
0.10071 0.739132 1
0.292622 0.709239 1
0.48452 0.679347 1
0.676432 0.649439 1
0.86833 0.619547 1
0 0.985519 0.621866
0 0.955627 0.698253
0 0.925734 0.774655
0 0.895842 0.851041
0.144594 0.86595 0.927443
0.336507 0.836057 1
0.528405 0.806149 1
0.720317 0.776257 1
0.91223 0.746365 1
0 1 0.505333
0 1 0.58172
0 1 0.658122
0 1 0.734524
0.188495 0.992767 0.810925
0.380392 0.962875 0.887327
0.572305 0.932967 0.963729
0.764202 0.903075 1
0.956115 0.873182 1
0 1 0.388815
0 1 0.465202
0 1 0.541604
0.0404669 1 0.618006
0.23238 1 0.694408
0.424277 1 0.770809
0.61619 1 0.847196
0.808087 1 0.923598
1 1 1
