public/LUTS/Color Shift/ColorShift_25.cube
TITLE "Generated by Resolve"
LUT_3D_SIZE 9
0 0 0
0.128161 0 0.0185245
0.256321 0 0.0370642
0.384497 0 0.0555886
0.512673 0 0.0741283
0.640848 0 0.0926528
0.769009 0 0.111192
0.897185 0 0.129717
1 0 0.148257
0.0184176 0.12134 0
0.146563 0.117998 0.00395209
0.274739 0.114672 0.0224765
0.402914 0.11133 0.0410163
0.53109 0.108003 0.0595407
0.659251 0.104662 0.0780804
0.787427 0.101335 0.0966049
0.915602 0.0979934 0.115145
1 0.094667 0.133669
0.03682 0.242695 0
0.164981 0.239353 0
0.293156 0.236027 0.00788891
0.421332 0.232685 0.0264286
0.549493 0.229358 0.0449531
0.677668 0.226017 0.0634928
0.805844 0.22269 0.0820172
0.934005 0.219348 0.100557
1 0.216022 0.119081
0.0552377 0.36405 0
0.183398 0.360708 0
0.311574 0.357382 0
0.439734 0.35404 0.011841
0.56791 0.350713 0.0303807
0.696086 0.347372 0.0489052
0.824262 0.344045 0.0674449
0.952422 0.340703 0.0859693
1 0.337377 0.104509
0.0736553 0.48539 0
0.201816 0.482063 0
0.329976 0.478721 0
0.458152 0.475395 0
0.586328 0.472053 0.0157931
0.714504 0.468727 0.0343175
0.842664 0.465385 0.0528573
0.97084 0.462058 0.0713817
1 0.458717 0.0899214
0.0920729 0.606744 0
0.220233 0.603418 0
0.348394 0.600076 0
0.47657 0.59675 0
0.604746 0.593408 0.00120546
0.732906 0.590082 0.0197452
0.861082 0.58674 0.0382696
0.989258 0.583413 0.0568093
1 0.580072 0.0753338
0.110491 0.728099 0
0.238636 0.724773 0
0.366812 0.721431 0
0.494987 0.718105 0
0.623148 0.714763 0
0.751324 0.711437 0.00515755
0.879499 0.708095 0.023682
1 0.704768 0.0422217
1 0.701427 0.0607462
0.128893 0.849454 0
0.257053 0.846113 0
0.385229 0.842786 0
0.513405 0.839445 0
0.641566 0.836118 0
0.769741 0.832776 0
0.897917 0.82945 0.00910964
1 0.826108 0.0276341
1 0.822782 0.0461738
0.147311 0.97081 0
0.275471 0.967468 0
0.403647 0.964141 0
0.531807 0.9608 0
0.659983 0.957473 0
0.788159 0.954131 0
0.916335 0.950805 0
1 0.947463 0.0130465
1 0.944137 0.0315862
0 0.00698863 0.121035
0.106569 0.00364691 0.139574
0.234745 0.000320439 0.158099
0.362921 0 0.176638
0.491096 0 0.195163
0.619257 0 0.213703
0.747433 0 0.232227
0.875608 0 0.250767
1 0 0.269291
0 0.128313 0.106462
0.124987 0.124987 0.124987
0.253162 0.12166 0.143511
0.381323 0.118318 0.162051
0.509499 0.114992 0.180575
0.637675 0.11165 0.199115
0.76585 0.108324 0.217639
0.894011 0.104982 0.236179
1 0.101656 0.254704
0.0152438 0.249668 0.0918746
0.143404 0.246342 0.110399
0.27158 0.243 0.128939
0.399741 0.239673 0.147463
0.527916 0.236332 0.166003
0.656092 0.233005 0.184527
0.784253 0.229664 0.203067
0.912428 0.226337 0.221592
1 0.222995 0.240131
0.0336614 0.371023 0.0772869
0.161822 0.367697 0.0958267
0.289982 0.364355 0.114351
0.418158 0.361028 0.132876
0.546334 0.357687 0.151415
0.674495 0.35436 0.16994
0.80267 0.351019 0.188479
0.930846 0.347692 0.207004
1 0.34435 0.225544
0.052079 0.492378 0.0626993
0.180224 0.489052 0.081239
0.3084 0.48571 0.0997635
0.436576 0.482383 0.118303
0.564752 0.479042 0.136828
0.692912 0.475715 0.155367
0.821088 0.472374 0.173892
0.949264 0.469047 0.192432
1 0.465705 0.210956
0.0704814 0.613733 0.048127
0.198642 0.610391 0.0666514
0.326818 0.607065 0.0851911
0.454994 0.603723 0.103716
0.583154 0.600397 0.122255
0.71133 0.597055 0.14078
0.839506 0.593729 0.159304
0.967681 0.590387 0.177844
1 0.58706 0.196368
0.0888991 0.735088 0.0335393
0.21706 0.731746 0.0520638
0.345235 0.72842 0.0706035
0.473396 0.725078 0.089128
0.601572 0.721752 0.107668
0.729747 0.71841 0.126192
0.857923 0.715084 0.144732
0.986084 0.711742 0.163256
1 0.708415 0.181796
0.107317 0.856428 0.0189517
0.235477 0.853101 0.0374914
0.363638 0.849775 0.0560159
0.491814 0.846433 0.0745556
0.619989 0.843107 0.09308
0.748165 0.839765 0.11162
0.876326 0.836439 0.130144
1 0.833097 0.148669
1 0.82977 0.167208
0.125734 0.977783 0.00437934
0.253895 0.974456 0.0229038
0.382055 0.971115 0.0414282
0.510231 0.967788 0.059968
0.638407 0.964446 0.0784924
0.766567 0.96112 0.0970321
0.894743 0.957778 0.115557
1 0.954452 0.134096
1 0.95111 0.152621
0 0.013962 0.2421
0.0849928 0.0106355 0.260624
0.213169 0.00729381 0.279149
0.341329 0.00396735 0.297688
0.469505 0.00062562 0.316213
0.597681 0 0.334752
0.725841 0 0.353277
0.854017 0 0.371817
0.982193 0 0.390341
0 0.135302 0.227512
0.103395 0.131975 0.246036
0.231571 0.128634 0.264576
0.359747 0.125307 0.283101
0.487922 0.121965 0.30164
0.616083 0.118639 0.320165
0.744259 0.115297 0.338704
0.872435 0.111971 0.357229
1 0.108629 0.375769
0 0.256657 0.212924
0.121813 0.253315 0.231464
0.249989 0.249989 0.249989
0.378164 0.246662 0.268513
0.506325 0.24332 0.287053
0.634501 0.239994 0.305577
0.762676 0.236652 0.324117
0.890852 0.233326 0.342641
1 0.229984 0.361181
0.0120699 0.378012 0.198337
0.14023 0.37467 0.216876
0.268406 0.371344 0.235401
0.396582 0.368002 0.253941
0.524742 0.364675 0.272465
0.652918 0.361334 0.291005
0.781094 0.358007 0.309529
0.909255 0.354665 0.328069
1 0.351339 0.346593
0.0304875 0.499367 0.183764
0.158648 0.496025 0.202289
0.286824 0.492699 0.220829
0.414984 0.489357 0.239353
0.54316 0.48603 0.257877
0.671336 0.482689 0.276417
0.799496 0.479362 0.294942
0.927672 0.47602 0.313481
1 0.472694 0.332006
0.0489052 0.620706 0.169177
0.177066 0.61738 0.187701
0.305226 0.614054 0.206241
0.433402 0.610712 0.224765
0.561578 0.607385 0.243305
0.689754 0.604044 0.26183
0.817914 0.600717 0.280369
0.94609 0.597375 0.298894
1 0.594049 0.317433
0.0673228 0.742061 0.154589
0.195468 0.738735 0.173129
0.323644 0.735393 0.191653
0.45182 0.732067 0.210193
0.579995 0.728725 0.228717
0.708156 0.725399 0.247242
0.836332 0.722057 0.265782
0.964508 0.71873 0.284306
1 0.715389 0.302846
0.0857404 0.863416 0.140017
0.213886 0.86009 0.158541
0.342061 0.856748 0.177066
0.470237 0.853422 0.195605
0.598398 0.85008 0.21413
0.726574 0.846754 0.23267
0.854749 0.843412 0.251194
0.982925 0.840085 0.269734
1 0.836744 0.288258
0.104143 0.984771 0.125429
0.232303 0.981445 0.143954
0.360479 0.978103 0.162493
0.48864 0.974777 0.181018
0.616815 0.971435 0.199557
0.744991 0.968109 0.218082
0.873167 0.964767 0.236622
1 0.96144 0.255146
1 0.958099 0.273671
0 0.0209506 0.363149
0.0634012 0.0176089 0.381674
0.191577 0.0142824 0.400214
0.319753 0.0109407 0.418738
0.447913 0.00761425 0.437278
0.576089 0.00427253 0.455802
0.704265 0.000946059 0.474342
0.832441 0 0.492866
0.960601 0 0.511406
0 0.14229 0.348562
0.0818189 0.138949 0.367102
0.209995 0.135622 0.385626
0.338155 0.13228 0.40415
0.466331 0.128954 0.42269
0.594507 0.125612 0.441215
0.722683 0.122286 0.459754
0.850843 0.118944 0.478279
0.979019 0.115618 0.496818
0 0.263645 0.333974
0.100237 0.260304 0.352514
0.228397 0.256977 0.371038
0.356573 0.253635 0.389578
0.484749 0.250309 0.408103
0.612924 0.246967 0.426642
0.741085 0.243641 0.445167
0.869261 0.240299 0.463706
0.997436 0.236973 0.482231
0 0.384985 0.319402
0.118654 0.381659 0.337926
0.246815 0.378317 0.356466
0.37499 0.37499 0.37499
0.503166 0.371664 0.393515
0.631327 0.368322 0.412055
0.759503 0.364996 0.430579
0.887678 0.361654 0.449119
1 0.358328 0.467643
0.00891127 0.50634 0.304814
0.137057 0.503014 0.323339
0.265232 0.499672 0.341878
0.393408 0.496345 0.360403
0.521584 0.493004 0.378943
0.649744 0.489677 0.397467
0.77792 0.486336 0.416007
0.906096 0.483009 0.434531
1 0.479667 0.453071
0.0273136 0.627695 0.290227
0.155474 0.624369 0.308766
0.28365 0.621027 0.327291
0.411826 0.6177 0.34583
0.539986 0.614359 0.364355
0.668162 0.611032 0.382879
0.796338 0.607691 0.401419
0.924498 0.604364 0.419944
1 0.601022 0.438483
0.0457313 0.74905 0.275639
0.173892 0.745724 0.294179
0.302068 0.742382 0.312703
0.430228 0.739055 0.331243
0.558404 0.735714 0.349767
0.68658 0.732387 0.368307
0.814755 0.729046 0.386831
0.942916 0.725719 0.405371
1 0.722377 0.423896
0.0641489 0.870405 0.261067
0.192309 0.867063 0.279591
0.32047 0.863737 0.298131
0.448646 0.860395 0.316655
0.576822 0.857069 0.335195
0.704997 0.853727 0.353719
0.833158 0.850401 0.372259
0.961334 0.847059 0.390784
1 0.843732 0.409308
0.0825666 0.99176 0.246479
0.210727 0.988418 0.265003
0.338888 0.985092 0.283543
0.467063 0.98175 0.302068
0.595239 0.978424 0.320607
0.7234 0.975082 0.339132
0.851575 0.971756 0.357671
0.979751 0.968414 0.376196
1 0.965087 0.394736
0 0.0279393 0.484199
0.041825 0.0245975 0.502724
0.170001 0.0212711 0.521263
0.298161 0.0179294 0.539788
0.426337 0.0146029 0.558328
0.554513 0.0112612 0.576852
0.682673 0.00793469 0.595392
0.810849 0.00459297 0.613916
0.939025 0.0012665 0.632456
0 0.149264 0.469612
0.0602274 0.145937 0.488151
0.188403 0.142596 0.506676
0.316579 0.139269 0.525216
0.444755 0.135927 0.54374
0.572915 0.132601 0.56228
0.701091 0.129259 0.580804
0.829267 0.125933 0.599344
0.957443 0.122606 0.617868
0 0.270619 0.455039
0.078645 0.267292 0.473564
0.206821 0.263951 0.492103
0.334997 0.260624 0.510628
0.463157 0.257282 0.529152
0.591333 0.253956 0.547692
0.719509 0.250614 0.566217
0.847684 0.247288 0.584756
0.975845 0.243946 0.603281
0 0.391974 0.440452
0.0970626 0.388647 0.458976
0.225238 0.385306 0.477516
0.353399 0.381979 0.49604
0.481575 0.378637 0.51458
0.609751 0.375311 0.533104
0.737926 0.371969 0.551644
0.866087 0.368643 0.570169
0.994263 0.365301 0.588708
0 0.513329 0.425864
0.11548 0.509987 0.444404
0.243656 0.506661 0.462928
0.371817 0.503319 0.481468
0.499992 0.499992 0.499992
0.628168 0.496666 0.518517
0.756329 0.493324 0.537057
0.884504 0.489998 0.555581
1 0.486656 0.574121
0.00573739 0.634684 0.411276
0.133898 0.631342 0.429816
0.262058 0.628016 0.448341
0.390234 0.624674 0.46688
0.51841 0.621347 0.485405
0.646586 0.618006 0.503944
0.774746 0.614679 0.522469
0.902922 0.611337 0.541009
1 0.608011 0.559533
0.024155 0.756039 0.396704
0.1523 0.752697 0.415229
0.280476 0.749371 0.433768
0.408652 0.746029 0.452293
0.536828 0.742702 0.470832
0.664988 0.739361 0.489357
0.793164 0.736034 0.507881
0.92134 0.732692 0.526421
1 0.729366 0.544945
0.0425727 0.877379 0.382116
0.170718 0.874052 0.400641
0.298894 0.870726 0.419181
0.42707 0.867384 0.437705
0.55523 0.864057 0.456245
0.683406 0.860716 0.474769
0.811582 0.857389 0.493309
0.939757 0.854047 0.511833
1 0.850721 0.530373
0.0609751 0.998734 0.367529
0.189136 0.995407 0.386069
0.317311 0.992065 0.404593
0.445472 0.988739 0.423133
0.573648 0.985397 0.441657
0.701823 0.982071 0.460197
0.829999 0.978729 0.478721
0.95816 0.975402 0.497261
1 0.972061 0.515785
0 0.0349126 0.605249
0.0202335 0.0315862 0.623789
0.148409 0.0282444 0.642313
0.276585 0.024918 0.660853
0.404746 0.0215763 0.679377
0.532921 0.0182498 0.697917
0.661097 0.0149081 0.716442
0.789273 0.0115816 0.734981
0.917433 0.00823987 0.753506
0 0.156252 0.590677
0.0386511 0.152926 0.609201
0.166827 0.149584 0.627726
0.294987 0.146258 0.646265
0.423163 0.142916 0.66479
0.551339 0.13959 0.68333
0.679515 0.136248 0.701854
0.807675 0.132921 0.720394
0.935851 0.12958 0.738918
0 0.277607 0.576089
0.0570687 0.274266 0.594614
0.185229 0.270939 0.613153
0.313405 0.267597 0.631678
0.441581 0.264271 0.650217
0.569757 0.260929 0.668742
0.697917 0.257603 0.687282
0.826093 0.254276 0.705806
0.954269 0.250935 0.724346
0 0.398962 0.561502
0.0754864 0.395621 0.580041
0.203647 0.392294 0.598566
0.331823 0.388952 0.617105
0.459998 0.385626 0.63563
0.588159 0.382284 0.654154
0.716335 0.378958 0.672694
0.844511 0.375616 0.691218
0.972686 0.37229 0.709758
0 0.520317 0.546914
0.0938888 0.516976 0.565454
0.222065 0.513649 0.583978
0.35024 0.510307 0.602518
0.478401 0.506981 0.621042
0.606577 0.503639 0.639582
0.734752 0.500313 0.658106
0.862928 0.496971 0.676646
0.991089 0.493645 0.695171
0 0.641657 0.532341
0.112306 0.638331 0.550866
0.240482 0.634989 0.569406
0.368658 0.631662 0.58793
0.496818 0.628321 0.60647
0.624994 0.624994 0.624994
0.75317 0.621668 0.643519
0.881331 0.618326 0.662058
1 0.615 0.680583
0.00256352 0.763012 0.517754
0.130724 0.759686 0.536278
0.2589 0.756344 0.554818
0.38706 0.753017 0.573343
0.515236 0.749676 0.591882
0.643412 0.746349 0.610407
0.771588 0.743008 0.628946
0.899748 0.739681 0.647471
1 0.736339 0.66601
0.0209812 0.884367 0.503166
0.149142 0.881041 0.521706
0.277302 0.877699 0.54023
0.405478 0.874372 0.55877
0.533654 0.871031 0.577295
0.66183 0.867704 0.595834
0.78999 0.864363 0.614359
0.918166 0.861036 0.632883
1 0.857694 0.651423
0.0393988 1 0.488594
0.167544 1 0.507118
0.29572 0.999054 0.525643
0.423896 0.995727 0.544182
0.552071 0.992386 0.562707
0.680232 0.989059 0.581247
0.808408 0.985718 0.599771
0.936584 0.982391 0.618311
1 0.979049 0.636835
0 0.0419013 0.726314
0 0.0385595 0.744839
0.126818 0.0352331 0.763363
0.254994 0.0318914 0.781903
0.383169 0.0285649 0.800427
0.511345 0.0252232 0.818967
0.639506 0.0218967 0.837491
0.767681 0.018555 0.856031
0.895857 0.0152285 0.874556
0 0.163241 0.711727
0.0170596 0.159899 0.730251
0.145235 0.156573 0.748791
0.273411 0.153231 0.767315
0.401587 0.149905 0.785855
0.529747 0.146563 0.804379
0.657923 0.143236 0.822919
0.786099 0.139895 0.841443
0.91426 0.136568 0.859983
0 0.284596 0.697139
0.0354772 0.281254 0.715679
0.163653 0.277928 0.734203
0.291829 0.274586 0.752743
0.419989 0.27126 0.771267
0.548165 0.267918 0.789792
0.676341 0.264591 0.808331
0.804517 0.26125 0.826856
0.932677 0.257923 0.845396
0 0.405936 0.682551
0.0538949 0.402609 0.701091
0.182071 0.399268 0.719615
0.310231 0.395941 0.738155
0.438407 0.392599 0.75668
0.566583 0.389273 0.775219
0.694759 0.385931 0.793744
0.822919 0.382605 0.812284
0.951095 0.379278 0.830808
0 0.527291 0.667979
0.0723125 0.523964 0.686503
0.200488 0.520623 0.705043
0.328649 0.517296 0.723568
0.456825 0.513954 0.742107
0.585 0.510628 0.760632
0.713161 0.507286 0.779156
0.841337 0.50396 0.797696
0.969512 0.500618 0.81622
0 0.648646 0.653391
0.0907301 0.645319 0.671916
0.218891 0.641978 0.690455
0.347066 0.638651 0.70898
0.475242 0.635309 0.72752
0.603403 0.631983 0.746044
0.731579 0.628641 0.764584
0.859754 0.625315 0.783108
0.98793 0.621973 0.801648
0 0.770001 0.638804
0.109133 0.766659 0.657343
0.237308 0.763333 0.675868
0.365484 0.759991 0.694408
0.49366 0.756664 0.712932
0.62182 0.753338 0.731472
0.749996 0.749996 0.749996
0.878172 0.74667 0.768521
1 0.743328 0.78706
0 0.891356 0.624231
0.12755 0.888014 0.642756
0.255726 0.884688 0.66128
0.383902 0.881346 0.67982
0.512062 0.878019 0.698344
0.640238 0.874678 0.716884
0.768414 0.871351 0.735409
0.89659 0.868009 0.753948
1 0.864683 0.772473
0.0178073 1 0.609644
0.145968 1 0.628168
0.274144 1 0.646708
0.402304 1 0.665232
0.53048 0.999374 0.683772
0.658656 0.996033 0.702296
0.786831 0.992706 0.720836
0.914992 0.989364 0.739361
1 0.986038 0.7579
0 0.0488899 0.847364
0 0.0455482 0.865888
0.105241 0.0422217 0.884428
0.233417 0.03888 0.902953
0.361578 0.0355535 0.921492
0.489754 0.0322118 0.940017
0.617929 0.0288853 0.958556
0.746105 0.0255436 0.977081
0.874266 0.0222171 0.995621
0 0.170214 0.832776
0 0.166888 0.851316
0.123659 0.163546 0.869841
0.25182 0.16022 0.888365
0.379995 0.156878 0.906905
0.508171 0.153552 0.925429
0.636347 0.15021 0.943969
0.764508 0.146883 0.962493
0.892683 0.143542 0.981033
0 0.291569 0.818189
0.013901 0.288243 0.836728
0.142061 0.284901 0.855253
0.270237 0.281575 0.873793
0.398413 0.278233 0.892317
0.526589 0.274907 0.910857
0.654749 0.271565 0.929381
0.782925 0.268238 0.947921
0.911101 0.264897 0.966445
0 0.412924 0.803616
0.0323033 0.409598 0.822141
0.160479 0.406256 0.840681
0.288655 0.40293 0.859205
0.416831 0.399588 0.877729
0.544991 0.396262 0.896269
0.673167 0.39292 0.914794
0.801343 0.389593 0.933333
0.929519 0.386252 0.951858
0 0.534279 0.789029
0.050721 0.530938 0.807553
0.178897 0.527611 0.826093
0.307073 0.524269 0.844617
0.435233 0.520943 0.863157
0.563409 0.517601 0.881682
0.691585 0.514275 0.900221
0.81976 0.510933 0.918746
0.947921 0.507607 0.937285
0 0.655634 0.774441
0.0691386 0.652293 0.792981
0.197314 0.648966 0.811505
0.32549 0.645624 0.830045
0.453651 0.642298 0.848569
0.581827 0.638956 0.867109
0.710002 0.63563 0.885634
0.838163 0.632288 0.904158
0.966339 0.628962 0.922698
0 0.776989 0.759854
0.0875563 0.773648 0.778393
0.215732 0.770321 0.796918
0.343893 0.766979 0.815457
0.472068 0.763653 0.833982
0.600244 0.760311 0.852522
0.728405 0.756985 0.871046
0.85658 0.753643 0.889586
0.984756 0.750317 0.90811
0 0.898329 0.745281
0.105974 0.895003 0.763806
0.234134 0.891661 0.782345
0.36231 0.888334 0.80087
0.490486 0.884993 0.819409
0.618662 0.881666 0.837934
0.746822 0.878325 0.856474
0.874998 0.874998 0.874998
1 0.871672 0.893523
0 1 0.730694
0.124376 1 0.749218
0.252552 1 0.767758
0.380728 1 0.786282
0.508904 1 0.804822
0.637064 1 0.823346
0.76524 0.99968 0.841886
0.893416 0.996353 0.86041
1 0.993011 0.87895
0 0.0558633 0.968414
0 0.0525368 0.986938
0.08365 0.0491951 1
0.211826 0.0458686 1
0.340002 0.0425269 1
0.468177 0.0392004 1
0.596338 0.0358587 1
0.724514 0.0325322 1
0.852689 0.0291905 1
0 0.177203 0.953826
0 0.173877 0.972366
0.102068 0.170535 0.99089
0.230243 0.167208 1
0.358419 0.163867 1
0.48658 0.16054 1
0.614755 0.157198 1
0.742931 0.153872 1
0.871092 0.15053 1
0 0.298558 0.939254
0 0.295216 0.957778
0.120485 0.29189 0.976318
0.248661 0.288548 0.994842
0.376822 0.285222 1
0.504997 0.28188 1
0.633173 0.278553 1
0.761349 0.275212 1
0.889509 0.271885 1
0 0.419913 0.924666
0.0107271 0.416571 0.943191
0.138903 0.413245 0.96173
0.267063 0.409903 0.980255
0.395239 0.406577 0.998795
0.523415 0.403235 1
0.651591 0.399908 1
0.779751 0.396567 1
0.907927 0.39324 1
0 0.541268 0.910079
0.0291447 0.537926 0.928618
0.157305 0.5346 0.947143
0.285481 0.531258 0.965682
0.413657 0.527932 0.984207
0.541833 0.52459 1
0.669993 0.521263 1
0.798169 0.517922 1
0.926345 0.514595 1
0 0.662608 0.895491
0.0475624 0.659281 0.914031
0.175723 0.65594 0.932555
0.303899 0.652613 0.951095
0.432074 0.649271 0.969619
0.560235 0.645945 0.988159
0.688411 0.642603 1
0.816587 0.639277 1
0.944762 0.635935 1
0 0.783963 0.880919
0.0659648 0.780636 0.899443
0.194141 0.777295 0.917983
0.322316 0.773968 0.936507
0.450492 0.770626 0.955047
0.578653 0.7673 0.973571
0.706828 0.763958 0.992111
0.835004 0.760632 1
0.963165 0.75729 1
0 0.905318 0.866331
0.0843824 0.901991 0.884855
0.212558 0.89865 0.903395
0.340734 0.895323 0.92192
0.468894 0.891981 0.940459
0.59707 0.888655 0.958984
0.725246 0.885313 0.977523
0.853407 0.881987 0.996048
0.981582 0.878645 1
0 1 0.851743
0.1028 1 0.870283
0.230976 1 0.888808
0.359136 1 0.907347
0.487312 1 0.925872
0.615488 1 0.944411
0.743664 1 0.962936
0.871824 1 0.981476
1 1 1
