public/LUTS/Color Shift/ColorShift_27.cube
TITLE "Generated by Resolve"
LUT_3D_SIZE 33
0 0 0
0.0316777 0 0.0108797
0.0633707 0 0.0217746
0.0950637 0 0.0326543
0.126772 0 0.0435492
0.158465 0 0.0544289
0.190158 0 0.0653239
0.221851 0 0.0762036
0.253544 0 0.0870985
0.285237 0 0.0979782
0.31693 0 0.108873
0.348623 0 0.119753
0.380331 0 0.130648
0.412024 0 0.141543
0.443717 0 0.152422
0.47541 0 0.163317
0.507103 0 0.174197
0.538796 0 0.185092
0.570489 0 0.195972
0.602197 0 0.206867
0.63389 0 0.217746
0.665583 0 0.228641
0.697276 0 0.239521
0.728969 0 0.250416
0.760662 0 0.261295
0.792355 0 0.27219
0.824063 0 0.28307
0.855756 0 0.293965
0.887449 0 0.304845
0.919142 0 0.31574
0.950835 0 0.326635
0.982528 0 0.337514
1 0 0.348409
0.0116579 0.0286412 0
0.0433356 0.0271153 0.0037995
0.0750286 0.0255894 0.0146944
0.106722 0.0240482 0.0255741
0.138415 0.0225223 0.0364691
0.170123 0.0209812 0.0473487
0.201816 0.0194553 0.0582437
0.233509 0.0179141 0.0691234
0.265202 0.0163882 0.0800183
0.296895 0.014847 0.090898
0.328588 0.0133211 0.101793
0.360281 0.01178 0.112688
0.391989 0.0102541 0.123568
0.423682 0.0087129 0.134463
0.455375 0.007187 0.145342
0.487068 0.00564584 0.156237
0.518761 0.00411994 0.167117
0.550454 0.00257877 0.178012
0.582147 0.00105287 0.188891
0.61384 0 0.199786
0.645548 0 0.210666
0.677241 0 0.221561
0.708934 0 0.232441
0.740627 0 0.243336
0.77232 0 0.254215
0.804013 0 0.26511
0.835706 0 0.27599
0.867414 0 0.286885
0.899107 0 0.29778
0.9308 0 0.308659
0.962493 0 0.319554
0.994186 0 0.330434
1 0 0.341329
0.0233158 0.0573129 0
0.0549935 0.0557717 0
0.0866865 0.0542458 0.00761425
0.118395 0.0527047 0.0184939
0.150088 0.0511788 0.0293889
0.181781 0.0496376 0.0402686
0.213474 0.0481117 0.0511635
0.245167 0.0465858 0.0620432
0.27686 0.0450446 0.0729381
0.308553 0.0435187 0.0838178
0.340261 0.0419776 0.0947127
0.371954 0.0404517 0.105592
0.403647 0.0389105 0.116487
0.43534 0.0373846 0.127367
0.467033 0.0358434 0.138262
0.498726 0.0343175 0.149142
0.530419 0.0327764 0.160037
0.562112 0.0312505 0.170932
0.59382 0.0297093 0.181811
0.625513 0.0281834 0.192706
0.657206 0.0266423 0.203586
0.688899 0.0251164 0.214481
0.720592 0.0235752 0.22536
0.752285 0.0220493 0.236255
0.783978 0.0205081 0.247135
0.815686 0.0189822 0.25803
0.847379 0.0174411 0.26891
0.879072 0.0159152 0.279805
0.910765 0.014374 0.290684
0.942458 0.0128481 0.301579
0.974151 0.0113069 0.312459
1 0.00978103 0.323354
1 0.00823987 0.334234
0.0349737 0.0859693 0
0.0666667 0.0844434 0
0.0983597 0.0829023 0.000518807
0.130053 0.0813764 0.0114137
0.161746 0.0798352 0.0222934
0.193439 0.0783093 0.0331884
0.225132 0.0767681 0.0440833
0.256825 0.0752422 0.054963
0.288533 0.0737011 0.0658579
0.320226 0.0721752 0.0767376
0.351919 0.070634 0.0876326
0.383612 0.0691081 0.0985122
0.415305 0.0675669 0.109407
0.446998 0.066041 0.120287
0.478691 0.0644999 0.131182
0.510384 0.062974 0.142061
0.542092 0.0614481 0.152956
0.573785 0.0599069 0.163836
0.605478 0.058381 0.174731
0.637171 0.0568399 0.185611
0.668864 0.055314 0.196506
0.700557 0.0537728 0.207385
0.73225 0.0522469 0.21828
0.763958 0.0507057 0.229175
0.795651 0.0491798 0.240055
0.827344 0.0476387 0.25095
0.859037 0.0461128 0.26183
0.89073 0.0445716 0.272725
0.922423 0.0430457 0.283604
0.954116 0.0415045 0.294499
0.985824 0.0399786 0.305379
1 0.0384375 0.316274
1 0.0369116 0.327153
0.0466468 0.114641 0
0.0783246 0.1131 0
0.110018 0.111574 0
0.141711 0.110033 0.00433356
0.173404 0.108507 0.0152132
0.205097 0.106966 0.0261082
0.236805 0.10544 0.0369879
0.268498 0.103899 0.0478828
0.300191 0.102373 0.0587625
0.331884 0.100832 0.0696574
0.363577 0.0993057 0.0805371
0.39527 0.0977646 0.0914321
0.426963 0.0962387 0.102327
0.458671 0.0946975 0.113207
0.490364 0.0931716 0.124102
0.522057 0.0916304 0.134981
0.55375 0.0901045 0.145876
0.585443 0.0885634 0.156756
0.617136 0.0870375 0.167651
0.648829 0.0854963 0.178531
0.680522 0.0839704 0.189425
0.71223 0.0824292 0.200305
0.743923 0.0809033 0.2112
0.775616 0.0793774 0.22208
0.807309 0.0778363 0.232975
0.839002 0.0763104 0.243854
0.870695 0.0747692 0.254749
0.902388 0.0732433 0.265629
0.934096 0.0717021 0.276524
0.965789 0.0701762 0.287419
0.997482 0.0686351 0.298299
1 0.0671092 0.309194
1 0.065568 0.320073
0.0583047 0.143297 0
0.0899825 0.141772 0
0.121675 0.14023 0
0.153368 0.138705 0
0.185077 0.137163 0.00813306
0.21677 0.135637 0.019028
0.248463 0.134096 0.0299077
0.280156 0.13257 0.0408026
0.311849 0.131029 0.0516823
0.343542 0.129503 0.0625772
0.375235 0.127962 0.0734569
0.406943 0.126436 0.0843519
0.438636 0.124895 0.0952316
0.470329 0.123369 0.106126
0.502022 0.121828 0.117006
0.533715 0.120302 0.127901
0.565408 0.118761 0.138781
0.597101 0.117235 0.149676
0.628794 0.115694 0.160571
0.660502 0.114168 0.17145
0.692195 0.112627 0.182345
0.723888 0.111101 0.193225
0.755581 0.10956 0.20412
0.787274 0.108034 0.215
0.818967 0.106493 0.225895
0.85066 0.104967 0.236774
0.882368 0.103426 0.247669
0.914061 0.1019 0.258549
0.945754 0.100359 0.269444
0.977447 0.0988327 0.280324
1 0.0972915 0.291218
1 0.0957656 0.302098
1 0.0942397 0.312993
0.0699626 0.171954 0
0.10164 0.170428 0
0.133349 0.168902 0
0.165042 0.167361 0
0.196735 0.165835 0.00105287
0.228428 0.164294 0.0119326
0.260121 0.162768 0.0228275
0.291814 0.161227 0.0337224
0.323507 0.159701 0.0446021
0.355215 0.15816 0.0554971
0.386908 0.156634 0.0663767
0.418601 0.155093 0.0772717
0.450294 0.153567 0.0881514
0.481987 0.152026 0.0990463
0.51368 0.1505 0.109926
0.545373 0.148959 0.120821
0.577066 0.147433 0.131701
0.608774 0.145892 0.142596
0.640467 0.144366 0.153475
0.67216 0.142824 0.16437
0.703853 0.141299 0.17525
0.735546 0.139757 0.186145
0.767239 0.138231 0.197024
0.798932 0.13669 0.207919
0.83064 0.135164 0.218814
0.862333 0.133623 0.229694
0.894026 0.132097 0.240589
0.925719 0.130556 0.251469
0.957412 0.12903 0.262364
0.989105 0.127489 0.273243
1 0.125963 0.284138
1 0.124422 0.295018
1 0.122896 0.305913
0.0816358 0.200626 0
0.113313 0.199084 0
0.145006 0.197559 0
0.176699 0.196017 0
0.208392 0.194491 0
0.240085 0.19295 0.00485237
0.271778 0.191424 0.0157473
0.303487 0.189883 0.026627
0.33518 0.188357 0.0375219
0.366873 0.186816 0.0484016
0.398566 0.18529 0.0592966
0.430259 0.183764 0.0701762
0.461952 0.182223 0.0810712
0.493645 0.180697 0.0919661
0.525338 0.179156 0.102846
0.557046 0.17763 0.113741
0.588739 0.176089 0.12462
0.620432 0.174563 0.135515
0.652125 0.173022 0.146395
0.683818 0.171496 0.15729
0.715511 0.169955 0.16817
0.747204 0.168429 0.179065
0.778912 0.166888 0.189944
0.810605 0.165362 0.200839
0.842298 0.163821 0.211719
0.873991 0.162295 0.222614
0.905684 0.160754 0.233494
0.937377 0.159228 0.244388
0.96907 0.157687 0.255268
1 0.156161 0.266163
1 0.15462 0.277058
1 0.153094 0.287938
1 0.151553 0.298833
0.0932937 0.229282 0
0.124971 0.227756 0
0.156664 0.226215 0
0.188357 0.224689 0
0.22005 0.223148 0
0.251759 0.221622 0
0.283452 0.220081 0.00866712
0.315145 0.218555 0.0195468
0.346838 0.217014 0.0304417
0.378531 0.215488 0.0413214
0.410224 0.213947 0.0522164
0.441917 0.212421 0.0630961
0.47361 0.21088 0.073991
0.505318 0.209354 0.0848707
0.537011 0.207813 0.0957656
0.568704 0.206287 0.106645
0.600397 0.204746 0.11754
0.63209 0.20322 0.12842
0.663783 0.201694 0.139315
0.695476 0.200153 0.15021
0.727184 0.198627 0.161089
0.758877 0.197086 0.171984
0.79057 0.19556 0.182864
0.822263 0.194018 0.193759
0.853956 0.192493 0.204639
0.885649 0.190951 0.215534
0.917342 0.189425 0.226413
0.94905 0.187884 0.237308
0.980743 0.186358 0.248188
1 0.184817 0.259083
1 0.183291 0.269963
1 0.18175 0.280858
1 0.180224 0.291737
0.104952 0.257954 0
0.136629 0.256413 0
0.168322 0.254887 0
0.200031 0.253346 0
0.231724 0.25182 0
0.263416 0.250278 0
0.295109 0.248753 0.00157168
0.326802 0.247211 0.0124666
0.358495 0.245686 0.0233616
0.390188 0.244144 0.0342412
0.421881 0.242618 0.0451362
0.45359 0.241077 0.0560159
0.485283 0.239551 0.0669108
0.516976 0.23801 0.0777905
0.548669 0.236484 0.0886854
0.580362 0.234943 0.0995651
0.612055 0.233417 0.11046
0.643748 0.231876 0.12134
0.675456 0.23035 0.132235
0.707149 0.228809 0.143114
0.738842 0.227283 0.154009
0.770535 0.225742 0.164889
0.802228 0.224216 0.175784
0.833921 0.222675 0.186664
0.865614 0.221149 0.197559
0.897322 0.219608 0.208453
0.929015 0.218082 0.219333
0.960708 0.216556 0.230228
0.992401 0.215015 0.241108
1 0.213489 0.252003
1 0.211948 0.262882
1 0.210422 0.273777
1 0.208881 0.284657
0.116609 0.28661 0
0.148302 0.285084 0
0.179995 0.283543 0
0.211688 0.282017 0
0.243381 0.280476 0
0.275074 0.27895 0
0.306767 0.277409 0
0.33846 0.275883 0.00538643
0.370153 0.274342 0.0162661
0.401862 0.272816 0.0271611
0.433555 0.271275 0.0380407
0.465248 0.269749 0.0489357
0.496941 0.268208 0.0598154
0.528634 0.266682 0.0707103
0.560327 0.265141 0.0816052
0.59202 0.263615 0.0924849
0.623728 0.262074 0.10338
0.655421 0.260548 0.11426
0.687114 0.259007 0.125154
0.718807 0.257481 0.136034
0.7505 0.25594 0.146929
0.782193 0.254414 0.157809
0.813886 0.252872 0.168704
0.845594 0.251347 0.179583
0.877287 0.249805 0.190478
0.90898 0.24828 0.201358
0.940673 0.246738 0.212253
0.972366 0.245212 0.223133
1 0.243671 0.234028
1 0.242145 0.244907
1 0.240604 0.255802
1 0.239078 0.266697
1 0.237537 0.277577
0.128283 0.315267 0
0.15996 0.313741 0
0.191653 0.3122 0
0.223346 0.310674 0
0.255039 0.309133 0
0.286732 0.307607 0
0.318425 0.306081 0
0.350134 0.30454 0
0.381826 0.303014 0.00918593
0.41352 0.301472 0.0200809
0.445212 0.299947 0.0309606
0.476905 0.298405 0.0418555
0.508598 0.29688 0.0527352
0.540291 0.295338 0.0636301
0.572 0.293812 0.0745098
0.603693 0.292271 0.0854047
0.635386 0.290745 0.0962844
0.667079 0.289204 0.107179
0.698772 0.287678 0.118059
0.730465 0.286137 0.128954
0.762158 0.284611 0.139849
0.793866 0.28307 0.150729
0.825559 0.281544 0.161624
0.857252 0.280003 0.172503
0.888945 0.278477 0.183398
0.920638 0.276936 0.194278
0.952331 0.27541 0.205173
0.984024 0.273869 0.216052
1 0.272343 0.226947
1 0.270802 0.237827
1 0.269276 0.248722
1 0.267735 0.259602
1 0.266209 0.270497
0.13994 0.343938 0
0.171618 0.342397 0
0.203311 0.340871 0
0.235004 0.33933 0
0.266697 0.337804 0
0.298405 0.336263 0
0.330098 0.334737 0
0.361791 0.333196 0
0.393484 0.33167 0.00210575
0.425177 0.330129 0.0130007
0.45687 0.328603 0.0238804
0.488563 0.327062 0.0347753
0.520272 0.325536 0.045655
0.551965 0.32401 0.0565499
0.583658 0.322469 0.0674296
0.615351 0.320943 0.0783246
0.647044 0.319402 0.0892042
0.678737 0.317876 0.100099
0.71043 0.316335 0.110979
0.742138 0.314809 0.121874
0.773831 0.313268 0.132753
0.805524 0.311742 0.143648
0.837217 0.310201 0.154528
0.86891 0.308675 0.165423
0.900603 0.307134 0.176318
0.932296 0.305608 0.187198
0.963989 0.304067 0.198093
0.995697 0.302541 0.208972
1 0.300999 0.219867
1 0.299474 0.230747
1 0.297932 0.241642
1 0.296407 0.252522
1 0.294865 0.263416
0.151598 0.372595 0
0.183276 0.371069 0
0.214969 0.369528 0
0.246677 0.368002 0
0.27837 0.366461 0
0.310063 0.364935 0
0.341756 0.363394 0
0.373449 0.361868 0
0.405142 0.360327 0
0.436835 0.358801 0.00590524
0.468544 0.357259 0.0168002
0.500237 0.355734 0.0276799
0.531929 0.354192 0.0385748
0.563622 0.352667 0.0494698
0.595315 0.351125 0.0603494
0.627008 0.349599 0.0712444
0.658701 0.348058 0.0821241
0.69041 0.346532 0.093019
0.722103 0.344991 0.103899
0.753796 0.343465 0.114794
0.785489 0.341924 0.125673
0.817182 0.340398 0.136568
0.848875 0.338872 0.147448
0.880568 0.337331 0.158343
0.912261 0.335805 0.169223
0.943969 0.334264 0.180117
0.975662 0.332738 0.190997
1 0.331197 0.201892
1 0.329671 0.212772
1 0.32813 0.223667
1 0.326604 0.234562
1 0.325063 0.245441
1 0.323537 0.256336
0.163272 0.401266 0
0.194949 0.399725 0
0.226642 0.398199 0
0.258335 0.396658 0
0.290028 0.395132 0
0.321721 0.393591 0
0.353414 0.392065 0
0.385107 0.390524 0
0.416815 0.388998 0
0.448508 0.387457 0
0.480201 0.385931 0.00972
0.511894 0.38439 0.0205997
0.543587 0.382864 0.0314946
0.57528 0.381323 0.0423743
0.606973 0.379797 0.0532692
0.638682 0.378256 0.0641489
0.670375 0.37673 0.0750439
0.702068 0.375189 0.0859236
0.733761 0.373663 0.0968185
0.765454 0.372122 0.107713
0.797147 0.370596 0.118593
0.82884 0.369055 0.129488
0.860548 0.367529 0.140368
0.892241 0.365988 0.151263
0.923934 0.364462 0.162142
0.955627 0.362921 0.173037
0.98732 0.361395 0.183917
1 0.359854 0.194812
1 0.358328 0.205692
1 0.356802 0.216587
1 0.355261 0.227466
1 0.353735 0.238361
1 0.352193 0.249241
0.174929 0.429923 0
0.206607 0.428397 0
0.2383 0.426856 0
0.269993 0.42533 0
0.301686 0.423789 0
0.333379 0.422263 0
0.365087 0.420722 0
0.39678 0.419196 0
0.428473 0.417655 0
0.460166 0.416129 0
0.491859 0.414588 0.00263981
0.523552 0.413062 0.0135195
0.555245 0.411521 0.0244144
0.586954 0.409995 0.0352941
0.618647 0.408453 0.0461891
0.650339 0.406928 0.0570687
0.682033 0.405386 0.0679637
0.713726 0.403861 0.0788434
0.745418 0.402319 0.0897383
0.777111 0.400793 0.100618
0.80882 0.399252 0.111513
0.840513 0.397726 0.122393
0.872206 0.396185 0.133288
0.903899 0.394659 0.144167
0.935592 0.393118 0.155062
0.967285 0.391592 0.165957
0.998978 0.390051 0.176837
1 0.388525 0.187732
1 0.386984 0.198611
1 0.385458 0.209506
1 0.383917 0.220386
1 0.382391 0.231281
1 0.38085 0.242161
0.186587 0.458579 0
0.218265 0.457053 0
0.249958 0.455512 0
0.281651 0.453986 0
0.313359 0.452445 0
0.345052 0.450919 0
0.376745 0.449378 0
0.408438 0.447852 0
0.440131 0.446326 0
0.471824 0.444785 0
0.503517 0.443259 0
0.535225 0.441718 0.00643931
0.566918 0.440192 0.017319
0.598611 0.438651 0.0282139
0.630304 0.437125 0.0391089
0.661997 0.435584 0.0499886
0.69369 0.434058 0.0608835
0.725383 0.432517 0.0717632
0.757092 0.430991 0.0826581
0.788785 0.42945 0.0935378
0.820478 0.427924 0.104433
0.852171 0.426383 0.115312
0.883864 0.424857 0.126207
0.915557 0.423316 0.137087
0.94725 0.42179 0.147982
0.978943 0.420249 0.158862
1 0.418723 0.169757
1 0.417182 0.180636
1 0.415656 0.191531
1 0.414115 0.202411
1 0.412589 0.213306
1 0.411048 0.224201
1 0.409522 0.23508
0.198245 0.487251 0
0.229923 0.48571 0
0.261631 0.484184 0
0.293324 0.482643 0
0.325017 0.481117 0
0.35671 0.479576 0
0.388403 0.47805 0
0.420096 0.476509 0
0.451789 0.474983 0
0.483497 0.473442 0
0.51519 0.471916 0
0.546883 0.470375 0
0.578576 0.468849 0.0102388
0.610269 0.467308 0.0211337
0.641962 0.465782 0.0320134
0.673655 0.46424 0.0429084
0.705364 0.462715 0.0537881
0.737057 0.461189 0.064683
0.76875 0.459648 0.0755627
0.800443 0.458122 0.0864576
0.832135 0.45658 0.0973526
0.863828 0.455055 0.108232
0.895521 0.453513 0.119127
0.927214 0.451987 0.130007
0.958923 0.450446 0.140902
0.990616 0.44892 0.151781
1 0.447379 0.162676
1 0.445853 0.173556
1 0.444312 0.184451
1 0.442786 0.195331
1 0.441245 0.206226
1 0.439719 0.217105
1 0.438178 0.228
0.209918 0.515908 0
0.241596 0.514382 0
0.273289 0.51284 0
0.304982 0.511315 0
0.336675 0.509773 0
0.368368 0.508247 0
0.400061 0.506706 0
0.431769 0.50518 0
0.463462 0.503639 0
0.495155 0.502113 0
0.526848 0.500572 0
0.558541 0.499046 0
0.590234 0.497505 0.00315862
0.621927 0.495979 0.0140536
0.653635 0.494438 0.0249332
0.685328 0.492912 0.0358282
0.717021 0.491371 0.0467079
0.748714 0.489845 0.0576028
0.780407 0.488304 0.0684825
0.8121 0.486778 0.0793774
0.843793 0.485237 0.0902571
0.875486 0.483711 0.101152
0.907195 0.48217 0.112032
0.938888 0.480644 0.122927
0.970581 0.479118 0.133806
1 0.477577 0.144701
1 0.476051 0.155596
1 0.47451 0.166476
1 0.472984 0.177371
1 0.471443 0.188251
1 0.469917 0.199145
1 0.468376 0.210025
1 0.46685 0.22092
0.221576 0.544579 0
0.253254 0.543038 0
0.284947 0.541512 0
0.31664 0.539971 0
0.348333 0.538445 0
0.380041 0.536904 0
0.411734 0.535378 0
0.443427 0.533837 0
0.47512 0.532311 0
0.506813 0.53077 0
0.538506 0.529244 0
0.570199 0.527703 0
0.601907 0.526177 0
0.6336 0.524636 0.00695811
0.665293 0.52311 0.0178531
0.696986 0.521569 0.028748
0.728679 0.520043 0.0396277
0.760372 0.518502 0.0505226
0.792065 0.516976 0.0614023
0.823758 0.515435 0.0722972
0.855467 0.513909 0.0831769
0.88716 0.512367 0.0940719
0.918853 0.510842 0.104952
0.950545 0.5093 0.115846
0.982238 0.507774 0.126726
1 0.506233 0.137621
1 0.504707 0.148501
1 0.503166 0.159396
1 0.50164 0.170275
1 0.500099 0.18117
1 0.498573 0.19205
1 0.497032 0.202945
1 0.495506 0.21384
0.233234 0.573236 0
0.264912 0.571694 0
0.296605 0.570169 0
0.328313 0.568643 0
0.360006 0.567102 0
0.391699 0.565576 0
0.423392 0.564034 0
0.455085 0.562509 0
0.486778 0.560967 0
0.518471 0.559442 0
0.550179 0.5579 0
0.581872 0.556374 0
0.613565 0.554833 0
0.645258 0.553307 0
0.676951 0.551766 0.0107729
0.708644 0.55024 0.0216526
0.740337 0.548699 0.0325475
0.77203 0.547173 0.0434272
0.803738 0.545632 0.0543221
0.835431 0.544106 0.0652018
0.867124 0.542565 0.0760967
0.898817 0.541039 0.0869917
0.93051 0.539498 0.0978714
0.962203 0.537972 0.108766
0.993896 0.536431 0.119646
1 0.534905 0.130541
1 0.533364 0.141421
1 0.531838 0.152316
1 0.530297 0.163195
1 0.528771 0.17409
1 0.52723 0.18497
1 0.525704 0.195865
1 0.524163 0.206744
0.244892 0.601892 0
0.276585 0.600366 0
0.308278 0.598825 0
0.339971 0.597299 0
0.371664 0.595758 0
0.403357 0.594232 0
0.43505 0.592691 0
0.466743 0.591165 0
0.498451 0.589624 0
0.530144 0.588098 0
0.561837 0.586572 0
0.59353 0.585031 0
0.625223 0.583505 0
0.656916 0.581964 0
0.688609 0.580438 0.00369268
0.720302 0.578897 0.0145724
0.75201 0.577371 0.0254673
0.783703 0.57583 0.036347
0.815396 0.574304 0.0472419
0.847089 0.572763 0.0581216
0.878782 0.571237 0.0690166
0.910475 0.569696 0.0798962
0.942168 0.56817 0.0907912
0.973877 0.566629 0.101671
1 0.565103 0.112566
1 0.563561 0.123445
1 0.562036 0.13434
1 0.560494 0.145235
1 0.558968 0.156115
1 0.557427 0.16701
1 0.555901 0.17789
1 0.55436 0.188785
1 0.552834 0.199664
0.256565 0.630564 0
0.288243 0.629023 0
0.319936 0.627497 0
0.351629 0.625956 0
0.383322 0.62443 0
0.415015 0.622889 0
0.446723 0.621363 0
0.478416 0.619821 0
0.510109 0.618296 0
0.541802 0.616754 0
0.573495 0.615228 0
0.605188 0.613687 0
0.636881 0.612161 0
0.668574 0.61062 0
0.700282 0.609094 0
0.731975 0.607553 0.00749218
0.763668 0.606027 0.0183871
0.795361 0.604486 0.0292668
0.827054 0.60296 0.0401617
0.858747 0.601434 0.0510414
0.89044 0.599893 0.0619364
0.922148 0.598367 0.0728161
0.953841 0.596826 0.083711
0.985534 0.5953 0.0945907
1 0.593759 0.105486
1 0.592233 0.116365
1 0.590692 0.12726
1 0.589166 0.13814
1 0.587625 0.149035
1 0.586099 0.159915
1 0.584558 0.170809
1 0.583032 0.181689
1 0.581491 0.192584
0.268223 0.65922 0
0.299901 0.657694 0
0.331594 0.656153 0
0.363287 0.654627 0
0.394995 0.653086 0
0.426688 0.65156 0
0.458381 0.650019 0
0.490074 0.648493 0
0.521767 0.646952 0
0.55346 0.645426 0
0.585153 0.643885 0
0.616846 0.642359 0
0.648554 0.640818 0
0.680247 0.639292 0
0.71194 0.637751 0
0.743633 0.636225 0.000411994
0.775326 0.634684 0.0112917
0.807019 0.633158 0.0221866
0.838712 0.631617 0.0330663
0.87042 0.630091 0.0439612
0.902113 0.62855 0.0548409
0.933806 0.627024 0.0657359
0.965499 0.625483 0.0766308
0.997192 0.623957 0.0875105
1 0.622415 0.0984054
1 0.62089 0.109285
1 0.619348 0.12018
1 0.617823 0.13106
1 0.616297 0.141955
1 0.614755 0.152834
1 0.61323 0.163729
1 0.611688 0.174609
1 0.610162 0.185504
0.279881 0.687877 0
0.311559 0.686351 0
0.343267 0.684825 0
0.37496 0.683284 0
0.406653 0.681758 0
0.438346 0.680217 0
0.470039 0.678691 0
0.501732 0.67715 0
0.533425 0.675624 0
0.565118 0.674083 0
0.596826 0.672557 0
0.628519 0.671016 0
0.660212 0.66949 0
0.691905 0.667948 0
0.723598 0.666423 0
0.755291 0.664881 0
0.786984 0.663355 0.00421149
0.818692 0.661814 0.0151064
0.850385 0.660288 0.0259861
0.882078 0.658747 0.0368811
0.913771 0.657221 0.0477607
0.945464 0.65568 0.0586557
0.977157 0.654154 0.0695354
1 0.652613 0.0804303
1 0.651087 0.09131
1 0.649546 0.102205
1 0.64802 0.113085
1 0.646479 0.12398
1 0.644953 0.134874
1 0.643412 0.145754
1 0.641886 0.156649
1 0.640345 0.167529
1 0.638819 0.178424
0.291554 0.716548 0
0.323232 0.715007 0
0.354925 0.713481 0
0.386618 0.71194 0
0.418311 0.710414 0
0.450004 0.708873 0
0.481697 0.707347 0
0.51339 0.705821 0
0.545098 0.70428 0
0.576791 0.702754 0
0.608484 0.701213 0
0.640177 0.699687 0
0.67187 0.698146 0
0.703563 0.69662 0
0.735256 0.695079 0
0.766964 0.693553 0
0.798657 0.692012 0
0.83035 0.690486 0.00802625
0.862043 0.688945 0.0189059
0.893736 0.687419 0.0298009
0.925429 0.685878 0.0406806
0.957122 0.684352 0.0515755
0.98883 0.682811 0.0624552
1 0.681285 0.0733501
1 0.679744 0.0842298
1 0.678218 0.0951247
1 0.676677 0.106004
1 0.675151 0.116899
1 0.673609 0.127779
1 0.672084 0.138674
1 0.670542 0.149554
1 0.669017 0.160449
1 0.667475 0.171328
0.303212 0.745205 0
0.33489 0.743679 0
0.366583 0.742138 0
0.398276 0.740612 0
0.429969 0.739071 0
0.461677 0.737545 0
0.49337 0.736004 0
0.525063 0.734478 0
0.556756 0.732937 0
0.588449 0.731411 0
0.620142 0.72987 0
0.651835 0.728344 0
0.683528 0.726802 0
0.715236 0.725277 0
0.746929 0.723751 0
0.778622 0.72221 0
0.810315 0.720684 0
0.842008 0.719142 0.0009308
0.873701 0.717617 0.0118257
0.905394 0.716075 0.0227054
0.937102 0.714549 0.0336004
0.968795 0.713008 0.04448
1 0.711482 0.055375
1 0.709941 0.0662699
1 0.708415 0.0771496
1 0.706874 0.0880446
1 0.705348 0.0989242
1 0.703807 0.109819
1 0.702281 0.120699
1 0.70074 0.131594
1 0.699214 0.142473
1 0.697673 0.153368
1 0.696147 0.164248
0.31487 0.773877 0
0.346548 0.772335 0
0.378241 0.770809 0
0.409949 0.769268 0
0.441642 0.767742 0
0.473335 0.766201 0
0.505028 0.764675 0
0.536721 0.763134 0
0.568414 0.761608 0
