public/LUTS/Color Shift/ColorShift_73.cube
TITLE "Generated by Resolve"
LUT_3D_SIZE 9
0 0 0
0.190967 0 0
0.381964 0 0
0.572961 0 0
0.763958 0 0
0.954955 0 0
1 0 0
1 0 0
1 0 0
0 0.152804 0
0.120409 0.13669 0
0.311406 0.120562 0
0.502403 0.104433 0
0.693401 0.0883192 0
0.884398 0.0721904 0
1 0.0560616 0
1 0.0399481 0
1 0.0238193 0
0 0.305638 0
0.0498512 0.289509 0
0.240848 0.273396 0
0.431846 0.257267 0
0.622827 0.241138 0
0.813825 0.22501 0
1 0.208896 0
1 0.192767 0
1 0.176638 0
0 0.458457 0
0 0.442344 0
0.170275 0.426215 0
0.361273 0.410086 0
0.55227 0.393973 0
0.743267 0.377844 0
0.934264 0.361715 0
1 0.345602 0
1 0.329473 0
0 0.611292 0
0 0.595163 0
0.0997177 0.579049 0
0.290715 0.562921 0
0.481712 0.546792 0
0.672694 0.530678 0
0.863691 0.514549 0
1 0.498421 0
1 0.482292 0
0 0.764111 0
0 0.747997 0
0.0291447 0.731868 0
0.220142 0.71574 0
0.411139 0.699626 0
0.602136 0.683497 0
0.793133 0.667369 0
0.984131 0.651255 0
1 0.635126 0
0 0.916945 0
0 0.900816 0
0 0.884703 0
0.149584 0.868574 0
0.340581 0.852445 0
0.531579 0.836332 0
0.72256 0.820203 0
0.913558 0.804074 0
1 0.787945 0
0 1 0
0 1 0
0 1 0
0.0790112 1 0
0.270008 1 0
0.461006 0.989151 0
0.652003 0.973022 0
0.843 0.956909 0
1 0.94078 0
0 1 0
0 1 0
0 1 0
0.0084535 1 0
0.199451 1 0
0.390448 1 0
0.58143 1 0
0.772427 1 0
0.963424 1 0
0.00457771 0 0.205325
0.195544 0 0.176745
0.386542 0 0.148165
0.577539 0 0.119585
0.768521 0 0.0910048
0.959518 0 0.0624247
1 0 0.0338445
1 0 0.00526436
1 0 0
0 0.141115 0.153567
0.124987 0.124987 0.124987
0.315984 0.108858 0.0964065
0.506981 0.0927443 0.0678264
0.697978 0.0766155 0.0392462
0.88896 0.0604868 0.0106661
1 0.044358 0
1 0.0282444 0
1 0.0121157 0
0 0.293935 0.101793
0.0544289 0.277821 0.0732128
0.245411 0.261692 0.0446326
0.436408 0.245563 0.0160678
0.627405 0.229435 0
0.818402 0.213321 0
1 0.197192 0
1 0.181064 0
1 0.16495 0
0 0.446769 0.0500343
0 0.43064 0.0214542
0.174853 0.414511 0
0.36585 0.398398 0
0.556848 0.382269 0
0.747829 0.36614 0
0.938827 0.350027 0
1 0.333898 0
1 0.317769 0
0 0.599588 0
0 0.583474 0
0.10428 0.567346 0
0.295277 0.551217 0
0.486275 0.535088 0
0.677272 0.518975 0
0.868269 0.502846 0
1 0.486717 0
1 0.470603 0
0 0.752422 0
0 0.736294 0
0.0337224 0.720165 0
0.22472 0.704051 0
0.415717 0.687922 0
0.606714 0.671794 0
0.797696 0.65568 0
0.988693 0.639551 0
1 0.623423 0
0 0.905241 0
0 0.889128 0
0 0.872999 0
0.154147 0.85687 0
0.345144 0.840757 0
0.536141 0.824628 0
0.727138 0.808499 0
0.918135 0.79237 0
1 0.776257 0
0 1 0
0 1 0
0 1 0
0.0835889 1 0
0.274586 0.993576 0
0.465583 0.977447 0
0.65658 0.961334 0
0.847562 0.945205 0
1 0.929076 0
0 1 0
0 1 0
0 1 0
0.0130312 1 0
0.204013 1 0
0.39501 1 0
0.586007 1 0
0.777005 1 0
0.968002 1 0
0.00914015 0 0.410666
0.200107 0 0.382101
0.391104 0 0.353521
0.582101 0 0.324941
0.773098 0 0.296361
0.964096 0 0.267781
1 0 0.2392
1 0 0.21062
1 0 0.18204
0 0.129412 0.358907
0.129564 0.113283 0.330343
0.320546 0.0971542 0.301762
0.511543 0.0810407 0.273182
0.702541 0.0649119 0.244602
0.893538 0.0487831 0.216022
1 0.0326696 0.187442
1 0.0165408 0.158862
1 0.000411994 0.130282
0 0.282231 0.307149
0.0589914 0.266117 0.278569
0.249989 0.249989 0.249989
0.440986 0.23386 0.221408
0.631983 0.217746 0.192828
0.82298 0.201617 0.164248
1 0.185489 0.135668
1 0.16936 0.107088
1 0.153246 0.0785077
0 0.435065 0.255375
0 0.418936 0.226795
0.179431 0.402823 0.198215
0.370413 0.386694 0.169635
0.56141 0.370565 0.14107
0.752407 0.354437 0.11249
0.943404 0.338323 0.0839094
1 0.322194 0.0553292
1 0.306065 0.0267491
0 0.587884 0.203616
0 0.571771 0.175036
0.108858 0.555642 0.146456
0.299855 0.539513 0.117876
0.490852 0.5234 0.0892958
0.681849 0.507271 0.0607156
0.872831 0.491142 0.0321355
1 0.475029 0.00355535
1 0.4589 0
0 0.740719 0.151843
0 0.72459 0.123262
0.0383001 0.708476 0.0946822
0.229282 0.692348 0.0661021
0.420279 0.676219 0.0375219
0.611276 0.66009 0.00894179
0.802274 0.643977 0
0.993271 0.627848 0
1 0.611719 0
0 0.893538 0.100069
0 0.877424 0.0715038
0 0.861295 0.0429236
0.158724 0.845167 0.0143435
0.349722 0.829053 0
0.540719 0.812924 0
0.731716 0.796796 0
0.922698 0.780682 0
1 0.764553 0
0 1 0.0483101
0 1 0.0197299
0 1 0
0.0881666 0.998001 0
0.279149 0.981872 0
0.470146 0.965759 0
0.661143 0.94963 0
0.85214 0.933501 0
1 0.917372 0
0 1 0
0 1 0
0 1 0
0.0175937 1 0
0.208591 1 0
0.399588 1 0
0.590585 1 0
0.781582 1 0
0.972564 1 0
0.0137179 0 0.616022
0.204685 0 0.587442
0.395682 0 0.558862
0.586679 0 0.530282
0.777676 0 0.501701
0.968658 0 0.473121
1 0 0.444541
1 0 0.415976
1 0 0.387396
0 0.117708 0.564263
0.134127 0.101579 0.535683
0.325124 0.0854658 0.507103
0.516121 0.069337 0.478523
0.707118 0.0532082 0.449943
0.898116 0.0370947 0.421363
1 0.0209659 0.392782
1 0.00483711 0.364202
1 0 0.335622
0 0.270527 0.512489
0.0635691 0.254414 0.483909
0.254566 0.238285 0.455344
0.445548 0.222156 0.426764
0.636545 0.206043 0.398184
0.827543 0.189914 0.369604
1 0.173785 0.341024
1 0.157671 0.312444
1 0.141543 0.283864
0 0.423362 0.460731
0 0.407233 0.432151
0.183993 0.391119 0.403571
0.37499 0.37499 0.37499
0.565988 0.358862 0.34641
0.756985 0.342748 0.31783
0.947982 0.326619 0.28925
1 0.310491 0.26067
1 0.294362 0.23209
0 0.576196 0.408957
0 0.560067 0.380377
0.113436 0.543938 0.351797
0.304433 0.527825 0.323217
0.495415 0.511696 0.294636
0.686412 0.495567 0.266072
0.877409 0.479438 0.237491
1 0.463325 0.208911
1 0.447196 0.180331
0 0.729015 0.357183
0 0.712886 0.328618
0.0428626 0.696773 0.300038
0.23386 0.680644 0.271458
0.424857 0.664515 0.242878
0.615854 0.648402 0.214298
0.806851 0.632273 0.185718
0.997833 0.616144 0.157137
1 0.600031 0.128557
0 0.881849 0.305425
0 0.865721 0.276844
0 0.849592 0.248264
0.163302 0.833478 0.219684
0.354284 0.817349 0.191104
0.545281 0.801221 0.162524
0.736278 0.785092 0.133944
0.927275 0.768978 0.105364
1 0.75285 0.0767987
0 1 0.253651
0 1 0.225086
0 1 0.196506
0.0927291 0.986297 0.167926
0.283726 0.970169 0.139345
0.474723 0.954055 0.110765
0.665721 0.937926 0.0821851
0.856718 0.921798 0.0536049
1 0.905684 0.0250248
0 1 0.201892
0 1 0.173312
0 1 0.144732
0.0221714 1 0.116152
0.213169 1 0.0875715
0.40415 1 0.0589914
0.595148 1 0.0304112
0.786145 1 0.00183108
0.977142 1 0
0.0182803 0 0.821363
0.209262 0 0.792798
0.400259 0 0.764218
0.591241 0 0.735637
0.782238 0 0.707057
0.973236 0 0.678477
1 0 0.649897
1 0 0.621317
1 0 0.592737
0 0.106004 0.769604
0.138705 0.0898909 0.741039
0.329702 0.0737621 0.712459
0.520699 0.0576333 0.683879
0.711681 0.0415045 0.655299
0.902678 0.025391 0.626719
1 0.00926223 0.598138
1 0 0.569558
1 0 0.540978
0 0.258839 0.717845
0.0681315 0.24271 0.689265
0.259129 0.226581 0.660685
0.450126 0.210468 0.632105
0.641123 0.194339 0.603525
0.83212 0.17821 0.574945
1 0.162097 0.546365
1 0.145968 0.517784
1 0.129839 0.489204
0 0.411658 0.666072
0 0.395544 0.637491
0.188571 0.379416 0.608911
0.379568 0.363287 0.580346
0.57055 0.347158 0.551766
0.761547 0.331044 0.523186
0.952544 0.314916 0.494606
1 0.298787 0.466026
1 0.282673 0.437446
0 0.564492 0.614313
0 0.548363 0.585733
0.117998 0.532235 0.557153
0.308995 0.516121 0.528572
0.499992 0.499992 0.499992
0.69099 0.483864 0.471412
0.881987 0.46775 0.442832
1 0.451621 0.414252
1 0.435492 0.385672
0 0.717311 0.562539
0 0.701198 0.533959
0.0474403 0.685069 0.505379
0.238437 0.66894 0.476799
0.429435 0.652827 0.448218
0.620417 0.636698 0.419638
0.811414 0.620569 0.391073
1 0.60444 0.362493
1 0.588327 0.333913
0 0.870146 0.510765
0 0.854017 0.4822
0 0.837888 0.45362
0.167865 0.821775 0.42504
0.358862 0.805646 0.39646
0.549859 0.789517 0.36788
0.740856 0.773404 0.3393
0.931853 0.757275 0.310719
1 0.741146 0.282139
0 1 0.459007
0 1 0.430426
0 0.990723 0.401846
0.0973068 0.974594 0.373266
0.288304 0.95848 0.344686
0.479301 0.942351 0.316106
0.670283 0.926223 0.287526
0.86128 0.910094 0.258946
1 0.89398 0.230365
0 1 0.407233
0 1 0.378668
0 1 0.350088
0.0267338 1 0.321508
0.217731 1 0.292927
0.408728 1 0.264347
0.599725 1 0.235767
0.790722 1 0.207187
0.98172 1 0.178607
0.022858 0 1
0.213825 0 0.998138
0.404822 0 0.969558
0.595819 0 0.940978
0.786816 0 0.912398
0.977813 0 0.883818
1 0 0.855253
1 0 0.826673
1 0 0.798093
0 0.0943008 0.97496
0.143267 0.0781872 0.94638
0.334264 0.0620584 0.9178
0.525261 0.0459297 0.88922
0.716258 0.0298161 0.860639
0.907256 0.0136873 0.832059
1 0 0.803479
1 0 0.774899
1 0 0.746319
0 0.247135 0.923186
0.0727092 0.231006 0.894621
0.263706 0.214893 0.866041
0.454704 0.198764 0.837461
0.645701 0.182635 0.808881
0.836683 0.166506 0.780301
1 0.150393 0.75172
1 0.134264 0.72314
1 0.118135 0.69456
0 0.399954 0.871427
0.00215152 0.383841 0.842847
0.193133 0.367712 0.814267
0.384131 0.351583 0.785687
0.575128 0.33547 0.757107
0.766125 0.319341 0.728527
0.957122 0.303212 0.699947
1 0.287098 0.671366
1 0.27097 0.642786
0 0.552789 0.819654
0 0.53666 0.791074
0.122576 0.520546 0.762493
0.313573 0.504417 0.733913
0.50457 0.488289 0.705348
0.695552 0.47216 0.676768
0.886549 0.456046 0.648188
1 0.439918 0.619608
1 0.423789 0.591028
0 0.705608 0.767895
0 0.689494 0.739315
0.052018 0.673365 0.710735
0.243 0.657237 0.682155
0.433997 0.641123 0.653574
0.624994 0.624994 0.624994
0.815991 0.608865 0.596414
1 0.592752 0.567834
1 0.576623 0.539254
0 0.858442 0.716121
0 0.842313 0.687541
0 0.8262 0.658961
0.172442 0.810071 0.630381
0.363439 0.793942 0.601801
0.554437 0.777829 0.57322
0.745418 0.7617 0.54464
0.936416 0.745571 0.516075
1 0.729442 0.487495
0 1 0.664347
0 0.995148 0.635782
0 0.979019 0.607202
0.101869 0.96289 0.578622
0.292866 0.946777 0.550042
0.483864 0.930648 0.521462
0.674861 0.914519 0.492882
0.865858 0.898405 0.464302
1 0.882277 0.435721
0 1 0.612589
0 1 0.584009
0 1 0.555428
0.0313115 1 0.526848
0.222309 1 0.498268
0.413306 1 0.469688
0.604303 1 0.441108
0.795285 1 0.412528
0.986282 1 0.383948
0.0274357 0 1
0.218402 0 1
0.4094 0 1
0.600397 0 1
0.791379 0 1
0.982376 0 1
1 0 1
1 0 1
1 0 1
0 0.0825971 1
0.147845 0.0664836 1
0.338842 0.0503548 1
0.529839 0.034226 1
0.720836 0.0181125 1
0.911818 0.00198367 1
1 0 1
1 0 0.980255
1 0 0.951675
0 0.235431 1
0.0772869 0.219303 1
0.268269 0.203189 1
0.459266 0.18706 1
0.650263 0.170932 1
0.84126 0.154818 0.985641
1 0.138689 0.957061
1 0.12256 0.928481
1 0.106432 0.899901
0 0.388251 1
0.00671397 0.372137 1
0.197711 0.356008 1
0.388708 0.339895 0.991043
0.579705 0.323766 0.962463
0.770703 0.307637 0.933883
0.961685 0.291508 0.905303
1 0.275395 0.876722
1 0.259266 0.848142
0 0.541085 1
0 0.524956 0.996429
0.127153 0.508843 0.967849
0.318135 0.492714 0.939269
0.509133 0.476585 0.910689
0.70013 0.460472 0.882109
0.891127 0.444343 0.853529
1 0.428214 0.824948
1 0.4121 0.796368
0 0.693919 0.973236
0 0.677791 0.944656
0.0565805 0.661662 0.916075
0.247578 0.645548 0.887495
0.438575 0.629419 0.858915
0.629572 0.613291 0.83035
0.820554 0.597162 0.80177
1 0.581048 0.77319
1 0.56492 0.74461
0 0.846738 0.921462
0 0.830625 0.892897
0 0.814496 0.864317
0.177005 0.798367 0.835737
0.368002 0.782238 0.807157
0.558999 0.766125 0.778576
0.749996 0.749996 0.749996
0.940993 0.733867 0.721416
1 0.717754 0.692836
0 0.999573 0.869703
0 0.983444 0.841123
0 0.967315 0.812543
0.106447 0.951202 0.783963
0.297444 0.935073 0.755383
0.488441 0.918944 0.726802
0.679438 0.902831 0.698222
0.87042 0.886702 0.669642
1 0.870573 0.641077
0 1 0.817929
0 1 0.789364
0 1 0.760784
0.0358892 1 0.732204
0.226871 1 0.703624
0.417868 1 0.675044
0.608865 1 0.646464
0.799863 1 0.617884
0.99086 1 0.589303
0.0319982 0 1
0.22298 0 1
0.413962 0 1
0.604959 0 1
0.795956 0 1
0.986954 0 1
1 0 1
1 0 1
1 0 1
0 0.0709087 1
0.152422 0.0547799 1
0.34342 0.0386511 1
0.534401 0.0225376 1
0.725399 0.00640879 1
0.916396 0 1
1 0 1
1 0 1
1 0 1
0 0.223728 1
0.0818494 0.207614 1
0.272847 0.191485 1
0.463844 0.175357 1
0.654841 0.159228 1
0.845838 0.143114 1
1 0.126986 1
1 0.110857 1
1 0.0947433 1
0 0.376562 1
0.0112917 0.360433 1
0.202289 0.344305 1
0.393271 0.328191 1
0.584268 0.312062 1
0.775265 0.295933 1
0.966262 0.27982 1
1 0.263691 1
1 0.247562 1
0 0.529381 1
0 0.513268 1
0.131716 0.497139 1
0.322713 0.48101 1
0.51371 0.464897 1
0.704707 0.448768 1
0.895705 0.432639 1
1 0.41651 1
1 0.400397 1
0 0.682216 1
0 0.666087 1
0.0611582 0.649958 1
0.252155 0.633844 1
0.443137 0.617716 1
0.634134 0.601587 1
0.825132 0.585473 1
1 0.569345 0.978531
1 0.553216 0.94995
0 0.835035 1
0 0.818921 1
0 0.802792 1
0.181582 0.786664 1
0.37258 0.77055 1
0.563577 0.754421 0.983917
0.754574 0.738293 0.955352
0.945556 0.722164 0.926772
1 0.70605 0.898192
0 0.987869 1
0 0.97174 1
0 0.955627 1
0.111025 0.939498 0.989319
0.302022 0.923369 0.960739
0.493004 0.90724 0.932158
0.684001 0.891127 0.903578
0.874998 0.874998 0.874998
1 0.858869 0.846418
0 1 1
0 1 0.994705
0 1 0.966125
0.0404517 1 0.937545
0.231449 1 0.908965
0.422446 1 0.880385
0.613443 1 0.851804
0.80444 1 0.823224
0.995422 1 0.794644
0.0365759 0 1
0.227543 0 1
0.41854 0 1
0.609537 0 1
0.800534 0 1
0.991531 0 1
1 0 1
1 0 1
1 0 1
0 0.059205 1
0.156985 0.0430762 1
0.347982 0.0269474 1
0.538979 0.0108339 1
0.729976 0 1
0.920974 0 1
1 0 1
1 0 1
1 0 1
0 0.212024 1
0.0864271 0.195911 1
0.277424 0.179782 1
0.468421 0.163653 1
0.659403 0.147539 1
0.850401 0.131411 1
1 0.115282 1
1 0.0991684 1
1 0.0830396 1
0 0.364858 1
0.0158541 0.34873 1
0.206851 0.332616 1
0.397848 0.316487 1
0.588846 0.300359 1
0.779843 0.28423 1
0.97084 0.268116 1
1 0.251987 1
1 0.235859 1
0 0.517678 1
0 0.501564 1
0.136294 0.485435 1
0.327291 0.469306 1
0.518273 0.453193 1
0.70927 0.437064 1
0.900267 0.420935 1
1 0.404822 1
1 0.388693 1
0 0.670512 1
0 0.654383 1
0.0657206 0.63827 1
0.256718 0.622141 1
0.447715 0.606012 1
0.638712 0.589899 1
0.829709 0.57377 1
1 0.557641 1
1 0.541512 1
0 0.823331 1
0 0.807218 1
0 0.791089 1
0.18616 0.77496 1
0.377157 0.758846 1
0.568139 0.742718 1
0.759136 0.726589 1
0.950134 0.710475 1
1 0.694347 1
0 0.976165 1
0 0.960037 1
0 0.943923 1
0.115587 0.927794 1
0.306584 0.911665 1
0.497581 0.895552 1
0.688579 0.879423 1
0.879576 0.863294 1
1 0.847166 1
0 1 1
0 1 1
0 1 1
0.0450294 1 1
0.236027 1 1
0.427024 1 1
0.618006 1 1
0.809003 1 1
1 1 1
