public/LUTS/Color Shift/ColorShift_94.cube
TITLE "Generated by Resolve"
LUT_3D_SIZE 5
0 0 0
0 0.0909285 0.303502
0 0.181857 0.607004
0 0.272786 0.910521
0 0.363714 1
0.590127 0.0383154 0.269322
0.406973 0.129244 0.572824
0.223804 0.220172 0.876326
0.04065 0.311101 1
0 0.402029 1
1 0.0766461 0.538659
0.997131 0.167575 0.842161
0.813962 0.258503 1
0.630808 0.349432 1
0.447639 0.44036 1
1 0.114977 0.808011
1 0.20589 1
1 0.296818 1
1 0.387747 1
1 0.478676 1
1 0.153292 1
1 0.244221 1
1 0.335149 1
1 0.426078 1
1 0.517006 1
0 0.120745 0
0 0.211673 0
0 0.302602 0.284184
0 0.39353 0.587686
0 0.484459 0.891203
0.433143 0.15906 0
0.249989 0.249989 0.249989
0.0668193 0.340917 0.553506
0 0.431846 0.857023
0 0.522774 1
1 0.197391 0.215839
0.840146 0.288319 0.519326
0.656977 0.379248 0.822843
0.473823 0.470176 1
0.290654 0.561105 1
1 0.235721 0.485176
1 0.326635 0.788663
1 0.417563 1
1 0.508492 1
0.880812 0.59942 1
1 0.274037 0.754513
1 0.364965 1
1 0.455894 1
1 0.546822 1
1 0.637751 1
0 0.241489 0
0 0.332418 0
0 0.423346 0
0 0.514275 0.264836
0 0.605203 0.568353
0.276143 0.27982 0
0.0930037 0.370733 0
0 0.461662 0.230655
0 0.55259 0.534173
0 0.643519 0.837674
0.8663 0.318135 0
0.683162 0.409064 0.196475
0.499992 0.499992 0.499992
0.316823 0.590921 0.80351
0.133669 0.681849 1
1 0.356466 0.162325
1 0.447395 0.465812
1 0.538323 0.769329
0.906981 0.629252 1
0.723827 0.72018 1
1 0.394797 0.431662
1 0.48571 0.735164
1 0.576638 1
1 0.667567 1
1 0.758495 1
0 0.362249 0
0 0.453162 0
0 0.544091 0
0 0.635019 0
0 0.725948 0.245502
0.119158 0.400565 0
0 0.491493 0
0 0.582422 0
0 0.67335 0.211322
0 0.764279 0.514824
0.709316 0.438895 0
0.526162 0.529809 0
0.343008 0.620737 0.177142
0.159838 0.711666 0.480659
0 0.802594 0.784176
1 0.477211 0
1 0.568139 0.142962
0.933165 0.659068 0.446479
0.749996 0.749996 0.749996
0.566827 0.840925 1
1 0.515541 0.108812
1 0.60647 0.412314
1 0.697398 0.715816
1 0.788327 1
1 0.879255 1
0 0.482994 0
0 0.573922 0
0 0.664851 0
0 0.755779 0
0 0.846708 0
0 0.521309 0
0 0.612238 0
0 0.703166 0
0 0.794095 0
0 0.885023 0.191974
0.552331 0.55964 0
0.369177 0.650568 0
0.186007 0.741497 0
0.00283818 0.832425 0.157809
0 0.923354 0.461326
1 0.597971 0
0.959335 0.688884 0
0.776165 0.779812 0.123629
0.593011 0.870741 0.427146
0.409842 0.961669 0.730663
1 0.636286 0
1 0.727214 0.0894636
1 0.818143 0.392966
1 0.909072 0.696483
1 1 1
