public/LUTS/Color Shift/ColorShift_47.cube
TITLE "Generated by Resolve"
LUT_3D_SIZE 5
0 0 0
0 0.0964675 0.1402
0 0.19295 0.2804
0 0.289418 0.420615
0 0.385901 0.560815
0.380606 0.0953536 0.314626
0.248951 0.191821 0.45481
0.117281 0.288304 0.595026
0 0.384771 0.735225
0 0.481254 0.875441
0.761242 0.190707 0.629267
0.629587 0.28719 0.769451
0.497917 0.383658 0.909667
0.366262 0.48014 1
0.234592 0.576608 1
1 0.286076 0.943893
1 0.382544 1
0.878553 0.479011 1
0.746883 0.575494 1
0.615228 0.671977 1
1 0.38143 1
1 0.477897 1
1 0.57438 1
1 0.670848 1
0.995865 0.76733 1
0.00103761 0.0581674 0
0 0.154635 0
0 0.251118 0.0755779
0 0.347585 0.215778
0 0.444068 0.355978
0.381643 0.153521 0.109789
0.249989 0.249989 0.249989
0.118318 0.346471 0.390188
0 0.442939 0.530404
0 0.539422 0.670604
0.76228 0.248875 0.42443
0.630625 0.345342 0.56463
0.498955 0.441825 0.704829
0.367285 0.538293 0.845045
0.23563 0.634775 0.985245
1 0.344244 0.739071
1 0.440711 0.879271
0.879591 0.537179 1
0.747921 0.633661 1
0.616266 0.730129 1
1 0.439597 1
1 0.536065 1
1 0.632547 1
1 0.729015 1
0.996887 0.825498 1
0.00207523 0.116335 0
0 0.212802 0
0 0.309285 0
0 0.405753 0.0109407
0 0.502235 0.151141
0.382681 0.211688 0
0.251026 0.308156 0.0451514
0.119356 0.404639 0.185351
0 0.501106 0.325551
0 0.597589 0.465766
0.763317 0.307042 0.219593
0.631662 0.40351 0.359792
0.499992 0.499992 0.499992
0.368322 0.596475 0.640192
0.236667 0.692943 0.780407
1 0.402411 0.534234
1 0.498878 0.674434
0.880629 0.595346 0.814633
0.748959 0.691829 0.954833
0.617288 0.788296 1
1 0.497765 0.848875
1 0.594232 0.989059
1 0.690715 1
1 0.787182 1
0.997925 0.883665 1
0.00311284 0.174502 0
0 0.27097 0
0 0.367453 0
0 0.46392 0
0 0.560403 0
0.383719 0.269856 0
0.252064 0.366323 0
0.120394 0.462806 0
0 0.559274 0.120714
0 0.655756 0.260929
0.764355 0.365209 0.0147402
0.6327 0.461692 0.15494
0.50103 0.55816 0.295155
0.36936 0.654643 0.435355
0.23769 0.75111 0.575555
1 0.460578 0.329381
1 0.557046 0.469581
0.881666 0.653513 0.609796
0.749996 0.749996 0.749996
0.618326 0.846479 0.890196
1 0.555932 0.644022
1 0.652399 0.784222
1 0.748882 0.924437
1 0.84535 1
0.998962 0.941833 1
0.0041352 0.23267 0
0 0.329137 0
0 0.42562 0
0 0.522087 0
0 0.61857 0
0.384756 0.328023 0
0.253101 0.424491 0
0.121431 0.520974 0
0 0.617441 0
0 0.713924 0.0560769
0.765393 0.423377 0
0.633722 0.51986 0
0.502068 0.616327 0.0903029
0.370398 0.71281 0.230518
0.238727 0.809277 0.370718
1 0.518746 0.124544
1 0.615213 0.264744
0.882704 0.711696 0.404944
0.751034 0.808164 0.545159
0.619364 0.904646 0.685359
1 0.614099 0.439185
1 0.710567 0.579385
1 0.80705 0.719585
1 0.903517 0.8598
1 1 1
