public/LUTS/Color Shift/ColorShift_95.cube
TITLE "Generated by Resolve"
LUT_3D_SIZE 33
0 0 0
0 0.0129854 0.0340887
0 0.0259709 0.0681926
0 0.0389563 0.102296
0 0.051957 0.1364
0 0.0649424 0.170504
0 0.0779278 0.204608
0 0.0909133 0.238712
0 0.103914 0.272816
0 0.116899 0.30692
0 0.129885 0.341024
0 0.14287 0.375128
0 0.155871 0.409247
0 0.168856 0.443351
0 0.181842 0.477455
0 0.194827 0.511559
0 0.207828 0.545663
0 0.220813 0.579767
0 0.233799 0.61387
0 0.246784 0.647974
0 0.259785 0.682078
0 0.27277 0.716182
0 0.285756 0.750286
0 0.298741 0.78439
0 0.311742 0.818494
0 0.324727 0.852598
0 0.337713 0.886702
0 0.350698 0.920806
0 0.363684 0.95491
0 0.376684 0.989013
0 0.38967 1
0 0.402655 1
0 0.415641 1
0.0717784 0.00456245 0.0399176
0.0451209 0.0175479 0.0740063
0.0184634 0.0305486 0.10811
0 0.043534 0.142229
0 0.0565194 0.176333
0 0.0695048 0.210437
0 0.0825055 0.244541
0 0.095491 0.278645
0 0.108476 0.312749
0 0.121462 0.346853
0 0.134447 0.380957
0 0.147448 0.415061
0 0.160433 0.449165
0 0.173419 0.483268
0 0.186404 0.517372
0 0.199405 0.551476
0 0.21239 0.58558
0 0.225376 0.619684
0 0.238361 0.653788
0 0.251362 0.687892
0 0.264347 0.721996
0 0.277333 0.7561
0 0.290318 0.790219
0 0.303319 0.824323
0 0.316304 0.858427
0 0.32929 0.892531
0 0.342275 0.926635
0 0.355276 0.960739
0 0.368261 0.994842
0 0.381247 1
0 0.394232 1
0 0.407233 1
0 0.420218 1
0.143587 0.00914015 0.0798657
0.11693 0.0221256 0.113954
0.0902724 0.035111 0.148058
0.0636149 0.0480964 0.182162
0.0369421 0.0610971 0.216266
0.0102846 0.0740826 0.25037
0 0.087068 0.284474
0 0.100053 0.318578
0 0.113054 0.352697
0 0.12604 0.386801
0 0.139025 0.420905
0 0.15201 0.455009
0 0.165011 0.489113
0 0.177996 0.523217
0 0.190982 0.557321
0 0.203967 0.591424
0 0.216968 0.625528
0 0.229953 0.659632
0 0.242939 0.693736
0 0.255924 0.72784
0 0.268925 0.761944
0 0.28191 0.796048
0 0.294896 0.830152
0 0.307881 0.864256
0 0.320882 0.89836
0 0.333867 0.932464
0 0.346853 0.966567
0 0.359838 1
0 0.372839 1
0 0.385824 1
0 0.39881 1
0 0.411795 1
0 0.424796 1
0.215396 0.0137179 0.119814
0.188754 0.026688 0.153903
0.162081 0.0396887 0.188006
0.135424 0.0526741 0.22211
0.108766 0.0656596 0.256214
0.0820935 0.078645 0.290318
0.055436 0.0916457 0.324422
0.0287785 0.104631 0.358526
0.00210575 0.117617 0.39263
0 0.130602 0.426734
0 0.143603 0.460838
0 0.156588 0.494942
0 0.169574 0.529046
0 0.182559 0.563165
0 0.19556 0.597269
0 0.208545 0.631373
0 0.22153 0.665476
0 0.234516 0.69958
0 0.247517 0.733684
0 0.260502 0.767788
0 0.273487 0.801892
0 0.286473 0.835996
0 0.299474 0.8701
0 0.312459 0.904204
0 0.325444 0.938308
0 0.33843 0.972412
0 0.351431 1
0 0.364416 1
0 0.377401 1
0 0.390387 1
0 0.403388 1
0 0.416373 1
0 0.429358 1
0.287205 0.0182803 0.159762
0.260563 0.0312657 0.193851
0.23389 0.0442512 0.227955
0.207233 0.0572519 0.262058
0.180575 0.0702373 0.296162
0.153903 0.0832227 0.330266
0.127245 0.0962081 0.36437
0.100587 0.109209 0.398474
0.0739147 0.122194 0.432578
0.0472572 0.13518 0.466682
0.0205997 0.148165 0.500786
0 0.161166 0.53489
0 0.174151 0.568994
0 0.187137 0.603098
0 0.200122 0.637201
0 0.213123 0.671305
0 0.226108 0.705409
0 0.239094 0.739513
0 0.252079 0.773632
0 0.26508 0.807736
0 0.278065 0.84184
0 0.291051 0.875944
0 0.304036 0.910048
0 0.317021 0.944152
0 0.330022 0.978256
0 0.343008 1
0 0.355993 1
0 0.368978 1
0 0.381979 1
0 0.394965 1
0 0.40795 1
0 0.420935 1
0 0.433936 1
0.359014 0.022858 0.199695
0.332372 0.0358434 0.233783
0.305699 0.0488289 0.267887
0.279042 0.0618143 0.302007
0.252384 0.0747997 0.33611
0.225711 0.0878004 0.370214
0.199054 0.100786 0.404318
0.172396 0.113771 0.438422
0.145739 0.126757 0.472526
0.119066 0.139757 0.50663
0.0924086 0.152743 0.540734
0.0657511 0.165728 0.574838
0.0390784 0.178714 0.608942
0.0124208 0.191714 0.643046
0 0.2047 0.67715
0 0.217685 0.711254
0 0.230671 0.745357
0 0.243671 0.779461
0 0.256657 0.813565
0 0.269642 0.847669
0 0.282628 0.881773
0 0.295628 0.915877
0 0.308614 0.949981
0 0.321599 0.9841
0 0.334585 1
0 0.347585 1
0 0.360571 1
0 0.373556 1
0 0.386542 1
0 0.399542 1
0 0.412528 1
0 0.425513 1
0 0.438499 1
0.430823 0.0274205 0.239643
0.404181 0.0404059 0.273732
0.377523 0.0534066 0.307836
0.350851 0.066392 0.341939
0.324193 0.0793774 0.376043
0.297536 0.0923629 0.410147
0.270863 0.105348 0.444251
0.244205 0.118349 0.478355
0.217548 0.131334 0.512474
0.190875 0.14432 0.546578
0.164218 0.157305 0.580682
0.13756 0.170306 0.614786
0.110887 0.183291 0.64889
0.0842298 0.196277 0.682994
0.0575723 0.209262 0.717098
0.0308995 0.222263 0.751202
0.00424201 0.235248 0.785306
0 0.248234 0.819409
0 0.261219 0.853513
0 0.27422 0.887617
0 0.287205 0.921721
0 0.300191 0.955825
0 0.313176 0.989929
0 0.326177 1
0 0.339162 1
0 0.352148 1
0 0.365133 1
0 0.378134 1
0 0.391119 1
0 0.404105 1
0 0.41709 1
0 0.430091 1
0 0.443076 1
0.502632 0.0319982 0.279591
0.47599 0.0449836 0.31368
0.449332 0.057969 0.347784
0.42266 0.0709544 0.381888
0.396002 0.0839551 0.415991
0.369345 0.0969406 0.450095
0.342672 0.109926 0.484199
0.316014 0.122911 0.518303
0.289357 0.135912 0.552407
0.262684 0.148898 0.586511
0.236027 0.161883 0.620615
0.209369 0.174868 0.654719
0.182696 0.187869 0.688823
0.156039 0.200855 0.722942
0.129381 0.21384 0.757046
0.102724 0.226825 0.79115
0.076051 0.239826 0.825254
0.0493935 0.252811 0.859358
0.0227359 0.265797 0.893462
0 0.278782 0.927565
0 0.291783 0.961669
0 0.304768 0.995773
0 0.317754 1
0 0.330739 1
0 0.34374 1
0 0.356725 1
0 0.369711 1
0 0.382696 1
0 0.395697 1
0 0.408682 1
0 0.421668 1
0 0.434653 1
0 0.447639 1
0.574441 0.0365759 0.319539
0.547799 0.049546 0.353628
0.521141 0.0625467 0.387732
0.494469 0.0755322 0.421836
0.467811 0.0885176 0.45594
0.441154 0.101503 0.490043
0.414481 0.114504 0.524147
0.387823 0.127489 0.558251
0.361166 0.140475 0.592355
0.334508 0.15346 0.626459
0.307836 0.166461 0.660563
0.281178 0.179446 0.694667
0.25452 0.192432 0.728771
0.227848 0.205417 0.762875
0.20119 0.218418 0.796979
0.174533 0.231403 0.831083
0.14786 0.244388 0.865187
0.121202 0.257374 0.89929
0.0945449 0.270375 0.93341
0.0678721 0.28336 0.967514
0.0412146 0.296345 1
0.0145571 0.309331 1
0 0.322332 1
0 0.335317 1
0 0.348302 1
0 0.361288 1
0 0.374289 1
0 0.387274 1
0 0.400259 1
0 0.413245 1
0 0.426246 1
0 0.439231 1
0 0.452216 1
0.646265 0.0411383 0.359472
0.619608 0.0541238 0.393561
0.59295 0.0671092 0.427665
0.566278 0.0801099 0.461769
0.53962 0.0930953 0.495888
0.512963 0.106081 0.529992
0.486305 0.119066 0.564095
0.459632 0.132067 0.598199
0.432975 0.145052 0.632303
0.406317 0.158038 0.666407
0.379644 0.171023 0.700511
0.352987 0.184024 0.734615
0.326329 0.197009 0.768719
0.299657 0.209995 0.802823
0.272999 0.22298 0.836927
0.246342 0.235966 0.871031
0.219669 0.248966 0.905135
0.193011 0.261952 0.939239
0.166354 0.274937 0.973342
0.139681 0.287922 1
0.113024 0.300923 1
0.0863661 0.313909 1
0.0597086 0.326894 1
0.0330358 0.339879 1
0.00637827 0.35288 1
0 0.365866 1
0 0.378851 1
0 0.391836 1
0 0.404837 1
0 0.417823 1
0 0.430808 1
0 0.443793 1
0 0.456794 1
0.718074 0.045716 0.39942
0.691417 0.0587015 0.433509
0.664759 0.0716869 0.467613
0.638102 0.0846723 0.501717
0.611429 0.0976577 0.535821
0.584772 0.110658 0.569924
0.558114 0.123644 0.604028
0.531441 0.136629 0.638132
0.504784 0.149615 0.672236
0.478126 0.162615 0.706355
0.451453 0.175601 0.740459
0.424796 0.188586 0.774563
0.398138 0.201572 0.808667
0.371466 0.214572 0.842771
0.344808 0.227558 0.876875
0.318151 0.240543 0.910979
0.291493 0.253529 0.945083
0.26482 0.266529 0.979187
0.238163 0.279515 1
0.211505 0.2925 1
0.184833 0.305486 1
0.158175 0.318486 1
0.131518 0.331472 1
0.104845 0.344457 1
0.0781872 0.357443 1
0.0515297 0.370443 1
0.0248569 0.383429 1
0 0.396414 1
0 0.4094 1
0 0.4224 1
0 0.435386 1
0 0.448371 1
0 0.461357 1
0.789883 0.0502785 0.439368
0.763226 0.0632639 0.473457
0.736568 0.0762493 0.507561
0.709911 0.08925 0.541665
0.683238 0.102235 0.575769
0.65658 0.115221 0.609873
0.629923 0.128206 0.643977
0.60325 0.141207 0.67808
0.576593 0.154192 0.712184
0.549935 0.167178 0.746288
0.523262 0.180163 0.780392
0.496605 0.193164 0.814496
0.469947 0.206149 0.8486
0.44329 0.219135 0.882704
0.416617 0.23212 0.916823
0.38996 0.245121 0.950927
0.363302 0.258106 0.985031
0.336629 0.271092 1
0.309972 0.284077 1
0.283314 0.297078 1
0.256641 0.310063 1
0.229984 0.323049 1
0.203326 0.336034 1
0.176654 0.349035 1
0.149996 0.36202 1
0.123339 0.375006 1
0.0966659 0.387991 1
0.0700084 0.400992 1
0.0433509 0.413977 1
0.0166934 0.426963 1
0 0.439948 1
0 0.452949 1
0 0.465934 1
0.861692 0.0548562 0.479316
0.835035 0.0678416 0.513405
0.808377 0.080827 0.547509
0.78172 0.0938125 0.581613
0.755047 0.106813 0.615717
0.728389 0.119799 0.649821
0.701732 0.132784 0.683925
0.675074 0.145769 0.718029
0.648402 0.15877 0.752132
0.621744 0.171756 0.786236
0.595087 0.184741 0.82034
0.568414 0.197726 0.854444
0.541756 0.210727 0.888548
0.515099 0.223713 0.922652
0.488426 0.236698 0.956756
0.461769 0.249683 0.99086
0.435111 0.262684 1
0.408438 0.275669 1
0.381781 0.288655 1
0.355123 0.30164 1
0.32845 0.314641 1
0.301793 0.327626 1
0.275135 0.340612 1
0.248478 0.353597 1
0.221805 0.366583 1
0.195148 0.379583 1
0.16849 0.392569 1
0.141817 0.405554 1
0.11516 0.41854 1
0.0885023 0.43154 1
0.0618296 0.444526 1
0.035172 0.457511 1
0.00851453 0.470497 1
0.933501 0.0594339 0.519249
0.906844 0.0724041 0.553338
0.880186 0.0854047 0.587442
0.853529 0.0983902 0.621546
0.826871 0.111376 0.655665
0.800198 0.124361 0.689769
0.773541 0.137362 0.723873
0.746883 0.150347 0.757977
0.720211 0.163333 0.792081
0.693553 0.176318 0.826185
0.666896 0.189319 0.860288
0.640223 0.202304 0.894392
0.613565 0.21529 0.928496
0.586908 0.228275 0.9626
0.560235 0.241276 0.996704
0.533578 0.254261 1
0.50692 0.267247 1
0.480247 0.280232 1
0.45359 0.293233 1
0.426932 0.306218 1
0.400275 0.319203 1
0.373602 0.332189 1
0.346944 0.34519 1
0.320287 0.358175 1
0.293614 0.37116 1
0.266957 0.384146 1
0.240299 0.397147 1
0.213626 0.410132 1
0.186969 0.423117 1
0.160311 0.436103 1
0.133639 0.449104 1
0.106981 0.462089 1
0.0803235 0.475074 1
1 0.0639963 0.559197
0.978668 0.0769818 0.593286
0.951995 0.0899672 0.62739
0.925338 0.102968 0.661494
0.89868 0.115953 0.695598
0.872007 0.128939 0.729702
0.84535 0.141924 0.763806
0.818692 0.15491 0.797909
0.79202 0.16791 0.832013
0.765362 0.180896 0.866133
0.738705 0.193881 0.900236
0.712032 0.206867 0.93434
0.685374 0.219867 0.968444
0.658717 0.232853 1
0.632059 0.245838 1
0.605386 0.258824 1
0.578729 0.271824 1
0.552071 0.28481 1
0.525399 0.297795 1
0.498741 0.31078 1
0.472084 0.323781 1
0.445411 0.336767 1
0.418753 0.349752 1
0.392096 0.362737 1
0.365423 0.375738 1
0.338766 0.388724 1
0.312108 0.401709 1
0.285435 0.414694 1
0.258778 0.427695 1
0.23212 0.440681 1
0.205463 0.453666 1
0.17879 0.466651 1
0.152132 0.479652 1
1 0.068574 0.599145
1 0.0815595 0.633234
1 0.0945449 0.667338
0.997147 0.10753 0.701442
0.970489 0.120516 0.735546
0.943816 0.133516 0.76965
0.917159 0.146502 0.803754
0.890501 0.159487 0.837858
0.863828 0.172473 0.871962
0.837171 0.185473 0.906065
0.810513 0.198459 0.940169
0.783856 0.211444 0.974273
0.757183 0.22443 1
0.730526 0.23743 1
0.703868 0.250416 1
0.677195 0.263401 1
0.650538 0.276387 1
0.62388 0.289387 1
0.597208 0.302373 1
0.57055 0.315358 1
0.543893 0.328344 1
0.51722 0.341344 1
0.490562 0.35433 1
0.463905 0.367315 1
0.437232 0.380301 1
0.410574 0.393301 1
0.383917 0.406287 1
0.357259 0.419272 1
0.330587 0.432258 1
0.303929 0.445258 1
0.277272 0.458244 1
0.250599 0.471229 1
0.223941 0.484215 1
1 0.0731365 0.639094
1 0.0861219 0.673182
1 0.0991073 0.707286
1 0.112108 0.74139
1 0.125093 0.775494
1 0.138079 0.809598
0.988968 0.151064 0.843702
0.96231 0.164065 0.877806
0.935653 0.17705 0.91191
0.90898 0.190036 0.946014
0.882322 0.203021 0.980117
0.855665 0.216022 1
0.828992 0.229007 1
0.802335 0.241993 1
0.775677 0.254978 1
0.749004 0.267979 1
0.722347 0.280964 1
0.695689 0.29395 1
0.669017 0.306935 1
0.642359 0.319936 1
0.615702 0.332921 1
0.589044 0.345907 1
0.562371 0.358892 1
0.535714 0.371893 1
0.509056 0.384878 1
0.482383 0.397864 1
0.455726 0.410849 1
0.429068 0.42385 1
0.402396 0.436835 1
0.375738 0.449821 1
0.349081 0.462806 1
0.322408 0.475807 1
0.29575 0.488792 1
1 0.0777142 0.679026
1 0.0906996 0.713115
1 0.103685 0.747219
1 0.11667 0.781323
1 0.129671 0.815427
1 0.142657 0.849546
1 0.155642 0.88365
1 0.168627 0.917754
1 0.181628 0.951858
0.980789 0.194614 0.985962
0.954131 0.207599 1
0.927474 0.220584 1
0.900801 0.233585 1
0.874144 0.246571 1
0.847486 0.259556 1
0.820813 0.272541 1
0.794156 0.285527 1
0.767498 0.298528 1
0.740841 0.311513 1
0.714168 0.324498 1
0.68751 0.337484 1
0.660853 0.350484 1
0.63418 0.36347 1
0.607523 0.376455 1
0.580865 0.389441 1
0.554192 0.402441 1
0.527535 0.415427 1
0.500877 0.428412 1
0.474205 0.441398 1
0.447547 0.454398 1
0.42089 0.467384 1
0.394217 0.480369 1
0.367559 0.493355 1
1 0.0822919 0.718975
1 0.0952621 0.753063
1 0.108263 0.787167
1 0.121248 0.821271
1 0.134234 0.855375
1 0.147219 0.889479
1 0.16022 0.923583
1 0.173205 0.957687
1 0.186191 0.991791
1 0.199176 1
1 0.212177 1
0.999283 0.225162 1
0.972625 0.238148 1
0.945953 0.251133 1
0.919295 0.264134 1
0.892638 0.277119 1
0.865965 0.290105 1
0.839307 0.30309 1
0.81265 0.316091 1
0.785977 0.329076 1
0.759319 0.342061 1
0.732662 0.355047 1
0.705989 0.368048 1
0.679332 0.381033 1
0.652674 0.394018 1
0.626001 0.407004 1
0.599344 0.420005 1
0.572686 0.43299 1
0.546029 0.445975 1
0.519356 0.458961 1
0.492699 0.471962 1
0.466041 0.484947 1
0.439368 0.497932 1
1 0.0868544 0.758923
1 0.0998398 0.793011
1 0.112825 0.827115
1 0.125811 0.861219
1 0.138811 0.895323
1 0.151797 0.929427
1 0.164782 0.963531
1 0.177768 0.997635
1 0.190768 1
1 0.203754 1
1 0.216739 1
1 0.229725 1
1 0.242725 1
1 0.255711 1
0.991104 0.268696 1
0.964446 0.281682 1
0.937774 0.294682 1
0.911116 0.307668 1
0.884459 0.320653 1
0.857786 0.333639 1
0.831128 0.346639 1
0.804471 0.359625 1
0.777798 0.37261 1
0.751141 0.385595 1
0.724483 0.398596 1
0.697826 0.411582 1
0.671153 0.424567 1
0.644495 0.437552 1
0.617838 0.450553 1
0.591165 0.463539 1
0.564508 0.476524 1
0.53785 0.489509 1
0.511177 0.50251 1
1 0.0914321 0.798871
1 0.104417 0.832959
1 0.117403 0.867063
1 0.130388 0.901167
1 0.143374 0.935271
1 0.156374 0.969375
1 0.16936 1
1 0.182345 1
1 0.195331 1
1 0.208331 1
1 0.221317 1
1 0.234302 1
1 0.247288 1
1 0.260288 1
1 0.273274 1
1 0.286259 1
1 0.299245 1
0.982925 0.312245 1
0.956268 0.325231 1
0.92961 0.338216 1
0.902937 0.351202 1
0.87628 0.364202 1
0.849622 0.377188 1
0.82295 0.390173 1
0.796292 0.403159 1
0.769635 0.416144 1
0.742962 0.429145 1
0.716304 0.44213 1
0.689647 0.455116 1
0.662974 0.468101 1
0.636316 0.481102 1
0.609659 0.494087 1
0.582986 0.507073 1
1 0.0959945 0.838804
1 0.10898 0.872892
1 0.121965 0.906996
1 0.134966 0.9411
1 0.147951 0.975204
1 0.160937 1
1 0.173922 1
1 0.186923 1
1 0.199908 1
1 0.212894 1
1 0.225879 1
1 0.23888 1
1 0.251865 1
1 0.264851 1
1 0.277836 1
1 0.290837 1
1 0.303822 1
1 0.316808 1
1 0.329793 1
1 0.342794 1
0.974746 0.355779 1
0.948089 0.368765 1
0.921431 0.38175 1
0.894759 0.394751 1
0.868101 0.407736 1
0.841443 0.420722 1
0.814771 0.433707 1
0.788113 0.446708 1
0.761456 0.459693 1
0.734798 0.472679 1
0.708125 0.485664 1
0.681468 0.498665 1
0.65481 0.51165 1
1 0.100572 0.878752
1 0.113558 0.91284
1 0.126543 0.946944
1 0.139528 0.981048
1 0.152529 1
1 0.165515 1
1 0.1785 1
1 0.191485 1
1 0.204471 1
1 0.217472 1
1 0.230457 1
1 0.243442 1
1 0.256428 1
1 0.269429 1
1 0.282414 1
1 0.295399 1
1 0.308385 1
1 0.321386 1
1 0.334371 1
1 0.347356 1
1 0.360342 1
1 0.373342 1
0.99324 0.386328 1
0.966567 0.399313 1
0.93991 0.412299 1
0.913252 0.425299 1
0.886595 0.438285 1
0.859922 0.45127 1
0.833265 0.464256 1
0.806607 0.477256 1
0.779934 0.490242 1
0.753277 0.503227 1
0.726619 0.516213 1
1 0.10515 0.9187
1 0.11812 0.952789
1 0.131121 0.986893
1 0.144106 1
1 0.157092 1
1 0.170077 1
1 0.183078 1
1 0.196063 1
1 0.209049 1
1 0.222034 1
1 0.235035 1
1 0.24802 1
1 0.261006 1
1 0.273991 1
1 0.286992 1
1 0.299977 1
1 0.312963 1
1 0.325948 1
1 0.338949 1
1 0.351934 1
1 0.36492 1
1 0.377905 1
1 0.390906 1
1 0.403891 1
1 0.416876 1
0.985061 0.429862 1
0.958404 0.442863 1
0.931731 0.455848 1
0.905074 0.468833 1
0.878416 0.481819 1
0.851743 0.49482 1
0.825086 0.507805 1
0.798428 0.52079 1
1 0.109712 0.958648
1 0.122698 0.992737
1 0.135683 1
1 0.148669 1
1 0.161669 1
1 0.174655 1
1 0.18764 1
1 0.200626 1
1 0.213626 1
1 0.226612 1
1 0.239597 1
1 0.252583 1
1 0.265583 1
1 0.278569 1
1 0.291554 1
1 0.30454 1
1 0.31754 1
1 0.330526 1
1 0.343511 1
1 0.356497 1
1 0.369497 1
1 0.382483 1
1 0.395468 1
1 0.408453 1
1 0.421454 1
1 0.43444 1
1 0.447425 1
1 0.46041 1
0.976883 0.473411 1
0.950225 0.486397 1
0.923552 0.499382 1
0.896895 0.512367 1
0.870237 0.525368 1
1 0.11429 0.998581
1 0.127275 1
1 0.140261 1
1 0.153246 1
1 0.166232 1
1 0.179232 1
1 0.192218 1
1 0.205203 1
1 0.218189 1
1 0.231189 1
1 0.244175 1
1 0.25716 1
1 0.270146 1
1 0.283146 1
1 0.296132 1
1 0.309117 1
1 0.322103 1
1 0.335103 1
1 0.348089 1
1 0.361074 1
1 0.37406 1
1 0.387045 1
1 0.400046 1
1 0.413031 1
1 0.426017 1
1 0.439002 1
1 0.452003 1
1 0.464988 1
1 0.477974 1
1 0.490959 1
0.995377 0.50396 1
0.968704 0.516945 1
0.942046 0.529931 1
1 0.118853 1
1 0.131838 1
1 0.144823 1
1 0.157824 1
1 0.170809 1
1 0.183795 1
1 0.19678 1
1 0.209781 1
1 0.222766 1
1 0.235752 1
1 0.248737 1
1 0.261738 1
1 0.274723 1
1 0.287709 1
1 0.300694 1
1 0.313695 1
1 0.32668 1
1 0.339666 1
1 0.352651 1
1 0.365652 1
1 0.378637 1
1 0.391623 1
1 0.404608 1
1 0.417609 1
1 0.430594 1
1 0.44358 1
1 0.456565 1
1 0.469566 1
1 0.482551 1
1 0.495537 1
1 0.508522 1
1 0.521523 1
1 0.534508 1
1 0.12343 1
1 0.136416 1
1 0.149401 1
1 0.162387 1
1 0.175372 1
1 0.188373 1
1 0.201358 1
1 0.214343 1
1 0.227329 1
