public/LUTS/Color Shift/ColorShift_61.cube
TITLE "Generated by Resolve"
LUT_3D_SIZE 33
0 0 0
0 0.0151675 0
0 0.0303502 0
0 0.0455329 0
0 0.0607004 0
0 0.0758831 0
0 0.0910658 0
0 0.106233 0
0 0.121416 0
0 0.136599 0
0 0.151766 0
0 0.166949 0
0 0.182132 0
0 0.197299 0
0 0.212482 0
0 0.227665 0
0 0.242847 0
0 0.258015 0
0 0.273198 0
0 0.28838 0
0 0.303548 0
0 0.31873 0
0 0.333913 0
0 0.349081 0
0 0.364263 0
0 0.379446 0
0 0.394614 0
0 0.409796 0
0 0.424979 0
0 0.440146 0
0 0.455329 0
0 0.470512 0
0 0.485695 0
0 0.0286259 0.0584421
0 0.0438087 0.024033
0 0.0589761 0
0 0.0741588 0
0 0.0893416 0
0 0.104509 0
0 0.119692 0
0 0.134874 0
0 0.150042 0
0 0.165225 0
0 0.180407 0
0 0.195575 0
0 0.210758 0
0 0.22594 0
0 0.241123 0
0 0.256291 0
0 0.271473 0
0 0.286656 0
0 0.301823 0
0 0.317006 0
0 0.332189 0
0 0.347356 0
0 0.362539 0
0 0.377722 0
0 0.392889 0
0 0.408072 0
0 0.423255 0
0 0.438437 0
0 0.453605 0
0 0.468788 0
0 0.48397 0
0 0.499138 0
0 0.514321 0
0 0.0572824 0.116899
0 0.0724498 0.0825055
0 0.0876326 0.0480964
0 0.1028 0.0136721
0 0.117983 0
0 0.133165 0
0 0.148333 0
0 0.163516 0
0 0.178698 0
0 0.193866 0
0 0.209049 0
0 0.224231 0
0 0.239414 0
0 0.254582 0
0 0.269764 0
0 0.284947 0
0 0.300114 0
0 0.315297 0
0 0.33048 0
0 0.345647 0
0 0.36083 0
0 0.376013 0
0 0.39118 0
0 0.406363 0
0 0.421546 0
0 0.436713 0
0 0.451896 0
0 0.467079 0
0 0.482261 0
0 0.497429 0
0 0.512612 0
0 0.527794 0
0 0.542962 0
0 0.0859236 0.175372
0 0.101091 0.140978
0 0.116274 0.106554
0 0.131456 0.0721447
0 0.146624 0.0377356
0 0.161807 0.00331121
0 0.176989 0
0 0.192157 0
0 0.20734 0
0 0.222522 0
0 0.23769 0
0 0.252872 0
0 0.268055 0
0 0.283238 0
0 0.298405 0
0 0.313588 0
0 0.328771 0
0 0.343938 0
0 0.359121 0
0 0.374304 0
0 0.389471 0
0 0.404654 0
0 0.419837 0
0 0.435004 0
0 0.450187 0
0 0.46537 0
0 0.480537 0
0 0.49572 0
0 0.510903 0
0 0.526085 0
0 0.541253 0
0 0.556435 0
0 0.571618 0
0 0.114565 0.233845
0 0.129747 0.199435
0 0.144915 0.165026
0 0.160098 0.130617
0 0.17528 0.0961929
0 0.190448 0.0617838
0 0.205631 0.0273594
0 0.220813 0
0 0.235981 0
0 0.251164 0
0 0.266346 0
0 0.281514 0
0 0.296696 0
0 0.311879 0
0 0.327062 0
0 0.342229 0
0 0.357412 0
0 0.372595 0
0 0.387762 0
0 0.402945 0
0 0.418128 0
0 0.433295 0
0 0.448478 0
0 0.463661 0
0 0.478828 0
0 0.494011 0
0 0.509194 0
0 0.524361 0
0 0.539544 0
0 0.554726 0
0 0.569909 0
0 0.585077 0
0 0.600259 0
0 0.143221 0.292302
0 0.158389 0.257908
0 0.173571 0.223499
0 0.188739 0.189075
0 0.203922 0.154665
0 0.219104 0.120241
0 0.234272 0.085832
0 0.249454 0.0514229
0 0.264637 0.0169985
0 0.279805 0
0 0.294987 0
0 0.31017 0
0 0.325338 0
0 0.34052 0
0 0.355703 0
0 0.370886 0
0 0.386053 0
0 0.401236 0
0 0.416419 0
0 0.431586 0
0 0.446769 0
0 0.461952 0
0 0.477119 0
0 0.492302 0
0 0.507485 0
0 0.522652 0
0 0.537835 0
0 0.553017 0
0 0.5682 0
0 0.583368 0
0 0.59855 0
0 0.613733 0
0 0.628901 0
0 0.171862 0.350774
0 0.18703 0.316381
0 0.202213 0.281956
0 0.217395 0.247547
0 0.232563 0.213138
0 0.247745 0.178714
0 0.262928 0.144305
0 0.278096 0.10988
0 0.293278 0.0754711
0 0.308461 0.041062
0 0.323629 0.00663767
0 0.338811 0
0 0.353994 0
0 0.369177 0
0 0.384344 0
0 0.399527 0
0 0.41471 0
0 0.429877 0
0 0.44506 0
0 0.460243 0
0 0.47541 0
0 0.490593 0
0 0.505776 0
0 0.520943 0
0 0.536126 0
0 0.551308 0
0 0.566476 0
0 0.581659 0
0 0.596841 0
0 0.612024 0
0 0.627192 0
0 0.642374 0
0 0.657557 0
0 0.200504 0.409247
0 0.215686 0.374838
0 0.230854 0.340429
0 0.246036 0.30602
0 0.261219 0.271595
0 0.276387 0.237186
0 0.291569 0.202762
0 0.306752 0.168353
0 0.32192 0.133944
0 0.337102 0.0995193
0 0.352285 0.0651102
0 0.367453 0.0306859
0 0.382635 0
0 0.397818 0
0 0.413001 0
0 0.428168 0
0 0.443351 0
0 0.458534 0
0 0.473701 0
0 0.488884 0
0 0.504067 0
0 0.519234 0
0 0.534417 0
0 0.549599 0
0 0.564767 0
0 0.57995 0
0 0.595132 0
0 0.6103 0
0 0.625483 0
0 0.640665 0
0 0.655848 0
0 0.671016 0
0 0.686198 0
0 0.22916 0.467704
0 0.244327 0.43331
0 0.25951 0.398901
0 0.274678 0.364477
0 0.28986 0.330068
0 0.305043 0.295644
0 0.320211 0.261234
0 0.335393 0.226825
0 0.350576 0.192401
0 0.365743 0.157992
0 0.380926 0.123568
0 0.396109 0.0891585
0 0.411276 0.0547494
0 0.426459 0.020325
0 0.441642 0
0 0.456825 0
0 0.471992 0
0 0.487175 0
0 0.502358 0
0 0.517525 0
0 0.532708 0
0 0.54789 0
0 0.563058 0
0 0.578241 0
0 0.593423 0
0 0.608591 0
0 0.623774 0
0 0.638956 0
0 0.654124 0
0 0.669306 0
0 0.684489 0
0 0.699672 0
0 0.714839 0
0 0.257801 0.526177
0 0.272969 0.491783
0 0.288151 0.457359
0 0.303334 0.42295
0 0.318502 0.388525
0 0.333684 0.354116
0 0.348867 0.319707
0 0.364034 0.285283
0 0.379217 0.250874
0 0.3944 0.216449
0 0.409567 0.18204
0 0.42475 0.147631
0 0.439933 0.113207
0 0.4551 0.0787976
0 0.470283 0.0443885
0 0.485466 0.00996414
0 0.500648 0
0 0.515816 0
0 0.530999 0
0 0.546181 0
0 0.561349 0
0 0.576532 0
0 0.591714 0
0 0.606882 0
0 0.622065 0
0 0.637247 0
0 0.652415 0
0 0.667597 0
0 0.68278 0
0 0.697948 0
0 0.71313 0
0 0.728313 0
0 0.743496 0
0 0.286442 0.584649
0 0.301625 0.55024
0 0.316793 0.515831
0 0.331975 0.481407
0 0.347158 0.446998
0 0.362325 0.412589
0 0.377508 0.378164
0 0.392691 0.343755
0 0.407858 0.309346
0 0.423041 0.274922
0 0.438224 0.240513
0 0.453391 0.206088
0 0.468574 0.171679
0 0.483757 0.13727
0 0.498939 0.102846
0 0.514107 0.0684367
0 0.52929 0.0340124
0 0.544472 0
0 0.55964 0
0 0.574823 0
0 0.590005 0
0 0.605173 0
0 0.620356 0
0 0.635538 0
0 0.650706 0
0 0.665888 0
0 0.681071 0
0 0.696239 0
0 0.711421 0
0 0.726604 0
0 0.741787 0
0 0.756954 0
0 0.772137 0
0 0.315099 0.643107
0 0.330266 0.608713
0 0.345449 0.574304
0 0.360616 0.539879
0 0.375799 0.50547
0 0.390982 0.471046
0 0.406149 0.436637
0 0.421332 0.402228
0 0.436515 0.367803
0 0.451682 0.333394
0 0.466865 0.29897
0 0.482048 0.264561
0 0.497215 0.230152
0 0.512398 0.195727
0 0.527581 0.161318
0 0.542763 0.126894
0 0.557931 0.0924849
0 0.573114 0.0580758
0 0.588296 0.0236515
0 0.603464 0
0 0.618647 0
0 0.633829 0
0 0.648997 0
0 0.664179 0
0 0.679362 0
0 0.69453 0
0 0.709712 0
0 0.724895 0
0 0.740063 0
0 0.755245 0
0 0.770428 0
0 0.785611 0
0 0.800778 0
0 0.34374 0.701579
0 0.358907 0.667185
0 0.37409 0.632761
0 0.389273 0.598352
0 0.40444 0.563928
0 0.419623 0.529519
0 0.434806 0.495109
0 0.449973 0.460685
0 0.465156 0.426276
0 0.480339 0.391852
0 0.495506 0.357443
0 0.510689 0.323033
0 0.525872 0.288609
0 0.541039 0.2542
0 0.556222 0.219776
0 0.571405 0.185367
0 0.586587 0.150958
0 0.601755 0.116533
0 0.616938 0.0821241
0 0.63212 0.0476997
0 0.647288 0.0132906
0 0.66247 0
0 0.677653 0
0 0.692821 0
0 0.708003 0
0 0.723186 0
0 0.738354 0
0 0.753536 0
0 0.768719 0
0 0.783886 0
0 0.799069 0
0 0.814252 0
0 0.829435 0
0 0.372381 0.760037
0 0.387564 0.725643
0 0.402731 0.691234
0 0.417914 0.656809
0 0.433097 0.6224
0 0.448264 0.587991
0 0.463447 0.553567
0 0.47863 0.519158
0 0.493797 0.484733
0 0.50898 0.450324
0 0.524163 0.415915
0 0.53933 0.381491
0 0.554513 0.347082
0 0.569696 0.312657
0 0.584863 0.278248
0 0.600046 0.243839
0 0.615228 0.209415
0 0.630411 0.175006
0 0.645579 0.140597
0 0.660761 0.106172
0 0.675944 0.0717632
0 0.691112 0.0373388
0 0.706294 0.00292973
0 0.721477 0
0 0.736645 0
0 0.751827 0
0 0.76701 0
0 0.782177 0
0 0.79736 0
0 0.812543 0
0 0.82771 0
0 0.842893 0
0 0.858076 0
0 0.401038 0.818509
0 0.416205 0.784115
0 0.431388 0.749691
0 0.446555 0.715282
0 0.461738 0.680873
0 0.476921 0.646448
0 0.492088 0.612039
0 0.507271 0.577615
0 0.522454 0.543206
0 0.537621 0.508797
0 0.552804 0.474372
0 0.567987 0.439963
0 0.583154 0.405554
0 0.598337 0.37113
0 0.613519 0.336721
0 0.628687 0.302296
0 0.64387 0.267887
0 0.659052 0.233478
0 0.674235 0.199054
0 0.689403 0.164645
0 0.704585 0.13022
0 0.719768 0.0958114
0 0.734936 0.0614023
0 0.750118 0.026978
0 0.765301 0
0 0.780468 0
0 0.795651 0
0 0.810834 0
0 0.826001 0
0 0.841184 0
0 0.856367 0
0 0.87155 0
0 0.886717 0
0 0.429679 0.876982
0 0.444846 0.842573
0 0.460029 0.808164
0 0.475212 0.773754
0 0.490379 0.73933
0 0.505562 0.704921
0 0.520745 0.670512
0 0.535912 0.636088
0 0.551095 0.601678
0 0.566278 0.567254
0 0.581445 0.532845
0 0.596628 0.498436
0 0.611811 0.464012
0 0.626978 0.429603
0 0.642161 0.395178
0 0.657343 0.360769
0 0.672526 0.32636
0 0.687694 0.291936
0 0.702876 0.257527
0 0.718059 0.223102
0 0.733227 0.188693
0 0.748409 0.154284
0 0.763592 0.11986
0 0.778759 0.0854505
0 0.793942 0.0510262
0 0.809125 0.0166171
0 0.824292 0
0 0.839475 0
0 0.854658 0
0 0.869825 0
0 0.885008 0
0 0.900191 0
0 0.915373 0
0 0.45832 0.935439
0 0.473503 0.901045
0 0.48867 0.866636
0 0.503853 0.832212
0 0.519036 0.797803
0 0.534203 0.763394
0 0.549386 0.728969
0 0.564569 0.69456
0 0.579736 0.660136
0 0.594919 0.625727
0 0.610101 0.591318
0 0.625269 0.556893
0 0.640452 0.522484
0 0.655634 0.48806
0 0.670802 0.453651
0 0.685985 0.419242
0 0.701167 0.384817
0 0.71635 0.350408
0 0.731517 0.315984
0 0.7467 0.281575
0 0.761883 0.247166
0 0.77705 0.212741
0 0.792233 0.178332
0 0.807416 0.143908
0 0.822583 0.109499
0 0.837766 0.0750896
0 0.852949 0.0406653
0 0.868116 0.0062562
0 0.883299 0
0 0.898482 0
0 0.913649 0
0 0.928832 0
0 0.944015 0
0 0.486976 0.993912
0 0.502144 0.959518
0 0.517327 0.925093
0 0.532494 0.890684
0 0.547677 0.856275
0 0.56286 0.821851
0 0.578027 0.787442
0 0.59321 0.753017
0 0.608392 0.718608
0 0.62356 0.684199
0 0.638743 0.649775
0 0.653925 0.615366
0 0.669093 0.580941
0 0.684276 0.546532
0 0.699458 0.512123
0 0.714626 0.477699
0 0.729809 0.44329
0 0.744991 0.408865
0 0.760174 0.374456
0 0.775341 0.340047
0 0.790524 0.305623
0 0.805707 0.271214
0 0.820874 0.236805
0 0.836057 0.20238
0 0.85124 0.167971
0 0.866407 0.133547
0 0.88159 0.0991379
0 0.896773 0.0647288
0 0.91194 0.0303044
0 0.927123 0
0 0.942306 0
0 0.957473 0
0 0.972656 0
0 0.515618 1
0 0.530785 1
0 0.545968 0.983566
0 0.561151 0.949157
0 0.576318 0.914733
0 0.591501 0.880323
0 0.606683 0.845899
0 0.621851 0.81149
0 0.637034 0.777081
0 0.652216 0.742657
0 0.667384 0.708247
0 0.682567 0.673823
0 0.697749 0.639414
0 0.712917 0.605005
0 0.728099 0.570581
0 0.743282 0.536171
0 0.75845 0.501762
0 0.773632 0.467338
0 0.788815 0.432929
0 0.803998 0.398505
0 0.819165 0.364096
0 0.834348 0.329686
0 0.849531 0.295262
0 0.864698 0.260853
0 0.879881 0.226429
0 0.895064 0.19202
0 0.910231 0.15761
0 0.925414 0.123186
0 0.940597 0.088777
0 0.955764 0.0543526
0 0.970947 0.0199435
0 0.98613 0
0 1 0
0 0.544259 1
0 0.559426 1
0 0.574609 1
0 0.589792 1
0 0.604974 0.973205
0 0.620142 0.938781
0 0.635325 0.904372
0 0.650507 0.869963
0 0.665675 0.835538
0 0.680858 0.801129
0 0.69604 0.76672
0 0.711208 0.732296
0 0.72639 0.697887
0 0.741573 0.663462
0 0.756741 0.629053
0 0.771923 0.594644
0 0.787106 0.56022
0 0.802289 0.525811
0 0.817456 0.491386
0 0.832639 0.456977
0 0.847822 0.422568
0 0.862989 0.388144
0 0.878172 0.353735
0 0.893355 0.31931
0 0.908522 0.284901
0 0.923705 0.250492
0 0.938888 0.216068
0 0.954055 0.181659
0 0.969238 0.147234
0 0.984421 0.112825
0 0.999588 0.0784161
0 1 0.0439918
0 1 0.00958267
0 0.572915 1
0 0.588083 1
0 0.603265 1
0 0.618433 1
0 0.633616 1
0 0.648798 0.997253
0 0.663966 0.962844
0 0.679149 0.92842
0 0.694331 0.894011
0 0.709499 0.859602
0 0.724681 0.825177
0 0.739864 0.790768
0 0.755032 0.756344
0 0.770214 0.721935
0 0.785397 0.687526
0 0.800565 0.653101
0 0.815747 0.618692
0 0.83093 0.584268
0 0.846113 0.549859
0 0.86128 0.51545
0 0.876463 0.481025
0 0.891646 0.446616
0 0.906813 0.412192
0 0.921996 0.377783
0 0.937179 0.343374
0 0.952346 0.308949
0 0.967529 0.27454
0 0.982712 0.240116
0 0.997879 0.205707
0 1 0.171298
0 1 0.136873
0 1 0.102464
0 1 0.0680552
0 0.601556 1
0 0.616724 1
0 0.631907 1
0 0.647089 1
0 0.662257 1
0 0.67744 1
0 0.692622 1
0 0.70779 0.986893
0 0.722972 0.952483
0 0.738155 0.918059
0 0.753323 0.88365
0 0.768505 0.849226
0 0.783688 0.814817
0 0.798856 0.780407
0 0.814038 0.745983
0 0.829221 0.711574
0 0.844388 0.67715
0 0.859571 0.642741
0 0.874754 0.608331
0 0.889937 0.573907
0 0.905104 0.539498
0 0.920287 0.505074
0 0.93547 0.470665
0 0.950637 0.436255
0 0.96582 0.401831
0 0.981003 0.367422
0 0.99617 0.333013
0 1 0.298589
0 1 0.264179
0 1 0.229755
0 1 0.195346
0 1 0.160937
0 1 0.126513
0 0.630198 1
0 0.645365 1
0 0.660548 1
0 0.675731 1
0 0.690913 1
0 0.706081 1
0 0.721263 1
0 0.736446 1
0 0.751614 1
0 0.766796 0.976532
0 0.781979 0.942107
0 0.797147 0.907698
0 0.812329 0.873289
0 0.827512 0.838865
0 0.84268 0.804456
0 0.857862 0.770031
0 0.873045 0.735622
0 0.888212 0.701213
0 0.903395 0.666789
0 0.918578 0.63238
0 0.933761 0.597971
0 0.948928 0.563546
0 0.964111 0.529137
0 0.979294 0.494713
0 0.994461 0.460304
0 1 0.425895
0 1 0.39147
0 1 0.357061
0 1 0.322637
0 1 0.288228
0 1 0.253819
0 1 0.219394
0 1 0.184985
0 0.658854 1
0 0.674022 1
0 0.689189 1
0 0.704372 1
0 0.719554 1
0 0.734737 1
0 0.749905 1
0 0.765087 1
0 0.78027 1
0 0.795438 1
0 0.81062 1
0 0.825803 0.966171
0 0.84097 0.931746
0 0.856153 0.897337
0 0.871336 0.862928
0 0.886503 0.828504
0 0.901686 0.794095
0 0.916869 0.75967
0 0.932036 0.725261
0 0.947219 0.690852
0 0.962402 0.656428
0 0.977584 0.622019
0 0.992752 0.587594
0 1 0.553185
0 1 0.518776
0 1 0.484352
0 1 0.449943
0 1 0.415518
0 1 0.381109
0 1 0.3467
0 1 0.312276
0 1 0.277867
0 1 0.243442
0 0.687495 1
0 0.702663 1
0 0.717845 1
0 0.733028 1
0 0.748196 1
0 0.763378 1
0 0.778561 1
0 0.793729 1
0 0.808911 1
0 0.824094 1
0 0.839261 1
0 0.854444 1
0 0.869627 0.990219
0 0.884794 0.95581
0 0.899977 0.921386
0 0.91516 0.886976
0 0.930327 0.852552
0 0.94551 0.818143
0 0.960693 0.783734
0 0.975875 0.74931
0 0.991043 0.7149
0 1 0.680476
0 1 0.646067
0 1 0.611658
0 1 0.577234
0 1 0.542824
0 1 0.5084
0 1 0.473991
0 1 0.439582
0 1 0.405158
0 1 0.370748
0 1 0.336324
0 1 0.301915
0 0.716136 1
0 0.731304 1
0 0.746487 1
0 0.761669 1
0 0.776852 1
0 0.79202 1
0 0.807202 1
0 0.822385 1
0 0.837552 1
0 0.852735 1
0 0.867918 1
0 0.883085 1
0 0.898268 1
0 0.913451 1
0 0.928618 0.979858
0 0.943801 0.945434
0 0.958984 0.911025
0 0.974151 0.876616
0 0.989334 0.842191
0 1 0.807782
0 1 0.773358
0 1 0.738949
0 1 0.70454
0 1 0.670115
0 1 0.635706
0 1 0.601282
0 1 0.566873
0 1 0.532464
0 1 0.498039
0 1 0.46363
0 1 0.429221
0 1 0.394797
0 1 0.360388
0 0.744793 1
0 0.75996 1
0 0.775128 1
0 0.790311 1
0 0.805493 1
0 0.820676 1
0 0.835843 1
0 0.851026 1
0 0.866209 1
0 0.881376 1
0 0.896559 1
0 0.911742 1
0 0.926909 1
0 0.942092 1
0 0.957275 1
0 0.972442 1
0 0.987625 0.969497
0 1 0.935073
0 1 0.900664
0 1 0.866239
0 1 0.83183
0 1 0.797421
0 1 0.762997
0 1 0.728588
0 1 0.694179
0 1 0.659754
0 1 0.625345
0 1 0.590921
0 1 0.556512
0 1 0.522103
0 1 0.487678
0 1 0.453269
0 1 0.418845
0 0.773434 1
0 0.788602 1
0 0.803784 1
0 0.818952 1
0 0.834134 1
0 0.849317 1
0 0.8645 1
0 0.879667 1
0 0.89485 1
