public/LUTS/Color Shift/ColorShift_81.cube
TITLE "Generated by Resolve"
LUT_3D_SIZE 9
0 0 0
0.161013 0 0.132616
0.322042 0 0.265232
0.48307 0 0.397864
0.644099 0 0.530495
0.805127 0 0.663111
0.966155 0 0.795743
1 0 0.928374
1 0 1
0.123827 0.103044 0
0.28484 0.0751965 0.0142824
0.445869 0.0473335 0.146899
0.606897 0.0194705 0.27953
0.767926 0 0.412161
0.928954 0 0.544778
1 0 0.677409
1 0 0.81004
1 0 0.942657
0.247684 0.206119 0
0.408698 0.178256 0
0.569726 0.150393 0.0285649
0.730755 0.12253 0.161181
0.891783 0.094667 0.293812
1 0.0668193 0.426444
1 0.0389563 0.55906
1 0.0110933 0.691691
1 0 0.824323
0.371527 0.309178 0
0.53254 0.281315 0
0.693568 0.253452 0
0.854597 0.225589 0.0428321
1 0.197742 0.175463
1 0.169879 0.308095
1 0.142016 0.440711
1 0.114153 0.573343
1 0.0862898 0.705974
0.495384 0.412238 0
0.656382 0.384375 0
0.817411 0.356527 0
0.978454 0.328664 0
1 0.300801 0.0571145
1 0.272938 0.189746
1 0.245075 0.322377
1 0.217212 0.454994
1 0.189364 0.587625
0.619226 0.515297 0
0.78024 0.487449 0
0.941268 0.459586 0
1 0.431724 0
1 0.403861 0
1 0.375998 0.071397
1 0.348135 0.204028
1 0.320287 0.336645
1 0.292424 0.469276
0.743069 0.618357 0
0.904082 0.590509 0
1 0.562646 0
1 0.534783 0
1 0.50692 0
1 0.479057 0
1 0.451209 0.0856794
1 0.423346 0.218296
1 0.395483 0.350927
0.866926 0.721431 0
1 0.693568 0
1 0.665705 0
1 0.637842 0
1 0.609979 0
1 0.582132 0
1 0.554269 0
1 0.526406 0.0999619
1 0.498543 0.232578
0.990768 0.824491 0
1 0.796628 0
1 0.768765 0
1 0.740902 0
1 0.713054 0
1 0.685191 0
1 0.657328 0
1 0.629465 0
1 0.601602 0.114229
0 0.0497902 0.110704
0.00115969 0.0219425 0.24332
0.162188 0 0.375952
0.323217 0 0.508568
0.484245 0 0.641199
0.645274 0 0.773831
0.806302 0 0.906447
0.96733 0 1
1 0 1
0 0.15285 0
0.124987 0.124987 0.124987
0.286015 0.0971237 0.257618
0.447044 0.0692607 0.390234
0.608072 0.041413 0.522866
0.7691 0.01355 0.655497
0.930129 0 0.788113
1 0 0.920745
1 0 1
0.0878309 0.255909 0
0.248829 0.228046 0.00663767
0.409857 0.200183 0.139269
0.570901 0.172335 0.271901
0.731929 0.144472 0.404517
0.892958 0.116609 0.537148
1 0.0887465 0.669779
1 0.0608835 0.802396
1 0.0330205 0.935027
0.211673 0.358968 0
0.372686 0.331106 0
0.533715 0.303258 0.0209201
0.694743 0.275395 0.153552
0.855772 0.247532 0.286168
1 0.219669 0.418799
1 0.191806 0.551431
1 0.163943 0.684047
1 0.136095 0.816678
0.335515 0.462028 0
0.496529 0.43418 0
0.657557 0.406317 0
0.818586 0.378454 0.0352026
0.979614 0.350591 0.167819
1 0.322728 0.30045
1 0.294865 0.433082
1 0.267018 0.565713
1 0.239155 0.698329
0.459373 0.565087 0
0.620386 0.53724 0
0.781415 0.509377 0
0.942443 0.481514 0
1 0.453651 0.049485
1 0.425788 0.182101
1 0.39794 0.314733
1 0.370077 0.447364
1 0.342214 0.57998
0.583215 0.668162 0
0.744228 0.640299 0
0.905257 0.612436 0
1 0.584573 0
1 0.55671 0
1 0.528862 0.0637522
1 0.500999 0.196384
1 0.473136 0.329015
1 0.445274 0.461631
0.707073 0.771221 0
0.86807 0.743358 0
1 0.715496 0
1 0.687648 0
1 0.659785 0
1 0.631922 0
1 0.604059 0.0780346
1 0.576196 0.210666
1 0.548333 0.343297
0.830915 0.874281 0
0.991928 0.846418 0
1 0.81857 0
1 0.790707 0
1 0.762844 0
1 0.734981 0
1 0.707118 0
1 0.679255 0.0923171
1 0.651408 0.224948
0 0.0995956 0.221424
0 0.0717327 0.35404
0.00230411 0.0438697 0.486671
0.163333 0.016022 0.619287
0.324361 0 0.751919
0.48539 0 0.88455
0.646418 0 1
0.807446 0 1
0.96849 0 1
0 0.20264 0.103105
0 0.174792 0.235706
0.126146 0.146929 0.368338
0.287175 0.119066 0.500969
0.448203 0.0912032 0.633585
0.609232 0.0633402 0.766217
0.77026 0.0354772 0.898848
0.931289 0.00762951 1
1 0 1
0 0.305699 0
0.0889601 0.277852 0.117357
0.249989 0.249989 0.249989
0.411017 0.222126 0.38262
0.572045 0.194263 0.515236
0.733074 0.166415 0.647868
0.894102 0.138552 0.780499
1 0.110689 0.913115
1 0.082826 1
0.0518044 0.408774 0
0.212802 0.380911 0
0.373831 0.353048 0.13164
0.534859 0.325185 0.264271
0.695903 0.297337 0.396902
0.856931 0.269474 0.529519
1 0.241611 0.66215
1 0.213748 0.794781
1 0.185885 0.927398
0.175647 0.511833 0
0.33666 0.48397 0
0.497688 0.456107 0.0132906
0.658717 0.42826 0.145922
0.819745 0.400397 0.278553
0.980774 0.372534 0.41117
1 0.344671 0.543801
1 0.316808 0.676432
1 0.288945 0.809049
0.299489 0.614893 0
0.460502 0.58703 0
0.62153 0.559182 0
0.782559 0.531319 0.0275731
0.943587 0.503456 0.160204
1 0.475593 0.292821
1 0.44773 0.425452
1 0.419867 0.558083
1 0.39202 0.690715
0.423346 0.717952 0
0.58436 0.690105 0
0.745388 0.662242 0
0.906416 0.634379 0
1 0.606516 0.0418555
1 0.578653 0.174487
1 0.55079 0.307103
1 0.522942 0.439734
1 0.495079 0.572366
0.547189 0.821012 0
0.708202 0.793164 0
0.86923 0.765301 0
1 0.737438 0
1 0.709575 0
1 0.681712 0.0561379
1 0.653864 0.188754
1 0.626001 0.321386
1 0.598138 0.454017
0.671046 0.924086 0
0.832044 0.896223 0
0.993072 0.86836 0
1 0.840497 0
1 0.81265 0
1 0.784787 0
1 0.756924 0.0704204
1 0.729061 0.203037
1 0.701198 0.335668
0 0.149401 0.332158
0 0.121538 0.464759
0 0.0936751 0.597391
0.0034638 0.0658122 0.730022
0.164492 0.0379492 0.862638
0.325521 0.0101015 0.99527
0.486549 0 1
0.647578 0 1
0.808606 0 1
0 0.252445 0.213825
0 0.224582 0.346426
0 0.196719 0.479057
0.127291 0.168872 0.611688
0.288319 0.141009 0.744305
0.449348 0.113146 0.876936
0.610376 0.0852827 1
0.771405 0.0574197 1
0.932433 0.0295567 1
0 0.355505 0.0954757
0 0.327642 0.228092
0.0901198 0.299794 0.360708
0.251148 0.271931 0.493339
0.412177 0.244068 0.625971
0.573205 0.216205 0.758587
0.734234 0.188342 0.891218
0.895262 0.160479 1
1 0.132631 1
0 0.458564 0
0.0529335 0.430716 0.109743
0.213962 0.402853 0.242359
0.37499 0.37499 0.37499
0.536019 0.347127 0.507622
0.697047 0.319265 0.640238
0.858076 0.291417 0.772869
1 0.263554 0.905501
1 0.235691 1
0.0157778 0.561624 0
0.176776 0.533776 0
0.337804 0.505913 0.12401
0.498833 0.47805 0.256641
0.659861 0.450187 0.389273
0.820905 0.422339 0.521904
0.981933 0.394476 0.654521
1 0.366613 0.787152
1 0.33875 0.919783
0.13962 0.664698 0
0.300633 0.636835 0
0.461662 0.608972 0.00567636
0.62269 0.581109 0.138293
0.783719 0.553262 0.270924
0.944747 0.525399 0.403555
1 0.497536 0.536171
1 0.469673 0.668803
1 0.44181 0.801434
0.263462 0.767758 0
0.424475 0.739895 0
0.585504 0.712032 0
0.746532 0.684184 0.0199435
0.907561 0.656321 0.152575
1 0.628458 0.285206
1 0.600595 0.417823
1 0.572732 0.550454
1 0.544869 0.683085
0.38732 0.870817 0
0.548333 0.842954 0
0.709361 0.815106 0
0.87039 0.787243 0
1 0.75938 0.034226
1 0.731517 0.166857
1 0.703655 0.299489
1 0.675792 0.432105
1 0.647944 0.564736
0.511162 0.973877 0
0.672175 0.946029 0
0.833204 0.918166 0
0.994232 0.890303 0
1 0.86244 0
1 0.834577 0.0485084
1 0.806714 0.18114
1 0.778866 0.313756
1 0.751003 0.446387
0 0.199191 0.442878
0 0.171344 0.575479
0 0.143481 0.70811
0 0.115618 0.840742
0.00460822 0.0877546 0.973358
0.165637 0.0598917 1
0.326665 0.0320287 1
0.487709 0.00418097 1
0.648737 0 1
0 0.302251 0.324544
0 0.274388 0.45716
0 0.246525 0.589776
0 0.218662 0.722408
0.12845 0.190799 0.855039
0.289479 0.162951 0.987655
0.450507 0.135088 1
0.611536 0.107225 1
0.772564 0.0793622 1
0 0.40531 0.206195
0 0.377447 0.338811
0 0.349584 0.471427
0.0912642 0.321721 0.604059
0.252293 0.293873 0.73669
0.413321 0.266011 0.869307
0.57435 0.238148 1
0.735378 0.210285 1
0.896406 0.182422 1
0 0.50837 0.0878462
0 0.480507 0.220462
0.054078 0.452644 0.353079
0.215122 0.424796 0.48571
0.37615 0.396933 0.618341
0.537179 0.36907 0.750973
0.698207 0.341207 0.883589
0.859236 0.313344 1
1 0.285481 1
0 0.611429 0
0.016907 0.583566 0.102113
0.177935 0.555718 0.234745
0.338964 0.527855 0.367361
0.499992 0.499992 0.499992
0.661021 0.472129 0.632624
0.822049 0.444266 0.76524
0.983078 0.416419 0.897871
1 0.388556 1
0 0.714488 0
0.140749 0.686641 0
0.301778 0.658778 0.116396
0.462806 0.630915 0.249012
0.623835 0.603052 0.381643
0.784863 0.575189 0.514275
0.945907 0.547341 0.646906
1 0.519478 0.779522
1 0.491615 0.912154
0.103593 0.817548 0
0.264607 0.7897 0
0.425635 0.761837 0
0.586664 0.733974 0.130678
0.747692 0.706111 0.263294
0.908721 0.678264 0.395926
1 0.650401 0.528557
1 0.622538 0.661173
1 0.594675 0.793805
0.227436 0.920623 0
0.388449 0.89276 0
0.549477 0.864897 0
0.710506 0.837034 0.0123293
0.871534 0.809186 0.144945
1 0.781323 0.277577
1 0.75346 0.410208
1 0.725597 0.542824
1 0.697734 0.675456
0.351293 1 0
0.512291 0.995819 0
0.673335 0.967956 0
0.834363 0.940108 0
0.995392 0.912245 0.0266117
1 0.884382 0.159228
1 0.856519 0.291859
1 0.828656 0.424491
1 0.800793 0.557107
0 0.248997 0.553597
0 0.221134 0.686213
0 0.193271 0.81883
0 0.165423 0.951461
0 0.13756 1
0.00576791 0.109697 1
0.166796 0.0818341 1
0.327825 0.0539712 1
0.488853 0.0261082 1
0 0.352041 0.435264
0 0.324193 0.56788
0 0.29633 0.700496
0 0.268467 0.833127
0 0.240604 0.965759
0.129595 0.212741 1
0.290623 0.184878 1
0.451652 0.157031 1
0.612696 0.129168 1
0 0.4551 0.316915
0 0.427253 0.449531
0 0.39939 0.582162
0 0.371527 0.714778
0.0924239 0.343664 0.84741
0.253452 0.315801 0.980041
0.414481 0.287953 1
0.575509 0.26009 1
0.736538 0.232227 1
0 0.558175 0.198566
0 0.530312 0.331182
0 0.502449 0.463813
0.0552377 0.474586 0.596429
0.216266 0.446723 0.729061
0.377295 0.418875 0.861692
0.538323 0.391012 0.994308
0.699351 0.363149 1
0.86038 0.335286 1
0 0.661234 0.0802319
0 0.633371 0.212833
0.0180514 0.605509 0.345464
0.17908 0.577646 0.478096
0.340124 0.549798 0.610712
0.501152 0.521935 0.743343
0.662181 0.494072 0.875975
0.823209 0.466209 1
0.984237 0.438346 1
0 0.764294 0
0 0.736431 0.0944839
0.141909 0.708568 0.227115
0.302937 0.68072 0.359747
0.463966 0.652857 0.492363
0.624994 0.624994 0.624994
0.786023 0.597131 0.757626
0.947051 0.569268 0.890242
1 0.541421 1
0 0.867353 0
0.104723 0.839506 0
0.265751 0.811643 0.108766
0.42678 0.78378 0.241398
0.587808 0.755917 0.374014
0.748837 0.728054 0.506645
0.909865 0.700191 0.639277
1 0.672343 0.771893
1 0.64448 0.904524
0.0675669 0.970413 0
0.22858 0.942565 0
0.389609 0.914702 0
0.550637 0.886839 0.123049
0.711666 0.858976 0.25568
0.872694 0.831113 0.388296
1 0.803265 0.520928
1 0.775402 0.653559
1 0.747539 0.786175
0.191409 1 0
0.352422 1 0
0.513451 1 0
0.674479 0.989899 0.00469978
0.835508 0.962036 0.137331
0.996536 0.934188 0.269947
1 0.906325 0.402579
1 0.878462 0.53521
1 0.850599 0.667826
0 0.298787 0.664317
0 0.270939 0.796933
0 0.243076 0.929549
0 0.215213 1
0 0.18735 1
0 0.159487 1
0.0069276 0.13164 1
0.167956 0.103777 1
0.328984 0.0759136 1
0 0.401846 0.545983
0 0.373983 0.678599
0 0.34612 0.811231
0 0.318273 0.943847
0 0.29041 1
0 0.262547 1
0.130755 0.234684 1
0.291783 0.206821 1
0.452811 0.178958 1
0 0.504906 0.427634
0 0.477043 0.56025
0 0.449195 0.692882
0 0.421332 0.825498
0 0.393469 0.958129
0.0935683 0.365606 1
0.254597 0.337743 1
0.415625 0.30988 1
0.576654 0.282032 1
0 0.607965 0.3093
0 0.580118 0.441901
0 0.552254 0.574533
0 0.524392 0.707164
0.0563973 0.496529 0.83978
0.217426 0.468666 0.972412
0.378454 0.440803 1
0.539483 0.412955 1
0.700511 0.385092 1
0 0.711025 0.190951
0 0.683177 0.323552
0 0.655314 0.456184
0.0192111 0.627451 0.588815
0.18024 0.599588 0.721431
0.341268 0.571725 0.854063
0.502297 0.543877 0.986694
0.663325 0.516014 1
0.824353 0.488151 1
0 0.814099 0.0726024
0 0.786236 0.205203
0 0.758373 0.337835
0.143053 0.73051 0.470466
0.304082 0.702647 0.603098
0.465126 0.6748 0.735714
0.626154 0.646937 0.868345
0.787182 0.619074 1
0.948211 0.591211 1
0 0.917159 0
0 0.889296 0.0868696
0.105882 0.861433 0.219486
0.266911 0.83357 0.352117
0.427939 0.805722 0.484749
0.588968 0.777859 0.617365
0.749996 0.749996 0.749996
0.911025 0.722133 0.882628
1 0.69427 1
0 1 0
0.0686961 0.992355 0
0.229725 0.964508 0.101137
0.390753 0.936645 0.233768
0.551781 0.908782 0.3664
0.71281 0.880919 0.499016
0.873838 0.853056 0.631647
1 0.825193 0.764279
1 0.797345 0.89691
0.0315404 1 0
0.192554 1 0
0.353582 1 0
0.514611 1 0.115419
0.675639 1 0.248051
0.836667 0.983978 0.380682
0.997696 0.956115 0.513298
1 0.928267 0.64593
1 0.900404 0.778561
0 0.348592 0.775036
0 0.320729 0.907652
0 0.292882 1
0 0.265019 1
0 0.237156 1
0 0.209293 1
0 0.18143 1
0.00807202 0.153567 1
0.1691 0.125719 1
0 0.451637 0.656703
0 0.423789 0.789319
0 0.395926 0.92195
0 0.368063 1
0 0.3402 1
0 0.312337 1
0 0.284489 1
0.131914 0.256626 1
0.292943 0.228763 1
0 0.554711 0.538369
0 0.526848 0.67097
0 0.498985 0.803601
0 0.471122 0.936233
0 0.443275 1
0 0.415412 1
0.094728 0.387549 1
0.255756 0.359686 1
0.416785 0.331823 1
0 0.657771 0.42002
0 0.629908 0.552621
0 0.602045 0.685252
0 0.574197 0.817884
0 0.546334 0.9505
0.0575418 0.518471 1
0.21857 0.490608 1
0.379599 0.462745 1
0.540627 0.434882 1
0 0.76083 0.301671
0 0.732967 0.434287
0 0.705119 0.566903
0 0.677256 0.699535
0.0203708 0.649393 0.832166
0.181399 0.62153 0.964782
0.342428 0.593668 1
0.503456 0.565805 1
0.664485 0.537957 1
0 0.86389 0.183322
0 0.836042 0.315938
0 0.808179 0.448554
0 0.780316 0.581186
0.144213 0.752453 0.713817
0.305241 0.72459 0.846433
0.46627 0.696727 0.979065
0.627298 0.668879 1
0.788327 0.641016 1
0 0.966949 0.0649729
0 0.939101 0.197589
0 0.911238 0.330205
0.107027 0.883375 0.462837
0.268055 0.855512 0.595468
0.429084 0.827649 0.728099
0.590127 0.799802 0.860716
0.751156 0.771939 0.993347
0.912184 0.744076 1
0 1 0
0 1 0.0792401
0.0698558 1 0.211872
0.230884 0.986435 0.344488
0.391913 0.958572 0.477119
0.552941 0.930724 0.609751
0.71397 0.902861 0.742367
0.874998 0.874998 0.874998
1 0.847135 1
0 1 0
0.0326696 1 0
0.193698 1 0.0935225
0.354726 1 0.226139
0.515755 1 0.35877
0.676783 1 0.491402
0.837812 1 0.624018
0.99884 0.978058 0.756649
1 0.950195 0.889281
0 0.398398 0.885771
0 0.370535 1
0 0.342672 1
0 0.314809 1
0 0.286961 1
0 0.259098 1
0 0.231235 1
0 0.203372 1
0.00923171 0.175509 1
0 0.501442 0.767437
0 0.473579 0.900038
0 0.445731 1
0 0.417868 1
0 0.390005 1
0 0.362142 1
0 0.334279 1
0 0.306416 1
0.133059 0.278569 1
0 0.604501 0.649088
0 0.576654 0.781689
0 0.548791 0.914321
0 0.520928 1
0 0.493065 1
0 0.465202 1
0 0.437339 1
0.0958877 0.409491 1
0.256916 0.381628 1
0 0.707561 0.530739
0 0.679713 0.663355
0 0.65185 0.795972
0 0.623987 0.928603
0 0.596124 1
0 0.568276 1
0.0587015 0.540413 1
0.21973 0.512551 1
0.380758 0.484688 1
0 0.810636 0.41239
0 0.782773 0.545007
0 0.75491 0.677623
0 0.727047 0.810254
0 0.699199 0.942885
0.0215152 0.671336 1
0.182544 0.643473 1
0.343572 0.61561 1
0.504601 0.587747 1
0 0.913695 0.294041
0 0.885832 0.426657
0 0.857969 0.559289
0 0.830121 0.691905
0 0.802258 0.824537
0.145373 0.774395 0.957168
0.306401 0.746532 1
0.46743 0.718669 1
0.628458 0.690806 1
0 1 0.175692
0 0.988891 0.308309
0 0.961044 0.44094
0 0.933181 0.573556
0.108186 0.905318 0.706188
0.269215 0.877455 0.838819
0.430243 0.849592 0.971435
0.591272 0.821729 1
0.7523 0.793881 1
0 1 0.0573434
0 1 0.18996
0 1 0.322591
0.0710002 1 0.455207
0.232029 1 0.587839
0.393057 0.980514 0.72047
0.554086 0.952651 0.853101
0.715129 0.924804 0.985718
0.876158 0.896941 1
0 1 0
0 1 0.0716106
0.0338293 1 0.204242
0.194858 1 0.336873
0.355886 1 0.46949
0.516915 1 0.602121
0.677943 1 0.734752
0.838972 1 0.867369
1 1 1
