public/LUTS/Color Shift/ColorShift_95.cube
TITLE "Generated by Resolve"
LUT_3D_SIZE 5
0 0 0
0 0.103914 0.272816
0 0.207828 0.545663
0 0.311742 0.818494
0 0.415641 1
0.574441 0.0365759 0.319539
0.361166 0.140475 0.592355
0.14786 0.244388 0.865187
0 0.348302 1
0 0.452216 1
1 0.0731365 0.639094
0.935653 0.17705 0.91191
0.722347 0.280964 1
0.509056 0.384878 1
0.29575 0.488792 1
1 0.109712 0.958648
1 0.213626 1
1 0.31754 1
1 0.421454 1
0.870237 0.525368 1
1 0.146288 1
1 0.250187 1
1 0.354101 1
1 0.458015 1
1 0.561929 1
0 0.109514 0
0 0.213413 0
0 0.317327 0.203296
0 0.421241 0.476127
0 0.525154 0.748974
0.463279 0.146075 0
0.249989 0.249989 0.249989
0.0366979 0.353902 0.52282
0 0.457816 0.795666
0 0.56173 1
1 0.18265 0.296727
0.824475 0.286564 0.569543
0.61117 0.390478 0.842374
0.397879 0.494392 1
0.184573 0.598306 1
1 0.219226 0.616281
1 0.32314 0.889097
1 0.427039 1
0.972366 0.530953 1
0.75906 0.634867 1
1 0.255802 0.935836
1 0.359701 1
1 0.463615 1
1 0.567529 1
1 0.671443 1
0 0.219028 0
0 0.322942 0
0 0.426856 0
0 0.53077 0.133745
0 0.634684 0.406577
0.352087 0.255604 0
0.138811 0.359503 0
0 0.463416 0.180438
0 0.56733 0.453269
0 0.671244 0.726116
0.926574 0.292165 0
0.713283 0.396078 0.227161
0.499992 0.499992 0.499992
0.286687 0.603906 0.772824
0.0733959 0.70782 1
1 0.32874 0.273884
1 0.432654 0.546715
1 0.536568 0.819547
0.861173 0.640482 1
0.647883 0.744396 1
1 0.365316 0.593439
1 0.46923 0.866255
1 0.573144 1
1 0.677043 1
1 0.780957 1
0 0.328542 0
0 0.432456 0
0 0.53637 0
0 0.640284 0
0 0.744198 0.0641947
0.240909 0.365118 0
0.0276188 0.469032 0
0 0.572946 0
0 0.676844 0.110887
0 0.780758 0.383734
0.815396 0.401694 0
0.602106 0.505592 0
0.388815 0.609506 0.15761
0.175509 0.71342 0.430442
0 0.817334 0.703273
1 0.438254 0
1 0.542168 0.204318
0.963287 0.646082 0.477165
0.749996 0.749996 0.749996
0.53669 0.85391 1
1 0.47483 0.251057
1 0.578744 0.523873
1 0.682658 0.796719
1 0.786572 1
1 0.890486 1
0 0.438071 0
0 0.54197 0
0 0.645884 0
0 0.749798 0
0 0.853712 0
0.129732 0.474632 0
0 0.578546 0
0 0.68246 0
0 0.786374 0
0 0.890288 0.0413367
0.704219 0.511208 0
0.490929 0.615122 0
0.277623 0.719036 0
0.064332 0.82295 0.0880598
0 0.926848 0.360891
1 0.547784 0
1 0.651682 0
0.85211 0.755596 0.134768
0.638819 0.85951 0.407614
0.425513 0.963424 0.680446
1 0.58436 0
1 0.688258 0.181491
1 0.792172 0.454322
1 0.896086 0.727169
1 1 1
