public/LUTS/Color Shift/ColorShift_45.cube
TITLE "Generated by Resolve"
LUT_3D_SIZE 9
0 0 0
0 0.0413672 0.0910506
0 0.0827344 0.182101
0 0.124117 0.273152
0 0.165484 0.364218
0 0.206851 0.455268
0 0.248219 0.546319
0 0.289601 0.637369
0 0.330968 0.728435
0.204974 0.0467842 0.130007
0.153048 0.0881514 0.221042
0.101122 0.129519 0.312093
0.0491951 0.170886 0.403159
0 0.212268 0.494209
0 0.253635 0.58526
0 0.295003 0.676326
0 0.336385 0.767376
0 0.377752 0.858427
0.409964 0.0935683 0.260014
0.358053 0.134936 0.351064
0.306127 0.176303 0.442115
0.2542 0.21767 0.533165
0.202274 0.259052 0.624231
0.150347 0.30042 0.715282
0.0984207 0.341787 0.806332
0.0464942 0.383169 0.897398
0 0.424536 0.988449
0.614969 0.140352 0.390036
0.563043 0.18172 0.481071
0.511116 0.223087 0.572137
0.45919 0.264469 0.663188
0.407263 0.305837 0.754238
0.355337 0.347204 0.845304
0.30341 0.388586 0.936355
0.251484 0.429953 1
0.199557 0.471321 1
0.819959 0.187137 0.520043
0.768032 0.228504 0.611093
0.716106 0.269886 0.702144
0.664179 0.311254 0.79321
0.612268 0.352621 0.88426
0.560342 0.393988 0.975311
0.508415 0.43537 1
0.456489 0.476738 1
0.404562 0.518105 1
1 0.233921 0.650065
0.973037 0.275288 0.741115
0.921111 0.31667 0.832166
0.869184 0.358038 0.923217
0.817258 0.399405 1
0.765332 0.440787 1
0.713405 0.482155 1
0.661479 0.523522 1
0.609552 0.564889 1
1 0.28072 0.780087
1 0.322087 0.871122
1 0.363455 0.962188
1 0.404822 1
1 0.446189 1
0.970321 0.487572 1
0.918395 0.528939 1
0.866468 0.570306 1
0.814542 0.611688 1
1 0.327504 0.910094
1 0.368872 1
1 0.410239 1
1 0.451606 1
1 0.492988 1
1 0.534356 1
1 0.575723 1
1 0.61709 1
1 0.658473 1
1 0.374289 1
1 0.415656 1
1 0.457023 1
1 0.49839 1
1 0.539773 1
1 0.58114 1
1 0.622507 1
1 0.66389 1
1 0.705257 1
0 0.0368353 0
0 0.0782025 0
0 0.119585 0.0860456
0 0.160952 0.177096
0 0.202319 0.268147
0 0.243687 0.359213
0 0.285069 0.450263
0 0.326436 0.541314
0 0.367803 0.63238
0.176913 0.0836194 0.0339361
0.124987 0.124987 0.124987
0.0730602 0.166354 0.216037
0.0211337 0.207736 0.307103
0 0.249104 0.398154
0 0.290471 0.489204
0 0.331853 0.58027
0 0.37322 0.671321
0 0.414588 0.762371
0.381903 0.130404 0.163958
0.329976 0.171771 0.255009
0.27805 0.213138 0.346059
0.226123 0.25452 0.43711
0.174212 0.295888 0.528176
0.122286 0.337255 0.619226
0.0703593 0.378637 0.710277
0.0184329 0.420005 0.801328
0 0.461372 0.892393
0.586892 0.177188 0.29398
0.534981 0.218555 0.385016
0.483055 0.259937 0.476081
0.431128 0.301305 0.567132
0.379202 0.342672 0.658183
0.327276 0.384054 0.749233
0.275349 0.425422 0.840299
0.223423 0.466789 0.93135
0.171496 0.508156 1
0.791897 0.223972 0.423987
0.739971 0.265339 0.515038
0.688045 0.306722 0.606088
0.636118 0.348089 0.697139
0.584192 0.389456 0.788205
0.532265 0.430838 0.879255
0.480339 0.472206 0.970306
0.428412 0.513573 1
0.376486 0.554955 1
0.996887 0.270771 0.554009
0.944976 0.312139 0.645045
0.89305 0.353506 0.73611
0.841123 0.394873 0.827161
0.789197 0.436255 0.918212
0.73727 0.477623 1
0.685344 0.51899 1
0.633417 0.560357 1
0.581491 0.60174 1
1 0.317556 0.684031
1 0.358923 0.775067
1 0.40029 0.866117
1 0.441657 0.957183
0.994186 0.48304 1
0.94226 0.524407 1
0.890333 0.565774 1
0.838407 0.607156 1
0.78648 0.648524 1
1 0.36434 0.814038
1 0.405707 0.905089
1 0.447074 0.996139
1 0.488457 1
1 0.529824 1
1 0.571191 1
1 0.612558 1
1 0.653941 1
0.991485 0.695308 1
1 0.411124 0.94406
1 0.452491 1
1 0.493858 1
1 0.535241 1
1 0.576608 1
1 0.617975 1
1 0.659358 1
1 0.700725 1
1 0.742092 1
0 0.0736858 0
0 0.115053 0
0 0.15642 0
0 0.197787 0.0810254
0 0.23917 0.172076
0 0.280537 0.263142
0 0.321904 0.354192
0 0.363287 0.445243
0 0.404654 0.536309
0.148836 0.12047 0
0.0969253 0.161837 0.0289158
0.0449989 0.203204 0.119966
0 0.244572 0.211032
0 0.285939 0.302083
0 0.327321 0.393133
0 0.368688 0.484199
0 0.410056 0.57525
0 0.451438 0.6663
0.353826 0.167254 0.0678874
0.301915 0.208621 0.158938
0.249989 0.249989 0.249989
0.198062 0.291356 0.341039
0.146136 0.332738 0.432105
0.0942092 0.374105 0.523156
0.0422827 0.415473 0.614206
0 0.456855 0.705272
0 0.498222 0.796323
0.558831 0.214038 0.19791
0.506905 0.255406 0.288945
0.454978 0.296773 0.380011
0.403052 0.33814 0.471061
0.351125 0.379522 0.562112
0.299214 0.42089 0.653178
0.247288 0.462257 0.744228
0.195361 0.503639 0.835279
0.143435 0.545007 0.926329
0.763821 0.260822 0.327916
0.71191 0.30219 0.418967
0.659983 0.343557 0.510018
0.608057 0.384939 0.601083
0.55613 0.426307 0.692134
0.504204 0.467674 0.783185
0.452277 0.509056 0.874235
0.400351 0.550423 0.965301
0.348424 0.591791 1
0.968826 0.307607 0.457938
0.916899 0.348974 0.548989
0.864973 0.390341 0.64004
0.813046 0.431724 0.73109
0.76112 0.473091 0.822141
0.709194 0.514458 0.913207
0.657267 0.55584 1
0.605341 0.597208 1
0.553414 0.638575 1
1 0.354391 0.587961
1 0.395758 0.678996
1 0.43714 0.770047
1 0.478508 0.861112
0.966125 0.519875 0.952163
0.914199 0.561257 1
0.862272 0.602625 1
0.810346 0.643992 1
0.758419 0.685359 1
1 0.401175 0.717968
1 0.442542 0.809018
1 0.483925 0.900069
1 0.525292 0.991119
1 0.566659 1
1 0.608042 1
1 0.649409 1
1 0.690776 1
0.963409 0.732158 1
1 0.447974 0.84799
1 0.489342 0.939025
1 0.530709 1
1 0.572076 1
1 0.613458 1
1 0.654826 1
1 0.696193 1
1 0.73756 1
1 0.778943 1
0 0.110521 0
0 0.151888 0
0 0.193271 0
0 0.234638 0
0 0.276005 0.0760052
0 0.317388 0.167071
0 0.358755 0.258122
0 0.400122 0.349172
0 0.441489 0.440238
0.120775 0.157305 0
0.0688487 0.198672 0
0.0169223 0.24004 0.0238956
0 0.281422 0.114961
0 0.322789 0.206012
0 0.364157 0.297063
0 0.405539 0.388128
0 0.446906 0.479179
0 0.488273 0.57023
0.325765 0.204089 0
0.273854 0.245457 0.0628672
0.221927 0.286839 0.153918
0.170001 0.328206 0.244968
0.118074 0.369574 0.336034
0.0661479 0.410941 0.427085
0.0142214 0.452323 0.518135
0 0.49369 0.609201
0 0.535058 0.700252
0.530755 0.250874 0.101839
0.478843 0.292241 0.192874
0.426917 0.333623 0.28394
0.37499 0.37499 0.37499
0.323064 0.416358 0.466041
0.271138 0.45774 0.557107
0.219211 0.499107 0.648157
0.167285 0.540475 0.739208
0.115358 0.581857 0.830274
0.735759 0.297673 0.231846
0.683833 0.33904 0.322896
0.631907 0.380407 0.413947
0.57998 0.421775 0.505013
0.528054 0.463142 0.596063
0.476127 0.504524 0.687114
0.424216 0.545892 0.77818
0.37229 0.587259 0.86923
0.320363 0.628641 0.960281
0.940749 0.344457 0.361868
0.888838 0.385824 0.452918
0.836912 0.427192 0.543969
0.784985 0.468559 0.635019
0.733059 0.509941 0.726085
0.681132 0.551308 0.817136
0.629206 0.592676 0.908186
0.577279 0.634058 0.999237
0.525353 0.675425 1
1 0.391241 0.49189
1 0.432609 0.582925
1 0.473976 0.673991
0.989975 0.515343 0.765042
0.938048 0.556725 0.856092
0.886122 0.598093 0.947143
0.834195 0.63946 1
0.782269 0.680842 1
0.730343 0.72221 1
1 0.438025 0.621897
1 0.479393 0.712947
1 0.52076 0.803998
1 0.562142 0.895048
1 0.60351 0.986114
1 0.644877 1
1 0.686259 1
0.987274 0.727626 1
0.935347 0.768994 1
1 0.48481 0.751919
1 0.526177 0.842954
1 0.567544 0.93402
1 0.608927 1
1 0.650294 1
1 0.691661 1
1 0.733043 1
1 0.774411 1
1 0.815778 1
0 0.147372 0
0 0.188739 0
0 0.230106 0
0 0.271473 0
0 0.312856 0
0 0.354223 0.0710002
0 0.39559 0.162051
0 0.436973 0.253101
0 0.47834 0.344167
0.0926986 0.194156 0
0.0407874 0.235523 0
0 0.27689 0
0 0.318257 0.0188907
0 0.35964 0.109941
0 0.401007 0.200992
0 0.442374 0.292058
0 0.483742 0.383108
0 0.525124 0.474159
0.297704 0.24094 0
0.245777 0.282307 0
0.193851 0.323674 0.057847
0.141924 0.365042 0.148898
0.0899977 0.406424 0.239963
0.0380713 0.447791 0.331014
0 0.489158 0.422065
0 0.530541 0.51313
0 0.571908 0.604181
0.502693 0.287724 0.00576791
0.450767 0.329091 0.0968032
0.398856 0.370459 0.187869
0.346929 0.411841 0.27892
0.295003 0.453208 0.36997
0.243076 0.494575 0.461036
0.19115 0.535943 0.552087
0.139223 0.577325 0.643137
0.0872969 0.618692 0.734203
0.707683 0.334508 0.135775
0.655772 0.375875 0.226825
0.603845 0.417243 0.317876
0.551919 0.458625 0.408942
0.499992 0.499992 0.499992
0.448066 0.54136 0.591043
0.396139 0.582742 0.682109
0.344213 0.624109 0.773159
0.292287 0.665476 0.86421
0.912688 0.381292 0.265797
0.860761 0.42266 0.356847
0.808835 0.464042 0.447898
0.756909 0.505409 0.538949
0.704982 0.546777 0.630014
0.653056 0.588144 0.721065
0.601129 0.629526 0.812116
0.549218 0.670893 0.903181
0.497292 0.712261 0.994232
1 0.428077 0.395819
1 0.469444 0.486854
1 0.510826 0.57792
0.961913 0.552193 0.668971
0.909987 0.593561 0.760021
0.858061 0.634943 0.851087
0.806134 0.67631 0.942138
0.754208 0.717678 1
0.702281 0.75906 1
1 0.474876 0.525826
1 0.516243 0.616876
1 0.55761 0.707927
1 0.598978 0.798993
1 0.640345 0.890043
1 0.681727 0.981094
1 0.723095 1
0.959197 0.764462 1
0.907271 0.805844 1
1 0.52166 0.655848
1 0.563027 0.746899
1 0.604395 0.837949
1 0.645762 0.929
1 0.687144 1
1 0.728511 1
1 0.769879 1
1 0.811261 1
1 0.852628 1
0 0.184207 0
0 0.225574 0
0 0.266957 0
0 0.308324 0
0 0.349691 0
0 0.391073 0
0 0.432441 0.06598
0 0.473808 0.157046
0 0.51519 0.248096
0.0646372 0.230991 0
0.0127108 0.272358 0
0 0.313726 0
0 0.355108 0
0 0.396475 0.0138705
0 0.437842 0.104936
0 0.479225 0.195987
0 0.520592 0.287037
0 0.561959 0.378088
0.269627 0.277775 0
0.217716 0.319142 0
0.165789 0.360525 0
0.113863 0.401892 0.052842
0.0619364 0.443259 0.143893
0.0100099 0.484642 0.234943
0 0.526009 0.325994
0 0.567376 0.41706
0 0.608743 0.50811
0.474632 0.324575 0
0.422705 0.365927 0.000747692
0.370779 0.407309 0.0917983
0.318853 0.448676 0.182849
0.266926 0.490043 0.273899
0.215 0.531426 0.364965
0.163073 0.572793 0.456016
0.111147 0.61416 0.547066
0.0592203 0.655543 0.638132
0.679622 0.371359 0.0397192
0.627695 0.412726 0.130755
0.575769 0.454093 0.221805
0.523857 0.49546 0.312871
0.471931 0.536843 0.403922
0.420005 0.57821 0.494972
0.368078 0.619577 0.586038
0.316152 0.660945 0.677089
0.264225 0.702327 0.768139
0.884611 0.418143 0.169726
0.8327 0.45951 0.260777
0.780774 0.500877 0.351827
0.728847 0.542245 0.442878
0.676921 0.583627 0.533944
0.624994 0.624994 0.624994
0.573068 0.666362 0.716045
0.521141 0.707744 0.807111
0.469215 0.749111 0.898161
1 0.464927 0.299748
1 0.506294 0.390784
0.985763 0.547662 0.481849
0.933837 0.589044 0.5729
0.88191 0.630411 0.663951
0.829984 0.671778 0.755016
0.778058 0.713146 0.846067
0.726131 0.754528 0.937118
0.67422 0.795895 1
1 0.511711 0.429755
1 0.553079 0.520806
1 0.594446 0.611856
1 0.635828 0.702922
1 0.677195 0.793973
1 0.718563 0.885023
0.983063 0.759945 0.976089
0.931136 0.801312 1
0.87921 0.84268 1
1 0.558495 0.559777
1 0.599863 0.650828
1 0.641245 0.741878
1 0.682612 0.832929
1 0.72398 0.923995
1 0.765347 1
1 0.806729 1
1 0.848096 1
1 0.889464 1
0 0.221057 0
0 0.262425 0
0 0.303792 0
0 0.345174 0
0 0.386542 0
0 0.427909 0
0 0.469276 0
0 0.510658 0.0609751
0 0.552026 0.152026
0.0365606 0.267842 0
0 0.309209 0
0 0.350576 0
0 0.391943 0
0 0.433326 0
0 0.474693 0.00886549
0 0.51606 0.0999161
0 0.557443 0.190967
0 0.59881 0.282032
0.241566 0.314626 0
0.189639 0.355993 0
0.137713 0.39736 0
0.0857862 0.438727 0
0.0338598 0.48011 0.0478218
0 0.521477 0.138872
0 0.562844 0.229938
0 0.604227 0.320989
0 0.645594 0.412039
0.446555 0.36141 0
0.394644 0.402777 0
0.342718 0.444144 0
0.290791 0.485527 0.0867781
0.238865 0.526894 0.177844
0.186938 0.568261 0.268894
0.135012 0.609644 0.359945
0.0830854 0.651011 0.450996
0.0311589 0.692378 0.542062
0.65156 0.408194 0
0.599634 0.449561 0.0346838
0.547707 0.490929 0.12575
0.495781 0.532311 0.2168
0.443854 0.573678 0.307851
0.391928 0.615045 0.398901
0.340002 0.656428 0.489967
0.288075 0.697795 0.581018
0.236149 0.739162 0.672068
0.85655 0.454978 0.0736553
0.804623 0.496345 0.164706
0.752697 0.537728 0.255756
0.700771 0.579095 0.346807
0.648859 0.620462 0.437873
0.596933 0.661845 0.528923
0.545007 0.703212 0.619974
0.49308 0.744579 0.71104
0.441154 0.785946 0.80209
1 0.501778 0.203677
1 0.543145 0.294713
0.957702 0.584512 0.385779
0.905776 0.625879 0.476829
0.853849 0.667247 0.56788
0.801923 0.708629 0.658946
0.749996 0.749996 0.749996
0.69807 0.791363 0.841047
0.646143 0.832746 0.932113
1 0.548562 0.333684
1 0.589929 0.424735
1 0.631296 0.515785
1 0.672663 0.606851
1 0.714046 0.697902
1 0.755413 0.788952
0.954986 0.79678 0.880018
0.903059 0.838148 0.971069
0.851133 0.87953 1
1 0.595346 0.463706
1 0.636713 0.554757
1 0.67808 0.645808
1 0.719448 0.736858
1 0.76083 0.827924
1 0.802197 0.918975
1 0.843565 1
1 0.884947 1
1 0.926314 1
0 0.257908 0
0 0.299275 0
0 0.340642 0
0 0.38201 0
0 0.423377 0
0 0.464759 0
0 0.506127 0
0 0.547494 0
0 0.588876 0.0559548
0.00849927 0.304677 0
0 0.346044 0
0 0.387427 0
0 0.428794 0
0 0.470161 0
0 0.511528 0
0 0.552911 0.00384527
0 0.594278 0.0948959
0 0.635645 0.185962
0.213489 0.351461 0
0.161578 0.392828 0
0.109651 0.434211 0
0.0577249 0.475578 0
0.00579843 0.516945 0
0 0.558328 0.0428016
0 0.599695 0.133867
0 0.641062 0.224918
0 0.682445 0.315969
0.418494 0.39826 0
0.366567 0.439628 0
0.314641 0.480995 0
0.262715 0.522362 0
0.210788 0.563729 0.0817731
0.158862 0.605112 0.172824
0.106935 0.646479 0.263874
0.0550088 0.687846 0.35494
0.00308232 0.729229 0.445991
0.623484 0.445045 0
0.571572 0.486412 0
0.519646 0.527779 0.0296788
0.46772 0.569146 0.120729
0.415793 0.610529 0.21178
0.363867 0.651896 0.302846
0.31194 0.693263 0.393896
0.260014 0.734646 0.484947
0.208087 0.776013 0.575998
0.828473 0.491829 0
0.776562 0.533196 0.0686351
0.724636 0.574563 0.159686
0.672709 0.61593 0.250751
0.620783 0.657313 0.341802
0.568856 0.69868 0.432853
0.51693 0.740047 0.523903
0.465003 0.78143 0.614969
0.413077 0.822797 0.70602
1 0.538613 0.107607
0.981552 0.57998 0.198657
0.929625 0.621347 0.289708
0.877699 0.66273 0.380758
0.825772 0.704097 0.471809
0.773861 0.745464 0.562875
0.721935 0.786847 0.653925
0.670008 0.828214 0.744976
0.618082 0.869581 0.836042
1 0.585397 0.237629
1 0.626764 0.328664
1 0.668147 0.419715
1 0.709514 0.510781
1 0.750881 0.601831
0.978851 0.792248 0.692882
0.926925 0.833631 0.783948
0.874998 0.874998 0.874998
0.823072 0.916365 0.966049
1 0.632181 0.367636
1 0.673548 0.458686
1 0.714931 0.549737
1 0.756298 0.640787
1 0.797665 0.731853
1 0.839048 0.822904
1 0.880415 0.913954
1 0.921782 1
1 0.963149 1
0 0.294743 0
0 0.33611 0
0 0.377478 0
0 0.41886 0
0 0.460227 0
0 0.501595 0
0 0.542977 0
0 0.584344 0
0 0.625711 0
0 0.341527 0
0 0.382895 0
0 0.424262 0
0 0.465629 0
0 0.507012 0
0 0.548379 0
0 0.589746 0
0 0.631128 0
0 0.672496 0.0898909
0.185428 0.388312 0
0.133501 0.429679 0
0.0815747 0.471046 0
0.0296483 0.512428 0
0 0.553796 0
0 0.595163 0
0 0.63653 0.0377966
0 0.677913 0.128847
0 0.71928 0.219898
0.390417 0.435096 0
0.338506 0.476463 0
0.28658 0.51783 0
0.234653 0.559213 0
0.182727 0.60058 0
0.1308 0.641947 0.0767529
0.0788739 0.68333 0.167803
0.0269474 0.724697 0.258869
0 0.766064 0.34992
0.595422 0.48188 0
0.543496 0.523247 0
0.491569 0.56463 0
0.439643 0.605997 0.0246586
0.387717 0.647364 0.115709
0.33579 0.688731 0.206775
0.283864 0.730114 0.297826
0.231937 0.771481 0.388876
0.180011 0.812848 0.479942
0.800412 0.528664 0
0.748501 0.570031 0
0.696574 0.611414 0.0636149
0.644648 0.652781 0.154681
0.592721 0.694148 0.245731
0.540795 0.735531 0.336782
0.488869 0.776898 0.427848
0.436942 0.818265 0.518898
0.385016 0.859648 0.609949
1 0.575463 0.0115358
0.95349 0.616831 0.102586
0.901564 0.658198 0.193637
0.849638 0.699565 0.284688
0.797711 0.740932 0.375753
0.745785 0.782315 0.466804
0.693858 0.823682 0.557855
0.641932 0.865049 0.648905
0.590005 0.906432 0.739971
1 0.622248 0.141558
1 0.663615 0.232593
1 0.704982 0.323659
1 0.746349 0.41471
1 0.787732 0.50576
0.950774 0.829099 0.596811
0.898863 0.870466 0.687877
0.846937 0.911849 0.778927
0.79501 0.953216 0.869978
1 0.669032 0.271565
1 0.710399 0.362615
1 0.751766 0.453666
1 0.793133 0.544717
1 0.834516 0.635782
1 0.875883 0.726833
1 0.91725 0.817884
1 0.958633 0.908949
1 1 1
