public/LUTS/Color Shift/ColorShift_89.cube
TITLE "Generated by Resolve"
LUT_3D_SIZE 5
0 0 0
0.0118868 0.0212711 0.390127
0.0237736 0.0425422 0.780285
0.0356603 0.0638285 1
0.0475319 0.0850996 1
0.569009 0.0776989 0.0123445
0.58088 0.09897 0.402472
0.592767 0.120241 0.79263
0.604654 0.141512 1
0.616541 0.162799 1
1 0.155398 0.0246891
1 0.176669 0.414816
1 0.197955 0.804974
1 0.219226 1
1 0.240497 1
1 0.233112 0.0370336
1 0.254383 0.427161
1 0.275654 0.817319
1 0.296925 1
1 0.318196 1
1 0.310811 0.0493782
1 0.332082 0.439506
1 0.353353 0.829664
1 0.374624 1
1 0.395895 1
0 0.151019 0
0 0.17229 0.237644
0 0.193561 0.627802
0 0.214832 1
0 0.236118 1
0.238102 0.228717 0
0.249989 0.249989 0.249989
0.261875 0.27126 0.640146
0.273762 0.292531 1
0.285649 0.313817 1
0.807141 0.306416 0
0.819028 0.327688 0.262333
0.830915 0.348959 0.652491
0.842802 0.370245 1
0.854673 0.391516 1
1 0.384115 0
1 0.405402 0.274678
1 0.426673 0.664836
1 0.447944 1
1 0.469215 1
1 0.46183 0
1 0.483101 0.287022
1 0.504372 0.67718
1 0.525643 1
1 0.546914 1
0 0.302037 0
0 0.323323 0.0851453
0 0.344594 0.475303
0 0.365866 0.865461
0 0.387137 1
0 0.379736 0
0 0.401022 0.0974899
0 0.422293 0.487648
0 0.443565 0.877806
0 0.464836 1
0.476219 0.45745 0
0.488106 0.478721 0.109834
0.499992 0.499992 0.499992
0.511879 0.521263 0.89015
0.523766 0.542535 1
1 0.535149 0
1 0.55642 0.122179
1 0.577691 0.512337
1 0.598962 0.902495
1 0.620249 1
1 0.612848 0
1 0.634119 0.134524
1 0.655406 0.524681
1 0.676677 0.914839
1 0.697948 1
0 0.453071 0
0 0.474342 0
0 0.495613 0.322805
0 0.516884 0.712963
0 0.53817 1
0 0.53077 0
0 0.552041 0
0 0.573312 0.335149
0 0.594583 0.725307
0 0.615869 1
0.145312 0.608469 0
0.157183 0.62974 0
0.16907 0.651026 0.347494
0.180957 0.672297 0.737652
0.192844 0.693568 1
0.714336 0.686168 0
0.726223 0.707454 0
0.738109 0.728725 0.359838
0.749996 0.749996 0.749996
0.761883 0.771267 1
1 0.763882 0
1 0.785153 0
1 0.806424 0.372183
1 0.827695 0.762341
1 0.848966 1
0 0.604105 0
0 0.625376 0
0 0.646647 0.170306
0 0.667918 0.560464
0 0.689189 0.950622
0 0.681788 0
0 0.703075 0
0 0.724346 0.18265
0 0.745617 0.572808
0 0.766888 0.962966
0 0.759503 0
0 0.780774 0
0 0.802045 0.194995
0 0.823316 0.585153
0 0.844587 0.975311
0.383429 0.837201 0
0.395315 0.858473 0
0.407187 0.879744 0.20734
0.419074 0.90103 0.597498
0.430961 0.922301 0.987655
0.952468 0.9149 0
0.96434 0.936172 0
0.976226 0.957458 0.219684
0.988113 0.978729 0.609842
1 1 1
