public/LUTS/Color Shift/ColorShift_98.cube
TITLE "Generated by Resolve"
LUT_3D_SIZE 9
0 0 0
0 0.0686198 0.0810712
0 0.13724 0.162158
0 0.205859 0.243229
0 0.274495 0.324315
0 0.343114 0.405386
0 0.411749 0.486473
0 0.480369 0.567544
0 0.548989 0.64863
0.245533 0.0221714 0.226749
0.107057 0.0907912 0.30782
0 0.159411 0.388891
0 0.228046 0.469978
0 0.296666 0.551049
0 0.365286 0.632136
0 0.433921 0.713207
0 0.502541 0.794293
0 0.57116 0.87538
0.491112 0.0443427 0.453513
0.352621 0.112963 0.534585
0.21413 0.181598 0.615656
0.075639 0.250217 0.696742
0 0.318837 0.777829
0 0.387472 0.8589
0 0.456092 0.939986
0 0.524712 1
0 0.593347 1
0.736675 0.0665293 0.680278
0.598199 0.135134 0.761349
0.459693 0.203769 0.842435
0.321202 0.272389 0.923506
0.182712 0.341009 1
0.0442206 0.409644 1
0 0.478264 1
0 0.546883 1
0 0.615518 1
0.982238 0.0887007 0.907057
0.843763 0.157321 0.988128
0.705272 0.22594 1
0.566781 0.29456 1
0.428275 0.363195 1
0.289784 0.431815 1
0.151293 0.500435 1
0.0128023 0.56907 1
0 0.63769 1
1 0.110872 1
1 0.179492 1
0.950835 0.248112 1
0.812345 0.316747 1
0.673854 0.385367 1
0.535348 0.453986 1
0.396857 0.522622 1
0.258366 0.591241 1
0.119875 0.659861 1
1 0.133043 1
1 0.201663 1
1 0.270298 1
1 0.338918 1
0.919417 0.407538 1
0.780926 0.476173 1
0.64242 0.544793 1
0.503929 0.613413 1
0.365438 0.682048 1
1 0.15523 1
1 0.223835 1
1 0.29247 1
1 0.361089 1
1 0.429725 1
1 0.498344 1
0.887999 0.566964 1
0.749493 0.635599 1
0.611002 0.704219 1
1 0.177401 1
1 0.246021 1
1 0.314641 1
1 0.383261 1
1 0.451896 1
1 0.520516 1
1 0.589136 1
0.995071 0.657771 1
0.85658 0.72639 1
0.0179294 0.0341955 0
0 0.102815 0
0 0.171435 0
0 0.24007 0.0604105
0 0.30869 0.141482
0 0.37731 0.222568
0 0.445945 0.303639
0 0.514565 0.384726
0 0.583185 0.465812
0.263462 0.0563668 0.0439155
0.124987 0.124987 0.124987
0 0.193606 0.206073
0 0.262242 0.287144
0 0.330861 0.368231
0 0.399481 0.449302
0 0.468116 0.530388
0 0.536736 0.611475
0 0.605356 0.692546
0.509026 0.0785382 0.27068
0.37055 0.147158 0.351751
0.232059 0.215793 0.432837
0.0935683 0.284413 0.513924
0 0.353033 0.594995
0 0.421668 0.676081
0 0.490288 0.757153
0 0.558907 0.838239
0 0.627543 0.919326
0.754604 0.100725 0.497459
0.616114 0.169345 0.578531
0.477623 0.237964 0.659602
0.339132 0.306584 0.740688
0.200641 0.375219 0.821775
0.06215 0.443839 0.902846
0 0.512459 0.983932
0 0.581094 1
0 0.649714 1
1 0.122896 0.724224
0.861692 0.191516 0.805295
0.723201 0.260136 0.886381
0.584695 0.328756 0.967453
0.446204 0.397391 1
0.307713 0.466011 1
0.169223 0.534646 1
0.0307317 0.603265 1
0 0.671885 1
1 0.145068 0.951003
1 0.213687 1
0.968765 0.282307 1
0.830274 0.350942 1
0.691768 0.419562 1
0.553277 0.488182 1
0.414786 0.556817 1
0.276295 0.625437 1
0.137804 0.694057 1
1 0.167254 1
1 0.235859 1
1 0.304494 1
1 0.373114 1
0.937346 0.441733 1
0.79884 0.510369 1
0.660349 0.578988 1
0.521859 0.647608 1
0.383368 0.716243 1
1 0.189425 1
1 0.258045 1
1 0.326665 1
1 0.395285 1
1 0.46392 1
1 0.53254 1
0.905913 0.60116 1
0.767422 0.669795 1
0.628931 0.738415 1
1 0.211597 1
1 0.280217 1
1 0.348837 1
1 0.417472 1
1 0.486091 1
1 0.554711 1
1 0.623346 1
1 0.691966 1
0.874495 0.760586 1
0.0358587 0.0684062 0
0 0.137011 0
0 0.205646 0
0 0.274266 0
0 0.342885 0
0 0.411521 0.0397192
0 0.48014 0.12079
0 0.54876 0.201877
0 0.617395 0.282963
0.281392 0.0905776 0
0.142916 0.159182 0
0.00442512 0.227817 0.0232242
0 0.296437 0.104295
0 0.365057 0.185382
0 0.433692 0.266453
0 0.502312 0.347539
0 0.570932 0.428626
0 0.639567 0.509697
0.526955 0.112749 0.0878309
0.388479 0.181369 0.168902
0.249989 0.249989 0.249989
0.111498 0.318608 0.331075
0 0.387243 0.412146
0 0.455863 0.493233
0 0.524483 0.574304
0 0.593118 0.65539
0 0.661738 0.736477
0.772534 0.13492 0.314611
0.634043 0.20354 0.395682
0.495552 0.27216 0.476753
0.357061 0.340795 0.557839
0.21857 0.409415 0.638926
0.0800793 0.478035 0.719997
0 0.54667 0.801083
0 0.61529 0.882155
0 0.683909 0.963241
1 0.157092 0.541375
0.879622 0.225711 0.622446
0.741115 0.294347 0.703532
0.602625 0.362966 0.784604
0.464134 0.431586 0.86569
0.325643 0.500221 0.946777
0.187152 0.568841 1
0.048661 0.637461 1
0 0.706096 1
1 0.179278 0.768154
1 0.247883 0.849226
0.986694 0.316518 0.930297
0.848203 0.385138 1
0.709697 0.453758 1
0.571206 0.522393 1
0.432715 0.591012 1
0.294224 0.659648 1
0.155734 0.728267 1
1 0.20145 0.994919
1 0.270069 1
1 0.338689 1
1 0.407309 1
0.955276 0.475944 1
0.81677 0.544564 1
0.678279 0.613184 1
0.539788 0.681819 1
0.401297 0.750439 1
1 0.223621 1
1 0.292241 1
1 0.360861 1
1 0.429496 1
1 0.498116 1
1 0.566735 1
0.923842 0.63537 1
0.785351 0.70399 1
0.64686 0.77261 1
1 0.245792 1
1 0.314412 1
1 0.383047 1
1 0.451667 1
1 0.520287 1
1 0.588922 1
1 0.657542 1
1 0.726162 1
0.892424 0.794797 1
0.0537881 0.102602 0
0 0.171221 0
0 0.239841 0
0 0.308461 0
0 0.377096 0
0 0.445716 0
0 0.514336 0
0 0.582971 0.019028
0 0.651591 0.100114
0.299321 0.124773 0
0.160845 0.193393 0
0.0223545 0.262013 0
0 0.330632 0
0 0.399268 0.002533
0 0.467887 0.0836042
0 0.536522 0.164691
0 0.605142 0.245777
0 0.673762 0.326848
0.544884 0.146944 0
0.406409 0.215564 0
0.267918 0.284184 0.0671397
0.129427 0.352819 0.148226
0 0.421439 0.229297
0 0.490059 0.310384
0 0.558694 0.391455
0 0.627314 0.472541
0 0.695933 0.553628
0.790448 0.169131 0.131762
0.651972 0.237736 0.212833
0.513481 0.306371 0.293904
0.37499 0.37499 0.37499
0.2365 0.44361 0.456077
0.0980087 0.512245 0.537148
0 0.580865 0.618235
0 0.649485 0.699306
0 0.71812 0.780392
1 0.191302 0.358526
0.897551 0.259922 0.439597
0.759045 0.328542 0.520684
0.620554 0.397162 0.601755
0.482063 0.465797 0.682841
0.343572 0.534417 0.763928
0.205081 0.603037 0.844999
0.0665751 0.671672 0.926085
0 0.740291 1
1 0.213474 0.585306
1 0.282094 0.666377
1 0.350713 0.747448
0.866117 0.419348 0.828534
0.727626 0.487968 0.909606
0.589136 0.556588 0.990692
0.450645 0.625223 1
0.312154 0.693843 1
0.173663 0.762463 1
1 0.235645 0.81207
1 0.304265 0.893141
1 0.372885 0.974227
1 0.44152 1
0.973205 0.51014 1
0.834699 0.578759 1
0.696208 0.647395 1
0.557717 0.716014 1
0.419226 0.784649 1
1 0.257832 1
1 0.326436 1
1 0.395071 1
1 0.463691 1
1 0.532311 1
1 0.600946 1
0.941772 0.669566 1
0.803281 0.738186 1
0.66479 0.806821 1
1 0.280003 1
1 0.348623 1
1 0.417243 1
1 0.485863 1
1 0.554498 1
1 0.623117 1
1 0.691737 1
1 0.760372 1
0.910353 0.828992 1
0.0717174 0.136797 0
0 0.205417 0
0 0.274037 0
0 0.342672 0
0 0.411292 0
0 0.479912 0
0 0.548547 0
0 0.617166 0
0 0.685786 0
0.31725 0.158968 0
0.178775 0.227588 0
0.0402838 0.296223 0
0 0.364843 0
0 0.433463 0
0 0.502098 0
0 0.570718 0
0 0.639338 0.0629282
0 0.707973 0.143999
0.562814 0.181155 0
0.424338 0.24976 0
0.285847 0.318395 0
0.147356 0.387015 0
0.00886549 0.455634 0.0464485
0 0.524269 0.127535
0 0.592889 0.208606
0 0.661509 0.289693
0 0.730144 0.370779
0.808377 0.203326 0
0.669902 0.271946 0.029984
0.531411 0.340566 0.111055
0.39292 0.409186 0.192142
0.254429 0.477821 0.273228
0.115938 0.546441 0.354299
0 0.615061 0.435386
0 0.683696 0.516457
0 0.752316 0.597543
1 0.225498 0.175677
0.91548 0.294118 0.256748
0.776974 0.362737 0.337835
0.638483 0.431373 0.418906
0.499992 0.499992 0.499992
0.361501 0.568612 0.581079
0.223011 0.637247 0.66215
0.0845045 0.705867 0.743236
0 0.774487 0.824308
1 0.247669 0.402457
1 0.316289 0.483528
1 0.384924 0.564599
0.884047 0.453544 0.645685
0.745556 0.522164 0.726757
0.607065 0.590799 0.807843
0.468574 0.659419 0.88893
0.330083 0.728038 0.970001
0.191577 0.796674 1
1 0.269856 0.629221
1 0.338476 0.710292
1 0.407095 0.791379
1 0.475715 0.87245
0.991119 0.54435 0.953536
0.852628 0.61297 1
0.714137 0.68159 1
0.575647 0.750225 1
0.437156 0.818845 1
1 0.292027 0.855985
1 0.360647 0.937057
1 0.429267 1
1 0.497887 1
1 0.566522 1
1 0.635142 1
0.959701 0.703761 1
0.82121 0.772396 1
0.682719 0.841016 1
1 0.314199 1
1 0.382818 1
1 0.451438 1
1 0.520073 1
1 0.588693 1
1 0.657313 1
1 0.725948 1
1 0.794568 1
0.928283 0.863188 1
0.0896468 0.171008 0
0 0.239612 0
0 0.308248 0
0 0.376867 0
0 0.445487 0
0 0.514122 0
0 0.582742 0
0 0.651377 0
0 0.719997 0
0.33518 0.193179 0
0.196704 0.261799 0
0.0582132 0.330419 0
0 0.399039 0
0 0.467674 0
0 0.536294 0
0 0.604913 0
0 0.673548 0
0 0.742168 0
0.580743 0.215351 0
0.442267 0.28397 0
0.303777 0.35259 0
0.165286 0.421225 0
0.0267796 0.489845 0
0 0.558465 0
0 0.6271 0.0257572
0 0.69572 0.106844
0 0.76434 0.18793
0.826307 0.237522 0
0.687831 0.306142 0
0.54934 0.374762 0
0.410849 0.443397 0.00929274
0.272358 0.512016 0.0903792
0.133867 0.580636 0.17145
0 0.649271 0.252537
0 0.717891 0.333608
0 0.786511 0.414694
1 0.259709 0
0.93341 0.328313 0.0738994
0.794903 0.396948 0.154986
0.656413 0.465568 0.236057
0.517922 0.534188 0.317143
0.379431 0.602823 0.39823
0.24094 0.671443 0.479301
0.102434 0.740063 0.560388
0 0.808698 0.641459
1 0.28188 0.219608
1 0.3505 0.300679
1 0.41912 0.38175
0.901976 0.487739 0.462837
0.763485 0.556374 0.543908
0.624994 0.624994 0.624994
0.486503 0.693614 0.706081
0.348013 0.762249 0.787152
0.209506 0.830869 0.868238
1 0.304051 0.446372
1 0.372671 0.527443
1 0.441291 0.60853
1 0.509926 0.689601
1 0.578546 0.770687
0.870558 0.647166 0.851759
0.732067 0.715801 0.932845
0.593576 0.784421 1
0.455085 0.85304 1
1 0.326223 0.673136
1 0.394842 0.754208
1 0.463478 0.835294
1 0.532097 0.916381
1 0.600717 0.997452
1 0.669352 1
0.97763 0.737972 1
0.839139 0.806592 1
0.700648 0.875227 1
1 0.348409 0.899916
1 0.417014 0.980987
1 0.485649 1
1 0.554269 1
1 0.622889 1
1 0.691524 1
1 0.760143 1
1 0.828763 1
0.946212 0.897398 1
0.107576 0.205203 0
0 0.273823 0
0 0.342443 0
0 0.411078 0
0 0.479698 0
0 0.548318 0
0 0.616953 0
0 0.685573 0
0 0.754192 0
0.353109 0.227375 0
0.214633 0.295995 0
0.0761425 0.364614 0
0 0.433249 0
0 0.501869 0
0 0.570489 0
0 0.639124 0
0 0.707744 0
0 0.776364 0
0.598672 0.249546 0
0.460197 0.318166 0
0.321706 0.386801 0
0.183215 0.455421 0
0.0447089 0.524041 0
0 0.592676 0
0 0.661295 0
0 0.729915 0
0 0.79855 0.00508125
0.844236 0.271733 0
0.70576 0.340337 0
0.567269 0.408972 0
0.428779 0.477592 0
0.290288 0.546227 0
0.151781 0.614847 0
0.0132906 0.683467 0.069688
0 0.752102 0.150759
0 0.820722 0.231846
1 0.293904 0
0.951324 0.362524 0
0.812833 0.431144 0
0.674342 0.499763 0.0532082
0.535851 0.568399 0.134295
0.39736 0.637018 0.215381
0.258854 0.705638 0.296452
0.120363 0.774273 0.377539
0 0.842893 0.45861
1 0.316075 0.036759
1 0.384695 0.11783
1 0.453315 0.198901
0.919905 0.52195 0.279988
0.781415 0.59057 0.361059
0.642924 0.65919 0.442145
0.504433 0.727825 0.523232
0.365942 0.796445 0.604303
0.227436 0.865064 0.685389
1 0.338247 0.263523
1 0.406867 0.344594
1 0.475502 0.425681
1 0.544121 0.506752
1 0.612741 0.587839
0.888487 0.681376 0.66891
0.749996 0.749996 0.749996
0.611505 0.818616 0.831083
0.473014 0.887251 0.912154
1 0.360433 0.490288
1 0.429053 0.571359
1 0.497673 0.652445
1 0.566293 0.733532
1 0.634928 0.814603
1 0.703548 0.895689
0.99556 0.772168 0.976761
0.857069 0.840803 1
0.718578 0.909422 1
1 0.382605 0.717067
1 0.451225 0.798138
1 0.519844 0.87921
1 0.588479 0.960296
1 0.657099 1
1 0.725719 1
1 0.794354 1
1 0.862974 1
0.964141 0.931594 1
0.125505 0.239399 0
0 0.308019 0
0 0.376654 0
0 0.445274 0
0 0.513893 0
0 0.582528 0
0 0.651148 0
0 0.719768 0
0 0.788403 0
0.371038 0.261585 0
0.232563 0.33019 0
0.0940566 0.398825 0
0 0.467445 0
0 0.536065 0
0 0.6047 0
0 0.67332 0
0 0.741939 0
0 0.810575 0
0.616602 0.283757 0
0.478126 0.352377 0
0.339635 0.420996 0
0.201144 0.489616 0
0.0626383 0.558251 0
0 0.626871 0
0 0.695491 0
0 0.764126 0
0 0.832746 0
0.862165 0.305928 0
0.72369 0.374548 0
0.585199 0.443168 0
0.446708 0.511803 0
0.308217 0.580423 0
0.169711 0.649042 0
0.03122 0.717678 0
0 0.786297 0
0 0.854917 0.0489967
1 0.328099 0
0.969253 0.396719 0
0.830762 0.465339 0
0.692271 0.533974 0
0.55378 0.602594 0
0.41529 0.671229 0.0325322
0.276783 0.739849 0.113603
0.138293 0.808469 0.19469
0 0.877104 0.275761
1 0.350286 0
1 0.418891 0
1 0.487526 0.0160525
0.937835 0.556146 0.0971389
0.799344 0.624765 0.17821
0.660853 0.693401 0.259297
0.522362 0.76202 0.340383
0.383871 0.83064 0.421454
0.245365 0.899275 0.502541
1 0.372457 0.0806744
1 0.441077 0.161746
1 0.509697 0.242832
1 0.578317 0.323903
1 0.646952 0.40499
0.906416 0.715572 0.486061
0.767926 0.784192 0.567147
0.629435 0.852827 0.648234
0.490944 0.921447 0.729305
1 0.394629 0.307454
1 0.463249 0.38851
1 0.531868 0.469596
1 0.600504 0.550683
1 0.669123 0.631754
1 0.737743 0.71284
1 0.806378 0.793912
0.874998 0.874998 0.874998
0.736507 0.943618 0.956085
1 0.4168 0.534218
1 0.48542 0.61529
1 0.554055 0.696361
1 0.622675 0.777447
1 0.691295 0.858534
1 0.75993 0.939605
1 0.82855 1
1 0.897169 1
0.982071 0.965805 1
0.14342 0.27361 0
0.00494392 0.342229 0
0 0.410849 0
0 0.479469 0
0 0.548104 0
0 0.616724 0
0 0.685344 0
0 0.753979 0
0 0.822599 0
0.388968 0.295781 0
0.250492 0.364401 0
0.111986 0.433021 0
0 0.50164 0
0 0.570275 0
0 0.638895 0
0 0.707515 0
0 0.77615 0
0 0.84477 0
0.634531 0.317952 0
0.496056 0.386572 0
0.357565 0.455192 0
0.219074 0.523827 0
0.0805676 0.592447 0
0 0.661067 0
0 0.729702 0
0 0.798321 0
0 0.866941 0
0.880095 0.340124 0
0.741619 0.408743 0
0.603128 0.477378 0
0.464637 0.545998 0
0.326146 0.614618 0
0.18764 0.683253 0
0.0491493 0.751873 0
0 0.820493 0
0 0.889128 0
1 0.36231 0
0.987182 0.43093 0
0.848692 0.49955 0
0.710201 0.56817 0
0.57171 0.636805 0
0.433219 0.705425 0
0.294713 0.774044 0
0.156222 0.84268 0.011841
0.017731 0.911299 0.0929122
1 0.384482 0
1 0.453101 0
1 0.521721 0
0.955764 0.590341 0
0.817273 0.658976 0
0.678782 0.727596 0.0764477
0.540291 0.796231 0.157534
0.401785 0.864851 0.238605
0.263294 0.933471 0.319692
1 0.406653 0
1 0.475273 0
1 0.543893 0.0599832
1 0.612528 0.141054
1 0.681147 0.222141
0.924346 0.749767 0.303212
0.785855 0.818402 0.384298
0.647364 0.887022 0.465385
0.508873 0.955642 0.546456
1 0.42884 0.124605
1 0.497444 0.205661
1 0.566079 0.286748
1 0.634699 0.367834
1 0.703319 0.448905
1 0.771954 0.529992
1 0.840574 0.611063
0.892927 0.909194 0.692149
0.754437 0.977829 0.773236
1 0.451011 0.35137
1 0.519631 0.432441
1 0.588251 0.513512
1 0.65687 0.594598
1 0.725505 0.675685
1 0.794125 0.756756
1 0.862745 0.837842
1 0.93138 0.918914
1 1 1
