public/LUTS/Color Shift/ColorShift_34.cube
TITLE "Generated by Resolve"
LUT_3D_SIZE 5
0 0 0
0.152453 0.000167849 0.226215
0.304936 0.000350958 0.45243
0.457404 0.000518807 0.678645
0.609873 0.000701915 0.904875
0.305806 0.162783 0
0.458274 0.162951 0.190906
0.610742 0.163134 0.417121
0.76321 0.163302 0.643351
0.915679 0.163485 0.869566
0.611643 0.325582 0
0.764096 0.32575 0.155596
0.916564 0.325933 0.381826
1 0.326101 0.608042
1 0.326268 0.834272
0.917464 0.488365 0
1 0.488548 0.120287
1 0.488716 0.346517
1 0.488899 0.572732
1 0.489067 0.798962
1 0.651164 0
1 0.651331 0.0849928
1 0.651514 0.311208
1 0.651682 0.537438
1 0.651865 0.763653
0 0.0870375 0.0590829
0 0.0872053 0.285298
0.0966506 0.0873732 0.511513
0.249119 0.0875563 0.737743
0.401587 0.0877241 0.963958
0.0975357 0.249821 0.0237736
0.249989 0.249989 0.249989
0.402457 0.250156 0.476204
0.554925 0.25034 0.702434
0.707393 0.250507 0.928649
0.403357 0.412604 0
0.55581 0.412787 0.214679
0.708293 0.412955 0.440909
0.860761 0.413138 0.667124
1 0.413306 0.893355
0.709194 0.575402 0
0.861646 0.57557 0.179385
1 0.575753 0.4056
1 0.575921 0.631815
1 0.576104 0.858045
1 0.738186 0
1 0.738369 0.144076
1 0.738537 0.370291
1 0.73872 0.596521
1 0.738888 0.822736
0 0.17406 0.118166
0 0.174243 0.344381
0 0.174411 0.570596
0.0408179 0.174594 0.796826
0.193286 0.174762 1
0 0.336843 0.0828717
0.0416876 0.337026 0.309071
0.194171 0.337194 0.535302
0.346639 0.337377 0.761517
0.499107 0.337545 0.987747
0.195056 0.499641 0.0475624
0.347524 0.499825 0.273777
0.499992 0.499992 0.499992
0.652461 0.50016 0.726207
0.804929 0.500343 0.952438
0.500893 0.66244 0.012253
0.653346 0.662608 0.238468
0.805829 0.662791 0.464683
0.958297 0.662959 0.690913
1 0.663142 0.917128
0.806714 0.825223 0
0.959182 0.825406 0.203159
1 0.825574 0.429374
1 0.825757 0.655604
1 0.825925 0.881819
0 0.261097 0.177264
0 0.26128 0.403464
0 0.261448 0.629694
0 0.261631 0.855909
0 0.261799 1
0 0.42388 0.141955
0 0.424063 0.36817
0 0.424231 0.594385
0.138338 0.424414 0.820615
0.290806 0.424582 1
0 0.586679 0.106645
0.139223 0.586847 0.33286
0.291691 0.58703 0.559075
0.44416 0.587198 0.785306
0.596643 0.587381 1
0.292592 0.749477 0.0713512
0.44506 0.749645 0.297551
0.597528 0.749828 0.523781
0.749996 0.749996 0.749996
0.902464 0.750164 0.976211
0.598428 0.912261 0.0360418
0.750881 0.912444 0.262242
0.903349 0.912612 0.488472
1 0.912795 0.714687
1 0.912963 0.940917
0 0.348135 0.236347
0 0.348318 0.462547
0 0.348486 0.688777
0 0.348669 0.914992
0 0.348837 1
0 0.510918 0.201038
0 0.511101 0.427253
0 0.511269 0.653468
0 0.511452 0.879698
0.0825208 0.51162 1
0 0.673716 0.165743
0 0.673884 0.391943
0.0834058 0.674067 0.618173
0.235874 0.674235 0.844388
0.388342 0.674418 1
0.0843061 0.836515 0.130434
0.236759 0.836683 0.356634
0.389227 0.836851 0.582864
0.541695 0.837034 0.809079
0.694179 0.837201 1
0.390127 0.999298 0.0951247
0.542596 0.999481 0.32134
0.695064 0.999649 0.547555
0.847532 0.999832 0.773785
1 1 1
