public/LUTS/Color Shift/ColorShift_38.cube
TITLE "Generated by Resolve"
LUT_3D_SIZE 5
0 0 0
0.0542306 0.0262913 0.252323
0.108461 0.0525826 0.504662
0.162707 0.0788586 0.756985
0.216938 0.10515 1
0.392844 0.125475 0.0517281
0.447074 0.151766 0.304051
0.50132 0.178058 0.55639
0.55555 0.204349 0.808728
0.609781 0.23064 1
0.785718 0.250965 0.103471
0.839948 0.277256 0.355795
0.894194 0.303548 0.608133
0.948425 0.329839 0.860456
1 0.356115 1
1 0.376455 0.155215
1 0.402747 0.407523
1 0.429038 0.659861
1 0.455329 0.9122
1 0.481605 1
1 0.501945 0.206943
1 0.528237 0.459266
1 0.554528 0.711604
1 0.580804 0.963943
1 0.607095 1
0 0.0982223 0
0 0.124514 0.19826
0 0.15079 0.450584
0 0.177081 0.702922
0.019852 0.203372 0.955261
0.195758 0.223697 0
0.249989 0.249989 0.249989
0.304219 0.27628 0.502327
0.358465 0.302571 0.754665
0.412695 0.328847 1
0.588632 0.349187 0.0494087
0.642863 0.375479 0.301732
0.697093 0.40177 0.554055
0.751324 0.428061 0.806394
0.80557 0.454337 1
0.981506 0.474678 0.101137
1 0.500969 0.35346
1 0.52726 0.605798
1 0.553536 0.858137
1 0.579828 1
1 0.600168 0.15288
1 0.626459 0.405203
1 0.65275 0.657542
1 0.679026 0.909865
1 0.705318 1
0 0.196445 0
0 0.222736 0.144183
0 0.249027 0.396521
0 0.275303 0.648859
0 0.301595 0.901198
0 0.321935 0
0.0528878 0.348211 0.195926
0.107118 0.374502 0.448249
0.161349 0.400793 0.700587
0.215595 0.427085 0.952926
0.391531 0.447425 0
0.445762 0.473701 0.247654
0.499992 0.499992 0.499992
0.554223 0.526284 0.752331
0.608469 0.552575 1
0.78439 0.5729 0.0470741
0.838636 0.599191 0.299397
0.892866 0.625483 0.551736
0.947097 0.651774 0.804059
1 0.678065 1
1 0.69839 0.0988174
1 0.724681 0.351125
1 0.750973 0.603464
1 0.777264 0.855802
1 0.80354 1
0 0.294667 0
0 0.320958 0.0901198
0 0.34725 0.342458
0 0.373541 0.594781
0 0.399832 0.84712
0 0.420157 0
0 0.446448 0.141848
0 0.472724 0.394186
0 0.499016 0.646525
0.0184939 0.525307 0.898863
0.194415 0.545647 0
0.248661 0.571923 0.193591
0.302892 0.598215 0.44593
0.357122 0.624506 0.698253
0.411353 0.650797 0.950591
0.587289 0.671138 0
0.64152 0.697414 0.245319
0.695766 0.723705 0.497658
0.749996 0.749996 0.749996
0.804227 0.776287 1
0.980163 0.796628 0.0447395
1 0.822904 0.297063
1 0.849195 0.549401
1 0.875486 0.80174
1 0.901778 1
0 0.392905 0
0 0.419181 0.0360418
0 0.445472 0.28838
0 0.471763 0.540719
0 0.498054 0.793057
0 0.51838 0
0 0.544671 0.0877852
0 0.570962 0.340124
0 0.597238 0.592447
0 0.623529 0.844785
0 0.64387 0
0.051545 0.670161 0.139513
0.105791 0.696452 0.391852
0.160021 0.722728 0.64419
0.214252 0.74902 0.896529
0.390188 0.76936 0
0.444419 0.795651 0.191257
0.498665 0.821927 0.443595
0.552895 0.848219 0.695933
0.607126 0.87451 0.948257
0.783062 0.89485 0
0.837293 0.921141 0.243
0.891524 0.947417 0.495323
0.945769 0.973709 0.747662
1 1 1
