public/LUTS/Color Shift/ColorShift_84.cube
TITLE "Generated by Resolve"
LUT_3D_SIZE 5
0 0 0
0.222431 0 0.347799
0.444877 0 0.695628
0.667323 0 1
0.889769 0 1
0.397391 0.154238 0
0.619821 0.117784 0.165301
0.842268 0.0813306 0.513115
1 0.0448768 0.860945
1 0.00842298 1
0.794797 0.308476 0
1 0.272038 0
1 0.235584 0.330602
1 0.19913 0.678431
1 0.162676 1
1 0.46273 0
1 0.426276 0
1 0.389822 0.148074
1 0.353368 0.495903
1 0.316915 0.843732
1 0.616983 0
1 0.58053 0
1 0.544076 0
1 0.507622 0.31339
1 0.471168 0.661219
0 0.132204 0.0846876
0 0.0957504 0.432502
0.0750591 0.0592966 0.780331
0.297505 0.0228428 1
0.519951 0 1
0.0275578 0.286442 0
0.249989 0.249989 0.249989
0.472435 0.213535 0.597818
0.694881 0.177081 0.945647
0.917327 0.140627 1
0.424964 0.440681 0
0.647395 0.404242 0.0674601
0.869841 0.367788 0.41529
1 0.331334 0.763119
1 0.294881 1
0.82237 0.594934 0
1 0.55848 0
1 0.522026 0.232776
1 0.485573 0.580606
1 0.449119 0.92842
1 0.749172 0
1 0.712734 0
1 0.67628 0.050248
1 0.639826 0.398077
1 0.603372 0.745907
0 0.264408 0.16939
0 0.22797 0.517205
0 0.191516 0.865019
0 0.155062 1
0.150103 0.118608 1
0 0.418647 0
0 0.382193 0.334691
0.102586 0.345739 0.682521
0.325032 0.3093 1
0.547478 0.272847 1
0.0551156 0.5729 0
0.277546 0.536446 0.152163
0.499992 0.499992 0.499992
0.722438 0.463539 0.847822
0.944884 0.427085 1
0.452522 0.727138 0
0.674952 0.690684 0
0.897398 0.654246 0.317464
1 0.617792 0.665293
1 0.581338 1
0.849928 0.881392 0
1 0.844938 0
1 0.808484 0.134951
1 0.77203 0.48278
1 0.735576 0.83061
0 0.396628 0.254093
0 0.360174 0.601892
0 0.32372 0.949722
0 0.287266 1
0 0.250813 1
0 0.550866 0.0715801
0 0.514412 0.419379
0 0.477958 0.767208
0 0.441505 1
0.17763 0.405051 1
0 0.705104 0
0 0.66865 0.236866
0.130144 0.632197 0.584695
0.35259 0.595743 0.932525
0.575036 0.559304 1
0.0826734 0.859358 0
0.305104 0.822904 0.0543374
0.52755 0.78645 0.402167
0.749996 0.749996 0.749996
0.972442 0.713542 1
0.480079 1 0
0.70251 0.977142 0
0.924956 0.940688 0.219654
1 0.90425 0.567468
1 0.867796 0.915297
0 0.528832 0.338781
0 0.492378 0.686595
0 0.455924 1
0 0.419471 1
0 0.383017 1
0 0.68307 0.156283
0 0.646616 0.504082
0 0.610162 0.851911
0 0.573709 1
0 0.537255 1
0 0.837324 0
0 0.80087 0.321569
0 0.764416 0.669383
0 0.727962 1
0.205188 0.691508 1
0 0.991562 0
0 0.955108 0.13904
0.157702 0.918654 0.48687
0.380148 0.8822 0.834699
0.602594 0.845747 1
0.110231 1 0
0.332662 1 0
0.555108 1 0.304341
0.777554 1 0.652171
1 1 1
