public/LUTS/Color Shift/ColorShift_83.cube
TITLE "Generated by Resolve"
LUT_3D_SIZE 9
0 0 0
0.129534 0 0.162203
0.259068 0 0.324422
0.388617 0 0.486656
0.518151 0 0.648875
0.6477 0 0.811093
0.777234 0 0.973312
0.906783 0 1
1 0 1
0.174975 0.085771 0
0.304509 0.0635538 0.0588693
0.434043 0.0413367 0.221088
0.563592 0.0191196 0.383322
0.693126 0 0.545541
0.822675 0 0.707759
0.952209 0 0.869978
1 0 1
1 0 1
0.349981 0.171572 0
0.4795 0.149355 0
0.609049 0.127123 0.117739
0.738582 0.104906 0.279973
0.868132 0.0826886 0.442191
0.997681 0.0604715 0.60441
1 0.0382544 0.766629
1 0.0160372 0.928862
1 0 1
0.524971 0.257359 0
0.654505 0.235142 0
0.784054 0.212924 0.0144045
0.913588 0.190692 0.176623
1 0.168475 0.338842
1 0.146258 0.50106
1 0.124041 0.663294
1 0.101823 0.825513
1 0.0796063 0.987732
0.699977 0.343145 0
0.829511 0.320928 0
0.959045 0.298711 0
1 0.276493 0.0732738
1 0.254261 0.235492
1 0.232044 0.397726
1 0.209827 0.559945
1 0.18761 0.722164
1 0.165393 0.884382
0.874983 0.428931 0
1 0.406714 0
1 0.384497 0
1 0.36228 0
1 0.340063 0.132143
1 0.31783 0.294377
1 0.295613 0.456596
1 0.273396 0.618814
1 0.251179 0.781048
1 0.514717 0
1 0.4925 0
1 0.470283 0
1 0.448066 0
1 0.425849 0.028809
1 0.403632 0.191028
1 0.381399 0.353246
1 0.359182 0.515465
1 0.336965 0.677699
1 0.600504 0
1 0.578286 0
1 0.556069 0
1 0.533852 0
1 0.511635 0
1 0.489418 0.0876783
1 0.467201 0.249897
1 0.444968 0.412131
1 0.422751 0.57435
1 0.68629 0
1 0.664073 0
1 0.641855 0
1 0.619638 0
1 0.597421 0
1 0.575204 0
1 0.552987 0.146548
1 0.53077 0.308782
1 0.508537 0.471
0 0.0614328 0.0661173
0 0.0392157 0.228321
0.0795453 0.0169833 0.390539
0.209094 0 0.552773
0.338628 0 0.714992
0.468177 0 0.877211
0.597726 0 1
0.72726 0 1
0.856809 0 1
0 0.147204 0
0.124987 0.124987 0.124987
0.254536 0.10277 0.287205
0.38407 0.0805524 0.449439
0.513619 0.0583352 0.611658
0.643153 0.0361028 0.773877
0.772702 0.0138857 0.936095
0.902235 0 1
1 0 1
0.170459 0.23299 0
0.299992 0.210773 0.0216373
0.429526 0.188556 0.183856
0.559075 0.166339 0.34609
0.688609 0.144121 0.508309
0.818158 0.121904 0.670527
0.947692 0.0996719 0.832761
1 0.0774548 0.99498
1 0.0552377 1
0.345464 0.318776 0
0.474983 0.296559 0
0.604532 0.274342 0.0805219
0.734066 0.252125 0.242741
0.863615 0.229908 0.404959
0.993149 0.207691 0.567178
1 0.185473 0.729412
1 0.163241 0.89163
1 0.141024 1
0.520455 0.404562 0
0.649989 0.382345 0
0.779522 0.360128 0
0.909072 0.337911 0.139391
1 0.315694 0.30161
1 0.293477 0.463844
1 0.27126 0.626062
1 0.249042 0.788281
1 0.22681 0.9505
0.69546 0.490349 0
0.824979 0.468147 0
0.954528 0.445914 0
1 0.423697 0.0360418
1 0.40148 0.19826
1 0.379263 0.360494
1 0.357046 0.522713
1 0.334829 0.684932
1 0.312612 0.847166
0.870466 0.57615 0
0.999985 0.553933 0
1 0.531716 0
1 0.509483 0
1 0.487266 0.0949264
1 0.465049 0.257145
1 0.442832 0.419364
1 0.420615 0.581582
1 0.398398 0.743816
1 0.661936 0
1 0.639719 0
1 0.617502 0
1 0.595285 0
1 0.573053 0
1 0.550835 0.153796
1 0.528618 0.316014
1 0.506401 0.478248
1 0.484184 0.640467
1 0.747723 0
1 0.725505 0
1 0.703288 0
1 0.681071 0
1 0.658854 0
1 0.636622 0.0504463
1 0.614404 0.21268
1 0.592187 0.374899
1 0.56997 0.537118
0 0.122866 0.13225
0 0.100649 0.294453
0 0.0784161 0.456672
0.0295567 0.056199 0.618891
0.159091 0.0339818 0.781109
0.28864 0.0117647 0.943343
0.418173 0 1
0.547723 0 1
0.677256 0 1
0 0.208637 0.0289158
0 0.186419 0.191119
0.0749828 0.164202 0.353338
0.204532 0.141985 0.515557
0.334066 0.119768 0.677775
0.463615 0.0975357 0.840009
0.593164 0.0753185 1
0.722698 0.0531014 1
0.852247 0.0308843 1
0 0.294423 0
0.120439 0.272206 0.0877699
0.249989 0.249989 0.249989
0.379538 0.227771 0.412207
0.509071 0.205554 0.574441
0.638621 0.183337 0.73666
0.768154 0.161105 0.898878
0.897704 0.138888 1
1 0.11667 1
0.165927 0.380209 0
0.295445 0.357992 0
0.424994 0.335775 0.146639
0.554528 0.313558 0.308858
0.684077 0.291341 0.471092
0.813611 0.269123 0.63331
0.94316 0.246906 0.795529
1 0.224674 0.957763
1 0.202457 1
0.340917 0.465995 0
0.470451 0.443778 0
0.599985 0.421561 0.0432898
0.729534 0.399344 0.205524
0.859068 0.377127 0.367742
0.988617 0.35491 0.529961
1 0.332692 0.69218
1 0.310475 0.854414
1 0.288243 1
0.515923 0.551781 0
0.645441 0.52958 0
0.77499 0.507347 0
0.904524 0.48513 0.102174
1 0.462913 0.264393
1 0.440696 0.426612
1 0.418479 0.588846
1 0.396262 0.751064
1 0.374044 0.913283
0.690913 0.637583 0
0.820447 0.615366 0
0.949996 0.593149 0
1 0.570916 0
1 0.548699 0.161044
1 0.526482 0.323262
1 0.504265 0.485496
1 0.482048 0.647715
1 0.459831 0.809934
0.865919 0.723369 0
0.995453 0.701152 0
1 0.678935 0
1 0.656718 0
1 0.634485 0.0576944
1 0.612268 0.219928
1 0.590051 0.382147
1 0.567834 0.544366
1 0.545617 0.706584
1 0.809155 0
1 0.786938 0
1 0.764721 0
1 0.742504 0
1 0.720287 0
1 0.698054 0.116579
1 0.675837 0.278798
1 0.65362 0.441016
1 0.631403 0.60325
0 0.184298 0.198367
0 0.162081 0.360571
0 0.139849 0.522789
0 0.117632 0.685023
0 0.0954147 0.847242
0.109102 0.0731975 1
0.238636 0.0509804 1
0.368185 0.0287633 1
0.497719 0.00654612 1
0 0.270069 0.0950332
0 0.247852 0.257237
0 0.225635 0.419455
0.0249943 0.203418 0.581689
0.154528 0.181201 0.743908
0.284077 0.158968 0.906126
0.413611 0.136751 1
0.54316 0.114534 1
0.672694 0.0923171 1
0 0.355856 0
0 0.333639 0.153887
0.0704509 0.311421 0.316121
0.199985 0.289204 0.47834
0.329534 0.266987 0.640558
0.459068 0.24477 0.802777
0.588617 0.222538 0.965011
0.718166 0.20032 1
0.8477 0.178103 1
0 0.441642 0
0.115908 0.419425 0.0505379
0.245441 0.397208 0.212772
0.37499 0.37499 0.37499
0.50454 0.352773 0.537209
0.634073 0.330556 0.699443
0.763622 0.308339 0.861662
0.893156 0.286107 1
1 0.26389 1
0.161379 0.527428 0
0.290913 0.505211 0
0.420447 0.482994 0.109422
0.549996 0.460777 0.271641
0.67953 0.43856 0.43386
0.809079 0.416342 0.596094
0.938613 0.394125 0.758312
1 0.371908 0.920531
1 0.349676 1
0.336385 0.613214 0
0.465904 0.591012 0
0.595453 0.56878 0.00607309
0.724987 0.546563 0.168292
0.854536 0.524346 0.330526
0.98407 0.502129 0.492744
1 0.479912 0.654963
1 0.457694 0.817182
1 0.435477 0.979416
0.511376 0.699016 0
0.640909 0.676799 0
0.770443 0.654582 0
0.899992 0.632349 0.0649424
1 0.610132 0.227176
1 0.587915 0.389395
1 0.565698 0.551614
1 0.543481 0.713848
1 0.521263 0.876066
0.686381 0.784802 0
0.8159 0.762585 0
0.945449 0.740368 0
1 0.718151 0
1 0.695918 0.123827
1 0.673701 0.286046
1 0.651484 0.448264
1 0.629267 0.610498
1 0.60705 0.772717
0.861387 0.870588 0
0.990906 0.848371 0
1 0.826154 0
1 0.803937 0
1 0.78172 0.0204776
1 0.759487 0.182696
1 0.73727 0.34493
1 0.715053 0.507149
1 0.692836 0.669367
0 0.245731 0.2645
0 0.223514 0.426703
0 0.201282 0.588922
0 0.179065 0.751141
0 0.156847 0.913375
0 0.13463 1
0.0590982 0.112413 1
0.188647 0.0901961 1
0.318181 0.0679789 1
0 0.331502 0.161166
0 0.309285 0.323369
0 0.287068 0.485588
0 0.264851 0.647807
0 0.242634 0.81004
0.10454 0.220401 0.972259
0.234073 0.198184 1
0.363622 0.175967 1
0.493156 0.15375 1
0 0.417288 0.0578164
0 0.395071 0.22002
0 0.372854 0.382239
0.0204471 0.350637 0.544457
0.149996 0.32842 0.706691
0.27953 0.306203 0.86891
0.409079 0.28397 1
0.538613 0.261753 1
0.668162 0.239536 1
0 0.503075 0
0 0.480858 0.11667
0.0659037 0.45864 0.278889
0.195453 0.436423 0.441123
0.324987 0.414206 0.603342
0.454536 0.391989 0.76556
0.58407 0.369772 0.927779
0.713619 0.347539 1
0.843168 0.325322 1
0 0.588861 0
0.11136 0.566644 0.0133211
0.240909 0.544427 0.17554
0.370443 0.52221 0.337774
0.499992 0.499992 0.499992
0.629541 0.477775 0.662211
0.759075 0.455558 0.824445
0.888624 0.433341 0.986664
1 0.411109 1
0.156832 0.674647 0
0.286366 0.652445 0
0.415915 0.630213 0.0722057
0.545449 0.607996 0.234424
0.674998 0.585779 0.396643
0.804532 0.563561 0.558862
0.934081 0.541344 0.721096
1 0.519127 0.883314
1 0.49691 1
0.331838 0.760449 0
0.461372 0.738231 0
0.590906 0.716014 0
0.720455 0.693782 0.131075
0.849989 0.671565 0.293294
0.979538 0.649348 0.455528
1 0.627131 0.617746
1 0.604913 0.779965
1 0.582696 0.942184
0.506844 0.846235 0
0.636362 0.824018 0
0.765911 0.801801 0
0.895445 0.779583 0.0277256
1 0.757351 0.189944
1 0.735134 0.352178
1 0.712917 0.514397
1 0.6907 0.676616
1 0.668482 0.838849
0.681834 0.932021 0
0.811368 0.909804 0
0.940902 0.887587 0
1 0.86537 0
1 0.843153 0.0866102
1 0.82092 0.248829
1 0.798703 0.411048
1 0.776486 0.573266
1 0.754269 0.7355
0 0.307164 0.330617
0 0.284947 0.492821
0 0.262715 0.655055
0 0.240497 0.817273
0 0.21828 0.979492
0 0.196063 1
0 0.173846 1
0.00909438 0.151629 1
0.138643 0.129412 1
0 0.392935 0.227283
0 0.370718 0.389487
0 0.348501 0.55172
0 0.326284 0.713939
0 0.304067 0.876158
0 0.281834 1
0.0545357 0.259617 1
0.184085 0.2374 1
0.313619 0.215183 1
0 0.478721 0.123934
0 0.456504 0.286137
0 0.434287 0.448371
0 0.41207 0.61059
0 0.389853 0.772808
0.0999924 0.367636 0.935042
0.229541 0.345403 1
0.359075 0.323186 1
0.488624 0.300969 1
0 0.564508 0.0205997
0 0.54229 0.182803
0 0.520073 0.345022
0.0159152 0.497856 0.50724
0.145449 0.475639 0.669459
0.274998 0.453422 0.831693
0.404532 0.431205 0.993912
0.534081 0.408972 1
0.663615 0.386755 1
0 0.650294 0
0 0.628077 0.0794537
0.0613718 0.605859 0.241672
0.190906 0.583642 0.403891
0.320455 0.561425 0.566125
0.449989 0.539208 0.728344
0.579538 0.516991 0.890562
0.709072 0.494774 1
0.838621 0.472541 1
0 0.736095 0
0.106828 0.713878 0
0.236362 0.691646 0.138323
0.365911 0.669429 0.300542
0.495445 0.647211 0.462776
0.624994 0.624994 0.624994
0.754543 0.602777 0.787213
0.884077 0.58056 0.949447
1 0.558343 1
0.1523 0.821881 0
0.281819 0.799664 0
0.411368 0.777447 0.0349737
0.540917 0.755215 0.197208
0.670451 0.732998 0.359426
0.8 0.710781 0.521645
0.929534 0.688563 0.683864
1 0.666346 0.846098
1 0.644129 1
0.327306 0.907668 0
0.456825 0.885451 0
0.586374 0.863233 0
0.715908 0.841016 0.0938582
0.845457 0.818784 0.256077
0.97499 0.796567 0.418296
1 0.77435 0.58053
1 0.752132 0.742748
1 0.729915 0.904967
0.502297 0.993454 0
0.63183 0.971237 0
0.761364 0.94902 0
0.890913 0.926802 0
1 0.904585 0.152728
1 0.882353 0.314961
1 0.860136 0.47718
1 0.837919 0.639399
1 0.815702 0.801617
0 0.368597 0.39675
0 0.34638 0.558953
0 0.324147 0.721172
0 0.30193 0.883391
0 0.279713 1
0 0.257496 1
0 0.235279 1
0 0.213062 1
0 0.190845 1
0 0.454368 0.293416
0 0.432151 0.455619
0 0.409934 0.617838
0 0.387717 0.780056
0 0.365499 0.94229
0 0.343267 1
0 0.32105 1
0.00453193 0.298833 1
0.134081 0.276616 1
0 0.540154 0.190066
0 0.517937 0.35227
0 0.49572 0.514488
0 0.473503 0.676722
0 0.451286 0.838941
0 0.429068 1
0.0500038 0.406836 1
0.179538 0.384619 1
0.309087 0.362402 1
0 0.62594 0.086717
0 0.603723 0.24892
0 0.581506 0.411139
0 0.559289 0.573373
0 0.537072 0.735592
0.0954604 0.514855 0.89781
0.224994 0.492638 1
0.354543 0.470405 1
0.484077 0.448188 1
0 0.711727 0
0 0.689509 0.145571
0 0.667292 0.307805
0.011368 0.645075 0.470024
0.140917 0.622858 0.632242
0.270451 0.600641 0.794461
0.4 0.578424 0.956695
0.529534 0.556207 1
0.659083 0.533974 1
0 0.797528 0
0 0.775311 0.0422217
0.0568246 0.753079 0.204456
0.186374 0.730861 0.366674
0.315908 0.708644 0.528893
0.445457 0.686427 0.691127
0.57499 0.66421 0.853346
0.70454 0.641993 1
0.834073 0.619776 1
0 0.883314 0
0.102281 0.861097 0
0.23183 0.83888 0.101106
0.361364 0.816648 0.263325
0.490913 0.79443 0.425544
0.620447 0.772213 0.587777
0.749996 0.749996 0.749996
0.879545 0.727779 0.912215
1 0.705562 1
0.147753 0.9691 0
0.277287 0.946883 0
0.406821 0.924666 0
0.53637 0.902449 0.159976
0.665919 0.880217 0.32221
0.795453 0.858 0.484428
0.925002 0.835782 0.646647
1 0.813565 0.808865
1 0.791348 0.971099
0.322759 1 0
0.452293 1 0
0.581827 1 0
0.711376 0.988235 0.0566415
0.840909 0.966018 0.21886
0.970459 0.943786 0.381079
1 0.921569 0.543297
1 0.899351 0.705531
1 0.877134 0.86775
0 0.43003 0.462867
0 0.407813 0.625071
0 0.38558 0.787305
0 0.363363 0.949523
0 0.341146 1
0 0.318929 1
0 0.296712 1
0 0.274495 1
0 0.252277 1
0 0.515801 0.359533
0 0.493584 0.521737
0 0.471366 0.68397
0 0.449149 0.846189
0 0.426932 1
0 0.4047 1
0 0.382483 1
0 0.360265 1
0 0.338048 1
0 0.601587 0.256199
0 0.57937 0.418402
0 0.557153 0.580621
0 0.534936 0.74284
0 0.512718 0.905058
0 0.490501 1
0 0.468269 1
0 0.446052 1
0.129534 0.423835 1
0 0.687373 0.15285
0 0.665156 0.315053
0 0.642939 0.477272
0 0.620722 0.63949
0 0.598505 0.801724
0 0.576288 0.963943
0.0454566 0.55407 1
0.175006 0.531838 1
0.30454 0.509621 1
0 0.773159 0.0495003
0 0.750942 0.211704
0 0.728725 0.373922
0 0.706508 0.536141
0 0.684291 0.698375
0.0909133 0.662074 0.860594
0.220462 0.639857 1
0.349996 0.617639 1
0.479545 0.595407 1
0 0.858961 0
0 0.836744 0.108354
0 0.814511 0.270573
0.00683604 0.792294 0.432807
0.13637 0.770077 0.595026
0.265919 0.74786 0.757244
0.395453 0.725643 0.919463
0.525002 0.703426 1
0.654536 0.681208 1
0 0.944747 0
0 0.92253 0.00500496
0.0522927 0.900313 0.167224
0.181827 0.87808 0.329458
0.311376 0.855863 0.491676
0.440909 0.833646 0.653895
0.570459 0.811429 0.816129
0.699992 0.789212 0.978347
0.829541 0.766995 1
0 1 0
0.0977493 1 0
0.227283 0.986099 0.0638895
0.356832 0.963882 0.226108
0.486366 0.941649 0.388327
0.615915 0.919432 0.550546
0.745449 0.897215 0.712779
0.874998 0.874998 0.874998
1 0.852781 1
0.143221 1 0
0.27274 1 0
0.402289 1 0
0.531823 1 0.122759
0.661372 1 0.284977
0.790921 1 0.447211
0.920455 0.983001 0.60943
1 0.960784 0.771649
1 0.938567 0.933867
0 0.491463 0.529
0 0.469245 0.691203
0 0.447013 0.853422
0 0.424796 1
0 0.402579 1
0 0.380362 1
0 0.358144 1
0 0.335927 1
0 0.31371 1
0 0.577234 0.425666
0 0.555016 0.587869
0 0.532799 0.750088
0 0.510582 0.912322
0 0.488365 1
0 0.466133 1
0 0.443915 1
0 0.421698 1
0 0.399481 1
0 0.66302 0.322316
0 0.640803 0.48452
0 0.618585 0.646738
0 0.596368 0.808972
0 0.574151 0.971191
0 0.551934 1
0 0.529702 1
0 0.507485 1
0 0.485267 1
0 0.748806 0.218967
0 0.726589 0.38117
0 0.704372 0.543404
0 0.682155 0.705623
0 0.659937 0.867842
0 0.63772 1
0 0.615503 1
0 0.593271 1
0.125002 0.571054 1
0 0.834592 0.115618
0 0.812375 0.277821
0 0.790158 0.440055
0 0.767941 0.602274
0 0.745724 0.764492
0 0.723507 0.926726
0.0409094 0.701289 1
0.170459 0.679072 1
0.300008 0.65684 1
0 0.920394 0.0122835
0 0.898177 0.174487
0 0.875944 0.336706
0 0.853727 0.498924
0 0.83151 0.661143
0.0863813 0.809293 0.823377
0.215915 0.787076 0.985595
0.345464 0.764858 1
0.474998 0.742641 1
0 1 0
0 0.983963 0.0711376
0 0.961746 0.233356
0.00228885 0.939513 0.395575
0.131838 0.917296 0.557809
0.261372 0.895079 0.720027
0.390921 0.872862 0.882246
0.520455 0.850645 1
0.650004 0.828428 1
0 1 0
0 1 0
0.0477455 1 0.130007
0.177295 1 0.292226
0.306828 1 0.454459
0.436377 0.980865 0.616678
0.565911 0.958648 0.778897
0.69546 0.936431 0.941131
0.824994 0.914214 1
0 1 0
0.0932021 1 0
0.222751 1 0.0266575
0.352285 1 0.188891
0.481834 1 0.35111
0.611368 1 0.513329
0.740917 1 0.675547
0.870451 1 0.837781
1 1 1
