public/LUTS/Color Shift/ColorShift_46.cube
TITLE "Generated by Resolve"
LUT_3D_SIZE 9
0 0 0
0 0.0449531 0.0809949
0 0.0899062 0.162005
0 0.134844 0.24303
0 0.179797 0.324041
0 0.22475 0.405051
0 0.269703 0.486061
0 0.314656 0.567071
0 0.359609 0.648081
0.198505 0.0469062 0.144091
0.138964 0.0918593 0.225101
0.079408 0.136812 0.306111
0.019852 0.181765 0.387121
0 0.226719 0.468132
0 0.271656 0.549142
0 0.316609 0.630152
0 0.361563 0.711162
0 0.406516 0.792172
0.39704 0.0938277 0.288212
0.337484 0.138766 0.369207
0.277928 0.183719 0.450217
0.218372 0.228672 0.531228
0.158816 0.273625 0.612238
0.0992599 0.318578 0.693263
0.039704 0.363531 0.774273
0 0.408484 0.855283
0 0.453437 0.936294
0.595575 0.140734 0.432319
0.536019 0.185687 0.513329
0.476463 0.230625 0.594339
0.416907 0.275578 0.675349
0.357351 0.320531 0.756359
0.297795 0.365484 0.837369
0.238239 0.410437 0.918379
0.178683 0.45539 0.99939
0.119127 0.500343 1
0.79411 0.18764 0.57644
0.734554 0.232593 0.657435
0.674998 0.277546 0.738445
0.615442 0.322499 0.819471
0.555886 0.367453 0.900481
0.49633 0.412406 0.981491
0.436774 0.457359 1
0.377218 0.502312 1
0.317662 0.547265 1
0.99263 0.234562 0.720562
0.933089 0.2795 0.801556
0.873533 0.324453 0.882567
0.813977 0.369406 0.963577
0.754421 0.414359 1
0.694865 0.459312 1
0.635309 0.504265 1
0.575753 0.549218 1
0.516197 0.594171 1
1 0.281468 0.864668
1 0.326421 0.945678
1 0.371374 1
1 0.416327 1
0.952956 0.46128 1
0.8934 0.506233 1
0.833844 0.551186 1
0.774289 0.596139 1
0.714733 0.641093 1
1 0.328389 1
1 0.373327 1
1 0.41828 1
1 0.463233 1
1 0.508186 1
1 0.55314 1
1 0.598093 1
0.972808 0.643046 1
0.913252 0.687999 1
1 0.375296 1
1 0.420249 1
1 0.465202 1
1 0.510155 1
1 0.555108 1
1 0.600061 1
1 0.645014 1
1 0.689952 1
1 0.734905 1
0 0.0331273 0
0 0.0780804 0
0 0.123033 0.0619059
0 0.167987 0.142916
0 0.21294 0.223926
0 0.257893 0.304936
0 0.302846 0.385946
0 0.347799 0.466957
0 0.392752 0.547967
0.184543 0.0800336 0.0439918
0.124987 0.124987 0.124987
0.0654307 0.16994 0.205997
0.00587472 0.214893 0.287007
0 0.259846 0.368017
0 0.304799 0.449027
0 0.349752 0.530037
0 0.394705 0.611048
0 0.439658 0.692058
0.383062 0.126955 0.188098
0.323522 0.171893 0.269108
0.263966 0.216846 0.350118
0.20441 0.261799 0.431128
0.144854 0.306752 0.512139
0.0852979 0.351705 0.593149
0.025742 0.396658 0.674159
0 0.441611 0.755169
0 0.486564 0.836179
0.581598 0.173861 0.332219
0.522057 0.218814 0.413214
0.462501 0.263767 0.494224
0.402945 0.308721 0.575235
0.343389 0.353674 0.656245
0.283833 0.398627 0.737255
0.224277 0.44358 0.818265
0.164721 0.488533 0.899275
0.105165 0.533486 0.980285
0.780133 0.220783 0.476326
0.720577 0.265721 0.557336
0.661021 0.310674 0.638346
0.601465 0.355627 0.719356
0.541909 0.40058 0.800366
0.482353 0.445533 0.881376
0.422797 0.490486 0.962386
0.363241 0.535439 1
0.303685 0.580392 1
0.978668 0.267689 0.620447
0.919112 0.312642 0.701442
0.859556 0.357595 0.782452
0.8 0.402548 0.863462
0.740444 0.447501 0.944472
0.680888 0.492454 1
0.621332 0.537408 1
0.561776 0.582345 1
0.50222 0.627298 1
1 0.314611 0.764553
1 0.359548 0.845563
1 0.404501 0.926574
0.998535 0.449454 1
0.938979 0.494408 1
0.879423 0.539361 1
0.819867 0.584314 1
0.760311 0.629267 1
0.700755 0.67422 1
1 0.361517 0.908675
1 0.40647 0.98967
1 0.451423 1
1 0.496376 1
1 0.541329 1
1 0.586267 1
1 0.63122 1
0.958846 0.676173 1
0.89929 0.721126 1
1 0.408438 1
1 0.453376 1
1 0.498329 1
1 0.543282 1
1 0.588235 1
1 0.633188 1
1 0.678141 1
1 0.723095 1
1 0.768048 1
0 0.0662699 0
0 0.111223 0
0 0.156161 0
0 0.201114 0.0427863
0 0.246067 0.123796
0 0.29102 0.204807
0 0.335973 0.285817
0 0.380926 0.366827
0 0.425879 0.447837
0.170565 0.113176 0
0.111009 0.158129 0.0248569
0.0514534 0.203082 0.105867
0 0.248035 0.186892
0 0.292973 0.267903
0 0.337926 0.348913
0 0.382879 0.429923
0 0.427832 0.510933
0 0.472786 0.591943
0.3691 0.160082 0.0879835
0.309545 0.205035 0.168978
0.249989 0.249989 0.249989
0.190433 0.294942 0.330999
0.130877 0.339895 0.412009
0.0713207 0.384848 0.493019
0.0117647 0.429801 0.574029
0 0.474754 0.655039
0 0.519707 0.736049
0.56762 0.207004 0.23209
0.50808 0.251942 0.313085
0.448524 0.296895 0.39411
0.388968 0.341848 0.47512
0.329412 0.386801 0.55613
0.269856 0.431754 0.63714
0.2103 0.476707 0.718151
0.150744 0.52166 0.799161
0.0911879 0.566613 0.880171
0.766155 0.25391 0.376211
0.706615 0.298863 0.457206
0.647059 0.343816 0.538216
0.587503 0.388769 0.619226
0.527947 0.433722 0.700236
0.468391 0.478676 0.781247
0.408835 0.523629 0.862257
0.349279 0.568582 0.943267
0.289723 0.613535 1
0.964691 0.300832 0.520317
0.905135 0.345769 0.601328
0.845579 0.390723 0.682338
0.786023 0.435676 0.763348
0.726467 0.480629 0.844358
0.666911 0.525582 0.925368
0.607355 0.570535 1
0.547799 0.615488 1
0.488243 0.660441 1
1 0.347738 0.664439
1 0.392691 0.745434
1 0.437644 0.826444
0.984558 0.482597 0.907454
0.925002 0.52755 0.988464
0.865446 0.572503 1
0.80589 0.617456 1
0.746334 0.662409 1
0.686778 0.707347 1
1 0.394659 0.808545
1 0.439597 0.889555
1 0.48455 0.970565
1 0.529503 1
1 0.574456 1
1 0.61941 1
1 0.664363 1
0.944869 0.709316 1
0.885313 0.754269 1
1 0.441566 0.952667
1 0.486519 1
1 0.531472 1
1 0.576425 1
1 0.621378 1
1 0.666331 1
1 0.711269 1
1 0.756222 1
1 0.801175 1
0 0.0994125 0
0 0.14435 0
0 0.189303 0
0 0.234257 0
0 0.27921 0.023682
0 0.324163 0.104692
0 0.369116 0.185702
0 0.414069 0.266712
0 0.459022 0.347723
0.156588 0.146319 0
0.0970321 0.191257 0
0.0374762 0.23621 0.00575265
0 0.281163 0.0867628
0 0.326116 0.167773
0 0.371069 0.248783
0 0.416022 0.329793
0 0.460975 0.410803
0 0.505928 0.491814
0.355123 0.193225 0
0.295567 0.238178 0.0688487
0.236011 0.283131 0.149859
0.176455 0.328084 0.230869
0.116899 0.373037 0.311894
0.0573434 0.417975 0.392905
0 0.462928 0.473915
0 0.507881 0.554925
0 0.552834 0.635935
0.553658 0.240146 0.13196
0.494102 0.285084 0.21297
0.434546 0.330037 0.29398
0.37499 0.37499 0.37499
0.315435 0.419944 0.456001
0.255879 0.464897 0.537011
0.196323 0.50985 0.618021
0.136767 0.554803 0.699031
0.0772106 0.599756 0.780041
0.752178 0.287053 0.276081
0.692638 0.332006 0.357076
0.633082 0.376944 0.438087
0.573526 0.421897 0.519112
0.51397 0.46685 0.600122
0.454414 0.511803 0.681132
0.394858 0.556756 0.762142
0.335302 0.601709 0.843153
0.275746 0.646662 0.924163
0.950713 0.333959 0.420203
0.891173 0.378912 0.501198
0.831617 0.423865 0.582208
0.772061 0.468818 0.663218
0.712505 0.513771 0.744228
0.652949 0.558724 0.825238
0.593393 0.603677 0.906249
0.533837 0.64863 0.987259
0.474281 0.693584 1
1 0.38088 0.564309
1 0.425818 0.645319
1 0.470771 0.726329
0.970581 0.515724 0.80734
0.911025 0.560678 0.88835
0.851469 0.605631 0.96936
0.791913 0.650584 1
0.732357 0.695537 1
0.672801 0.74049 1
1 0.427787 0.708431
1 0.47274 0.789425
1 0.517693 0.870436
1 0.562646 0.951446
1 0.607599 1
1 0.652552 1
0.990448 0.697505 1
0.930892 0.742458 1
0.871336 0.787411 1
1 0.474708 0.852537
1 0.519646 0.933547
1 0.564599 1
1 0.609552 1
1 0.654505 1
1 0.699458 1
1 0.744411 1
1 0.789364 1
1 0.834318 1
0 0.13254 0
0 0.177493 0
0 0.222446 0
0 0.267399 0
0 0.312352 0
0 0.357305 0.00456245
0 0.402243 0.0855726
0 0.447196 0.166583
0 0.492149 0.247593
0.142611 0.179446 0
0.0830701 0.224399 0
0.0235142 0.269352 0
0 0.314305 0
0 0.359258 0.0676432
0 0.404211 0.148653
0 0.449165 0.229664
0 0.494118 0.310689
0 0.539055 0.391699
0.341146 0.226368 0
0.28159 0.271305 0
0.222034 0.316258 0.0497444
0.162478 0.361212 0.130755
0.102922 0.406165 0.211765
0.0433661 0.451118 0.292775
0 0.496071 0.373785
0 0.541024 0.454795
0 0.585977 0.535805
0.539681 0.273274 0.0318456
0.480125 0.318227 0.11284
0.420569 0.36318 0.193851
0.361013 0.408133 0.274861
0.301457 0.453086 0.355871
0.241901 0.498039 0.436896
0.182345 0.542977 0.517906
0.122789 0.58793 0.598917
0.0632334 0.632883 0.679927
0.738216 0.320195 0.175952
0.67866 0.365133 0.256962
0.619104 0.410086 0.337972
0.559548 0.455039 0.418982
0.499992 0.499992 0.499992
0.440436 0.544945 0.581003
0.38088 0.589899 0.662013
0.321324 0.634852 0.743023
0.261769 0.679805 0.824033
0.936736 0.367102 0.320073
0.877195 0.412055 0.401068
0.817639 0.457008 0.482078
0.758083 0.501961 0.563088
0.698528 0.546899 0.644114
0.638972 0.591852 0.725124
0.579416 0.636805 0.806134
0.51986 0.681758 0.887144
0.460304 0.726711 0.968154
1 0.414008 0.464195
1 0.458961 0.54519
1 0.503914 0.6262
0.956619 0.548867 0.70721
0.897063 0.59382 0.78822
0.837507 0.638773 0.86923
0.777951 0.683726 0.95024
0.718395 0.728679 1
0.658839 0.773632 1
1 0.460929 0.608301
1 0.505867 0.689296
1 0.55082 0.770321
1 0.595773 0.851331
1 0.640726 0.932342
1 0.685679 1
0.976471 0.730632 1
0.916915 0.775586 1
0.857359 0.820539 1
1 0.507836 0.752422
1 0.552789 0.833417
1 0.597742 0.914427
1 0.642695 0.995438
1 0.687648 1
1 0.732601 1
1 0.777554 1
1 0.822507 1
1 0.86746 1
0 0.165682 0
0 0.21062 0
0 0.255573 0
0 0.300526 0
0 0.34548 0
0 0.390433 0
0 0.435386 0
0 0.480339 0.0664683
0 0.525292 0.147478
0.128634 0.212589 0
0.0690929 0.257527 0
0.00953689 0.30248 0
0 0.347433 0
0 0.392386 0
0 0.437339 0.0485389
0 0.482292 0.129549
0 0.527245 0.210559
0 0.572198 0.291569
0.327169 0.259495 0
0.267628 0.304448 0
0.208072 0.349401 0
0.148516 0.394354 0.0306249
0.0889601 0.439307 0.111635
0.0294041 0.48426 0.192645
0 0.529213 0.273655
0 0.574166 0.354665
0 0.61912 0.435691
0.525704 0.306416 0
0.466148 0.351354 0.012726
0.406592 0.396307 0.0937362
0.347036 0.44126 0.174746
0.28748 0.486213 0.255756
0.227924 0.531167 0.336767
0.168368 0.57612 0.417777
0.108812 0.621073 0.498787
0.0492561 0.666026 0.579797
0.724239 0.353323 0.0758373
0.664683 0.398276 0.156832
0.605127 0.443229 0.237842
0.545571 0.488182 0.318853
0.486015 0.533135 0.399863
0.426459 0.578088 0.480873
0.366903 0.623041 0.561898
0.307347 0.667979 0.642908
0.247791 0.712932 0.723918
0.922774 0.400244 0.219944
0.863218 0.445182 0.300954
0.803662 0.490135 0.381964
0.744106 0.535088 0.462974
0.68455 0.580041 0.543984
0.624994 0.624994 0.624994
0.565438 0.669947 0.706004
0.505882 0.7149 0.787015
0.446326 0.759854 0.868025
1 0.44715 0.364065
1 0.492103 0.44506
1 0.537057 0.52607
0.942641 0.58201 0.60708
0.883085 0.626947 0.68809
0.823529 0.671901 0.769116
0.763973 0.716854 0.850126
0.704417 0.761807 0.931136
0.644862 0.80676 1
1 0.494072 0.508171
1 0.53901 0.589181
1 0.583963 0.670192
1 0.628916 0.751202
1 0.673869 0.832212
1 0.718822 0.913222
0.962509 0.763775 0.994232
0.902953 0.808728 1
0.843397 0.853681 1
1 0.540978 0.652293
1 0.585931 0.733288
1 0.630869 0.814298
1 0.675822 0.895323
1 0.720775 0.976333
1 0.765728 1
1 0.810681 1
1 0.855634 1
1 0.900587 1
0 0.19881 0
0 0.243763 0
0 0.288716 0
0 0.333669 0
0 0.378622 0
0 0.423575 0
0 0.468528 0
0 0.513481 0
0 0.558434 0.0473487
0.114672 0.245716 0
0.0551156 0.290669 0
0 0.335622 0
0 0.380575 0
0 0.425528 0
0 0.470481 0
0 0.515435 0.0294194
0 0.560388 0.11043
0 0.605341 0.19144
0.313191 0.292638 0
0.253651 0.337575 0
0.194095 0.382528 0
0.134539 0.427482 0
0.0749828 0.472435 0.0115206
0.0154269 0.517388 0.0925307
0 0.562341 0.173541
0 0.607294 0.254551
0 0.652247 0.335561
0.511727 0.339544 0
0.452186 0.384497 0
0.39263 0.42945 0
0.333074 0.474403 0.0746166
0.273518 0.519356 0.155627
0.213962 0.564309 0.236637
0.154406 0.609262 0.317647
0.0948501 0.654215 0.398657
0.0352941 0.699168 0.479667
0.710262 0.386465 0
0.650706 0.431403 0.0567178
0.59115 0.476356 0.137728
0.531594 0.521309 0.218738
0.472038 0.566262 0.299748
0.412482 0.611215 0.380758
0.352926 0.656168 0.461769
0.29337 0.701122 0.542779
0.233814 0.746075 0.623789
0.908797 0.433371 0.119829
0.849241 0.478325 0.200824
0.789685 0.523278 0.281834
0.730129 0.568231 0.362844
0.670573 0.613184 0.443854
0.611017 0.658137 0.524865
0.551461 0.70309 0.605875
0.491905 0.748043 0.6869
0.432349 0.792981 0.76791
1 0.480293 0.263935
1 0.525231 0.344945
0.98822 0.570184 0.425956
0.928664 0.615137 0.506966
0.869108 0.66009 0.587976
0.809552 0.705043 0.668986
0.749996 0.749996 0.749996
0.69044 0.794949 0.831006
0.630884 0.839902 0.912016
1 0.527199 0.408057
1 0.572152 0.489052
1 0.617105 0.570062
1 0.662058 0.651072
1 0.707012 0.732082
1 0.751949 0.813092
0.948531 0.796902 0.894118
0.888975 0.841856 0.975128
0.829419 0.886809 1
1 0.574121 0.552163
1 0.619058 0.633173
1 0.664012 0.714183
1 0.708965 0.795193
1 0.753918 0.876204
1 0.798871 0.957214
1 0.843824 1
1 0.888777 1
1 0.93373 1
0 0.231952 0
0 0.276905 0
0 0.321859 0
0 0.366796 0
0 0.411749 0
0 0.456703 0
0 0.501656 0
0 0.546609 0
0 0.591562 0
0.100694 0.278859 0
0.0411383 0.323812 0
0 0.368765 0
0 0.413718 0
0 0.458656 0
0 0.503609 0
0 0.548562 0
0 0.593515 0.0103151
0 0.638468 0.0913252
0.299229 0.325765 0
0.239673 0.370718 0
0.180117 0.415671 0
0.120562 0.460624 0
0.0610056 0.505577 0
0.00144961 0.55053 0
0 0.595483 0.0734112
0 0.640436 0.154421
0 0.685389 0.235431
0.497749 0.372686 0
0.438209 0.417639 0
0.378653 0.462577 0
0.319097 0.50753 0
0.259541 0.552483 0.0555123
0.199985 0.597436 0.136522
0.140429 0.64239 0.217533
0.0808728 0.687343 0.298543
0.0213169 0.732296 0.379553
0.696284 0.419593 0
0.636744 0.464546 0
0.577188 0.509499 0.0375982
0.517632 0.554452 0.118608
0.458076 0.599405 0.199619
0.39852 0.644358 0.280629
0.338964 0.689311 0.361639
0.279408 0.734264 0.442649
0.219852 0.779217 0.523659
0.89482 0.466514 0.0196994
0.835264 0.511452 0.10071
0.775708 0.556405 0.18172
0.716152 0.601358 0.26273
0.656596 0.646311 0.34374
0.59704 0.691264 0.42475
0.537484 0.736217 0.50576
0.477928 0.78117 0.58677
0.418372 0.826123 0.667781
1 0.51342 0.163821
1 0.558373 0.244816
0.974243 0.603326 0.325826
0.914687 0.64828 0.406836
0.855131 0.693233 0.487846
0.795575 0.738186 0.568856
0.736019 0.783139 0.649866
0.676463 0.828092 0.730877
0.616907 0.873045 0.811902
1 0.560342 0.307927
1 0.60528 0.388937
1 0.650233 0.469947
1 0.695186 0.550958
1 0.740139 0.631968
0.99411 0.785092 0.712978
0.934554 0.830045 0.793988
0.874998 0.874998 0.874998
0.815442 0.919951 0.956008
1 0.607248 0.452049
1 0.652201 0.533043
1 0.697154 0.614054
1 0.742107 0.695064
1 0.78706 0.776074
1 0.832013 0.857084
1 0.876951 0.938094
1 0.921904 1
1 0.966857 1
0 0.265095 0
0 0.310033 0
0 0.354986 0
0 0.399939 0
0 0.444892 0
0 0.489845 0
0 0.534798 0
0 0.579751 0
0 0.624704 0
0.086717 0.312001 0
0.0271611 0.356939 0
0 0.401892 0
0 0.446845 0
0 0.491798 0
0 0.536751 0
0 0.581704 0
0 0.626657 0
0 0.671611 0
0.285252 0.358907 0
0.225696 0.403861 0
0.16614 0.448814 0
0.106584 0.493767 0
0.0470283 0.53872 0
0 0.583658 0
0 0.628611 0
0 0.673564 0.0543069
0 0.718517 0.135317
0.483787 0.405829 0
0.424231 0.450767 0
0.364675 0.49572 0
0.305119 0.540673 0
0.245563 0.585626 0
0.186007 0.630579 0.0363928
0.126452 0.675532 0.117403
0.0668956 0.720485 0.198413
0.00733959 0.765438 0.279423
0.682307 0.452735 0
0.622766 0.497688 0
0.56321 0.542641 0
0.503655 0.587579 0.0184939
0.444099 0.632532 0.0995041
0.384543 0.677485 0.180514
0.324987 0.722438 0.261524
0.265431 0.767391 0.342535
0.205875 0.812345 0.423545
0.880842 0.499641 0
0.821302 0.544594 0.000579843
0.761746 0.589548 0.08159
0.70219 0.634501 0.1626
0.642634 0.679454 0.24361
0.583078 0.724407 0.32462
0.523522 0.76936 0.405631
0.463966 0.814313 0.486641
0.40441 0.859266 0.567651
1 0.546563 0.0636912
1 0.591501 0.144701
0.960266 0.636454 0.225711
0.90071 0.681407 0.306722
0.841154 0.72636 0.387732
0.781598 0.771313 0.468742
0.722042 0.816266 0.549752
0.662486 0.861219 0.630762
0.60293 0.906172 0.711772
1 0.593469 0.207813
1 0.638422 0.288808
1 0.683375 0.369818
1 0.728328 0.450828
1 0.773281 0.531838
0.980133 0.818235 0.612848
0.920577 0.863188 0.693858
0.861021 0.908141 0.774868
0.801465 0.953094 0.855879
1 0.640391 0.351919
1 0.685328 0.432929
1 0.730282 0.513939
1 0.775235 0.594949
1 0.820188 0.675959
1 0.865141 0.75697
1 0.910094 0.83798
1 0.955047 0.91899
1 1 1
