public/LUTS/Color Shift/ColorShift_52.cube
TITLE "Generated by Resolve"
LUT_3D_SIZE 9
0 0 0
0 0.0813001 0
0 0.1626 0
0 0.2439 0
0 0.3252 0
0 0.4065 0
0 0.4878 0
0 0.569116 0
0 0.650416 0
0.156939 0.0413367 0.284382
0.0122988 0.122637 0.281224
0 0.203937 0.278065
0 0.285237 0.274907
0 0.366552 0.271733
0 0.447852 0.268574
0 0.529152 0.265415
0 0.610452 0.262257
0 0.691752 0.259098
0.313878 0.0826886 0.568795
0.169253 0.163989 0.565637
0.0245975 0.245289 0.562478
0 0.326589 0.559319
0 0.407889 0.556161
0 0.489204 0.553002
0 0.570504 0.549828
0 0.651804 0.54667
0 0.733104 0.543511
0.470832 0.124041 0.853223
0.326207 0.205341 0.85005
0.181552 0.286641 0.846891
0.0368963 0.367941 0.843732
0 0.449241 0.840574
0 0.530541 0.837415
0 0.611856 0.834257
0 0.693156 0.831098
0 0.774456 0.827924
0.627787 0.165393 1
0.483146 0.246677 1
0.338506 0.327993 1
0.193851 0.409293 1
0.0491951 0.490593 1
0 0.571893 1
0 0.653193 1
0 0.734508 1
0 0.815808 1
0.784741 0.206744 1
0.640101 0.288029 1
0.49546 0.369329 1
0.350805 0.450645 1
0.206149 0.531945 1
0.0615091 0.613245 1
0 0.694545 1
0 0.775845 1
0 0.857145 1
0.941695 0.248096 1
0.797055 0.329381 1
0.652399 0.410681 1
0.507759 0.491981 1
0.363104 0.573297 1
0.218448 0.654597 1
0.0738079 0.735897 1
0 0.817197 1
0 0.898497 1
1 0.289433 1
0.954009 0.370733 1
0.809354 0.452033 1
0.664698 0.533333 1
0.520058 0.614633 1
0.375402 0.695949 1
0.230747 0.777249 1
0.0861067 0.858549 1
0 0.939849 1
1 0.330785 1
1 0.412085 1
0.966308 0.493385 1
0.821653 0.574685 1
0.677012 0.655985 1
0.532357 0.737285 1
0.387701 0.818601 1
0.243061 0.899901 1
0.0984054 0.981201 1
0.112688 0.00234989 0
0 0.08365 0
0 0.16495 0
0 0.24625 0
0 0.32755 0
0 0.40885 0
0 0.49015 0
0 0.571466 0
0 0.652766 0
0.269627 0.0436866 0.128145
0.124987 0.124987 0.124987
0 0.206287 0.121828
0 0.287587 0.118669
0 0.368902 0.115511
0 0.450202 0.112337
0 0.531502 0.109178
0 0.612802 0.10602
0 0.694102 0.102861
0.426566 0.0850385 0.412558
0.281941 0.166339 0.4094
0.137285 0.247639 0.406241
0 0.328939 0.403082
0 0.410239 0.399924
0 0.491554 0.396765
0 0.572854 0.393606
0 0.654154 0.390433
0 0.735454 0.387274
0.58352 0.12639 0.696986
0.438895 0.207691 0.693828
0.29424 0.288991 0.690654
0.149584 0.370291 0.687495
0.00494392 0.451591 0.684337
0 0.532891 0.681178
0 0.614206 0.678019
0 0.695506 0.674861
0 0.776806 0.671702
0.740475 0.167742 0.981399
0.595834 0.249027 0.978241
0.451194 0.330343 0.975082
0.306538 0.411643 0.971923
0.161883 0.492943 0.96875
0.0172427 0.574243 0.965591
0 0.655543 0.962432
0 0.736843 0.959274
0 0.818158 0.956115
0.897429 0.209094 1
0.752789 0.290379 1
0.608148 0.371679 1
0.463493 0.452995 1
0.318837 0.534295 1
0.174197 0.615595 1
0.0295415 0.696895 1
0 0.778195 1
0 0.859495 1
1 0.250446 1
0.909743 0.331731 1
0.765087 0.413031 1
0.620447 0.494331 1
0.475792 0.575647 1
0.331136 0.656947 1
0.186496 0.738247 1
0.0418402 0.819547 1
0 0.900847 1
1 0.291783 1
1 0.373083 1
0.922042 0.454383 1
0.777386 0.535683 1
0.632746 0.616983 1
0.48809 0.698299 1
0.343435 0.779599 1
0.198795 0.860899 1
0.054139 0.942199 1
1 0.333135 1
1 0.414435 1
1 0.495735 1
0.93434 0.577035 1
0.7897 0.658335 1
0.645045 0.739635 1
0.500389 0.820951 1
0.355749 0.902251 1
0.211093 0.983551 1
0.225391 0.00469978 0
0.0807507 0.0859998 0
0 0.1673 0
0 0.2486 0
0 0.3299 0
0 0.4112 0
0 0.4925 0
0 0.573816 0
0 0.655116 0
0.382315 0.0460365 0
0.23769 0.127337 0
0.0930343 0.208637 0
0 0.289937 0
0 0.371252 0
0 0.452552 0
0 0.533852 0
0 0.615152 0
0 0.696452 0
0.539269 0.0873884 0.256306
0.394644 0.168688 0.253147
0.249989 0.249989 0.249989
0.105333 0.331289 0.24683
0 0.412589 0.243671
0 0.493904 0.240513
0 0.575204 0.237339
0 0.656504 0.23418
0 0.737804 0.231022
0.696223 0.12874 0.540734
0.551583 0.21004 0.53756
0.406943 0.291341 0.534401
0.262287 0.372641 0.531243
0.117632 0.453941 0.528084
0 0.535241 0.524926
0 0.616556 0.521767
0 0.697856 0.518608
0 0.779156 0.515435
0.853178 0.170092 0.825147
0.708537 0.251377 0.821988
0.563897 0.332692 0.81883
0.419242 0.413993 0.815656
0.274586 0.495293 0.812497
0.129946 0.576593 0.809339
0 0.657893 0.80618
0 0.739208 0.803021
0 0.820508 0.799863
1 0.211444 1
0.865492 0.292729 1
0.720836 0.374029 1
0.576196 0.455344 1
0.43154 0.536645 1
0.286885 0.617945 1
0.142245 0.699245 1
0 0.780545 1
0 0.861845 1
1 0.252796 1
1 0.334081 1
0.877791 0.415381 1
0.73315 0.496681 1
0.588495 0.577996 1
0.443839 0.659297 1
0.299199 0.740597 1
0.154543 0.821897 1
0.00988785 0.903197 1
1 0.294133 1
1 0.375433 1
1 0.456733 1
0.890089 0.538033 1
0.745449 0.619333 1
0.600793 0.700648 1
0.456138 0.781949 1
0.311498 0.863249 1
0.166842 0.944549 1
1 0.335485 1
1 0.416785 1
1 0.498085 1
1 0.579385 1
0.902388 0.660685 1
0.757748 0.741985 1
0.613092 0.823301 1
0.468437 0.904601 1
0.323796 0.985901 1
0.338094 0.00704967 0
0.193454 0.0883497 0
0.0488136 0.16965 0
0 0.25095 0
0 0.33225 0
0 0.41355 0
0 0.49485 0
0 0.576165 0
0 0.657465 0
0.495018 0.0484016 0
0.350393 0.129686 0
0.205737 0.210986 0
0.0610819 0.292287 0
0 0.373602 0
0 0.454902 0
0 0.536202 0
0 0.617502 0
0 0.698802 0
0.651972 0.0897383 0.100053
0.507347 0.171038 0.0968948
0.362692 0.252338 0.0937362
0.218036 0.333639 0.0905776
0.0733959 0.414939 0.0874189
0 0.496254 0.0842451
0 0.577554 0.0810864
0 0.658854 0.0779278
0 0.740154 0.0747692
0.808927 0.13109 0.384466
0.664286 0.21239 0.381308
0.519646 0.29369 0.378149
0.37499 0.37499 0.37499
0.230335 0.456291 0.371832
0.0856947 0.537591 0.368673
0 0.618906 0.365515
0 0.700206 0.362341
0 0.781506 0.359182
0.965881 0.172442 0.668894
0.821241 0.253727 0.665736
0.676585 0.335042 0.662562
0.531945 0.416342 0.659403
0.387289 0.497642 0.656245
0.242634 0.578943 0.653086
0.0979934 0.660243 0.649927
0 0.741558 0.646769
0 0.822858 0.64361
1 0.213794 0.953307
0.978195 0.295079 0.950149
0.833539 0.376379 0.94699
0.688899 0.457694 0.943832
0.544244 0.538994 0.940658
0.399588 0.620295 0.937499
0.254948 0.701595 0.93434
0.110292 0.782895 0.931182
0 0.86421 0.928023
1 0.255146 1
1 0.336431 1
0.990494 0.417731 1
0.845838 0.499031 1
0.701198 0.580346 1
0.556542 0.661646 1
0.411887 0.742947 1
0.267247 0.824247 1
0.122591 0.905547 1
1 0.296483 1
1 0.377783 1
1 0.459083 1
1 0.540383 1
0.858152 0.621683 1
0.713497 0.702998 1
0.568841 0.784298 1
0.424201 0.865599 1
0.279545 0.946899 1
1 0.337835 1
1 0.419135 1
1 0.500435 1
1 0.581735 1
1 0.663035 1
0.870451 0.744335 1
0.725795 0.82565 1
0.58114 0.90695 1
0.4365 0.988251 1
0.450797 0.00939956 0
0.306157 0.0906996 0
0.161501 0.172 0
0.0168612 0.2533 0
0 0.3346 0
0 0.4159 0
0 0.4972 0
0 0.578515 0
0 0.659815 0
0.607721 0.0507515 0
0.463096 0.132036 0
0.318441 0.213336 0
0.173785 0.294636 0
0.0291447 0.375952 0
0 0.457252 0
0 0.538552 0
0 0.619852 0
0 0.701152 0
0.764675 0.0920882 0
0.620035 0.173388 0
0.475395 0.254688 0
0.330739 0.335988 0
0.186084 0.417288 0
0.0414435 0.498604 0
0 0.579904 0
0 0.661204 0
0 0.742504 0
0.92163 0.13344 0.228214
0.776989 0.21474 0.225055
0.632349 0.29604 0.221897
0.487694 0.37734 0.218738
0.343038 0.45864 0.215579
0.198398 0.53994 0.212421
0.0537423 0.621256 0.209247
0 0.702556 0.206088
0 0.783856 0.20293
1 0.174792 0.512642
0.933944 0.256077 0.509468
0.789288 0.337392 0.50631
0.644648 0.418692 0.503151
0.499992 0.499992 0.499992
0.355337 0.581292 0.496834
0.210697 0.662593 0.493675
0.066041 0.743908 0.490517
0 0.825208 0.487343
1 0.216144 0.797055
1 0.297429 0.793896
0.946242 0.378729 0.790738
0.801587 0.460044 0.787564
0.656947 0.541344 0.784405
0.512291 0.622644 0.781247
0.367636 0.703944 0.778088
0.222995 0.785245 0.774929
0.0783398 0.86656 0.771771
1 0.257496 1
1 0.338781 1
1 0.420081 1
0.958541 0.501381 1
0.813901 0.582696 1
0.669245 0.663996 1
0.52459 0.745296 1
0.37995 0.826596 1
0.235294 0.907897 1
1 0.298833 1
1 0.380133 1
1 0.461433 1
1 0.542733 1
0.97084 0.624033 1
0.8262 0.705348 1
0.681544 0.786648 1
0.536889 0.867948 1
0.392248 0.949248 1
1 0.340185 1
1 0.421485 1
1 0.502785 1
1 0.584085 1
1 0.665385 1
0.983154 0.746685 1
0.838499 0.828 1
0.693843 0.9093 1
0.549203 0.9906 1
0.563485 0.0117494 0
0.41886 0.0930495 0
0.274205 0.17435 0
0.129564 0.25565 0
0 0.33695 0
0 0.41825 0
0 0.49955 0
0 0.580865 0
0 0.662165 0
0.720424 0.0531014 0
0.575784 0.134386 0
0.431144 0.215686 0
0.286488 0.296986 0
0.141833 0.378302 0
0 0.459602 0
0 0.540902 0
0 0.622202 0
0 0.703502 0
0.877379 0.0944381 0
0.732738 0.175738 0
0.588098 0.257038 0
0.443442 0.338338 0
0.298787 0.419638 0
0.154147 0.500954 0
0.00949111 0.582254 0
0 0.663554 0
0 0.744854 0
1 0.13579 0.0719615
0.889693 0.21709 0.0688029
0.745037 0.29839 0.0656443
0.600397 0.37969 0.0624857
0.455741 0.46099 0.0593271
0.311086 0.54229 0.0561532
0.166445 0.623606 0.0529946
0.0217899 0.704906 0.049836
0 0.786206 0.0466773
1 0.177142 0.356374
1 0.258427 0.353216
0.901991 0.339742 0.350057
0.757351 0.421042 0.346899
0.612696 0.502342 0.34374
0.46804 0.583642 0.340581
0.3234 0.664942 0.337423
0.178744 0.746258 0.334249
0.0340887 0.827558 0.33109
1 0.218494 0.640803
1 0.299779 0.637644
1 0.381079 0.63447
0.91429 0.462394 0.631312
0.76965 0.543694 0.628153
0.624994 0.624994 0.624994
0.480339 0.706294 0.621836
0.335698 0.787594 0.618677
0.191043 0.86891 0.615518
1 0.259846 0.925216
1 0.341131 0.922057
1 0.422431 0.918898
1 0.503731 0.91574
0.926589 0.585046 0.912566
0.781949 0.666346 0.909407
0.637293 0.747646 0.906249
0.492638 0.828946 0.90309
0.347997 0.910246 0.899931
1 0.301183 1
1 0.382483 1
1 0.463783 1
1 0.545083 1
1 0.626383 1
0.938903 0.707698 1
0.794247 0.788998 1
0.649592 0.870298 1
0.504952 0.951598 1
1 0.342535 1
1 0.423835 1
1 0.505135 1
1 0.586435 1
1 0.667735 1
1 0.749035 1
0.951202 0.83035 1
0.806546 0.91165 1
0.661891 0.99295 1
0.676188 0.0140993 0
0.531563 0.0953994 0
0.386908 0.176699 0
0.242252 0.258 0
0.097612 0.3393 0
0 0.4206 0
0 0.5019 0
0 0.583215 0
0 0.664515 0
0.833127 0.0554513 0
0.688487 0.136736 0
0.543847 0.218036 0
0.399191 0.299336 0
0.254536 0.380652 0
0.109895 0.461952 0
0 0.543252 0
0 0.624552 0
0 0.705852 0
0.990082 0.096788 0
0.845441 0.178088 0
0.700786 0.259388 0
0.556146 0.340688 0
0.41149 0.421988 0
0.266835 0.503304 0
0.122194 0.584604 0
0 0.665904 0
0 0.747204 0
1 0.13814 0
1 0.21944 0
0.85774 0.30074 0
0.7131 0.38204 0
0.568444 0.46334 0
0.423789 0.54464 0
0.279149 0.625956 0
0.134493 0.707256 0
0 0.788556 0
1 0.179492 0.200122
1 0.260792 0.196963
1 0.342092 0.193805
0.870039 0.423392 0.190646
0.725399 0.504692 0.187488
0.580743 0.585992 0.184329
0.436088 0.667292 0.181155
0.291447 0.748608 0.177996
0.146792 0.829908 0.174838
1 0.220844 0.48455
1 0.302129 0.481376
1 0.383429 0.478218
1 0.464744 0.475059
0.882353 0.546044 0.471901
0.737697 0.627344 0.468742
0.593042 0.708644 0.465583
0.448402 0.789944 0.462425
0.303746 0.87126 0.459251
1 0.262196 0.768963
1 0.343481 0.765805
1 0.424781 0.762646
1 0.506081 0.759472
1 0.587396 0.756313
0.894652 0.668696 0.753155
0.749996 0.749996 0.749996
0.605341 0.831296 0.746838
0.4607 0.912596 0.743679
1 0.303532 1
1 0.384833 1
1 0.466133 1
1 0.547433 1
1 0.628733 1
1 0.710048 1
0.90695 0.791348 1
0.762295 0.872648 1
0.617639 0.953948 1
1 0.344884 1
1 0.426184 1
1 0.507485 1
1 0.588785 1
1 0.670085 1
1 0.751385 1
1 0.8327 1
0.919249 0.914 1
0.774594 0.9953 1
0.788891 0.0164492 0
0.644266 0.0977493 0
0.499611 0.179049 0
0.354955 0.260349 0
0.210315 0.34165 0
0.0656596 0.42295 0
0 0.50425 0
0 0.585565 0
0 0.666865 0
0.94583 0.0578012 0
0.80119 0.139086 0
0.65655 0.220386 0
0.511894 0.301686 0
0.367239 0.383001 0
0.222599 0.464302 0
0.0779431 0.545602 0
0 0.626902 0
0 0.708202 0
1 0.0991379 0
0.958144 0.180438 0
0.813489 0.261738 0
0.668849 0.343038 0
0.524193 0.424338 0
0.379538 0.505653 0
0.234897 0.586954 0
0.0902419 0.668254 0
0 0.749554 0
1 0.14049 0
1 0.22179 0
0.970443 0.30309 0
0.825788 0.38439 0
0.681147 0.46569 0
0.536492 0.54699 0
0.391836 0.628305 0
0.247196 0.709606 0
0.102541 0.790906 0
1 0.181842 0.0438697
1 0.263142 0.0407111
1 0.344442 0.0375525
0.982742 0.425742 0.0343938
0.838102 0.507042 0.0312352
0.693446 0.588342 0.0280613
0.548791 0.669642 0.0249027
0.40415 0.750957 0.0217441
0.259495 0.832258 0.0185855
1 0.223194 0.328283
1 0.304479 0.325124
1 0.385794 0.321965
1 0.467094 0.318807
0.995041 0.548394 0.315648
0.850401 0.629694 0.31249
0.705745 0.710994 0.309331
0.56109 0.792294 0.306157
0.416449 0.87361 0.302998
1 0.264546 0.612711
1 0.34583 0.609552
1 0.427131 0.606378
1 0.508431 0.60322
1 0.589746 0.600061
1 0.671046 0.596902
0.862699 0.752346 0.593744
0.718044 0.833646 0.590585
0.573404 0.914946 0.587427
1 0.305882 0.897124
1 0.387182 0.893965
1 0.468482 0.890806
1 0.549783 0.887648
1 0.631083 0.884474
1 0.712398 0.881315
1 0.793698 0.878157
0.874998 0.874998 0.874998
0.730343 0.956298 0.871839
1 0.347234 1
1 0.428534 1
1 0.509834 1
1 0.591134 1
1 0.672435 1
1 0.753735 1
1 0.83505 1
1 0.91635 1
0.887297 0.99765 1
0.901595 0.0187991 0
0.75697 0.100099 0
0.612314 0.181399 0
0.467658 0.262699 0
0.323018 0.343999 0
0.178363 0.425299 0
0.0337072 0.5066 0
0 0.587915 0
0 0.669215 0
1 0.0601511 0
0.913893 0.141436 0
0.769238 0.222736 0
0.624598 0.304036 0
0.479942 0.385351 0
0.335286 0.466651 0
0.190646 0.547951 0
0.0459907 0.629252 0
0 0.710552 0
1 0.101488 0
1 0.182788 0
0.926192 0.264088 0
0.781552 0.345388 0
0.636896 0.426688 0
0.492241 0.508003 0
0.347601 0.589303 0
0.202945 0.670604 0
0.0582895 0.751904 0
1 0.14284 0
1 0.22414 0
1 0.30544 0
0.938491 0.38674 0
0.793851 0.46804 0
0.649195 0.54934 0
0.50454 0.630655 0
0.359899 0.711955 0
0.215244 0.793256 0
1 0.184192 0
1 0.265492 0
1 0.346792 0
1 0.428092 0
0.95079 0.509392 0
0.806149 0.590692 0
0.661494 0.671992 0
0.516838 0.753307 0
0.372198 0.834607 0
1 0.225544 0.17203
1 0.306828 0.168872
1 0.388144 0.165713
1 0.469444 0.162554
1 0.550744 0.159396
0.963104 0.632044 0.156237
0.818448 0.713344 0.153063
0.673793 0.794644 0.149905
0.529152 0.875959 0.146746
1 0.266896 0.456458
1 0.34818 0.453285
1 0.42948 0.450126
1 0.510781 0.446967
1 0.592096 0.443809
1 0.673396 0.44065
0.975402 0.754696 0.437491
0.830747 0.835996 0.434333
0.686091 0.917296 0.431159
1 0.308232 0.740871
1 0.389532 0.737713
1 0.470832 0.734554
1 0.552132 0.73138
1 0.633433 0.728222
1 0.714748 0.725063
1 0.796048 0.721904
0.987701 0.877348 0.718746
0.843046 0.958648 0.715587
1 0.349584 1
1 0.430884 1
1 0.512184 1
1 0.593484 1
1 0.674784 1
1 0.756085 1
1 0.8374 1
1 0.9187 1
1 1 1
