public/LUTS/Color Shift/ColorShift_43.cube
TITLE "Generated by Resolve"
LUT_3D_SIZE 33
0 0 0
0 0.0083772 0.026978
0 0.0167697 0.0539559
0 0.0251621 0.0809339
0 0.0335546 0.107927
0 0.0419471 0.134905
0 0.0503243 0.161898
0 0.0587167 0.188876
0 0.0671092 0.215854
0 0.0755016 0.242847
0 0.0838788 0.269825
0 0.0922713 0.296803
0 0.100664 0.323796
0 0.109056 0.350774
0 0.117433 0.377768
0 0.125826 0.404746
0 0.134218 0.431724
0 0.142611 0.458717
0 0.151003 0.485695
0 0.15938 0.512688
0 0.167773 0.539666
0 0.176165 0.566644
0 0.184558 0.593637
0 0.192935 0.620615
0 0.201328 0.647608
0 0.20972 0.674586
0 0.218112 0.701564
0 0.22649 0.728557
0 0.234882 0.755535
0 0.243275 0.782528
0 0.251667 0.809506
0 0.260044 0.836484
0 0.268437 0.863478
0.0530404 0.0121004 0.0249943
0.04477 0.0204929 0.0519722
0.0364996 0.0288853 0.0789502
0.0282139 0.0372625 0.105943
0.0199435 0.045655 0.132921
0.0116732 0.0540475 0.159899
0.0033875 0.0624399 0.186892
0 0.0708324 0.21387
0 0.0792096 0.240864
0 0.087602 0.267842
0 0.0959945 0.29482
0 0.104387 0.321813
0 0.112764 0.348791
0 0.121157 0.375784
0 0.129549 0.402762
0 0.137942 0.42974
0 0.146319 0.456733
0 0.154711 0.483711
0 0.163104 0.510704
0 0.171496 0.537682
0 0.179873 0.56466
0 0.188266 0.591653
0 0.196658 0.618631
0 0.205051 0.645609
0 0.213443 0.672602
0 0.22182 0.69958
0 0.230213 0.726574
0 0.238605 0.753552
0 0.246998 0.780529
0 0.255375 0.807523
0 0.263767 0.834501
0 0.27216 0.861494
0 0.280552 0.888472
0.106126 0.0242161 0.0500038
0.0978408 0.0326085 0.0769818
0.0895705 0.041001 0.10396
0.0813001 0.0493782 0.130953
0.0730144 0.0577707 0.157931
0.064744 0.0661631 0.184909
0.0564584 0.0745556 0.211902
0.048188 0.0829328 0.23888
0.0399176 0.0913252 0.265873
0.031632 0.0997177 0.292851
0.0233616 0.10811 0.319829
0.0150759 0.116487 0.346822
0.00680552 0.12488 0.3738
0 0.133272 0.400793
0 0.141665 0.427771
0 0.150042 0.454749
0 0.158434 0.481743
0 0.166827 0.508721
0 0.175219 0.535714
0 0.183612 0.562692
0 0.191989 0.58967
0 0.200381 0.616663
0 0.208774 0.643641
0 0.217166 0.670634
0 0.225544 0.697612
0 0.233936 0.72459
0 0.242329 0.751583
0 0.250721 0.778561
0 0.259098 0.805554
0 0.267491 0.832532
0 0.275883 0.85951
0 0.284276 0.886503
0 0.292653 0.913481
0.159197 0.0363317 0.0750134
0.150927 0.0447242 0.101991
0.142641 0.0531014 0.128969
0.134371 0.0614939 0.155962
0.126085 0.0698863 0.18294
0.117815 0.0782788 0.209918
0.109545 0.086656 0.236912
0.101259 0.0950484 0.26389
0.0929885 0.103441 0.290883
0.0847028 0.111833 0.317861
0.0764324 0.120211 0.344839
0.0681468 0.128603 0.371832
0.0598764 0.136995 0.39881
0.051606 0.145388 0.425803
0.0433204 0.15378 0.452781
0.03505 0.162158 0.479759
0.0267643 0.17055 0.506752
0.0184939 0.178943 0.53373
0.0102235 0.187335 0.560723
0.0019379 0.195712 0.587701
0 0.204105 0.614679
0 0.212497 0.641672
0 0.22089 0.66865
0 0.229267 0.695644
0 0.237659 0.722622
0 0.246052 0.749599
0 0.254444 0.776593
0 0.262821 0.803571
0 0.271214 0.830564
0 0.279606 0.857542
0 0.287999 0.88452
0 0.296391 0.911513
0 0.304768 0.938491
0.212268 0.0484474 0.100023
0.203998 0.0568246 0.127001
0.195712 0.0652171 0.153979
0.187442 0.0736095 0.180972
0.179156 0.082002 0.20795
0.170886 0.0903792 0.234943
0.162615 0.0987716 0.261921
0.15433 0.107164 0.288899
0.146059 0.115557 0.315892
0.137774 0.123949 0.34287
0.129503 0.132326 0.369863
0.121233 0.140719 0.396841
0.112947 0.149111 0.423819
0.104677 0.157504 0.450813
0.0963912 0.165881 0.477791
0.0881208 0.174273 0.504768
0.0798505 0.182666 0.531762
0.0715648 0.191058 0.55874
0.0632944 0.199435 0.585733
0.0550088 0.207828 0.612711
0.0467384 0.21622 0.639689
0.038468 0.224613 0.666682
0.0301823 0.23299 0.69366
0.021912 0.241382 0.720653
0.0136263 0.249775 0.747631
0.00535592 0.258167 0.774609
0 0.26656 0.801602
0 0.274937 0.82858
0 0.28333 0.855573
0 0.291722 0.882551
0 0.300114 0.909529
0 0.308492 0.936522
0 0.316884 0.9635
0.265339 0.0605631 0.125032
0.257069 0.0689403 0.15201
0.248783 0.0773327 0.178988
0.240513 0.0857252 0.205982
0.232242 0.0941176 0.232959
0.223957 0.102495 0.259953
0.215686 0.110887 0.286931
0.207401 0.11928 0.313909
0.19913 0.127672 0.340902
0.19086 0.136049 0.36788
0.182574 0.144442 0.394873
0.174304 0.152834 0.421851
0.166018 0.161227 0.448829
0.157748 0.169604 0.475822
0.149477 0.177996 0.5028
0.141192 0.186389 0.529793
0.132921 0.194781 0.556771
0.124636 0.203159 0.583749
0.116365 0.211551 0.610742
0.108095 0.219944 0.63772
0.0998093 0.228336 0.664714
0.0915389 0.236728 0.691691
0.0832532 0.245106 0.718669
0.0749828 0.253498 0.745663
0.0666972 0.261891 0.772641
0.0584268 0.270283 0.799619
0.0501564 0.27866 0.826612
0.0418708 0.287053 0.85359
0.0336004 0.295445 0.880583
0.0253147 0.303838 0.907561
0.0170443 0.312215 0.934539
0.00877394 0.320607 0.961532
0.000488289 0.329 0.98851
0.31841 0.0726787 0.150057
0.31014 0.0810559 0.17702
0.301869 0.0894484 0.203998
0.293584 0.0978408 0.230991
0.285313 0.106218 0.257969
0.277028 0.114611 0.284962
0.268757 0.123003 0.31194
0.260471 0.131395 0.338918
0.252201 0.139773 0.365911
0.243931 0.148165 0.392889
0.235645 0.156558 0.419883
0.227375 0.16495 0.44686
0.219089 0.173327 0.473838
0.210819 0.18172 0.500832
0.202548 0.190112 0.52781
0.194263 0.198505 0.554803
0.185992 0.206897 0.581781
0.177707 0.215274 0.608759
0.169436 0.223667 0.635752
0.161166 0.232059 0.66273
0.15288 0.240452 0.689723
0.14461 0.248829 0.716701
0.136324 0.257221 0.743679
0.128054 0.265614 0.770672
0.119783 0.274006 0.79765
0.111498 0.282383 0.824643
0.103227 0.290776 0.851621
0.0949416 0.299168 0.878599
0.0866712 0.307561 0.905592
0.0784009 0.315938 0.93257
0.0701152 0.324331 0.959564
0.0618448 0.332723 0.986542
0.0535592 0.341115 1
0.371481 0.0847791 0.175067
0.36321 0.0931716 0.202029
0.35494 0.101564 0.229007
0.346654 0.109941 0.256001
0.338384 0.118334 0.282979
0.330098 0.126726 0.309972
0.321828 0.135119 0.33695
0.313558 0.143496 0.363928
0.305272 0.151888 0.390921
0.297002 0.160281 0.417899
0.288716 0.168673 0.444892
0.280446 0.17705 0.47187
0.272175 0.185443 0.498848
0.26389 0.193835 0.525841
0.255619 0.202228 0.552819
0.247333 0.21062 0.579812
0.239063 0.218997 0.60679
0.230793 0.22739 0.633768
0.222507 0.235782 0.660761
0.214237 0.244175 0.687739
0.205951 0.252552 0.714733
0.197681 0.260945 0.741711
0.18941 0.269337 0.768688
0.181125 0.277729 0.795682
0.172854 0.286107 0.82266
0.164569 0.294499 0.849653
0.156298 0.302892 0.876631
0.148028 0.311284 0.903609
0.139742 0.319677 0.930602
0.131472 0.328054 0.95758
0.123186 0.336446 0.984573
0.114916 0.344839 1
0.10663 0.353231 1
0.424552 0.0968948 0.200076
0.416281 0.105287 0.227039
0.408011 0.113664 0.254032
0.399725 0.122057 0.28101
0.391455 0.130449 0.307988
0.383185 0.138842 0.334981
0.374899 0.147219 0.361959
0.366629 0.155612 0.388952
0.358343 0.164004 0.41593
0.350072 0.172396 0.442908
0.341802 0.180789 0.469902
0.333516 0.189166 0.49688
0.325246 0.197559 0.523873
0.31696 0.205951 0.550851
0.30869 0.214343 0.577829
0.30042 0.222721 0.604822
0.292134 0.231113 0.6318
0.283864 0.239506 0.658778
0.275578 0.247898 0.685771
0.267308 0.256275 0.712749
0.259022 0.264668 0.739742
0.250751 0.27306 0.76672
0.242481 0.281453 0.793698
0.234195 0.289845 0.820691
0.225925 0.298222 0.847669
0.217639 0.306615 0.874662
0.209369 0.315007 0.90164
0.201099 0.3234 0.928618
0.192813 0.331777 0.955612
0.184543 0.340169 0.982589
0.176257 0.348562 1
0.167987 0.356954 1
0.159716 0.365332 1
0.477623 0.10901 0.225086
0.469352 0.117388 0.252049
0.461082 0.12578 0.279042
0.452796 0.134173 0.30602
0.444526 0.142565 0.332998
0.436255 0.150958 0.359991
0.42797 0.159335 0.386969
0.419699 0.167727 0.413962
0.411414 0.17612 0.44094
0.403143 0.184512 0.467918
0.394873 0.192889 0.494911
0.386587 0.201282 0.521889
0.378317 0.209674 0.548882
0.370031 0.218067 0.57586
0.361761 0.226444 0.602838
0.353491 0.234836 0.629831
0.345205 0.243229 0.656809
0.336934 0.251621 0.683803
0.328649 0.259998 0.710781
0.320378 0.268391 0.737758
0.312108 0.276783 0.764752
0.303822 0.285176 0.79173
0.295552 0.293568 0.818723
0.287266 0.301946 0.845701
0.278996 0.310338 0.872679
0.270726 0.31873 0.899672
0.26244 0.327123 0.92665
0.25417 0.3355 0.953628
0.245884 0.343893 0.980621
0.237613 0.352285 1
0.229343 0.360678 1
0.221057 0.369055 1
0.212787 0.377447 1
0.530709 0.121126 0.250095
0.522423 0.129503 0.277058
0.514153 0.137896 0.304051
0.505882 0.146288 0.331029
0.497597 0.154681 0.358007
0.489326 0.163058 0.385
0.481041 0.17145 0.411978
0.47277 0.179843 0.438972
0.4645 0.188235 0.46595
0.456214 0.196612 0.492927
0.447944 0.205005 0.519921
0.439658 0.213397 0.546899
0.431388 0.22179 0.573892
0.423117 0.230167 0.60087
0.414832 0.23856 0.627848
0.406561 0.246952 0.654841
0.398276 0.255344 0.681819
0.390005 0.263737 0.708812
0.381735 0.272114 0.73579
0.373449 0.280507 0.762768
0.365179 0.288899 0.789761
0.356893 0.297292 0.816739
0.348623 0.305669 0.843732
0.340352 0.314061 0.87071
0.332067 0.322454 0.897688
0.323796 0.330846 0.924681
0.315511 0.339223 0.951659
0.30724 0.347616 0.978653
0.298955 0.356008 1
0.290684 0.364401 1
0.282414 0.372793 1
0.274128 0.38117 1
0.265858 0.389563 1
0.58378 0.133242 0.275105
0.575509 0.141619 0.302068
0.567224 0.150011 0.329061
0.558953 0.158404 0.356039
0.550668 0.166781 0.383032
0.542397 0.175174 0.41001
0.534127 0.183566 0.436988
0.525841 0.191959 0.463981
0.517571 0.200336 0.490959
0.509285 0.208728 0.517937
0.501015 0.217121 0.54493
0.492744 0.225513 0.571908
0.484459 0.233906 0.598901
0.476188 0.242283 0.625879
0.467903 0.250675 0.652857
0.459632 0.259068 0.67985
0.451347 0.26746 0.706828
0.443076 0.275837 0.733822
0.434806 0.28423 0.7608
0.42652 0.292622 0.787778
0.41825 0.301015 0.814771
0.409964 0.309392 0.841749
0.401694 0.317784 0.868742
0.393423 0.326177 0.89572
0.385138 0.334569 0.922698
0.376867 0.342947 0.949691
0.368582 0.351339 0.976669
0.360311 0.359731 1
0.352041 0.368124 1
0.343755 0.376516 1
0.335485 0.384894 1
0.327199 0.393286 1
0.318929 0.401679 1
0.636851 0.145342 0.300114
0.62858 0.153735 0.327077
0.620295 0.162127 0.35407
0.612024 0.170504 0.381048
0.603738 0.178897 0.408042
0.595468 0.187289 0.435019
0.587198 0.195682 0.461997
0.578912 0.204074 0.488991
0.570642 0.212451 0.515969
0.562356 0.220844 0.542962
0.554086 0.229236 0.56994
0.545815 0.237629 0.596918
0.53753 0.246006 0.623911
0.529259 0.254398 0.650889
0.520974 0.262791 0.677882
0.512703 0.271183 0.70486
0.504433 0.279561 0.731838
0.496147 0.287953 0.758831
0.487877 0.296345 0.785809
0.479591 0.304738 0.812787
0.471321 0.313115 0.83978
0.46305 0.321508 0.866758
0.454765 0.3299 0.893751
0.446494 0.338293 0.920729
0.438209 0.346685 0.947707
0.429938 0.355062 0.974701
0.421668 0.363455 1
0.413382 0.371847 1
0.405112 0.38024 1
0.396826 0.388617 1
0.388556 0.397009 1
0.380285 0.405402 1
0.372 0.413794 1
0.689921 0.157458 0.325124
0.681651 0.16585 0.352087
0.673365 0.174243 0.37908
0.665095 0.18262 0.406058
0.656825 0.191012 0.433051
0.648539 0.199405 0.460029
0.640269 0.207797 0.487007
0.631983 0.216175 0.514
0.623713 0.224567 0.540978
0.615442 0.232959 0.567971
0.607156 0.241352 0.594949
0.598886 0.249729 0.621927
0.5906 0.258122 0.64892
0.58233 0.266514 0.675898
0.57406 0.274907 0.702892
0.565774 0.283284 0.72987
0.557504 0.291676 0.756848
0.549218 0.300069 0.783841
0.540948 0.308461 0.810819
0.532677 0.316854 0.837812
0.524392 0.325231 0.86479
0.516121 0.333623 0.891768
0.507836 0.342016 0.918761
0.499565 0.350408 0.945739
0.491279 0.358785 0.972732
0.483009 0.367178 0.99971
0.474739 0.37557 1
0.466453 0.383963 1
0.458183 0.39234 1
0.449897 0.400732 1
0.441627 0.409125 1
0.433356 0.417517 1
0.425071 0.425895 1
0.742992 0.169574 0.350134
0.734722 0.177966 0.377096
0.726452 0.186343 0.404089
0.718166 0.194736 0.431067
0.709895 0.203128 0.458061
0.70161 0.211521 0.485039
0.693339 0.219898 0.512016
0.685069 0.22829 0.53901
0.676783 0.236683 0.565988
0.668513 0.245075 0.592981
0.660227 0.253452 0.619959
0.651957 0.261845 0.646937
0.643671 0.270237 0.67393
0.635401 0.27863 0.700908
0.627131 0.287022 0.727901
0.618845 0.295399 0.754879
0.610574 0.303792 0.781857
0.602289 0.312184 0.80885
0.594018 0.320577 0.835828
0.585748 0.328954 0.862821
0.577462 0.337346 0.889799
0.569192 0.345739 0.916777
0.560906 0.354131 0.943771
0.552636 0.362509 0.970748
0.544366 0.370901 0.997742
0.53608 0.379294 1
0.52781 0.387686 1
0.519524 0.396063 1
0.511254 0.404456 1
0.502983 0.412848 1
0.494697 0.421241 1
0.486427 0.429633 1
0.478141 0.43801 1
0.796063 0.181689 0.375143
0.787793 0.190066 0.402121
0.779522 0.198459 0.429099
0.771237 0.206851 0.456077
0.762966 0.215244 0.48307
0.754681 0.223621 0.510048
0.74641 0.232013 0.537041
0.73814 0.240406 0.564019
0.729854 0.248798 0.590997
0.721584 0.257191 0.61799
0.713298 0.265568 0.644968
0.705028 0.27396 0.671946
0.696757 0.282353 0.69894
0.688472 0.290745 0.725917
0.680201 0.299123 0.752911
0.671916 0.307515 0.779889
0.663645 0.315908 0.806867
0.655375 0.3243 0.83386
0.647089 0.332677 0.860838
0.638819 0.34107 0.887831
0.630533 0.349462 0.914809
0.622263 0.357855 0.941787
0.613993 0.366232 0.96878
0.605707 0.374624 0.995758
0.597436 0.383017 1
0.589151 0.391409 1
0.58088 0.399802 1
0.57261 0.408179 1
0.564324 0.416571 1
0.556054 0.424964 1
0.547768 0.433356 1
0.539498 0.441733 1
0.531228 0.450126 1
0.849134 0.193805 0.400153
0.840864 0.202182 0.427131
0.832593 0.210575 0.454109
0.824308 0.218967 0.481086
0.816037 0.227344 0.50808
0.807767 0.235737 0.535058
0.799481 0.244129 0.562051
0.791211 0.252522 0.589029
0.782925 0.260914 0.616007
0.774655 0.269291 0.643
0.766384 0.277684 0.669978
0.758099 0.286076 0.696971
0.749828 0.294469 0.723949
0.741543 0.302846 0.750927
0.733272 0.311238 0.77792
0.725002 0.319631 0.804898
0.716716 0.328023 0.831891
0.708446 0.3364 0.858869
0.70016 0.344793 0.885847
0.69189 0.353185 0.91284
0.683619 0.361578 0.939818
0.675334 0.36997 0.966796
0.667063 0.378347 0.99379
0.658778 0.38674 1
0.650507 0.395132 1
0.642222 0.403525 1
0.633951 0.411902 1
0.625681 0.420294 1
0.617395 0.428687 1
0.609125 0.437079 1
0.600839 0.445457 1
0.592569 0.453849 1
0.584298 0.462242 1
0.902205 0.205921 0.425162
0.893935 0.214298 0.45214
0.885664 0.22269 0.479118
0.877394 0.231083 0.506096
0.869108 0.23946 0.533089
0.860838 0.247852 0.560067
0.852552 0.256245 0.58706
0.844282 0.264637 0.614038
0.835996 0.273014 0.641016
0.827726 0.281407 0.668009
0.819455 0.289799 0.694987
0.81117 0.298192 0.721981
0.802899 0.306569 0.748959
0.794614 0.314961 0.775937
0.786343 0.323354 0.80293
0.778073 0.331746 0.829908
0.769787 0.340139 0.856901
0.761517 0.348516 0.883879
0.753231 0.356909 0.910857
0.744961 0.365301 0.93785
0.73669 0.373693 0.964828
0.728405 0.382071 0.991821
0.720134 0.390463 1
0.711849 0.398856 1
0.703578 0.407248 1
0.695308 0.415625 1
0.687022 0.424018 1
0.678752 0.43241 1
0.670466 0.440803 1
0.662196 0.44918 1
0.653925 0.457572 1
0.64564 0.465965 1
0.637369 0.474357 1
0.955291 0.218021 0.450172
0.947005 0.226413 0.47715
0.938735 0.234806 0.504128
0.930465 0.243183 0.531106
0.922179 0.251575 0.558099
0.913909 0.259968 0.585077
0.905623 0.26836 0.61207
0.897353 0.276738 0.639048
0.889082 0.28513 0.666026
0.880796 0.293523 0.693019
0.872526 0.301915 0.719997
0.86424 0.310292 0.74699
0.85597 0.318685 0.773968
0.8477 0.327077 0.800946
0.839414 0.33547 0.827939
0.831144 0.343862 0.854917
0.822858 0.352239 0.88191
0.814588 0.360632 0.908888
0.806317 0.369024 0.935866
0.798032 0.377417 0.96286
0.789761 0.385794 0.989837
0.781476 0.394186 1
0.773205 0.402579 1
0.764935 0.410971 1
0.756649 0.419348 1
0.748379 0.427741 1
0.740093 0.436133 1
0.731823 0.444526 1
0.723552 0.452918 1
0.715267 0.461295 1
0.706996 0.469688 1
0.698711 0.47808 1
0.69044 0.486473 1
1 0.230137 0.475181
1 0.238529 0.502159
0.991806 0.246906 0.529137
0.983536 0.255299 0.55613
0.97525 0.263691 0.583108
0.96698 0.272084 0.610086
0.958709 0.280461 0.637079
0.950423 0.288853 0.664057
0.942153 0.297246 0.691051
0.933867 0.305638 0.718029
0.925597 0.314031 0.745007
0.917327 0.322408 0.772
0.909041 0.3308 0.798978
0.900771 0.339193 0.825956
0.892485 0.347585 0.852949
0.884215 0.355962 0.879927
0.875944 0.364355 0.90692
0.867658 0.372747 0.933898
0.859388 0.38114 0.960876
0.851102 0.389517 0.987869
0.842832 0.39791 1
0.834546 0.406302 1
0.826276 0.414694 1
0.818006 0.423087 1
0.80972 0.431464 1
0.80145 0.439857 1
0.793164 0.448249 1
0.784894 0.456641 1
0.776623 0.465019 1
0.768338 0.473411 1
0.760067 0.481804 1
0.751781 0.490196 1
0.743511 0.498573 1
1 0.242252 0.500191
1 0.250629 0.527169
1 0.259022 0.554147
1 0.267414 0.58114
1 0.275807 0.608118
1 0.284199 0.635096
1 0.292576 0.662089
1 0.300969 0.689067
0.995224 0.309361 0.71606
0.986938 0.317754 0.743038
0.978668 0.326131 0.770016
0.970397 0.334524 0.797009
0.962112 0.342916 0.823987
0.953841 0.351308 0.85098
0.945556 0.359686 0.877958
0.937285 0.368078 0.904936
0.929015 0.376471 0.93193
0.920729 0.384863 0.958907
0.912459 0.39324 0.985901
0.904173 0.401633 1
0.895903 0.410025 1
0.887633 0.418418 1
0.879347 0.42681 1
0.871077 0.435187 1
0.862791 0.44358 1
0.85452 0.451972 1
0.84625 0.460365 1
0.837964 0.468742 1
0.829694 0.477134 1
0.821408 0.485527 1
0.813138 0.493919 1
0.804868 0.502297 1
0.796582 0.510689 1
1 0.254368 0.5252
1 0.262745 0.552178
1 0.271138 0.579156
1 0.27953 0.606149
1 0.287922 0.633127
1 0.2963 0.660105
1 0.304692 0.687099
1 0.313085 0.714076
1 0.321477 0.74107
1 0.329854 0.768048
1 0.338247 0.795026
1 0.346639 0.822019
1 0.355032 0.848997
1 0.363409 0.87599
0.998642 0.371801 0.902968
0.990356 0.380194 0.929946
0.982086 0.388586 0.956939
0.9738 0.396979 0.983917
0.96553 0.405356 1
0.957259 0.413748 1
0.948974 0.422141 1
0.940703 0.430533 1
0.932418 0.438911 1
0.924147 0.447303 1
0.915877 0.455695 1
0.907591 0.464088 1
0.899321 0.472465 1
0.891035 0.480858 1
0.882765 0.48925 1
0.874479 0.497642 1
0.866209 0.506035 1
0.857939 0.514412 1
0.849653 0.522805 1
1 0.266484 0.55021
1 0.274861 0.577188
1 0.283253 0.604166
1 0.291646 0.631159
1 0.300023 0.658137
1 0.308415 0.685115
1 0.316808 0.712108
1 0.3252 0.739086
1 0.333577 0.766079
1 0.34197 0.793057
1 0.350362 0.820035
1 0.358755 0.847028
1 0.367147 0.874006
1 0.375525 0.900999
1 0.383917 0.927977
1 0.392309 0.954955
1 0.400702 0.981949
1 0.409079 1
1 0.417472 1
1 0.425864 1
1 0.434256 1
0.993774 0.442634 1
0.985489 0.451026 1
0.977218 0.459419 1
0.968948 0.467811 1
0.960662 0.476188 1
0.952392 0.484581 1
0.944106 0.492973 1
0.935836 0.501366 1
0.927565 0.509758 1
0.91928 0.518135 1
0.911009 0.526528 1
0.902724 0.53492 1
1 0.278584 0.575219
1 0.286976 0.602197
1 0.295369 0.629175
1 0.303746 0.656168
1 0.312139 0.683146
1 0.320531 0.71014
1 0.328923 0.737118
1 0.337316 0.764096
1 0.345693 0.791089
1 0.354086 0.818067
1 0.362478 0.84506
1 0.370871 0.872038
1 0.379248 0.899016
1 0.38764 0.926009
1 0.396033 0.952987
1 0.404425 0.979965
1 0.412802 1
1 0.421195 1
1 0.429587 1
1 0.43798 1
1 0.446357 1
1 0.454749 1
1 0.463142 1
1 0.471534 1
1 0.479927 1
1 0.488304 1
1 0.496696 1
0.997192 0.505089 1
0.988907 0.513481 1
0.980636 0.521859 1
0.972351 0.530251 1
0.96408 0.538643 1
0.95581 0.547036 1
1 0.2907 0.600229
1 0.299092 0.627207
1 0.307485 0.654185
1 0.315862 0.681178
1 0.324254 0.708156
1 0.332647 0.735149
1 0.341039 0.762127
1 0.349416 0.789105
1 0.357809 0.816098
1 0.366201 0.843076
1 0.374594 0.870069
1 0.382971 0.897047
1 0.391363 0.924025
1 0.399756 0.951019
1 0.408148 0.977996
1 0.416526 1
1 0.424918 1
1 0.43331 1
1 0.441703 1
1 0.450095 1
1 0.458473 1
1 0.466865 1
1 0.475257 1
1 0.48365 1
1 0.492027 1
1 0.50042 1
1 0.508812 1
1 0.517205 1
1 0.525582 1
1 0.533974 1
1 0.542367 1
1 0.550759 1
1 0.559136 1
1 0.302815 0.625254
1 0.311208 0.652216
1 0.319585 0.679194
1 0.327977 0.706188
1 0.33637 0.733166
1 0.344762 0.760159
1 0.35314 0.787137
1 0.361532 0.814115
1 0.369924 0.841108
1 0.378317 0.868086
1 0.386694 0.895079
1 0.395087 0.922057
1 0.403479 0.949035
1 0.411872 0.976028
1 0.420264 1
1 0.428641 1
1 0.437034 1
1 0.445426 1
1 0.453819 1
1 0.462196 1
1 0.470588 1
1 0.478981 1
1 0.487373 1
1 0.49575 1
1 0.504143 1
1 0.512535 1
1 0.520928 1
1 0.529305 1
1 0.537697 1
1 0.54609 1
1 0.554482 1
1 0.562875 1
1 0.571252 1
1 0.314931 0.650263
1 0.323308 0.677226
1 0.331701 0.704219
1 0.340093 0.731197
1 0.348486 0.758175
1 0.356863 0.785168
1 0.365255 0.812146
1 0.373648 0.839124
1 0.38204 0.866117
1 0.390433 0.893095
1 0.39881 0.920089
1 0.407202 0.947066
1 0.415595 0.974044
1 0.423987 1
1 0.432364 1
1 0.440757 1
1 0.449149 1
1 0.457542 1
1 0.465919 1
1 0.474311 1
1 0.482704 1
1 0.491096 1
1 0.499474 1
1 0.507866 1
1 0.516258 1
1 0.524651 1
1 0.533043 1
1 0.541421 1
1 0.549813 1
1 0.558206 1
1 0.566598 1
1 0.574975 1
1 0.583368 1
1 0.327047 0.675273
1 0.335424 0.702235
1 0.343816 0.729229
1 0.352209 0.756207
1 0.360601 0.783185
1 0.368978 0.810178
1 0.377371 0.837156
1 0.385763 0.864149
1 0.394156 0.891127
