public/LUTS/Color Shift/ColorShift_57.cube
TITLE "Generated by Resolve"
LUT_3D_SIZE 33
0 0 0
0 0.0194705 0
0 0.0389715 0
0 0.0584573 0
0 0.0779431 0
0 0.0974289 0
0 0.116915 0
0 0.1364 0
0 0.155886 0
0 0.175372 0
0 0.194858 0
0 0.214343 0
0 0.233829 0
0 0.253315 0
0 0.272816 0
0 0.292302 0
0 0.311788 0
0 0.331273 0
0 0.350759 0
0 0.370245 0
0 0.389731 0
0 0.409216 0
0 0.428702 0
0 0.448188 0
0 0.467674 0
0 0.48716 0
0 0.506661 0
0 0.526146 0
0 0.545632 0
0 0.565118 0
0 0.584604 0
0 0.604089 0
0 0.623575 0
0.00627146 0.0201267 0.0718242
0 0.0395972 0.0478676
0 0.0590829 0.0238956
0 0.0785687 0
0 0.0980545 0
0 0.11754 0
0 0.137026 0
0 0.156527 0
0 0.176013 0
0 0.195499 0
0 0.214984 0
0 0.23447 0
0 0.253956 0
0 0.273442 0
0 0.292927 0
0 0.312413 0
0 0.331899 0
0 0.351385 0
0 0.370886 0
0 0.390372 0
0 0.409857 0
0 0.429343 0
0 0.448829 0
0 0.468315 0
0 0.4878 0
0 0.507286 0
0 0.526772 0
0 0.546258 0
0 0.565744 0
0 0.585229 0
0 0.60473 0
0 0.624216 0
0 0.643702 0
0.0125429 0.0402533 0.143679
0 0.0597238 0.119722
0 0.0792096 0.0957504
0 0.0987106 0.0717784
0 0.118196 0.0478065
0 0.137682 0.0238346
0 0.157168 0
0 0.176654 0
0 0.196139 0
0 0.215625 0
0 0.235111 0
0 0.254597 0
0 0.274083 0
0 0.293568 0
0 0.313054 0
0 0.332555 0
0 0.352041 0
0 0.371527 0
0 0.391012 0
0 0.410498 0
0 0.429984 0
0 0.44947 0
0 0.468956 0
0 0.488441 0
0 0.507927 0
0 0.527413 0
0 0.546899 0
0 0.5664 0
0 0.585885 0
0 0.605371 0
0 0.624857 0
0 0.644343 0
0 0.663828 0
0.0188144 0.0603799 0.215534
0 0.0798657 0.191577
0 0.0993515 0.167605
0 0.118837 0.143633
0 0.138323 0.119661
0 0.157809 0.0956893
0 0.177295 0.0717174
0 0.19678 0.0477455
0 0.216266 0.0237736
0 0.235752 0
0 0.255238 0
0 0.274723 0
0 0.294224 0
0 0.31371 0
0 0.333196 0
0 0.352682 0
0 0.372168 0
0 0.391653 0
0 0.411139 0
0 0.430625 0
0 0.450111 0
0 0.469596 0
0 0.489082 0
0 0.508568 0
0 0.528069 0
0 0.547555 0
0 0.567041 0
0 0.586526 0
0 0.606012 0
0 0.625498 0
0 0.644984 0
0 0.664469 0
0 0.683955 0
0.0250858 0.0805066 0.287388
0.00166323 0.0999924 0.263432
0 0.119478 0.23946
0 0.138964 0.215488
0 0.15845 0.191516
0 0.177935 0.167544
0 0.197421 0.143572
0 0.216907 0.1196
0 0.236393 0.0956283
0 0.255894 0.0716564
0 0.27538 0.0476844
0 0.294865 0.0237125
0 0.314351 0
0 0.333837 0
0 0.353323 0
0 0.372808 0
0 0.392294 0
0 0.41178 0
0 0.431266 0
0 0.450752 0
0 0.470237 0
0 0.489738 0
0 0.509224 0
0 0.52871 0
0 0.548196 0
0 0.567681 0
0 0.587167 0
0 0.606653 0
0 0.626139 0
0 0.645624 0
0 0.66511 0
0 0.684596 0
0 0.704082 0
0.0313573 0.100649 0.359243
0.00793469 0.120119 0.335286
0 0.139605 0.311315
0 0.159091 0.287343
0 0.178576 0.263371
0 0.198062 0.239399
0 0.217563 0.215427
0 0.237049 0.191455
0 0.256535 0.167483
0 0.27602 0.143511
0 0.295506 0.119539
0 0.314992 0.0955673
0 0.334478 0.0715953
0 0.353964 0.0476234
0 0.373449 0.0236515
0 0.392935 0
0 0.412421 0
0 0.431907 0
0 0.451408 0
0 0.470893 0
0 0.490379 0
0 0.509865 0
0 0.529351 0
0 0.548837 0
0 0.568322 0
0 0.587808 0
0 0.607294 0
0 0.62678 0
0 0.646265 0
0 0.665751 0
0 0.685252 0
0 0.704738 0
0 0.724224 0
0.0376287 0.120775 0.431098
0.0142061 0.140246 0.407141
0 0.159731 0.383169
0 0.179232 0.359197
0 0.198718 0.335225
0 0.218204 0.311254
0 0.23769 0.287282
0 0.257176 0.26331
0 0.276661 0.239338
0 0.296147 0.215366
0 0.315633 0.191394
0 0.335119 0.167422
0 0.354604 0.14345
0 0.37409 0.119478
0 0.393576 0.0955062
0 0.413077 0.0715343
0 0.432563 0.0475624
0 0.452049 0.0235904
0 0.471534 0
0 0.49102 0
0 0.510506 0
0 0.529992 0
0 0.549477 0
0 0.568963 0
0 0.588449 0
0 0.607935 0
0 0.62742 0
0 0.646922 0
0 0.666407 0
0 0.685893 0
0 0.705379 0
0 0.724865 0
0 0.74435 0
0.0439002 0.140902 0.502968
0.0204776 0.160388 0.478996
0 0.179873 0.455024
0 0.199359 0.431052
0 0.218845 0.40708
0 0.238331 0.383108
0 0.257816 0.359136
0 0.277302 0.335164
0 0.296788 0.311192
0 0.316274 0.287221
0 0.33576 0.263249
0 0.355245 0.239277
0 0.374746 0.215305
0 0.394232 0.191333
0 0.413718 0.167361
0 0.433204 0.143389
0 0.452689 0.119417
0 0.472175 0.0954452
0 0.491661 0.0714733
0 0.511147 0.0475166
0 0.530632 0.0235447
0 0.550118 0
0 0.569604 0
0 0.58909 0
0 0.608591 0
0 0.628077 0
0 0.647562 0
0 0.667048 0
0 0.686534 0
0 0.70602 0
0 0.725505 0
0 0.744991 0
0 0.764477 0
0.0501717 0.161028 0.574823
0.0267491 0.180514 0.550851
0.00331121 0.2 0.526879
0 0.219486 0.502907
0 0.238972 0.478935
0 0.258457 0.454963
0 0.277943 0.430991
0 0.297429 0.407019
0 0.316915 0.383047
0 0.336416 0.359091
0 0.355901 0.335119
0 0.375387 0.311147
0 0.394873 0.287175
0 0.414359 0.263203
0 0.433845 0.239231
0 0.45333 0.215259
0 0.472816 0.191287
0 0.492302 0.167315
0 0.511788 0.143343
0 0.531273 0.119371
0 0.550759 0.0953994
0 0.57026 0.0714275
0 0.589746 0.0474556
0 0.609232 0.0234836
0 0.628717 0
0 0.648203 0
0 0.667689 0
0 0.687175 0
0 0.706661 0
0 0.726146 0
0 0.745632 0
0 0.765118 0
0 0.784619 0
0.0564431 0.18117 0.646677
0.0330205 0.200641 0.622721
0.00958267 0.220127 0.598749
0 0.239612 0.574777
0 0.259098 0.550805
0 0.278584 0.526833
0 0.298085 0.502861
0 0.317571 0.478889
0 0.337057 0.454917
0 0.356542 0.430945
0 0.376028 0.406973
0 0.395514 0.383001
0 0.415 0.35903
0 0.434485 0.335058
0 0.453971 0.311086
0 0.473457 0.287114
0 0.492943 0.263142
0 0.512428 0.23917
0 0.531929 0.215198
0 0.551415 0.191226
0 0.570901 0.167254
0 0.590387 0.143282
0 0.609873 0.11931
0 0.629358 0.0953384
0 0.648844 0.0713664
0 0.66833 0.0473945
0 0.687816 0.0234226
0 0.707301 0
0 0.726787 0
0 0.746288 0
0 0.765774 0
0 0.78526 0
0 0.804746 0
0.0627146 0.201297 0.718532
0.039292 0.220768 0.694575
0.0158541 0.240253 0.670604
0 0.259754 0.646632
0 0.27924 0.62266
0 0.298726 0.598688
0 0.318212 0.574716
0 0.337697 0.550744
0 0.357183 0.526772
0 0.376669 0.5028
0 0.396155 0.478828
0 0.415641 0.454856
0 0.435126 0.430884
0 0.454612 0.406912
0 0.474098 0.38294
0 0.493599 0.358968
0 0.513085 0.334997
0 0.53257 0.311025
0 0.552056 0.287053
0 0.571542 0.263081
0 0.591028 0.239109
0 0.610513 0.215137
0 0.629999 0.191165
0 0.649485 0.167193
0 0.668971 0.143221
0 0.688457 0.119249
0 0.707958 0.0952773
0 0.727443 0.0713054
0 0.746929 0.0473335
0 0.766415 0.0233616
0 0.785901 0
0 0.805386 0
0 0.824872 0
0.068986 0.221424 0.790387
0.0455634 0.240909 0.76643
0.0221256 0.260395 0.742458
0 0.279881 0.718486
0 0.299367 0.694514
0 0.318853 0.670542
0 0.338338 0.646571
0 0.357824 0.622599
0 0.37731 0.598627
0 0.396796 0.574655
0 0.416281 0.550683
0 0.435767 0.526711
0 0.455268 0.502739
0 0.474754 0.478767
0 0.49424 0.454795
0 0.513726 0.430823
0 0.533211 0.406851
0 0.552697 0.382879
0 0.572183 0.358907
0 0.591669 0.334936
0 0.611154 0.310964
0 0.63064 0.286992
0 0.650126 0.26302
0 0.669627 0.239048
0 0.689113 0.215076
0 0.708598 0.191104
0 0.728084 0.167132
0 0.74757 0.14316
0 0.767056 0.119188
0 0.786542 0.0952163
0 0.806027 0.0712444
0 0.825513 0.0472725
0 0.844999 0.0233005
0.0752575 0.24155 0.862242
0.0518349 0.261036 0.838285
0.028397 0.280522 0.814313
0.00497444 0.300008 0.790341
0 0.319493 0.766369
0 0.338979 0.742397
0 0.358465 0.718425
0 0.377951 0.694453
0 0.397436 0.670481
0 0.416938 0.64651
0 0.436423 0.622538
0 0.455909 0.598566
0 0.475395 0.574594
0 0.494881 0.550622
0 0.514366 0.52665
0 0.533852 0.502678
0 0.553338 0.478706
0 0.572824 0.454734
0 0.592309 0.430762
0 0.611795 0.40679
0 0.631296 0.382818
0 0.650782 0.358846
0 0.670268 0.334874
0 0.689754 0.310903
0 0.709239 0.286931
0 0.728725 0.262959
0 0.748211 0.238987
0 0.767697 0.215015
0 0.787182 0.191043
0 0.806668 0.167071
0 0.826154 0.143099
0 0.84564 0.119127
0 0.865141 0.0951553
0.081529 0.261692 0.934096
0.0581064 0.281163 0.91014
0.0346685 0.300649 0.886168
0.0112459 0.320134 0.862196
0 0.33962 0.838224
0 0.359121 0.814252
0 0.378607 0.79028
0 0.398093 0.766308
0 0.417578 0.742336
0 0.437064 0.718364
0 0.45655 0.694392
0 0.476036 0.67042
0 0.495521 0.646448
0 0.515007 0.622477
0 0.534493 0.598505
0 0.553979 0.574533
0 0.573465 0.550561
0 0.592966 0.526589
0 0.612451 0.502617
0 0.631937 0.478645
0 0.651423 0.454673
0 0.670909 0.430701
0 0.690394 0.406729
0 0.70988 0.382757
0 0.729366 0.358785
0 0.748852 0.334813
0 0.768338 0.310842
0 0.787823 0.28687
0 0.807309 0.262898
0 0.82681 0.238926
0 0.846296 0.214954
0 0.865782 0.190982
0 0.885267 0.16701
0.0878004 0.281819 1
0.0643778 0.301289 0.981994
0.04094 0.32079 0.958022
0.0175174 0.340276 0.934051
0 0.359762 0.910079
0 0.379248 0.886107
0 0.398733 0.862135
0 0.418219 0.838163
0 0.437705 0.814191
0 0.457191 0.790219
0 0.476677 0.766247
0 0.496162 0.742275
0 0.515648 0.718303
0 0.535134 0.694331
0 0.554635 0.670359
0 0.574121 0.646387
0 0.593606 0.622415
0 0.613092 0.598444
0 0.632578 0.574472
0 0.652064 0.5505
0 0.67155 0.526528
0 0.691035 0.502556
0 0.710521 0.478584
0 0.730007 0.454612
0 0.749493 0.43064
0 0.768978 0.406668
0 0.788479 0.382696
0 0.807965 0.358724
0 0.827451 0.334752
0 0.846937 0.31078
0 0.866423 0.286809
0 0.885908 0.262837
0 0.905394 0.238865
0.0940719 0.301946 1
0.0706493 0.321431 1
0.0472114 0.340917 1
0.0237888 0.360403 1
0.000350958 0.379889 0.981933
0 0.399374 0.957961
0 0.41886 0.933989
0 0.438346 0.910018
0 0.457832 0.886046
0 0.477317 0.862074
0 0.496803 0.838102
0 0.516304 0.81413
0 0.53579 0.790158
0 0.555276 0.766186
0 0.574762 0.742214
0 0.594247 0.718242
0 0.613733 0.69427
0 0.633219 0.670298
0 0.652705 0.646326
0 0.67219 0.622354
0 0.691676 0.598383
0 0.711162 0.574411
0 0.730648 0.550439
0 0.750149 0.526467
0 0.769635 0.502495
0 0.78912 0.478538
0 0.808606 0.454566
0 0.828092 0.430594
0 0.847578 0.406622
0 0.867063 0.38265
0 0.886549 0.358679
0 0.906035 0.334707
0 0.925521 0.310735
0.100343 0.322072 1
0.0769207 0.341558 1
0.0534829 0.361044 1
0.0300603 0.380529 1
0.00662242 0.400015 1
0 0.419501 1
0 0.438987 1
0 0.458473 0.981872
0 0.477974 0.9579
0 0.497459 0.933928
0 0.516945 0.909957
0 0.536431 0.885985
0 0.555917 0.862013
0 0.575402 0.838041
0 0.594888 0.814069
0 0.614374 0.790097
0 0.63386 0.76614
0 0.653346 0.742168
0 0.672831 0.718196
0 0.692317 0.694224
0 0.711818 0.670253
0 0.731304 0.646281
0 0.75079 0.622309
0 0.770275 0.598337
0 0.789761 0.574365
0 0.809247 0.550393
0 0.828733 0.526421
0 0.848219 0.502449
0 0.867704 0.478477
0 0.88719 0.454505
0 0.906676 0.430533
0 0.926162 0.406561
0 0.945663 0.382589
0.106615 0.342214 1
0.0831922 0.361685 1
0.0597543 0.38117 1
0.0363317 0.400656 1
0.0128939 0.420142 1
0 0.439643 1
0 0.459129 1
0 0.478614 1
0 0.4981 1
0 0.517586 1
0 0.537072 0.981826
0 0.556558 0.957855
0 0.576043 0.933883
0 0.595529 0.909911
0 0.615015 0.885939
0 0.634501 0.861967
0 0.653986 0.837995
0 0.673487 0.814023
0 0.692973 0.790051
0 0.712459 0.766079
0 0.731945 0.742107
0 0.751431 0.718135
0 0.770916 0.694163
0 0.790402 0.670192
0 0.809888 0.64622
0 0.829374 0.622248
0 0.848859 0.598276
0 0.868345 0.574304
0 0.887831 0.550332
0 0.907332 0.52636
0 0.926818 0.502388
0 0.946303 0.478416
0 0.965789 0.454444
0.112886 0.362341 1
0.0894636 0.381811 1
0.0660258 0.401312 1
0.0426032 0.420798 1
0.0191653 0.440284 1
0 0.45977 1
0 0.479255 1
0 0.498741 1
0 0.518227 1
0 0.537713 1
0 0.557198 1
0 0.576684 1
0 0.59617 1
0 0.615656 0.981765
0 0.635157 0.957794
0 0.654643 0.933822
0 0.674128 0.90985
0 0.693614 0.885878
0 0.7131 0.861906
0 0.732586 0.837934
0 0.752071 0.813962
0 0.771557 0.78999
0 0.791043 0.766018
0 0.810529 0.742046
0 0.830014 0.718074
0 0.8495 0.694102
0 0.869001 0.67013
0 0.888487 0.646159
0 0.907973 0.622187
0 0.927459 0.598215
0 0.946944 0.574243
0 0.96643 0.550271
0 0.985916 0.526299
0.119158 0.382467 1
0.0957351 0.401953 1
0.0722972 0.421439 1
0.0488746 0.440925 1
0.0254368 0.46041 1
0.00199893 0.479896 1
0 0.499382 1
0 0.518868 1
0 0.538354 1
0 0.557839 1
0 0.577325 1
0 0.596826 1
0 0.616312 1
0 0.635798 1
0 0.655283 1
0 0.674769 1
0 0.694255 0.981704
0 0.713741 0.957732
0 0.733227 0.933761
0 0.752712 0.909789
0 0.772198 0.885817
0 0.791684 0.861845
0 0.81117 0.837873
0 0.830671 0.813901
0 0.850156 0.789929
0 0.869642 0.765957
0 0.889128 0.741985
0 0.908614 0.718013
0 0.9281 0.694041
0 0.947585 0.670069
0 0.967071 0.646097
0 0.986557 0.622126
0 1 0.598154
0.125429 0.402609 1
0.102007 0.42208 1
0.0785687 0.441566 1
0.0551461 0.461051 1
0.0317082 0.480537 1
0.00827039 0.500023 1
0 0.519509 1
0 0.538994 1
0 0.558495 1
0 0.577981 1
0 0.597467 1
0 0.616953 1
0 0.636439 1
0 0.655924 1
0 0.67541 1
0 0.694896 1
0 0.714382 1
0 0.733867 1
0 0.753353 1
0 0.772839 0.981643
0 0.79234 0.957671
0 0.811826 0.9337
0 0.831312 0.909728
0 0.850797 0.885756
0 0.870283 0.861784
0 0.889769 0.837812
0 0.909255 0.81384
0 0.92874 0.789868
0 0.948226 0.765896
0 0.967712 0.741924
0 0.987198 0.717952
0 1 0.69398
0 1 0.670008
0.131701 0.422736 1
0.108278 0.442206 1
0.0848402 0.461692 1
0.0614176 0.481178 1
0.0379797 0.500664 1
0.0145418 0.520165 1
0 0.539651 1
0 0.559136 1
0 0.578622 1
0 0.598108 1
0 0.617594 1
0 0.637079 1
0 0.656565 1
0 0.676051 1
0 0.695537 1
0 0.715023 1
0 0.734508 1
0 0.754009 1
0 0.773495 1
0 0.792981 1
0 0.812467 1
0 0.831952 1
0 0.851438 0.981582
0 0.870924 0.95761
0 0.89041 0.933639
0 0.909895 0.909667
0 0.929381 0.885695
0 0.948867 0.861723
0 0.968368 0.837751
0 0.987854 0.813779
0 1 0.789807
0 1 0.765835
0 1 0.741863
0.137972 0.442863 1
0.114549 0.462333 1
0.0911116 0.481834 1
0.067689 0.50132 1
0.0442512 0.520806 1
0.0208133 0.540291 1
0 0.559777 1
0 0.579263 1
0 0.598749 1
0 0.618235 1
0 0.63772 1
0 0.657206 1
0 0.676692 1
0 0.696178 1
0 0.715679 1
0 0.735164 1
0 0.75465 1
0 0.774136 1
0 0.793622 1
0 0.813107 1
0 0.832593 1
0 0.852079 1
0 0.871565 1
0 0.891051 1
0 0.910536 1
0 0.930037 0.981521
0 0.949523 0.957549
0 0.969009 0.933577
0 0.988495 0.909606
0 1 0.885634
0 1 0.861662
0 1 0.83769
0 1 0.813718
0.144244 0.462989 1
0.120821 0.482475 1
0.0973831 0.501961 1
0.0739605 0.521447 1
0.0505226 0.540932 1
0.0270848 0.560418 1
0.00366217 0.579904 1
0 0.59939 1
0 0.618875 1
0 0.638361 1
0 0.657847 1
0 0.677348 1
0 0.696834 1
0 0.71632 1
0 0.735805 1
0 0.755291 1
0 0.774777 1
0 0.794263 1
0 0.813748 1
0 0.833234 1
0 0.85272 1
0 0.872206 1
0 0.891707 1
0 0.911192 1
0 0.930678 1
0 0.950164 1
0 0.96965 1
0 0.989136 1
0 1 0.98146
0 1 0.957488
0 1 0.933516
0 1 0.909545
0 1 0.885588
0.150515 0.483131 1
0.127092 0.502602 1
0.103655 0.522087 1
0.0802319 0.541573 1
0.0567941 0.561059 1
0.0333562 0.580545 1
0.00993362 0.600031 1
0 0.619516 1
0 0.639017 1
0 0.658503 1
0 0.677989 1
0 0.697475 1
0 0.71696 1
0 0.736446 1
0 0.755932 1
0 0.775418 1
0 0.794903 1
0 0.814389 1
0 0.833875 1
0 0.853376 1
0 0.872862 1
0 0.892348 1
0 0.911833 1
0 0.931319 1
0 0.950805 1
0 0.970291 1
0 0.989776 1
0 1 1
0 1 1
0 1 1
0 1 1
0 1 0.981414
0 1 0.957443
0.156786 0.503258 1
0.133364 0.522728 1
0.109926 0.542214 1
0.0865034 0.5617 1
0.0630655 0.581201 1
0.0396277 0.600687 1
0.0162051 0.620172 1
0 0.639658 1
0 0.659144 1
0 0.67863 1
0 0.698116 1
0 0.717601 1
0 0.737087 1
0 0.756573 1
0 0.776059 1
0 0.795544 1
0 0.815045 1
0 0.834531 1
0 0.854017 1
0 0.873503 1
0 0.892989 1
0 0.912474 1
0 0.93196 1
0 0.951446 1
0 0.970932 1
0 0.990417 1
0 1 1
0 1 1
0 1 1
0 1 1
0 1 1
0 1 1
0 1 1
0.163058 0.523384 1
0.139635 0.54287 1
0.116197 0.562356 1
0.0927749 0.581842 1
0.069337 0.601328 1
0.0458991 0.620813 1
0.0224765 0.640299 1
0 0.659785 1
0 0.679271 1
0 0.698756 1
0 0.718242 1
0 0.737728 1
0 0.757214 1
0 0.776715 1
0 0.796201 1
0 0.815686 1
0 0.835172 1
0 0.854658 1
0 0.874144 1
0 0.893629 1
0 0.913115 1
0 0.932601 1
0 0.952087 1
0 0.971572 1
0 0.991058 1
0 1 1
0 1 1
0 1 1
0 1 1
0 1 1
0 1 1
0 1 1
0 1 1
0.169329 0.543511 1
0.145907 0.562997 1
0.122469 0.582483 1
0.0990463 0.601968 1
0.0756085 0.621454 1
0.0521706 0.64094 1
0.028748 0.660426 1
0.00531014 0.679911 1
0 0.699397 1
