public/LUTS/Color Shift/ColorShift_06.cube
TITLE "Generated by Resolve"
LUT_3D_SIZE 9
0 0 0
0 0.0593881 0
0 0.118791 0
0 0.178195 0
0 0.237583 0
0 0.296986 0
0 0.35639 0
0 0.415778 0
0 0.475181 0
0.0975357 0.0687572 0.209781
0.0309758 0.128145 0.194797
0 0.187549 0.179812
0 0.246937 0.164828
0 0.30634 0.149844
0 0.365743 0.134874
0 0.425132 0.11989
0 0.484535 0.104906
0 0.543938 0.0899214
0.195102 0.137514 0.419577
0.128527 0.196902 0.404608
0.0619669 0.256306 0.389624
0 0.315709 0.37464
0 0.375097 0.359655
0 0.434501 0.344671
0 0.493904 0.329686
0 0.553292 0.314702
0 0.612696 0.299718
0.292653 0.206271 0.629389
0.226078 0.265675 0.614404
0.159518 0.325063 0.59942
0.0929427 0.384466 0.584436
0.0263676 0.44387 0.569451
0 0.503258 0.554482
0 0.562661 0.539498
0 0.622065 0.524514
0 0.681453 0.509529
0.390204 0.275044 0.839185
0.323644 0.334432 0.824201
0.257069 0.393835 0.809232
0.190494 0.453223 0.794247
0.123919 0.512627 0.779263
0.0573587 0.57203 0.764279
0 0.631418 0.749294
0 0.690822 0.73431
0 0.750225 0.719326
0.487755 0.343801 1
0.421195 0.403189 1
0.35462 0.462593 1
0.288045 0.521996 1
0.221469 0.581384 0.989059
0.15491 0.640787 0.974075
0.0883345 0.700191 0.959106
0.0217594 0.759579 0.944121
0 0.818982 0.929137
0.585306 0.412558 1
0.518746 0.471946 1
0.452171 0.53135 1
0.385595 0.590753 1
0.319036 0.650141 1
0.252461 0.709545 1
0.185885 0.768948 1
0.11931 0.828351 1
0.0527504 0.887739 1
0.682857 0.481331 1
0.616297 0.540719 1
0.549722 0.600107 1
0.483146 0.65951 1
0.416587 0.718914 1
0.350011 0.778302 1
0.283436 0.837705 1
0.216861 0.897108 1
0.150301 0.956512 1
0.780407 0.550088 1
0.713848 0.609476 1
0.647272 0.668879 1
0.580713 0.728267 1
0.514138 0.787671 1
0.447562 0.847074 1
0.380987 0.906462 1
0.314427 0.965866 1
0.247852 1 1
0.0940108 0 0
0.027451 0.0562295 0
0 0.115633 0
0 0.175036 0
0 0.234424 0
0 0.293828 0
0 0.353231 0
0 0.412619 0
0 0.472023 0
0.191546 0.0655985 0.139971
0.124987 0.124987 0.124987
0.0584115 0.18439 0.110002
0 0.243778 0.0950179
0 0.303181 0.0800336
0 0.362585 0.0650645
0 0.421973 0.0500801
0 0.481376 0.0350958
0 0.54078 0.0201114
0.289097 0.134356 0.349767
0.222538 0.193744 0.334783
0.155962 0.253147 0.319814
0.0894026 0.312551 0.304829
0.0228275 0.371939 0.289845
0 0.431342 0.274861
0 0.490745 0.259876
0 0.550134 0.244892
0 0.609537 0.229908
0.386664 0.203113 0.559579
0.320089 0.262516 0.544594
0.253529 0.321904 0.52961
0.186954 0.381308 0.514626
0.120378 0.440711 0.499641
0.0538033 0.500099 0.484657
0 0.559503 0.469688
0 0.618906 0.454704
0 0.678294 0.439719
0.484215 0.271885 0.769375
0.417639 0.331273 0.754391
0.35108 0.390677 0.739422
0.284504 0.450065 0.724437
0.217929 0.509468 0.709453
0.151354 0.568872 0.694469
0.0847944 0.62826 0.679484
0.0182193 0.687663 0.6645
0 0.747066 0.649516
0.581765 0.340642 0.979187
0.515206 0.400031 0.964202
0.448631 0.459434 0.949218
0.382055 0.518837 0.934234
0.31548 0.578225 0.919249
0.24892 0.637629 0.904265
0.182345 0.697032 0.889296
0.11577 0.75642 0.874311
0.0491951 0.815824 0.859327
0.679316 0.4094 1
0.612757 0.468788 1
0.546181 0.528191 1
0.479606 0.587594 1
0.413031 0.646998 1
0.346471 0.706386 1
0.279896 0.765789 1
0.213321 0.825193 1
0.146746 0.884581 1
0.776867 0.478172 1
0.710307 0.53756 1
0.643732 0.596948 1
0.577157 0.656352 1
0.510597 0.715755 1
0.444022 0.775158 1
0.377447 0.834546 1
0.310872 0.89395 1
0.244312 0.953353 1
0.874418 0.546929 1
0.807858 0.606317 1
0.741283 0.665721 1
0.674723 0.725109 1
0.608148 0.784512 1
0.541573 0.843915 1
0.474998 0.903304 1
0.408423 0.962707 1
0.341863 1 1
0.188022 0 0
0.121462 0.0530709 0
0.0548867 0.112474 0
0 0.171878 0
0 0.231266 0
0 0.290669 0
0 0.350072 0
0 0.409461 0
0 0.468864 0
0.285573 0.0624399 0.0701457
0.219013 0.121828 0.0551614
0.152438 0.181231 0.0401923
0.0858625 0.24062 0.0252079
0.0192874 0.300023 0.0102235
0 0.359426 0
0 0.418814 0
0 0.478218 0
0 0.537621 0
0.383124 0.131197 0.279957
0.316564 0.190585 0.264973
0.249989 0.249989 0.249989
0.183413 0.309392 0.235004
0.116838 0.36878 0.22002
0.0502785 0.428183 0.205035
0 0.487587 0.190066
0 0.546975 0.175082
0 0.606378 0.160098
0.480674 0.199954 0.489754
0.414115 0.259358 0.474769
0.347539 0.318746 0.459785
0.280964 0.378149 0.444816
0.214405 0.437552 0.429831
0.147829 0.496941 0.414847
0.0812543 0.556344 0.399863
0.0146792 0.615747 0.384878
0 0.675135 0.369894
0.578225 0.268727 0.699565
0.511666 0.328115 0.684581
0.44509 0.387518 0.669596
0.378531 0.446906 0.654612
0.311955 0.50631 0.639628
0.24538 0.565713 0.624643
0.178805 0.625101 0.609659
0.11223 0.684504 0.59469
0.0456703 0.743908 0.579705
0.675776 0.337484 0.909361
0.609216 0.396872 0.894377
0.542641 0.456275 0.879393
0.476081 0.515679 0.864424
0.409506 0.575067 0.849439
0.342931 0.63447 0.834455
0.276356 0.693874 0.819471
0.209796 0.753262 0.804486
0.143221 0.812665 0.789502
0.773342 0.406241 1
0.706767 0.465629 1
0.640208 0.525032 1
0.573632 0.584436 1
0.507057 0.643839 1
0.440482 0.703227 1
0.373922 0.762631 1
0.307347 0.822034 1
0.240772 0.881422 0.999313
0.870893 0.475013 1
0.804334 0.534401 1
0.737758 0.59379 1
0.671183 0.653193 1
0.604608 0.712596 1
0.538033 0.772 1
0.471473 0.831388 1
0.404898 0.890791 1
0.338323 0.950195 1
0.968444 0.54377 1
0.901884 0.603159 1
0.835309 0.662562 1
0.768734 0.72195 1
0.702159 0.781353 1
0.635599 0.840757 1
0.569024 0.90016 1
0.502449 0.959548 1
0.435874 1 1
0.282048 0 0
0.215488 0.0499123 0
0.148913 0.109316 0
0.0823377 0.168719 0
0.0157778 0.228107 0
0 0.28751 0
0 0.346914 0
0 0.406302 0
0 0.465705 0
0.379583 0.0592813 0.000335698
0.313024 0.118669 0
0.246448 0.178073 0
0.179889 0.237461 0
0.113313 0.296864 0
0.0467384 0.356268 0
0 0.415656 0
0 0.475059 0
0 0.534463 0
0.47715 0.128038 0.210132
0.410574 0.187427 0.195148
0.344015 0.24683 0.180163
0.27744 0.306233 0.165194
0.210864 0.365621 0.15021
0.144289 0.425025 0.135225
0.0777295 0.484428 0.120241
0.0111543 0.543816 0.105257
0 0.60322 0.0902724
0.574701 0.196796 0.419944
0.508141 0.256199 0.404959
0.441566 0.315587 0.389975
0.37499 0.37499 0.37499
0.308415 0.434394 0.360006
0.24184 0.493782 0.345022
0.17528 0.553185 0.330037
0.108705 0.612589 0.315068
0.0421302 0.671977 0.300084
0.672251 0.265568 0.62974
0.605692 0.324956 0.614755
0.539117 0.38436 0.599771
0.472541 0.443748 0.584787
0.405966 0.503151 0.569818
0.339406 0.562554 0.554833
0.272831 0.621942 0.539849
0.206256 0.681346 0.524865
0.139681 0.740749 0.50988
0.769802 0.334325 0.839536
0.703243 0.393713 0.824567
0.636667 0.453117 0.809583
0.570092 0.51252 0.794598
0.503532 0.571908 0.779614
0.436957 0.631312 0.76463
0.370382 0.690715 0.749645
0.303807 0.750103 0.734661
0.237232 0.809506 0.719692
0.867353 0.403082 1
0.800793 0.462486 1
0.734218 0.521874 1
0.667643 0.581277 1
0.601083 0.640681 0.989425
0.534508 0.700069 0.974441
0.467933 0.759472 0.959457
0.401358 0.818875 0.944472
0.334798 0.878264 0.929488
0.964904 0.471855 1
0.898344 0.531243 1
0.831769 0.590631 1
0.765209 0.650034 1
0.698634 0.709438 1
0.632059 0.768841 1
0.565484 0.828229 1
0.498924 0.887633 1
0.432349 0.947036 1
1 0.540612 1
0.995895 0.6 1
0.929335 0.659403 1
0.86276 0.718791 1
0.796185 0.778195 1
0.72961 0.837598 1
0.663035 0.897002 1
0.596475 0.95639 1
0.5299 1 1
0.376074 0 0
0.309499 0.0467536 0
0.242939 0.106157 0
0.176364 0.16556 0
0.109789 0.224948 0
0.0432136 0.284352 0
0 0.343755 0
0 0.403143 0
0 0.462547 0
0.47361 0.0561227 0
0.40705 0.115511 0
0.340475 0.174914 0
0.273899 0.234302 0
0.20734 0.293706 0
0.140764 0.353109 0
0.0741894 0.412497 0
0.00761425 0.471901 0
0 0.531304 0
0.57116 0.12488 0.140307
0.504601 0.184268 0.125338
0.438025 0.243671 0.110353
0.37145 0.303075 0.0953689
0.304891 0.362463 0.0803845
0.238315 0.421866 0.0654002
0.17174 0.48127 0.0504158
0.105165 0.540658 0.0354314
0.0386053 0.600061 0.0204623
0.668711 0.193637 0.350118
0.602152 0.25304 0.335134
0.535576 0.312428 0.32015
0.469017 0.371832 0.305165
0.402441 0.431235 0.290196
0.335866 0.490623 0.275212
0.269291 0.550027 0.260227
0.202731 0.60943 0.245243
0.136156 0.668818 0.230259
0.766278 0.262409 0.559915
0.699702 0.321798 0.544945
0.633143 0.381201 0.529961
0.566567 0.440589 0.514977
0.499992 0.499992 0.499992
0.433417 0.559396 0.485008
0.366842 0.618784 0.470024
0.300282 0.678187 0.455039
0.233707 0.737591 0.44007
0.863828 0.331167 0.769726
0.797253 0.390555 0.754742
0.730694 0.449958 0.739757
0.664118 0.509361 0.724773
0.597543 0.56875 0.709789
0.530968 0.628153 0.69482
0.464408 0.687556 0.679835
0.397833 0.746944 0.664851
0.331258 0.806348 0.649866
0.961379 0.399924 0.979522
0.89482 0.459327 0.964553
0.828244 0.518715 0.949569
0.761669 0.578119 0.934585
0.695094 0.637522 0.9196
0.628534 0.69691 0.904616
0.561959 0.756313 0.889632
0.495384 0.815717 0.874647
0.428809 0.875105 0.859663
1 0.468696 1
0.99237 0.528084 1
0.925795 0.587488 1
0.85922 0.646876 1
0.792645 0.706279 1
0.726085 0.765682 1
0.65951 0.825071 1
0.592935 0.884474 1
0.52636 0.943877 1
1 0.537453 1
1 0.596841 1
1 0.656245 1
0.956771 0.715633 1
0.890211 0.775036 1
0.823636 0.83444 1
0.757061 0.893843 1
0.690486 0.953231 1
0.623926 1 1
0.470085 0 0
0.403525 0.043595 0
0.33695 0.102998 0
0.27039 0.162402 0
0.203815 0.22179 0
0.13724 0.281193 0
0.0706645 0.340597 0
0.00408942 0.399985 0
0 0.459388 0
0.567636 0.0529641 0
0.50106 0.112352 0
0.434501 0.171756 0
0.367926 0.231144 0
0.30135 0.290547 0
0.234775 0.34995 0
0.168215 0.409354 0
0.10164 0.468742 0
0.0350652 0.528145 0
0.665187 0.121721 0.0704967
0.598627 0.181109 0.0555123
0.532052 0.240513 0.040528
0.465476 0.299916 0.0255436
0.398901 0.359304 0.0105592
0.332341 0.418708 0
0.265766 0.478111 0
0.199191 0.537499 0
0.132616 0.596902 0
0.762737 0.190478 0.280293
0.696178 0.249882 0.265324
0.629602 0.30927 0.25034
0.563027 0.368673 0.235355
0.496452 0.428077 0.220371
0.429892 0.487465 0.205386
0.363317 0.546868 0.190402
0.296742 0.606271 0.175418
0.230167 0.66566 0.160433
0.860288 0.259251 0.490105
0.793729 0.318639 0.47512
0.727153 0.378042 0.460136
0.660578 0.43743 0.445151
0.594018 0.496834 0.430167
0.527443 0.556237 0.415198
0.460868 0.615625 0.400214
0.394293 0.675029 0.385229
0.327733 0.734432 0.370245
0.957839 0.328008 0.699901
0.891279 0.387396 0.684932
0.824704 0.446799 0.669947
0.758144 0.506203 0.654963
0.691569 0.565591 0.639979
0.624994 0.624994 0.624994
0.558419 0.684398 0.61001
0.491844 0.743786 0.595026
0.425284 0.803189 0.580041
1 0.396765 0.909712
0.98883 0.456168 0.894728
0.922255 0.515557 0.879744
0.855695 0.57496 0.864759
0.78912 0.634363 0.849775
0.722545 0.693751 0.834791
0.65597 0.753155 0.819821
0.58941 0.812558 0.804837
0.522835 0.871946 0.789853
1 0.465537 1
1 0.524926 1
1 0.584329 1
0.953246 0.643717 1
0.886671 0.70312 1
0.820096 0.762524 1
0.753536 0.821912 1
0.686961 0.881315 1
0.620386 0.940719 0.999649
1 0.534295 1
1 0.593683 1
1 0.653086 1
1 0.712489 1
0.984222 0.771878 1
0.917647 0.831281 1
0.851087 0.890684 1
0.784512 0.950072 1
0.717937 1 1
0.564111 0 0
0.497551 0.0404364 0
0.430976 0.0998398 0
0.364401 0.159243 0
0.297826 0.218631 0
0.231266 0.278035 0
0.164691 0.337438 0
0.0981155 0.396826 0
0.0315404 0.45623 0
0.661646 0.0498054 0
0.595087 0.109194 0
0.528511 0.168597 0
0.461952 0.227985 0
0.395377 0.287388 0
0.328801 0.346792 0
0.262226 0.406195 0
0.195651 0.465583 0
0.129091 0.524987 0
0.759197 0.118563 0.000671397
0.692638 0.177951 0
0.626062 0.237354 0
0.559503 0.296757 0
0.492927 0.356146 0
0.426352 0.415549 0
0.359777 0.474952 0
0.293217 0.534356 0
0.226642 0.593744 0
0.856764 0.18732 0.210483
0.790188 0.246723 0.195499
0.723629 0.306111 0.180514
0.657053 0.365515 0.16553
0.590478 0.424918 0.150546
0.523903 0.484306 0.135561
0.457343 0.543709 0.120592
0.390768 0.603113 0.105608
0.324193 0.662501 0.0906233
0.954314 0.256092 0.420279
0.887755 0.31548 0.405295
0.82118 0.374884 0.390326
0.754604 0.434272 0.375341
0.688029 0.493675 0.360357
0.621454 0.553079 0.345373
0.554894 0.612467 0.330388
0.488319 0.67187 0.315404
0.421744 0.731273 0.30042
1 0.324849 0.630091
0.985306 0.384237 0.615106
0.91873 0.443641 0.600122
0.852155 0.503044 0.585138
0.78558 0.562432 0.570153
0.71902 0.621836 0.555169
0.652445 0.681239 0.5402
0.58587 0.740627 0.525216
0.519295 0.800031 0.510231
1 0.393606 0.839887
1 0.45301 0.824903
1 0.512398 0.809934
0.949706 0.571801 0.794949
0.883146 0.631205 0.779965
0.816571 0.690593 0.764981
0.749996 0.749996 0.749996
0.683421 0.8094 0.735012
0.616846 0.868788 0.720027
1 0.462379 1
1 0.521767 1
1 0.58117 1
1 0.640558 1
0.980697 0.699962 0.989761
0.914122 0.759365 0.974777
0.847547 0.818753 0.959792
0.780972 0.878157 0.944823
0.714412 0.93756 0.929839
1 0.531136 1
1 0.590524 1
1 0.649927 1
1 0.709331 1
1 0.768719 1
1 0.828122 1
0.945098 0.887526 1
0.878538 0.946914 1
0.811963 1 1
0.658137 0 0
0.591562 0.0372778 0
0.525002 0.0966812 0
0.458427 0.156085 0
0.391852 0.215473 0
0.325277 0.274876 0
0.258717 0.334279 0
0.192142 0.393668 0
0.125566 0.453071 0
0.755673 0.0466468 0
0.689113 0.106035 0
0.622538 0.165438 0
0.555962 0.224826 0
0.489387 0.28423 0
0.422827 0.343633 0
0.356252 0.403037 0
0.289677 0.462425 0
0.223102 0.521828 0
0.853223 0.115404 0
0.786664 0.174792 0
0.720088 0.234195 0
0.653513 0.293599 0
0.586954 0.352987 0
0.520378 0.41239 0
0.453803 0.471794 0
0.387228 0.531197 0
0.320653 0.590585 0
0.950774 0.184161 0.140658
0.884215 0.243565 0.125673
0.817639 0.302953 0.110689
0.751064 0.362356 0.0957198
0.684504 0.421759 0.0807355
0.617929 0.481147 0.0657511
0.551354 0.540551 0.0507668
0.484779 0.599954 0.0357824
0.418219 0.659358 0.020798
1 0.252934 0.350469
0.981765 0.312322 0.335485
0.91519 0.371725 0.3205
0.84863 0.431113 0.305516
0.782055 0.490517 0.290532
0.71548 0.54992 0.275547
0.648905 0.609308 0.260563
0.582345 0.668711 0.245594
0.51577 0.728115 0.23061
1 0.321691 0.560265
1 0.381079 0.545281
1 0.440482 0.530297
0.946181 0.499886 0.515328
0.879606 0.559274 0.500343
0.813031 0.618677 0.485359
0.746456 0.67808 0.470375
0.679896 0.737469 0.45539
0.613321 0.796872 0.440406
1 0.390448 0.770077
1 0.449851 0.755093
1 0.509239 0.740108
1 0.568643 0.725124
0.977157 0.628046 0.71014
0.910582 0.687434 0.695155
0.844022 0.746838 0.680171
0.777447 0.806241 0.665202
0.710872 0.865629 0.650217
1 0.45922 0.979873
1 0.518608 0.964889
1 0.578012 0.949905
1 0.6374 0.93492
1 0.696803 0.919951
1 0.756207 0.904967
0.941573 0.815595 0.889982
0.874998 0.874998 0.874998
0.808423 0.934401 0.860014
1 0.527977 1
1 0.587366 1
1 0.646769 1
1 0.706172 1
1 0.76556 1
1 0.824964 1
1 0.884367 1
0.972549 0.943755 1
0.905974 1 1
0.752148 0 0
0.685588 0.0341192 0
0.619013 0.0935225 0
0.552438 0.152926 0
0.485878 0.212314 0
0.419303 0.271717 0
0.352728 0.331121 0
0.286152 0.390524 0
0.219593 0.449912 0
0.849699 0.0434882 0
0.783123 0.102876 0
0.716564 0.16228 0
0.649989 0.221683 0
0.583413 0.281071 0
0.516838 0.340475 0
0.450263 0.399878 0
0.383703 0.459266 0
0.317128 0.518669 0
0.94725 0.112245 0
0.880674 0.171633 0
0.814115 0.231037 0
0.747539 0.29044 0
0.680964 0.349828 0
0.614389 0.409232 0
0.547829 0.468635 0
0.481254 0.528038 0
0.414679 0.587427 0
1 0.181018 0.0708324
0.978241 0.240406 0.0558633
0.911665 0.299794 0.0408789
0.84509 0.359197 0.0258946
0.778515 0.418601 0.0109102
0.711955 0.477989 0
0.64538 0.537392 0
0.578805 0.596796 0
0.51223 0.656199 0
1 0.249775 0.280644
1 0.309163 0.26566
1 0.368566 0.250675
0.942641 0.427955 0.235691
0.876066 0.487358 0.220722
0.809506 0.546761 0.205737
0.742931 0.606149 0.190753
0.676356 0.665553 0.175769
0.609781 0.724956 0.160784
1 0.318532 0.49044
1 0.37792 0.475471
1 0.437324 0.460487
1 0.496727 0.445502
0.973632 0.556115 0.430518
0.907057 0.615518 0.415534
0.840482 0.674922 0.400549
0.773907 0.73431 0.385565
0.707347 0.793713 0.370596
1 0.387289 0.700252
1 0.446693 0.685267
1 0.506081 0.670283
1 0.565484 0.655299
1 0.624887 0.64033
1 0.684276 0.625345
0.938033 0.743679 0.610361
0.871458 0.803082 0.595376
0.804898 0.86247 0.580392
1 0.456062 0.910048
1 0.51545 0.895079
1 0.574853 0.880095
1 0.634241 0.86511
1 0.693645 0.850126
1 0.753048 0.835142
1 0.812436 0.820157
0.969024 0.871839 0.805173
0.902449 0.931243 0.790204
1 0.524819 1
1 0.584207 1
1 0.64361 1
1 0.703014 1
1 0.762402 1
1 0.821805 1
1 0.881209 1
1 0.940597 1
1 1 1
