public/LUTS/Color Shift/ColorShift_81.cube
TITLE "Generated by Resolve"
LUT_3D_SIZE 33
0 0 0
0.040238 0 0.0331426
0.0804913 0 0.0663005
0.12076 0 0.0994583
0.161013 0 0.132616
0.201266 0 0.165774
0.24152 0 0.198917
0.281788 0 0.232074
0.322042 0 0.265232
0.362295 0 0.29839
0.402548 0 0.331548
0.442817 0 0.364706
0.48307 0 0.397864
0.523323 0 0.431022
0.563577 0 0.464179
0.603845 0 0.497337
0.644099 0 0.530495
0.684352 0 0.563653
0.724605 0 0.596796
0.764874 0 0.629953
0.805127 0 0.663111
0.84538 0 0.696269
0.885649 0 0.729427
0.925902 0 0.762585
0.966155 0 0.795743
1 0 0.828901
1 0 0.862058
1 0 0.895216
1 0 0.928374
1 0 0.961532
1 0 0.99469
1 0 1
1 0 1
0.0309453 0.0257572 0
0.0711833 0.0187839 0.00357061
0.111437 0.0118257 0.0367285
0.151705 0.00486763 0.0698863
0.191959 0 0.103044
0.232212 0 0.136202
0.272465 0 0.169345
0.312734 0 0.202502
0.352987 0 0.23566
0.39324 0 0.268818
0.433494 0 0.301976
0.473762 0 0.335134
0.514015 0 0.368292
0.554269 0 0.40145
0.594537 0 0.434607
0.634791 0 0.467765
0.675044 0 0.500923
0.715297 0 0.534081
0.755566 0 0.567224
0.795819 0 0.600381
0.836072 0 0.633539
0.876326 0 0.666697
0.916594 0 0.699855
0.956847 0 0.733013
0.997101 0 0.766171
1 0 0.799329
1 0 0.832486
1 0 0.865644
1 0 0.898802
1 0 0.93196
1 0 0.965118
1 0 0.99826
1 0 1
0.0619059 0.0515145 0
0.102144 0.0445563 0
0.142397 0.0375982 0.00714122
0.182666 0.0306249 0.0402991
0.222919 0.0236667 0.0734569
0.263172 0.0166934 0.106615
0.303441 0.00973526 0.139757
0.343694 0.00276188 0.172915
0.383948 0 0.206073
0.424201 0 0.239231
0.464469 0 0.272389
0.504723 0 0.305547
0.544976 0 0.338704
0.585229 0 0.371862
0.625498 0 0.40502
0.665751 0 0.438178
0.706004 0 0.471336
0.746258 0 0.504494
0.786526 0 0.537652
0.82678 0 0.570794
0.867033 0 0.603952
0.907286 0 0.63711
0.947555 0 0.670268
0.987808 0 0.703426
1 0 0.736584
1 0 0.769741
1 0 0.802899
1 0 0.836057
1 0 0.869215
1 0 0.902373
1 0 0.935531
1 0 0.968673
1 0 1
0.0928664 0.0772869 0
0.133104 0.0703288 0
0.173373 0.0633555 0
0.213626 0.0563973 0.0107118
0.25388 0.049424 0.0438697
0.294133 0.0424659 0.0770275
0.334401 0.0354925 0.110185
0.374655 0.0285344 0.143328
0.414908 0.021561 0.176486
0.455161 0.0146029 0.209644
0.49543 0.00762951 0.242802
0.535683 0.000671397 0.275959
0.575936 0 0.309117
0.61619 0 0.342275
0.656458 0 0.375433
0.696712 0 0.408591
0.736965 0 0.441749
0.777234 0 0.474907
0.817487 0 0.508064
0.85774 0 0.541207
0.897993 0 0.574365
0.938262 0 0.607523
0.978515 0 0.640681
1 0 0.673838
1 0 0.706996
1 0 0.740154
1 0 0.773312
1 0 0.80647
1 0 0.839628
1 0 0.872786
1 0 0.905943
1 0 0.939101
1 0 0.972244
0.123827 0.103044 0
0.164065 0.0960861 0
0.204334 0.089128 0
0.244587 0.0821546 0
0.28484 0.0751965 0.0142824
0.325093 0.0682231 0.0474403
0.365362 0.061265 0.0805982
0.405615 0.0542916 0.113741
0.445869 0.0473335 0.146899
0.486137 0.0403601 0.180056
0.52639 0.033402 0.213214
0.566644 0.0264439 0.246372
0.606897 0.0194705 0.27953
0.647166 0.0125124 0.312688
0.687419 0.00553903 0.345846
0.727672 0 0.379004
0.767926 0 0.412161
0.808194 0 0.445319
0.848447 0 0.478477
0.888701 0 0.511635
0.928954 0 0.544778
0.969223 0 0.577935
1 0 0.611093
1 0 0.644251
1 0 0.677409
1 0 0.710567
1 0 0.743725
1 0 0.776883
1 0 0.81004
1 0 0.843198
1 0 0.876356
1 0 0.909514
1 0 0.942657
0.154803 0.128817 0
0.195026 0.121859 0
0.235294 0.114885 0
0.275547 0.107927 0
0.315801 0.100954 0
0.356069 0.0939956 0.0178531
0.396323 0.0870222 0.0510109
0.436576 0.0800641 0.0841688
0.476829 0.0730907 0.117311
0.517098 0.0661326 0.150469
0.557351 0.0591745 0.183627
0.597604 0.0522011 0.216785
0.637858 0.045243 0.249943
0.678126 0.0382696 0.283101
0.718379 0.0313115 0.316258
0.758633 0.0243381 0.349416
0.798886 0.01738 0.382574
0.839155 0.0104067 0.415732
0.879408 0.00344854 0.44889
0.919661 0 0.482048
0.95993 0 0.51519
1 0 0.548348
1 0 0.581506
1 0 0.614664
1 0 0.647822
1 0 0.68098
1 0 0.714137
1 0 0.747295
1 0 0.780453
1 0 0.813611
1 0 0.846769
1 0 0.879927
1 0 0.913069
0.185763 0.154574 0
0.226001 0.147616 0
0.266255 0.140658 0
0.306508 0.133684 0
0.346761 0.126726 0
0.38703 0.119753 0
0.427283 0.112795 0.0214237
0.467536 0.105821 0.0545815
0.50779 0.0988632 0.0877241
0.548058 0.0919051 0.120882
0.588312 0.0849317 0.15404
0.628565 0.0779736 0.187198
0.668833 0.0710002 0.220356
0.709087 0.0640421 0.253513
0.74934 0.0570687 0.286671
0.789593 0.0501106 0.319829
0.829862 0.0431373 0.352987
0.870115 0.0361791 0.386145
0.910369 0.0292058 0.419303
0.950622 0.0222477 0.452461
0.99089 0.0152895 0.485603
1 0.00831617 0.518761
1 0.00135805 0.551919
1 0 0.585077
1 0 0.618235
1 0 0.651392
1 0 0.68455
1 0 0.717708
1 0 0.750866
1 0 0.784024
1 0 0.817182
1 0 0.85034
1 0 0.883497
0.216724 0.180346 0
0.256962 0.173388 0
0.297215 0.166415 0
0.337469 0.159457 0
0.377722 0.152483 0
0.41799 0.145525 0
0.458244 0.138552 0
0.498497 0.131594 0.0249943
0.538766 0.124636 0.0581369
0.579019 0.117662 0.0912947
0.619272 0.110704 0.124453
0.659525 0.103731 0.15761
0.699794 0.0967727 0.190768
0.740047 0.0897993 0.223926
0.780301 0.0828412 0.257084
0.820554 0.0758679 0.290242
0.860822 0.0689097 0.3234
0.901076 0.0619364 0.356558
0.941329 0.0549783 0.389715
0.981582 0.0480201 0.422873
1 0.0410468 0.456031
1 0.0340887 0.489174
1 0.0271153 0.522332
1 0.0201572 0.555489
1 0.0131838 0.588647
1 0.00622568 0.621805
1 0 0.654963
1 0 0.688121
1 0 0.721279
1 0 0.754437
1 0 0.787594
1 0 0.820752
1 0 0.85391
0.247684 0.206119 0
0.287922 0.199145 0
0.328176 0.192187 0
0.368429 0.185214 0
0.408698 0.178256 0
0.448951 0.171298 0
0.489204 0.164324 0
0.529458 0.157366 0
0.569726 0.150393 0.0285649
0.609979 0.143435 0.0617075
0.650233 0.136461 0.0948653
0.690486 0.129503 0.128023
0.730755 0.12253 0.161181
0.771008 0.115572 0.194339
0.811261 0.108598 0.227497
0.851514 0.10164 0.260655
0.891783 0.094667 0.293812
0.932036 0.0877089 0.32697
0.97229 0.0807507 0.360128
1 0.0737774 0.393286
1 0.0668193 0.426444
1 0.0598459 0.459586
1 0.0528878 0.492744
1 0.0459144 0.525902
1 0.0389563 0.55906
1 0.0319829 0.592218
1 0.0250248 0.625376
1 0.0180514 0.658534
1 0.0110933 0.691691
1 0.0041352 0.724849
1 0 0.758007
1 0 0.791165
1 0 0.824323
0.278645 0.231876 0
0.318883 0.224918 0
0.359136 0.217945 0
0.39939 0.210986 0
0.439658 0.204028 0
0.479912 0.197055 0
0.520165 0.190097 0
0.560418 0.183124 0
0.600687 0.176165 0
0.64094 0.169192 0.0321202
0.681193 0.162234 0.0652781
0.721462 0.155261 0.098436
0.761715 0.148302 0.131594
0.801968 0.141329 0.164752
0.842222 0.134371 0.19791
0.88249 0.127398 0.231067
0.922744 0.120439 0.264225
0.962997 0.113481 0.297383
1 0.106508 0.330541
1 0.0995499 0.363699
1 0.0925765 0.396857
1 0.0856184 0.430014
1 0.078645 0.463157
1 0.0716869 0.496315
1 0.0647135 0.529473
1 0.0577554 0.562631
1 0.050782 0.595789
1 0.0438239 0.628946
1 0.0368658 0.662104
1 0.0298924 0.695262
1 0.0229343 0.72842
1 0.0159609 0.761578
1 0.00900282 0.794736
0.309606 0.257649 0
0.349844 0.250675 0
0.390097 0.243717 0
0.430365 0.236759 0
0.470619 0.229786 0
0.510872 0.222827 0
0.551125 0.215854 0
0.591394 0.208896 0
0.631647 0.201923 0
0.671901 0.194965 0.00254826
0.712154 0.187991 0.0356909
0.752422 0.181033 0.0688487
0.792676 0.17406 0.102007
0.832929 0.167102 0.135164
0.873182 0.160128 0.168322
0.913451 0.15317 0.20148
0.953704 0.146212 0.234638
0.993957 0.139239 0.267796
1 0.13228 0.300954
1 0.125307 0.334112
1 0.118349 0.367269
1 0.111376 0.400427
1 0.104417 0.43357
1 0.0974441 0.466728
1 0.090486 0.499886
1 0.0835126 0.533043
1 0.0765545 0.566201
1 0.0695964 0.599359
1 0.062623 0.632517
1 0.0556649 0.665675
1 0.0486915 0.698833
1 0.0417334 0.731991
1 0.0347601 0.765148
0.340566 0.283406 0
0.380804 0.276448 0
0.421057 0.26949 0
0.461326 0.262516 0
0.501579 0.255558 0
0.541833 0.248585 0
0.582086 0.241627 0
0.622354 0.234653 0
0.662608 0.227695 0
0.702861 0.220722 0
0.743114 0.213764 0.00610361
0.783383 0.20679 0.0392615
0.823636 0.199832 0.0724193
0.86389 0.192859 0.105577
0.904158 0.185901 0.138735
0.944411 0.178943 0.171893
0.984665 0.171969 0.205051
1 0.165011 0.238209
1 0.158038 0.271366
1 0.15108 0.304524
1 0.144106 0.337682
1 0.137148 0.37084
1 0.130175 0.403998
1 0.123217 0.43714
1 0.116243 0.470298
1 0.109285 0.503456
1 0.102327 0.536614
1 0.0953536 0.569772
1 0.0883955 0.60293
1 0.0814221 0.636088
1 0.074464 0.669245
1 0.0674907 0.702403
1 0.0605325 0.735561
0.371527 0.309178 0
0.411765 0.30222 0
0.452018 0.295247 0
0.492287 0.288289 0
0.53254 0.281315 0
0.572793 0.274357 0
0.613062 0.267384 0
0.653315 0.260426 0
0.693568 0.253452 0
0.733822 0.246494 0
0.77409 0.239521 0
0.814343 0.232563 0.00967422
0.854597 0.225589 0.0428321
0.89485 0.218631 0.0759899
0.935119 0.211673 0.109148
0.975372 0.2047 0.142306
1 0.197742 0.175463
1 0.190768 0.208621
1 0.18381 0.241779
1 0.176837 0.274937
1 0.169879 0.308095
1 0.162905 0.341253
1 0.155947 0.374411
1 0.148974 0.407553
1 0.142016 0.440711
1 0.135058 0.473869
1 0.128084 0.507027
1 0.121126 0.540185
1 0.114153 0.573343
1 0.107195 0.6065
1 0.100221 0.639658
1 0.0932631 0.672816
1 0.0862898 0.705974
0.402487 0.334936 0
0.442725 0.327977 0
0.482994 0.321019 0
0.523247 0.314046 0
0.5635 0.307088 0
0.603754 0.300114 0
0.644022 0.293156 0
0.684276 0.286183 0
0.724529 0.279225 0
0.764782 0.272251 0
0.805051 0.265293 0
0.845304 0.258335 0
0.885557 0.251362 0.0132448
0.925811 0.244404 0.0464027
0.966079 0.23743 0.0795605
1 0.230472 0.112718
1 0.223499 0.145876
1 0.216541 0.179034
1 0.209567 0.212192
1 0.202609 0.24535
1 0.195636 0.278508
1 0.188678 0.311666
1 0.181704 0.344823
1 0.174746 0.377981
1 0.167788 0.411124
1 0.160815 0.444282
1 0.153857 0.47744
1 0.146883 0.510597
1 0.139925 0.543755
1 0.132952 0.576913
1 0.125994 0.610071
1 0.11902 0.643229
1 0.112062 0.676387
0.433448 0.360708 0
0.473686 0.35375 0
0.513954 0.346777 0
0.554208 0.339818 0
0.594461 0.332845 0
0.634714 0.325887 0
0.674983 0.318914 0
0.715236 0.311955 0
0.755489 0.304982 0
0.795758 0.298024 0
0.836011 0.291066 0
0.876265 0.284092 0
0.916518 0.277134 0
0.956786 0.270161 0.0168154
0.99704 0.263203 0.0499733
1 0.256229 0.0831311
1 0.249271 0.116289
1 0.242298 0.149447
1 0.23534 0.182605
1 0.228367 0.215763
1 0.221408 0.24892
1 0.214435 0.282078
1 0.207477 0.315236
1 0.200519 0.348394
1 0.193545 0.381537
1 0.186587 0.414694
1 0.179614 0.447852
1 0.172656 0.48101
1 0.165682 0.514168
1 0.158724 0.547326
1 0.151751 0.580484
1 0.144793 0.613642
1 0.137819 0.646799
0.464424 0.386465 0
0.504662 0.379507 0
0.544915 0.372549 0
0.585168 0.365576 0
0.625422 0.358618 0
0.66569 0.351644 0
0.705943 0.344686 0
0.746197 0.337713 0
0.78645 0.330755 0
0.826719 0.323796 0
0.866972 0.316823 0
0.907225 0.309865 0
0.947478 0.302892 0
0.987747 0.295933 0
1 0.28896 0.0203861
1 0.282002 0.0535439
1 0.275029 0.0867018
1 0.26807 0.11986
1 0.261097 0.153017
1 0.254139 0.186175
1 0.247166 0.219333
1 0.240208 0.252491
1 0.233249 0.285649
1 0.226276 0.318807
1 0.219318 0.351965
1 0.212345 0.385107
1 0.205386 0.418265
1 0.198413 0.451423
1 0.191455 0.484581
1 0.184482 0.517739
1 0.177523 0.550896
1 0.17055 0.584054
1 0.163592 0.617212
0.495384 0.412238 0
0.535622 0.40528 0
0.575875 0.398306 0
0.616129 0.391348 0
0.656382 0.384375 0
0.696651 0.377417 0
0.736904 0.370443 0
0.777157 0.363485 0
0.817411 0.356527 0
0.857679 0.349554 0
0.897932 0.342596 0
0.938186 0.335622 0
0.978454 0.328664 0
1 0.321691 0
1 0.314733 0
1 0.307759 0.0239567
1 0.300801 0.0571145
1 0.293828 0.0902724
1 0.28687 0.12343
1 0.279896 0.156588
1 0.272938 0.189746
1 0.26598 0.222904
1 0.259007 0.256062
1 0.252049 0.289219
1 0.245075 0.322377
1 0.238117 0.35552
1 0.231144 0.388678
1 0.224186 0.421836
1 0.217212 0.454994
1 0.210254 0.488151
1 0.203281 0.521309
1 0.196323 0.554467
1 0.189364 0.587625
0.526345 0.43801 0
0.566583 0.431037 0
0.606836 0.424079 0
0.647089 0.417105 0
0.687358 0.410147 0
0.727611 0.403174 0
0.767865 0.396216 0
0.808118 0.389258 0
0.848386 0.382284 0
0.88864 0.375326 0
0.928893 0.368353 0
0.969146 0.361395 0
1 0.354421 0
1 0.347463 0
1 0.34049 0
1 0.333532 0
1 0.326558 0.0275273
1 0.3196 0.0606851
1 0.312627 0.093843
1 0.305669 0.127001
1 0.298711 0.160159
1 0.291737 0.193317
1 0.284779 0.226474
1 0.277806 0.259632
1 0.270848 0.29279
1 0.263874 0.325933
1 0.256916 0.359091
1 0.249943 0.392248
1 0.242985 0.425406
1 0.236011 0.458564
1 0.229053 0.491722
1 0.222095 0.52488
1 0.215122 0.558038
0.557305 0.463767 0
0.597543 0.456809 0
0.637797 0.449836 0
0.67805 0.442878 0
0.718318 0.435904 0
0.758572 0.428946 0
0.798825 0.421988 0
0.839078 0.415015 0
0.879347 0.408057 0
0.9196 0.401083 0
0.959854 0.394125 0
1 0.387152 0
1 0.380194 0
1 0.37322 0
1 0.366262 0
1 0.359289 0
1 0.352331 0
1 0.345373 0.0310979
1 0.338399 0.0642557
1 0.331441 0.0974136
1 0.324468 0.130571
1 0.31751 0.163729
1 0.310536 0.196887
1 0.303578 0.230045
1 0.296605 0.263203
1 0.289647 0.296361
1 0.282673 0.329503
1 0.275715 0.362661
1 0.268742 0.395819
1 0.261784 0.428977
1 0.254826 0.462135
1 0.247852 0.495293
1 0.240894 0.52845
0.588266 0.48954 0
0.628504 0.482567 0
0.668757 0.475608 0
0.70901 0.468635 0
0.749279 0.461677 0
0.789532 0.454719 0
0.829786 0.447745 0
0.870054 0.440787 0
0.910307 0.433814 0
0.950561 0.426856 0
0.990814 0.419883 0
1 0.412924 0
1 0.405951 0
1 0.398993 0
1 0.39202 0
1 0.385061 0
1 0.378103 0
1 0.37113 0.00151064
1 0.364172 0.0346685
1 0.357198 0.0678264
1 0.35024 0.100984
1 0.343267 0.134142
1 0.336309 0.1673
1 0.329335 0.200458
1 0.322377 0.233616
1 0.315404 0.266773
1 0.308446 0.299916
1 0.301472 0.333074
1 0.294514 0.366232
1 0.287556 0.39939
1 0.280583 0.432547
1 0.273625 0.465705
1 0.266651 0.498863
0.619226 0.515297 0
0.659464 0.508339 0
0.699718 0.501366 0
0.739986 0.494408 0
0.78024 0.487449 0
0.820493 0.480476 0
0.860746 0.473518 0
0.901015 0.466545 0
0.941268 0.459586 0
0.981521 0.452613 0
1 0.445655 0
1 0.438682 0
1 0.431724 0
1 0.42475 0
1 0.417792 0
1 0.410834 0
1 0.403861 0
1 0.396902 0
1 0.389929 0.00508125
1 0.382971 0.0382391
1 0.375998 0.071397
1 0.369039 0.104555
1 0.362066 0.137713
1 0.355108 0.170871
1 0.348135 0.204028
1 0.341176 0.237186
1 0.334203 0.270344
1 0.327245 0.303487
1 0.320287 0.336645
1 0.313313 0.369802
1 0.306355 0.40296
1 0.299382 0.436118
1 0.292424 0.469276
0.650187 0.54107 0
0.690425 0.534096 0
0.730678 0.527138 0
0.770947 0.52018 0
0.8112 0.513207 0
0.851453 0.506249 0
0.891707 0.499275 0
0.931975 0.492317 0
0.972229 0.485344 0
1 0.478386 0
1 0.471412 0
1 0.464454 0
1 0.457481 0
1 0.450523 0
1 0.443565 0
1 0.436591 0
1 0.429633 0
1 0.42266 0
1 0.415702 0
1 0.408728 0.00865187
1 0.40177 0.0418097
1 0.394797 0.0749676
1 0.387839 0.108125
1 0.380865 0.141283
1 0.373907 0.174441
1 0.366934 0.207599
1 0.359976 0.240757
1 0.353017 0.273899
1 0.346044 0.307057
1 0.339086 0.340215
1 0.332113 0.373373
1 0.325154 0.406531
1 0.318181 0.439689
0.681147 0.566827 0
0.721386 0.559869 0
0.761639 0.552911 0
0.801907 0.545937 0
0.842161 0.538979 0
0.882414 0.532006 0
0.922683 0.525048 0
0.962936 0.518074 0
1 0.511116 0
1 0.504143 0
1 0.497185 0
1 0.490211 0
1 0.483253 0
1 0.476295 0
1 0.469322 0
1 0.462364 0
1 0.45539 0
1 0.448432 0
1 0.441459 0
1 0.434501 0
1 0.427527 0.0122225
1 0.420569 0.0453803
1 0.413596 0.0785382
1 0.406638 0.111696
1 0.399664 0.144854
1 0.392706 0.178012
1 0.385748 0.21117
1 0.378775 0.244327
1 0.371817 0.27747
1 0.364843 0.310628
1 0.357885 0.343786
1 0.350912 0.376944
1 0.343954 0.410101
0.712108 0.592599 0
0.752346 0.585641 0
0.792615 0.578668 0
0.832868 0.57171 0
0.873121 0.564736 0
0.913375 0.557778 0
0.953643 0.550805 0
0.993896 0.543847 0
1 0.536873 0
1 0.529915 0
1 0.522942 0
1 0.515984 0
1 0.509026 0
1 0.502052 0
1 0.495094 0
1 0.488121 0
1 0.481163 0
1 0.474189 0
1 0.467231 0
1 0.460258 0
1 0.4533 0
1 0.446326 0.0157931
1 0.439368 0.0489509
1 0.43241 0.0821088
1 0.425437 0.115267
1 0.418479 0.148425
1 0.411505 0.181582
1 0.404547 0.21474
1 0.397574 0.247883
1 0.390616 0.281041
1 0.383642 0.314199
1 0.376684 0.347356
1 0.369711 0.380514
0.743069 0.618357 0
0.783307 0.611399 0
0.823575 0.60444 0
0.863828 0.597467 0
0.904082 0.590509 0
0.944335 0.583535 0
0.984604 0.576577 0
1 0.569604 0
1 0.562646 0
1 0.555673 0
1 0.548714 0
1 0.541756 0
1 0.534783 0
1 0.527825 0
1 0.520851 0
1 0.513893 0
1 0.50692 0
1 0.499962 0
1 0.492988 0
1 0.48603 0
1 0.479057 0
1 0.472099 0
1 0.465141 0.0193637
1 0.458167 0.0525216
1 0.451209 0.0856794
1 0.444236 0.118837
1 0.437278 0.151995
1 0.430304 0.185153
1 0.423346 0.218296
1 0.416373 0.251453
1 0.409415 0.284611
1 0.402441 0.317769
1 0.395483 0.350927
0.774044 0.644129 0
0.814282 0.637171 0
0.854536 0.630198 0
0.894789 0.62324 0
0.935042 0.616266 0
0.975311 0.609308 0
1 0.602335 0
1 0.595376 0
1 0.588403 0
1 0.581445 0
1 0.574487 0
1 0.567514 0
1 0.560555 0
1 0.553582 0
1 0.546624 0
1 0.539651 0
1 0.532692 0
1 0.525719 0
1 0.518761 0
1 0.511788 0
1 0.504829 0
1 0.497871 0
1 0.490898 0
1 0.48394 0.0229343
1 0.476967 0.0560922
1 0.470008 0.08925
1 0.463035 0.122408
1 0.456077 0.155566
1 0.449104 0.188724
1 0.442145 0.221866
1 0.435172 0.255024
1 0.428214 0.288182
1 0.421241 0.32134
0.805005 0.669886 0
0.845243 0.662928 0
0.885496 0.65597 0
0.92575 0.648997 0
0.966003 0.642039 0
1 0.635065 0
1 0.628107 0
1 0.621134 0
1 0.614176 0
1 0.607217 0
1 0.600244 0
1 0.593286 0
1 0.586313 0
1 0.579355 0
1 0.572381 0
1 0.565423 0
1 0.55845 0
1 0.551492 0
1 0.544518 0
1 0.53756 0
1 0.530602 0
1 0.523629 0
1 0.51667 0
1 0.509697 0
1 0.502739 0.0265049
1 0.495766 0.0596628
1 0.488807 0.0928206
1 0.481834 0.125978
1 0.474876 0.159136
1 0.467903 0.192279
1 0.460945 0.225437
1 0.453971 0.258595
1 0.447013 0.291752
0.835966 0.695659 0
0.876204 0.688701 0
0.916457 0.681727 0
0.95671 0.674769 0
0.996979 0.667796 0
1 0.660838 0
1 0.653864 0
1 0.646906 0
1 0.639948 0
