public/LUTS/Color Shift/ColorShift_49.cube
TITLE "Generated by Resolve"
LUT_3D_SIZE 9
0 0 0
0 0.0729381 0.0604868
0 0.145892 0.120989
0 0.218845 0.181476
0 0.291798 0.241978
0 0.364752 0.30248
0 0.437705 0.362966
0 0.510658 0.423468
0 0.583612 0.483955
0.226322 0.0255741 0.245121
0.0822461 0.0985122 0.305608
0 0.171466 0.36611
0 0.244419 0.426596
0 0.317372 0.487098
0 0.390326 0.547601
0 0.463279 0.608087
0 0.536233 0.668589
0 0.609186 0.729076
0.452674 0.0511482 0.490272
0.308598 0.124086 0.550759
0.164508 0.19704 0.611261
0.0204013 0.269993 0.671748
0 0.342947 0.73225
0 0.4159 0.792752
0 0.488853 0.853239
0 0.561807 0.913741
0 0.63476 0.974227
0.679026 0.0767224 0.735424
0.534951 0.149676 0.795911
0.39086 0.222629 0.856413
0.246754 0.295583 0.916899
0.102663 0.368536 0.977401
0 0.441489 1
0 0.514427 1
0 0.587381 1
0 0.660334 1
0.905379 0.102296 0.980575
0.761303 0.17525 1
0.617212 0.248203 1
0.473106 0.321157 1
0.329015 0.39411 1
0.184909 0.467063 1
0.0408179 0.540017 1
0 0.61297 1
0 0.685924 1
1 0.127886 1
0.987655 0.200824 1
0.843565 0.273777 1
0.699458 0.346731 1
0.555367 0.419684 1
0.411261 0.492638 1
0.26717 0.565591 1
0.123064 0.638544 1
0 0.711498 1
1 0.15346 1
1 0.226398 1
1 0.299351 1
0.925811 0.372305 1
0.78172 0.445258 1
0.637613 0.518212 1
0.493523 0.591165 1
0.349416 0.664118 1
0.205325 0.737072 1
1 0.179034 1
1 0.251972 1
1 0.324926 1
1 0.397879 1
1 0.470832 1
0.863966 0.543786 1
0.719875 0.616739 1
0.575769 0.689693 1
0.431678 0.762646 1
1 0.204608 1
1 0.277546 1
1 0.3505 1
1 0.423453 1
1 0.496406 1
1 0.56936 1
0.946227 0.642313 1
0.802121 0.715267 1
0.65803 0.78822 1
0.0427405 0.0264744 0
0 0.0994125 0
0 0.172366 0
0 0.245319 0.000854505
0 0.318273 0.0613565
0 0.391226 0.121843
0 0.464179 0.182345
0 0.537133 0.242847
0 0.610086 0.303334
0.269062 0.0520485 0.0644999
0.124987 0.124987 0.124987
0 0.19794 0.185489
0 0.270893 0.245975
0 0.343847 0.306477
0 0.4168 0.366964
0 0.489754 0.427466
0 0.562707 0.487968
0 0.63566 0.548455
0.495415 0.0776226 0.309651
0.351339 0.150561 0.370138
0.207248 0.223514 0.43064
0.0631418 0.296468 0.491127
0 0.369421 0.551629
0 0.442374 0.612116
0 0.515328 0.672618
0 0.588281 0.73312
0 0.661234 0.793606
0.721767 0.103197 0.554803
0.577691 0.176135 0.61529
0.4336 0.249088 0.675792
0.289494 0.322042 0.736278
0.145403 0.394995 0.79678
0.00129702 0.467948 0.857267
0 0.540902 0.917769
0 0.613855 0.978271
0 0.686809 1
0.948119 0.128771 0.799954
0.804044 0.201709 0.860441
0.659953 0.274662 0.920943
0.515846 0.347616 0.98143
0.371756 0.420569 1
0.227649 0.493523 1
0.0835584 0.566476 1
0 0.639429 1
0 0.712383 1
1 0.154345 1
1 0.227298 1
0.886305 0.300252 1
0.742199 0.373205 1
0.598108 0.446159 1
0.454002 0.519097 1
0.309911 0.59205 1
0.165805 0.665003 1
0.0217136 0.737957 1
1 0.179919 1
1 0.252872 1
1 0.325826 1
0.968551 0.398779 1
0.82446 0.471733 1
0.680354 0.544686 1
0.536263 0.617639 1
0.392157 0.690593 1
0.248066 0.763546 1
1 0.205509 1
1 0.278447 1
1 0.3514 1
1 0.424353 1
1 0.497307 1
0.906706 0.57026 1
0.762615 0.643214 1
0.618509 0.716167 1
0.474418 0.78912 1
1 0.231083 1
1 0.304021 1
1 0.376974 1
1 0.449928 1
1 0.522881 1
1 0.595834 1
0.988968 0.668788 1
0.844877 0.741741 1
0.700771 0.814694 1
0.085481 0.0529488 0
0 0.125887 0
0 0.19884 0
0 0.271794 0
0 0.344747 0
0 0.4177 0
0 0.490654 0.00169375
0 0.563607 0.0621958
0 0.636561 0.122698
0.311818 0.0785229 0
0.167727 0.151461 0
0.0236362 0.224414 0.00483711
0 0.297368 0.0653391
0 0.370321 0.125826
0 0.443275 0.186328
0 0.516228 0.246815
0 0.589181 0.307317
0 0.662135 0.367819
0.53817 0.104097 0.129
0.39408 0.177035 0.189487
0.249989 0.249989 0.249989
0.105898 0.322942 0.310491
0 0.395895 0.370977
0 0.468849 0.431479
0 0.541802 0.491966
0 0.614755 0.552468
0 0.687709 0.61297
0.764523 0.129671 0.374151
0.620447 0.202609 0.434638
0.476341 0.275563 0.49514
0.33225 0.348516 0.555642
0.188144 0.421469 0.616129
0.0440528 0.494423 0.676631
0 0.567376 0.737118
0 0.64033 0.79762
0 0.713283 0.858122
0.990875 0.155245 0.619303
0.846799 0.228183 0.679789
0.702693 0.301137 0.740291
0.558602 0.37409 0.800793
0.414496 0.447044 0.86128
0.270405 0.519997 0.921782
0.126299 0.59295 0.982269
0 0.665904 1
0 0.738857 1
1 0.180819 0.864454
1 0.253773 0.924941
0.929046 0.326711 0.985443
0.784955 0.399664 1
0.640848 0.472618 1
0.496757 0.545571 1
0.352651 0.618524 1
0.20856 0.691478 1
0.0644541 0.764431 1
1 0.206394 1
1 0.279347 1
1 0.3523 1
1 0.425254 1
0.867201 0.498207 1
0.72311 0.57116 1
0.579004 0.644099 1
0.434913 0.717052 1
0.290806 0.790005 1
1 0.231968 1
1 0.304921 1
1 0.377874 1
1 0.450828 1
1 0.523781 1
0.949462 0.596735 1
0.805356 0.669688 1
0.661265 0.742641 1
0.517159 0.815595 1
1 0.257557 1
1 0.330495 1
1 0.403449 1
1 0.476402 1
1 0.549355 1
1 0.622309 1
1 0.695262 1
0.887617 0.768215 1
0.743511 0.841169 1
0.128237 0.079408 0
0 0.152361 0
0 0.225315 0
0 0.298268 0
0 0.371221 0
0 0.444175 0
0 0.517128 0
0 0.590082 0
0 0.663035 0
0.354559 0.104982 0
0.210483 0.177935 0
0.0663767 0.250889 0
0 0.323842 0
0 0.396796 0
0 0.469749 0.00567636
0 0.542702 0.0661784
0 0.615656 0.12668
0 0.688594 0.187167
0.580911 0.130571 0
0.436835 0.20351 0.00885023
0.292729 0.276463 0.069337
0.148638 0.349416 0.129839
0.00453193 0.42237 0.190341
0 0.495323 0.250828
0 0.568276 0.31133
0 0.64123 0.371817
0 0.714183 0.432319
0.807263 0.156146 0.193515
0.663188 0.229084 0.254002
0.519081 0.302037 0.314488
0.37499 0.37499 0.37499
0.2309 0.447944 0.435492
0.0867933 0.520897 0.495979
0 0.593851 0.556481
0 0.666804 0.616968
0 0.739757 0.67747
1 0.18172 0.438666
0.88954 0.254658 0.499153
0.745434 0.327611 0.55964
0.601343 0.400565 0.620142
0.457252 0.473518 0.680644
0.313146 0.546471 0.741131
0.169055 0.619425 0.801633
0.0249485 0.692378 0.862119
0 0.765332 0.922621
1 0.207294 0.683818
1 0.280232 0.744305
0.971801 0.353185 0.804791
0.827695 0.426139 0.865293
0.683604 0.499092 0.925795
0.539498 0.572045 0.986282
0.395407 0.644999 1
0.251301 0.717952 1
0.10721 0.790906 1
1 0.232868 0.928969
1 0.305821 0.989456
1 0.378775 1
1 0.451713 1
0.909957 0.524666 1
0.76585 0.59762 1
0.621759 0.670573 1
0.477653 0.743526 1
0.333562 0.81648 1
1 0.258442 1
1 0.331395 1
1 0.404349 1
1 0.477302 1
1 0.550256 1
0.992203 0.623209 1
0.848112 0.696162 1
0.704005 0.7691 1
0.559915 0.842054 1
1 0.284031 1
1 0.35697 1
1 0.429923 1
1 0.502876 1
1 0.57583 1
1 0.648783 1
1 0.721736 1
0.930358 0.79469 1
0.786267 0.867643 1
0.170977 0.105882 0
0.0269017 0.178836 0
0 0.251789 0
0 0.324742 0
0 0.397696 0
0 0.470649 0
0 0.543587 0
0 0.616541 0
0 0.689494 0
0.397314 0.131456 0
0.253223 0.20441 0
0.109133 0.277363 0
0 0.350317 0
0 0.42327 0
0 0.496208 0
0 0.569162 0
0 0.642115 0
0 0.715068 0.00653086
0.623667 0.157031 0
0.479576 0.229984 0
0.335485 0.302937 0
0.191379 0.375891 0
0.0472877 0.448844 0.00968948
0 0.521798 0.0701915
0 0.594751 0.130678
0 0.667704 0.19118
0 0.740658 0.251682
0.850019 0.18262 0.0128634
0.705928 0.255558 0.0733501
0.561837 0.328511 0.133852
0.417731 0.401465 0.194339
0.27364 0.474418 0.254841
0.129534 0.547372 0.315343
0 0.620325 0.37583
0 0.693278 0.436332
0 0.766232 0.496818
1 0.208194 0.258015
0.93228 0.281132 0.318502
0.78819 0.354086 0.379004
0.644083 0.427039 0.43949
0.499992 0.499992 0.499992
0.355901 0.572946 0.560494
0.211795 0.645899 0.620981
0.0677043 0.718853 0.681483
0 0.791806 0.74197
1 0.233768 0.503166
1 0.306706 0.563653
1 0.37966 0.624155
0.870451 0.452613 0.684642
0.726345 0.525567 0.745144
0.582254 0.59852 0.805646
0.438148 0.671473 0.866133
0.294057 0.744427 0.926635
0.14995 0.81738 0.987121
1 0.259342 0.748318
1 0.33228 0.808804
1 0.405234 0.869307
1 0.478187 0.929793
0.952697 0.551141 0.990295
0.808606 0.624094 1
0.6645 0.697047 1
0.520409 0.770001 1
0.376303 0.842954 1
1 0.284916 0.993469
1 0.35787 1
1 0.430823 1
1 0.503777 1
1 0.576715 1
1 0.649668 1
0.890852 0.722622 1
0.746761 0.795575 1
0.602655 0.868528 1
1 0.310491 1
1 0.383444 1
1 0.456397 1
1 0.529351 1
1 0.602304 1
1 0.675258 1
1 0.748211 1
0.973114 0.821164 1
0.829007 0.894102 1
0.213733 0.132357 0
0.0696422 0.20531 0
0 0.278264 0
0 0.351202 0
0 0.424155 0
0 0.497108 0
0 0.570062 0
0 0.643015 0
0 0.715969 0
0.440055 0.157931 0
0.295979 0.230884 0
0.151873 0.303822 0
0.0077821 0.376776 0
0 0.449729 0
0 0.522683 0
0 0.595636 0
0 0.668589 0
0 0.741543 0
0.666407 0.183505 0
0.522332 0.256458 0
0.378225 0.329412 0
0.234134 0.402365 0
0.0900282 0.475319 0
0 0.548272 0
0 0.62121 0
0 0.694163 0.0105287
0 0.767117 0.0710307
0.89276 0.209079 0
0.748684 0.282032 0
0.604578 0.354986 0
0.460487 0.427939 0.0137026
0.316381 0.500893 0.0741894
0.17229 0.573846 0.134691
0.0281834 0.646799 0.195193
0 0.719753 0.25568
0 0.792706 0.316182
1 0.234668 0.0773632
0.975036 0.307607 0.137865
0.83093 0.38056 0.198352
0.686839 0.453513 0.258854
0.542733 0.526467 0.319341
0.398642 0.59942 0.379843
0.254536 0.672374 0.440345
0.110445 0.745327 0.500832
0 0.81828 0.561334
1 0.260243 0.322515
1 0.333181 0.383017
1 0.406134 0.443503
0.913191 0.479088 0.504005
0.769085 0.552041 0.564492
0.624994 0.624994 0.624994
0.480903 0.697948 0.685496
0.336797 0.770901 0.745983
0.192706 0.843854 0.806485
1 0.285817 0.567666
1 0.358755 0.628168
1 0.431708 0.688655
1 0.504662 0.749157
0.995453 0.577615 0.809644
0.851347 0.650568 0.870146
0.707256 0.723522 0.930648
0.563149 0.796475 0.991135
0.419059 0.869429 1
1 0.311391 0.812818
1 0.384329 0.873304
1 0.457282 0.933806
1 0.530236 0.994308
1 0.603189 1
1 0.676143 1
0.933608 0.749096 1
0.789502 0.822049 1
0.645411 0.895003 1
1 0.336965 1
1 0.409918 1
1 0.482872 1
1 0.555825 1
1 0.628779 1
1 0.701717 1
1 0.77467 1
1 0.847623 1
0.871763 0.920577 1
0.256474 0.158831 0
0.112398 0.231769 0
0 0.304723 0
0 0.377676 0
0 0.450629 0
0 0.523583 0
0 0.596536 0
0 0.66949 0
0 0.742443 0
0.482795 0.184405 0
0.33872 0.257343 0
0.194629 0.330297 0
0.0505226 0.40325 0
0 0.476204 0
0 0.549157 0
0 0.62211 0
0 0.695064 0
0 0.768017 0
0.709148 0.209979 0
0.565072 0.282933 0
0.420981 0.355886 0
0.276875 0.428824 0
0.132784 0.501778 0
0 0.574731 0
0 0.647684 0
0 0.720638 0
0 0.793591 0
0.9355 0.235554 0
0.791424 0.308507 0
0.647334 0.38146 0
0.503227 0.454414 0
0.359136 0.527367 0
0.21503 0.60032 0
0.0709392 0.673274 0.0145418
0 0.746212 0.0750439
0 0.819165 0.135531
1 0.261128 0
1 0.334081 0
0.873686 0.407034 0.0177157
0.72958 0.479988 0.0782025
0.585489 0.552941 0.138705
0.441382 0.625895 0.199191
0.297292 0.698848 0.259693
0.153185 0.771801 0.320195
0.00909438 0.844755 0.380682
1 0.286717 0.141878
1 0.359655 0.202365
1 0.432609 0.262867
0.955932 0.505562 0.323354
0.811841 0.578515 0.383856
0.667735 0.651469 0.444343
0.523644 0.724422 0.504845
0.379538 0.797375 0.565347
0.235447 0.870329 0.625834
1 0.312291 0.38703
1 0.385229 0.447517
1 0.458183 0.508019
1 0.531136 0.568505
1 0.604089 0.629007
0.894087 0.677043 0.689494
0.749996 0.749996 0.749996
0.605905 0.82295 0.810498
0.461799 0.895903 0.870985
1 0.337865 0.632181
1 0.410803 0.692668
1 0.483757 0.75317
1 0.55671 0.813657
1 0.629664 0.874159
1 0.702617 0.934646
0.976349 0.77557 0.995148
0.832258 0.848524 1
0.688151 0.921477 1
1 0.363439 0.877333
1 0.436393 0.937819
1 0.509331 0.998306
1 0.582284 1
1 0.655238 1
1 0.728191 1
1 0.801144 1
1 0.874098 1
0.914504 0.947051 1
0.299229 0.185306 0
0.155138 0.258244 0
0.0110475 0.331197 0
0 0.40415 0
0 0.477104 0
0 0.550057 0
0 0.623011 0
0 0.695964 0
0 0.768917 0
0.525551 0.21088 0
0.381476 0.283818 0
0.237369 0.356771 0
0.0932784 0.429725 0
0 0.502678 0
0 0.575631 0
0 0.648585 0
0 0.721538 0
0 0.794491 0
0.751904 0.236454 0
0.607828 0.309392 0
0.463722 0.382345 0
0.319631 0.455299 0
0.175525 0.528252 0
0.0314336 0.601205 0
0 0.674159 0
0 0.747112 0
0 0.820066 0
0.978256 0.262028 0
0.83418 0.334981 0
0.690074 0.407935 0
0.545983 0.480888 0
0.401877 0.553826 0
0.257786 0.62678 0
0.11368 0.699733 0
0 0.772686 0
0 0.84564 0
1 0.287602 0
1 0.360555 0
0.916426 0.433509 0
0.772335 0.506462 0
0.628229 0.579416 0
0.484138 0.652369 0.018555
0.340032 0.725322 0.0790417
0.195941 0.798276 0.139544
0.0518349 0.871214 0.200046
1 0.313191 0
1 0.38613 0.0217136
1 0.459083 0.0822156
0.998688 0.532036 0.142718
0.854582 0.60499 0.203204
0.710491 0.677943 0.263706
0.566384 0.750896 0.324193
0.422293 0.82385 0.384695
0.278187 0.896803 0.445197
1 0.338766 0.206378
1 0.411704 0.266865
1 0.484657 0.327367
1 0.55761 0.387869
1 0.630564 0.448356
0.936843 0.703517 0.508858
0.792737 0.776471 0.569345
0.648646 0.849424 0.629847
0.50454 0.922377 0.690349
1 0.36434 0.45153
1 0.437278 0.512016
1 0.510231 0.572519
1 0.583185 0.633021
1 0.656138 0.693507
1 0.729091 0.754009
1 0.802045 0.814496
0.874998 0.874998 0.874998
0.730907 0.947951 0.9355
1 0.389914 0.696681
1 0.462852 0.757168
1 0.535805 0.81767
1 0.608759 0.878172
1 0.681712 0.938659
1 0.754665 0.999161
1 0.827619 1
1 0.900572 1
0.957259 0.973526 1
0.34197 0.21178 0
0.197894 0.284718 0
0.0537881 0.357671 0
0 0.430625 0
0 0.503578 0
0 0.576532 0
0 0.649485 0
0 0.722438 0
0 0.795392 0
0.568292 0.237354 0
0.424216 0.310292 0
0.28011 0.383246 0
0.136019 0.456199 0
0 0.529152 0
0 0.602106 0
0 0.675059 0
0 0.748012 0
0 0.820966 0
0.794644 0.262928 0
0.650568 0.335866 0
0.506462 0.40882 0
0.362371 0.481773 0
0.21828 0.554726 0
0.0741741 0.62768 0
0 0.700633 0
0 0.773587 0
0 0.84654 0
1 0.288502 0
0.876921 0.36144 0
0.73283 0.434394 0
0.588724 0.507347 0
0.444633 0.580301 0
0.300526 0.653254 0
0.156435 0.726207 0
0.0123293 0.799161 0
0 0.872114 0
1 0.314076 0
1 0.38703 0
0.959182 0.459983 0
0.815076 0.532937 0
0.670985 0.60589 0
0.526879 0.678828 0
0.382788 0.751781 0
0.238682 0.824735 0
0.0945907 0.897688 0.0193942
1 0.339651 0
1 0.412604 0
1 0.485557 0
1 0.558511 0
0.897337 0.631464 0.0225681
0.753231 0.704417 0.0830549
0.60914 0.777371 0.143557
0.465034 0.850324 0.204044
0.320943 0.923278 0.264546
1 0.36524 0.025742
1 0.438178 0.0862287
1 0.511131 0.146715
1 0.584085 0.207218
1 0.657038 0.26772
0.979583 0.729992 0.328206
0.835492 0.802945 0.388708
0.691386 0.875898 0.449195
0.547295 0.948852 0.509697
1 0.390814 0.270893
1 0.463752 0.33138
1 0.536706 0.391867
1 0.609659 0.452369
1 0.682612 0.512871
1 0.755566 0.573358
1 0.828519 0.63386
0.917739 0.901473 0.694347
0.773648 0.974426 0.754849
1 0.416388 0.516045
1 0.489326 0.576532
1 0.56228 0.637018
1 0.635233 0.69752
1 0.708186 0.758022
1 0.78114 0.818509
1 0.854093 0.879011
1 0.927047 0.939498
1 1 1
