public/LUTS/Color Shift/ColorShift_10.cube
TITLE "Generated by Resolve"
LUT_3D_SIZE 9
0 0 0
0 0.0547494 0
0 0.109514 0
0 0.164279 0
0 0.219043 0
0 0.273808 0
0 0.328573 0
0 0.383322 0
0 0.438087 0
0.0360266 0.0885023 0.199741
0.0015259 0.143252 0.146014
0 0.198016 0.0922866
0 0.252781 0.0385443
0 0.307546 0
0 0.362295 0
0 0.41706 0
0 0.471824 0
0 0.526589 0
0.0720531 0.177005 0.399512
0.0375525 0.231769 0.345785
0.00303655 0.286519 0.292042
0 0.341283 0.238315
0 0.396048 0.184573
0 0.450813 0.130846
0 0.505577 0.0771191
0 0.560327 0.0233768
0 0.615091 0
0.108095 0.265522 0.599268
0.073579 0.320272 0.545541
0.0390784 0.375036 0.491814
0.00456245 0.429801 0.438071
0 0.48455 0.384344
0 0.539315 0.330617
0 0.594079 0.276875
0 0.648844 0.223148
0 0.703609 0.169406
0.144121 0.354025 0.799039
0.109621 0.408774 0.745312
0.0751049 0.463539 0.691569
0.0406043 0.518303 0.637842
0.00608835 0.573068 0.584115
0 0.627832 0.530373
0 0.682597 0.476646
0 0.737346 0.422904
0 0.792111 0.369177
0.180148 0.442527 0.998795
0.145647 0.497292 0.945068
0.111131 0.552056 0.89134
0.0766308 0.606821 0.837613
0.0421149 0.66157 0.783871
0.00761425 0.716335 0.730144
0 0.771099 0.676402
0 0.825864 0.622675
0 0.880629 0.568933
0.21619 0.531044 1
0.181674 0.585794 1
0.147173 0.640558 1
0.112657 0.695323 1
0.0781567 0.750088 0.983642
0.0436408 0.804852 0.9299
0.0091249 0.859602 0.876173
0 0.914366 0.822446
0 0.969131 0.768704
0.252216 0.619547 1
0.217716 0.674311 1
0.1832 0.729076 1
0.148699 0.783825 1
0.114183 0.83859 1
0.0796674 0.893355 1
0.0451667 0.948119 1
0.0106508 1 1
0 1 0.968475
0.288243 0.708064 1
0.253742 0.762814 1
0.219226 0.817578 1
0.184726 0.872343 1
0.15021 0.927108 1
0.115709 0.981857 1
0.0811933 1 1
0.0466926 1 1
0.0121767 1 1
0.123461 0 0
0.0889601 0.0364843 0
0.0544442 0.091249 0
0.0199435 0.146014 0
0 0.200778 0
0 0.255543 0
0 0.310292 0
0 0.365057 0
0 0.419821 0
0.159487 0.0702373 0.178714
0.124987 0.124987 0.124987
0.0904707 0.179751 0.0712596
0.0559701 0.234516 0.0175174
0.0214542 0.289265 0
0 0.34403 0
0 0.398795 0
0 0.453559 0
0 0.508324 0
0.195529 0.15874 0.378485
0.161013 0.213489 0.324758
0.126513 0.268254 0.271015
0.0919966 0.323018 0.217288
0.057496 0.377783 0.163546
0.0229801 0.432547 0.109819
0 0.487312 0.0560922
0 0.542062 0.00234989
0 0.596826 0
0.231556 0.247242 0.578241
0.197055 0.302007 0.524514
0.162539 0.356771 0.470787
0.128038 0.411536 0.417044
0.0935225 0.466285 0.363317
0.0590066 0.52105 0.30959
0.024506 0.575814 0.255848
0 0.630579 0.202121
0 0.685344 0.148379
0.267582 0.33576 0.778012
0.233082 0.390509 0.724285
0.198566 0.445274 0.670542
0.164065 0.500038 0.616815
0.129549 0.554803 0.563088
0.0950484 0.609567 0.509346
0.0605325 0.664317 0.455619
0.0260319 0.719081 0.401877
0 0.773846 0.34815
0.303624 0.424262 0.977768
0.269108 0.479026 0.924041
0.234607 0.533791 0.870314
0.200092 0.58854 0.816587
0.165591 0.643305 0.762844
0.131075 0.69807 0.709117
0.0965591 0.752834 0.655375
0.0620584 0.807599 0.601648
0.0275425 0.862364 0.547906
0.339651 0.512779 1
0.30515 0.567529 1
0.270634 0.622293 1
0.236118 0.677058 1
0.201617 0.731823 0.962615
0.167102 0.786572 0.908873
0.132601 0.841337 0.855146
0.098085 0.896101 0.801404
0.0635843 0.950866 0.747677
0.375677 0.601282 1
0.341176 0.656046 1
0.306661 0.710796 1
0.27216 0.76556 1
0.237644 0.820325 1
0.203143 0.87509 1
0.168627 0.929854 1
0.134127 0.984619 1
0.0996109 1 0.947448
0.411719 0.689799 1
0.377203 0.744549 1
0.342702 0.799313 1
0.308186 0.854078 1
0.273686 0.908843 1
0.23917 0.963592 1
0.204654 1 1
0.170153 1 1
0.135637 1 1
0.246952 0 0
0.212436 0.0182193 0
0.177935 0.0729839 0
0.14342 0.127749 0
0.108904 0.182498 0
0.074403 0.237263 0
0.0398871 0.292027 0
0.00538643 0.346792 0
0 0.401556 0
0.282979 0.051957 0.157687
0.248463 0.106722 0.10396
0.213962 0.161486 0.0502174
0.179446 0.216236 0
0.144945 0.271 0
0.11043 0.325765 0
0.0759136 0.380529 0
0.041413 0.435294 0
0.00689708 0.490043 0
0.319005 0.140475 0.357443
0.284504 0.195224 0.303716
0.249989 0.249989 0.249989
0.215473 0.304753 0.196262
0.180972 0.359518 0.142519
0.146456 0.414267 0.0887922
0.111955 0.469032 0.03505
0.0774395 0.523796 0
0.0429389 0.578561 0
0.355032 0.228977 0.557214
0.320531 0.283742 0.503487
0.286015 0.338491 0.44976
0.251514 0.393256 0.396017
0.216999 0.44802 0.34229
0.182498 0.502785 0.288548
0.147982 0.557549 0.234821
0.113466 0.612314 0.181094
0.0789654 0.667063 0.127352
0.391073 0.317494 0.756985
0.356558 0.372244 0.703258
0.322057 0.427008 0.649516
0.287541 0.481773 0.595789
0.25304 0.536538 0.542046
0.218524 0.591287 0.488319
0.184009 0.646052 0.434592
0.149508 0.700816 0.38085
0.114992 0.755581 0.327123
0.4271 0.405997 0.956741
0.392599 0.460746 0.903014
0.358083 0.515511 0.849287
0.323568 0.570275 0.795544
0.289067 0.62504 0.741817
0.254551 0.679805 0.68809
0.22005 0.734569 0.634348
0.185534 0.789319 0.580621
0.151034 0.844083 0.526879
0.463127 0.494514 1
0.428626 0.549264 1
0.39411 0.604028 1
0.359609 0.658793 0.995315
0.325093 0.713542 0.941588
0.290593 0.768307 0.887846
0.256077 0.823072 0.834119
0.221561 0.877836 0.780377
0.18706 0.932601 0.72665
0.499168 0.583017 1
0.464652 0.637766 1
0.430152 0.692531 1
0.395636 0.747295 1
0.36112 0.80206 1
0.326619 0.856825 1
0.292103 0.911574 1
0.257603 0.966339 0.980148
0.223087 1 0.926406
0.535195 0.671519 1
0.500694 0.726284 1
0.466178 0.781048 1
0.431662 0.835798 1
0.397162 0.890562 1
0.362646 0.945327 1
0.328145 1 1
0.293629 1 1
0.259129 1 1
0.370428 0 0
0.335912 0 0
0.301411 0.0547189 0
0.266896 0.109468 0
0.232395 0.164233 0
0.197879 0.218997 0
0.163378 0.273762 0
0.128862 0.328527 0
0.0943465 0.383291 0
0.406455 0.0336919 0.13666
0.371954 0.0884413 0.0829328
0.337438 0.143206 0.0291905
0.302922 0.197971 0
0.268421 0.252735 0
0.233906 0.3075 0
0.199405 0.362264 0
0.164889 0.417014 0
0.130373 0.471778 0
0.442481 0.12221 0.336416
0.40798 0.176959 0.282689
0.373465 0.231724 0.228962
0.338964 0.286488 0.175219
0.304448 0.341238 0.121492
0.269947 0.396002 0.0677653
0.235431 0.450767 0.014023
0.200916 0.505531 0
0.166415 0.560296 0
0.478508 0.210712 0.536187
0.444007 0.265461 0.48246
0.409506 0.320226 0.428717
0.37499 0.37499 0.37499
0.340475 0.429755 0.321263
0.305974 0.48452 0.267521
0.271458 0.539269 0.213794
0.236957 0.594034 0.160052
0.202441 0.648798 0.106325
0.514549 0.299214 0.735943
0.480034 0.353979 0.682216
0.445533 0.408743 0.628489
0.411017 0.463493 0.574762
0.376516 0.518257 0.521019
0.342 0.573022 0.467292
0.3075 0.627787 0.41355
0.272984 0.682551 0.359823
0.238468 0.737316 0.306096
0.550576 0.387732 0.935714
0.516075 0.442481 0.881987
0.481559 0.497246 0.82826
0.447059 0.55201 0.774517
0.412543 0.606775 0.72079
0.378042 0.66154 0.667048
0.343526 0.716289 0.613321
0.30901 0.771054 0.559594
0.27451 0.825818 0.505852
0.586603 0.476234 1
0.552102 0.530999 1
0.517601 0.585748 1
0.483085 0.640513 0.974289
0.448569 0.695277 0.920546
0.414069 0.750042 0.866819
0.379553 0.804807 0.813092
0.345052 0.859571 0.75935
0.310536 0.914321 0.705623
0.622644 0.564752 1
0.588129 0.619501 1
0.553628 0.674266 1
0.519112 0.72903 1
0.484611 0.783795 1
0.450095 0.838544 1
0.415595 0.893309 1
0.381079 0.948074 0.959121
0.346563 1 0.905379
0.658671 0.653254 1
0.62417 0.708019 1
0.589654 0.762768 1
0.555154 0.817533 1
0.520638 0.872297 1
0.486122 0.927062 1
0.451621 0.981826 1
0.417105 1 1
0.382605 1 1
0.493904 0 0
0.459403 0 0
0.424887 0.0364385 0
0.390387 0.0912032 0
0.355871 0.145968 0
0.321355 0.200732 0
0.286854 0.255497 0
0.252338 0.310246 0
0.217838 0.365011 0
0.529931 0.0154269 0.115618
0.49543 0.0701762 0.0618906
0.460914 0.124941 0.00816358
0.426413 0.179706 0
0.391897 0.23447 0
0.357382 0.289235 0
0.322881 0.343984 0
0.288365 0.398749 0
0.253864 0.453513 0
0.565957 0.103929 0.315389
0.531456 0.158694 0.261662
0.496941 0.213443 0.207935
0.46244 0.268208 0.154192
0.427924 0.322972 0.100465
0.393423 0.377737 0.0467231
0.358907 0.432502 0
0.324407 0.487266 0
0.289891 0.542016 0
0.601999 0.192447 0.51516
0.567483 0.247196 0.461433
0.532982 0.301961 0.407691
0.498466 0.356725 0.353964
0.463966 0.41149 0.300221
0.42945 0.466239 0.246494
0.394949 0.521004 0.192767
0.360433 0.575769 0.139025
0.325917 0.630533 0.0852979
0.638025 0.280949 0.714916
0.603525 0.335714 0.661189
0.569009 0.390463 0.607462
0.534508 0.445228 0.553719
0.499992 0.499992 0.499992
0.465476 0.554757 0.446265
0.430976 0.609522 0.392523
0.39646 0.664271 0.338796
0.361959 0.719036 0.285054
0.674052 0.369467 0.914687
0.639551 0.424216 0.86096
0.605035 0.478981 0.807218
0.570535 0.533745 0.753491
0.536019 0.588495 0.699763
0.501518 0.643259 0.646021
0.467002 0.698024 0.592294
0.432502 0.752789 0.538552
0.397986 0.807553 0.484825
0.710094 0.457969 1
0.675578 0.512718 1
0.641077 0.567483 1
0.606561 0.622248 0.953262
0.572061 0.677012 0.899519
0.537545 0.731777 0.845792
0.503029 0.786542 0.79205
0.468528 0.841291 0.738323
0.434012 0.896056 0.684596
0.74612 0.546471 1
0.71162 0.601236 1
0.677104 0.656001 1
0.642603 0.71075 1
0.608087 0.765515 1
0.573571 0.820279 1
0.539071 0.875044 0.991821
0.504555 0.929808 0.938094
0.470054 0.984573 0.884352
0.782147 0.634989 1
0.747646 0.689738 1
0.71313 0.744503 1
0.67863 0.799268 1
0.644114 0.854032 1
0.609613 0.908797 1
0.575097 0.963546 1
0.540597 1 1
0.506081 1 1
0.61738 0 0
0.582879 0 0
0.548363 0.0181735 0
0.513863 0.0729381 0
0.479347 0.127703 0
0.444846 0.182467 0
0.41033 0.237217 0
0.375814 0.291981 0
0.341314 0.346746 0
0.653407 0 0.0945907
0.618906 0.0519112 0.0408637
0.58439 0.106676 0
0.549889 0.16144 0
0.515373 0.21619 0
0.480873 0.270954 0
0.446357 0.325719 0
0.411856 0.380484 0
0.37734 0.435248 0
0.689448 0.0856641 0.294362
0.654932 0.140414 0.240635
0.620432 0.195178 0.186892
0.585916 0.249943 0.133165
0.551415 0.304707 0.0794385
0.516899 0.359472 0.0256962
0.482383 0.414237 0
0.447883 0.468986 0
0.413367 0.523751 0
0.725475 0.174166 0.494118
0.690974 0.228931 0.440391
0.656458 0.283696 0.386664
0.621942 0.338445 0.332937
0.587442 0.39321 0.279194
0.552926 0.447974 0.225467
0.518425 0.502739 0.171725
0.483909 0.557504 0.117998
0.449409 0.612268 0.064271
0.761501 0.262684 0.693889
0.727001 0.317433 0.640162
0.692485 0.372198 0.586435
0.657984 0.426963 0.532692
0.623468 0.481727 0.478965
0.588968 0.536492 0.425223
0.554452 0.591241 0.371496
0.519951 0.646006 0.317769
0.485435 0.700771 0.264027
0.797543 0.351186 0.89366
0.763027 0.405951 0.839933
0.728527 0.460716 0.786191
0.694011 0.515465 0.732464
0.65951 0.57023 0.678721
0.624994 0.624994 0.624994
0.590478 0.679759 0.571267
0.555978 0.734524 0.517525
0.521462 0.789273 0.463798
0.83357 0.439704 1
0.799069 0.494453 1
0.764553 0.549218 0.985962
0.730037 0.603983 0.932219
0.695537 0.658747 0.878492
0.661021 0.713497 0.824765
0.62652 0.768261 0.771023
0.592004 0.823026 0.717296
0.557504 0.877791 0.663554
0.869596 0.528206 1
0.835096 0.582971 1
0.80058 0.63772 1
0.766079 0.692485 1
0.731563 0.74725 1
0.697063 0.802014 1
0.662547 0.856779 0.970794
0.628046 0.911543 0.917052
0.59353 0.966293 0.863325
0.905638 0.616724 1
0.871122 0.671473 1
0.836622 0.726238 1
0.802106 0.781003 1
0.767605 0.835752 1
0.733089 0.890517 1
0.698573 0.945281 1
0.664073 1 1
0.629557 1 1
0.740871 0 0
0.706355 0 0
0.671855 0 0
0.637339 0.0546731 0
0.602823 0.109422 0
0.568322 0.164187 0
0.533806 0.218952 0
0.499306 0.273716 0
0.46479 0.328481 0
0.776898 0 0.0735637
0.742382 0.0336461 0.0198367
0.707881 0.0884108 0
0.673365 0.14316 0
0.638865 0.197925 0
0.604349 0.252689 0
0.569833 0.307454 0
0.535332 0.362219 0
0.500816 0.416968 0
0.812924 0.0673991 0.273335
0.778424 0.122148 0.219608
0.743908 0.176913 0.165866
0.709392 0.231678 0.112139
0.674891 0.286442 0.0583963
0.640375 0.341192 0.00466926
0.605875 0.395956 0
0.571359 0.450721 0
0.536858 0.505486 0
0.848951 0.155901 0.473091
0.81445 0.210666 0.419364
0.779934 0.265415 0.365637
0.745434 0.32018 0.311894
0.710918 0.374945 0.258167
0.676417 0.429709 0.20444
0.641901 0.484474 0.150698
0.607385 0.539239 0.0969711
0.572885 0.593988 0.0432288
0.884993 0.244419 0.672862
0.850477 0.299168 0.619135
0.815976 0.353933 0.565393
0.78146 0.408698 0.511666
0.74696 0.463447 0.457938
0.712444 0.518212 0.404196
0.677928 0.572976 0.350469
0.643427 0.627741 0.296727
0.608911 0.682506 0.243
0.921019 0.332921 0.872618
0.886519 0.387671 0.818891
0.852003 0.442435 0.765164
0.817487 0.4972 0.711437
0.782986 0.551965 0.657694
0.74847 0.606729 0.603967
0.71397 0.661494 0.550225
0.679454 0.716243 0.496498
0.644953 0.771008 0.442771
0.957046 0.421424 1
0.922545 0.476188 1
0.888029 0.530953 0.964935
0.853529 0.585718 0.911192
0.819013 0.640467 0.857466
0.784512 0.695232 0.803723
0.749996 0.749996 0.749996
0.71548 0.804761 0.696269
0.68098 0.859525 0.642527
0.993088 0.509941 1
0.958572 0.564691 1
0.924071 0.619455 1
0.889555 0.67422 1
0.855039 0.728985 1
0.820539 0.783749 1
0.786023 0.838499 0.949767
0.751522 0.893263 0.896025
0.717006 0.948028 0.842298
1 0.598444 1
0.994614 0.653208 1
0.960098 0.707973 1
0.925582 0.762722 1
0.891081 0.817487 1
0.856565 0.872251 1
0.822065 0.927016 1
0.787549 0.981781 1
0.753048 1 1
0.864347 0 0
0.829831 0 0
0.795331 0 0
0.760815 0.0363928 0
0.726314 0.0911574 0
0.691798 0.145922 0
0.657298 0.200687 0
0.622782 0.255451 0
0.588266 0.310201 0
0.900374 0 0.0525368
0.865858 0.0153658 0
0.831357 0.0701305 0
0.796841 0.124895 0
0.762341 0.17966 0
0.727825 0.234424 0
0.693324 0.289189 0
0.658808 0.343938 0
0.624292 0.398703 0
0.9364 0.0491188 0.252308
0.9019 0.103883 0.198581
0.867384 0.158648 0.144839
0.832883 0.213413 0.0911116
0.798367 0.268162 0.0373693
0.763867 0.322927 0
0.729351 0.377691 0
0.694835 0.432456 0
0.660334 0.487221 0
0.972427 0.137636 0.452064
0.937926 0.192386 0.398337
0.903426 0.24715 0.34461
0.86891 0.301915 0.290867
0.834394 0.35668 0.23714
0.799893 0.411444 0.183398
0.765377 0.466194 0.129671
0.730877 0.520958 0.0759442
0.696361 0.575723 0.0222019
1 0.226139 0.651835
0.973953 0.280903 0.598108
0.939452 0.335668 0.544366
0.904936 0.390417 0.490639
0.870436 0.445182 0.436896
0.83592 0.499947 0.383169
0.801419 0.554711 0.329442
0.766903 0.609476 0.2757
0.732387 0.66424 0.221973
1 0.314656 0.851591
1 0.369406 0.797864
0.975479 0.42417 0.744137
0.940978 0.478935 0.690394
0.906462 0.5337 0.636667
0.871962 0.588449 0.58294
0.837446 0.643214 0.529198
0.80293 0.697978 0.475471
0.768429 0.752743 0.421729
1 0.403159 1
1 0.457923 0.997635
1 0.512673 0.943893
0.977005 0.567437 0.890166
0.942489 0.622202 0.836439
0.907988 0.676966 0.782696
0.873472 0.731731 0.728969
0.838972 0.786496 0.675227
0.804456 0.841245 0.6215
1 0.491676 1
1 0.546426 1
1 0.60119 1
1 0.655955 1
0.978531 0.710719 1
0.944015 0.765469 0.982467
0.909514 0.820233 0.928725
0.874998 0.874998 0.874998
0.840482 0.929763 0.821271
1 0.580179 1
1 0.634928 1
1 0.689693 1
1 0.744457 1
1 0.799222 1
0.980041 0.853986 1
0.945541 0.908751 1
0.911025 0.9635 1
0.876524 1 1
0.987823 0 0
0.953323 0 0
0.918807 0 0
0.884306 0.0181277 0
0.84979 0.0728923 0
0.815274 0.127657 0
0.780774 0.182422 0
0.746258 0.237171 0
0.711757 0.291936 0
1 0 0.0315099
0.989349 0 0
0.954833 0.0518654 0
0.920333 0.10663 0
0.885817 0.161395 0
0.851301 0.216144 0
0.8168 0.270909 0
0.782284 0.325673 0
0.747784 0.380438 0
1 0.0308537 0.231266
1 0.0856184 0.177539
0.99086 0.140368 0.123812
0.956359 0.195132 0.0700694
0.921843 0.249897 0.0163424
0.887343 0.304662 0
0.852827 0.359426 0
0.818326 0.414191 0
0.78381 0.46894 0
1 0.119371 0.431037
1 0.174121 0.37731
1 0.228885 0.323583
0.992386 0.28365 0.269841
0.957885 0.338415 0.216114
0.923369 0.393164 0.162371
0.888869 0.447929 0.108644
0.854353 0.502693 0.054902
0.819837 0.557458 0.00117494
1 0.207874 0.630808
1 0.262623 0.577081
1 0.317388 0.523339
1 0.372152 0.469612
0.993912 0.426917 0.415869
0.959396 0.481682 0.362142
0.924895 0.536446 0.3084
0.890379 0.591196 0.254673
0.855879 0.64596 0.200946
1 0.296391 0.830564
1 0.351141 0.776837
1 0.405905 0.72311
1 0.46067 0.669367
1 0.515419 0.615641
0.995438 0.570184 0.561898
0.960922 0.624949 0.508171
0.926421 0.679713 0.454444
0.891905 0.734478 0.400702
1 0.384894 1
1 0.439643 0.976608
1 0.494408 0.922866
1 0.549172 0.869139
1 0.603937 0.815396
1 0.658701 0.761669
0.996948 0.713451 0.707942
0.962448 0.768215 0.6542
0.927932 0.82298 0.600473
1 0.473396 1
1 0.528161 1
1 0.582925 1
1 0.637675 1
1 0.692439 1
1 0.747204 0.96144
1 0.801968 0.907698
0.998474 0.856733 0.853971
0.963973 0.911498 0.800229
1 0.561913 1
1 0.616663 1
1 0.671427 1
1 0.726192 1
1 0.780957 1
1 0.835721 1
1 0.890471 1
1 0.945235 1
1 1 1
