public/LUTS/Color Shift/ColorShift_39.cube
TITLE "Generated by Resolve"
LUT_3D_SIZE 33
0 0 0
0.00357061 0.00425727 0.0313726
0.00715648 0.00852979 0.0627604
0.0107271 0.0128023 0.0941482
0.0142977 0.0170596 0.125551
0.0178836 0.0213321 0.156939
0.0214542 0.0256046 0.188327
0.0250248 0.0298619 0.219715
0.0286107 0.0341344 0.251102
0.0321813 0.0383917 0.28249
0.0357671 0.0426642 0.313893
0.0393378 0.0469368 0.345281
0.0429084 0.051194 0.376669
0.0464942 0.0554665 0.408057
0.0500649 0.0597238 0.439445
0.0536355 0.0639963 0.470832
0.0572213 0.0682689 0.502235
0.0607919 0.0725261 0.533623
0.0643626 0.0767987 0.565011
0.0679484 0.0810559 0.596399
0.071519 0.0853285 0.627787
0.0750896 0.089601 0.659175
0.0786755 0.0938582 0.690578
0.0822461 0.0981308 0.721965
0.085832 0.102388 0.753353
0.0894026 0.106661 0.784741
0.0929732 0.110933 0.816129
0.0965591 0.11519 0.847517
0.10013 0.119463 0.87892
0.1037 0.12372 0.910307
0.107286 0.127993 0.941695
0.110857 0.132265 0.973083
0.114427 0.136522 1
0.0508278 0.0147097 0.0099031
0.0543984 0.0189822 0.0412909
0.057969 0.0232395 0.0726787
0.0615549 0.027512 0.104067
0.0651255 0.0317845 0.135454
0.0686961 0.0360418 0.166842
0.072282 0.0403143 0.19823
0.0758526 0.0445716 0.229633
0.0794385 0.0488441 0.261021
0.0830091 0.0531167 0.292409
0.0865797 0.0573739 0.323796
0.0901656 0.0616465 0.355184
0.0937362 0.0659037 0.386572
0.0973068 0.0701762 0.417975
0.100893 0.0744488 0.449363
0.104463 0.078706 0.480751
0.108034 0.0829786 0.512139
0.11162 0.0872358 0.543526
0.11519 0.0915084 0.574914
0.118761 0.0957809 0.606317
0.122347 0.100038 0.637705
0.125917 0.104311 0.669093
0.129503 0.108568 0.700481
0.133074 0.11284 0.731868
0.136645 0.117113 0.763256
0.14023 0.12137 0.794659
0.143801 0.125643 0.826047
0.147372 0.129915 0.857435
0.150958 0.134173 0.888823
0.154528 0.138445 0.920211
0.158099 0.142702 0.951598
0.161685 0.146975 0.982986
0.165255 0.151247 1
0.101671 0.0294347 0.0198215
0.105241 0.0336919 0.051194
0.108827 0.0379644 0.0825971
0.112398 0.042237 0.113985
0.115969 0.0464942 0.145373
0.119554 0.0507668 0.176761
0.123125 0.0550393 0.208148
0.126711 0.0592966 0.239536
0.130282 0.0635691 0.270939
0.133852 0.0678264 0.302327
0.137438 0.0720989 0.333715
0.141009 0.0763714 0.365103
0.144579 0.0806287 0.39649
0.148165 0.0849012 0.427878
0.151736 0.0891585 0.459281
0.155306 0.093431 0.490669
0.158892 0.0977035 0.522057
0.162463 0.101961 0.553445
0.166033 0.106233 0.584833
0.169619 0.110491 0.61622
0.17319 0.114763 0.647608
0.176776 0.119036 0.679011
0.180346 0.123293 0.710399
0.183917 0.127565 0.741787
0.187503 0.131823 0.773175
0.191073 0.136095 0.804562
0.194644 0.140368 0.83595
0.19823 0.144625 0.867353
0.201801 0.148898 0.898741
0.205371 0.153155 0.930129
0.208957 0.157427 0.961517
0.212528 0.1617 0.992905
0.216114 0.165957 1
0.152514 0.0441596 0.0297398
0.1561 0.0484169 0.0611124
0.15967 0.0526894 0.0925002
0.163241 0.0569467 0.123903
0.166827 0.0612192 0.155291
0.170397 0.0654917 0.186679
0.173968 0.069749 0.218067
0.177554 0.0740215 0.249454
0.181125 0.0782788 0.280842
0.18471 0.0825513 0.312245
0.188281 0.0868238 0.343633
0.191852 0.0910811 0.375021
0.195438 0.0953536 0.406409
0.199008 0.0996109 0.437797
0.202579 0.103883 0.469184
0.206165 0.108156 0.500572
0.209735 0.112413 0.531975
0.213306 0.116686 0.563363
0.216892 0.120958 0.594751
0.220462 0.125216 0.626139
0.224048 0.129488 0.657526
0.227619 0.133745 0.688914
0.231189 0.138018 0.720317
0.234775 0.14229 0.751705
0.238346 0.146548 0.783093
0.241917 0.15082 0.814481
0.245502 0.155077 0.845869
0.249073 0.15935 0.877256
0.252644 0.163622 0.90866
0.256229 0.16788 0.940047
0.2598 0.172152 0.971435
0.263386 0.17641 1
0.266957 0.180682 1
0.203372 0.0588693 0.0396582
0.206943 0.0631418 0.0710307
0.210513 0.0674144 0.102419
0.214099 0.0716716 0.133806
0.21767 0.0759442 0.165194
0.221241 0.0802014 0.196597
0.224826 0.0844739 0.227985
0.228397 0.0887465 0.259373
0.231983 0.0930037 0.290761
0.235554 0.0972763 0.322148
0.239124 0.101534 0.353536
0.24271 0.105806 0.384939
0.246281 0.110079 0.416327
0.249851 0.114336 0.447715
0.253437 0.118608 0.479103
0.257008 0.122866 0.510491
0.260578 0.127138 0.541878
0.264164 0.131411 0.573281
0.267735 0.135668 0.604669
0.271321 0.13994 0.636057
0.274891 0.144198 0.667445
0.278462 0.14847 0.698833
0.282048 0.152743 0.73022
0.285618 0.157 0.761624
0.289189 0.161273 0.793011
0.292775 0.165545 0.824399
0.296345 0.169802 0.855787
0.299916 0.174075 0.887175
0.303502 0.178332 0.918563
0.307073 0.182605 0.949966
0.310658 0.186877 0.981353
0.314229 0.191135 1
0.3178 0.195407 1
0.254215 0.0735943 0.0495766
0.257786 0.0778668 0.0809491
0.261372 0.0821241 0.112337
0.264942 0.0863966 0.143725
0.268513 0.0906691 0.175113
0.272099 0.0949264 0.2065
0.275669 0.0991989 0.237903
0.279255 0.103456 0.269291
0.282826 0.107729 0.300679
0.286397 0.112001 0.332067
0.289982 0.116258 0.363455
0.293553 0.120531 0.394842
0.297124 0.124788 0.426246
0.30071 0.129061 0.457633
0.30428 0.133333 0.489021
0.307851 0.137591 0.520409
0.311437 0.141863 0.551797
0.315007 0.14612 0.583185
0.318593 0.150393 0.614588
0.322164 0.154665 0.645975
0.325734 0.158923 0.677363
0.32932 0.163195 0.708751
0.332891 0.167452 0.740139
0.336461 0.171725 0.771527
0.340047 0.175998 0.80293
0.343618 0.180255 0.834318
0.347189 0.184527 0.865705
0.350774 0.188785 0.897093
0.354345 0.193057 0.928481
0.357931 0.19733 0.959869
0.361501 0.201587 0.991257
0.365072 0.205859 1
0.368658 0.210117 1
0.305074 0.0883192 0.0594797
0.308644 0.0925765 0.0908675
0.312215 0.096849 0.122255
0.315785 0.101122 0.153643
0.319371 0.105379 0.185031
0.322942 0.109651 0.216419
0.326528 0.113909 0.247807
0.330098 0.118181 0.27921
0.333669 0.122454 0.310597
0.337255 0.126711 0.341985
0.340826 0.130983 0.373373
0.344396 0.135241 0.404761
0.347982 0.139513 0.436149
0.351553 0.143786 0.467552
0.355123 0.148043 0.498939
0.358709 0.152316 0.530327
0.36228 0.156588 0.561715
0.365866 0.160845 0.593103
0.369436 0.165118 0.624491
0.373007 0.169375 0.655879
0.376593 0.173648 0.687282
0.380163 0.17792 0.718669
0.383734 0.182177 0.750057
0.38732 0.18645 0.781445
0.39089 0.190707 0.812833
0.394461 0.19498 0.844221
0.398047 0.199252 0.875624
0.401617 0.20351 0.907012
0.405203 0.207782 0.938399
0.408774 0.212039 0.969787
0.412345 0.216312 1
0.41593 0.220584 1
0.419501 0.224842 1
0.355917 0.103044 0.069398
0.359487 0.107301 0.100771
0.363058 0.111574 0.132174
0.366644 0.115831 0.163561
0.370214 0.120104 0.194949
0.3738 0.124376 0.226337
0.377371 0.128634 0.257725
0.380941 0.132906 0.289113
0.384527 0.137163 0.320516
0.388098 0.141436 0.351904
0.391669 0.145708 0.383291
0.395254 0.149966 0.414679
0.398825 0.154238 0.446067
0.402396 0.158495 0.477455
0.405982 0.162768 0.508843
0.409552 0.167041 0.540246
0.413138 0.171298 0.571633
0.416709 0.17557 0.603021
0.420279 0.179828 0.634409
0.423865 0.1841 0.665797
0.427436 0.188373 0.697185
0.431006 0.19263 0.728588
0.434592 0.196902 0.759976
0.438163 0.201175 0.791363
0.441733 0.205432 0.822751
0.445319 0.209705 0.854139
0.44889 0.213962 0.885527
0.452476 0.218235 0.91693
0.456046 0.222507 0.948318
0.459617 0.226764 0.979706
0.463203 0.231037 1
0.466773 0.235294 1
0.470344 0.239567 1
0.40676 0.117754 0.0793164
0.41033 0.122026 0.110689
0.413916 0.126299 0.142077
0.417487 0.130556 0.173465
0.421073 0.134829 0.204868
0.424643 0.139086 0.236255
0.428214 0.143359 0.267643
0.4318 0.147631 0.299031
0.43537 0.151888 0.330419
0.438941 0.156161 0.361807
0.442527 0.160418 0.39321
0.446097 0.164691 0.424598
0.449668 0.168963 0.455985
0.453254 0.17322 0.487373
0.456825 0.177493 0.518761
0.46041 0.18175 0.550149
0.463981 0.186023 0.581552
0.467552 0.190295 0.61294
0.471138 0.194553 0.644327
0.474708 0.198825 0.675715
0.478279 0.203082 0.707103
0.481865 0.207355 0.738491
0.485435 0.211627 0.769894
0.489006 0.215885 0.801282
0.492592 0.220157 0.83267
0.496162 0.224414 0.864057
0.499748 0.228687 0.895445
0.503319 0.232959 0.926833
0.506889 0.237217 0.958236
0.510475 0.241489 0.989624
0.514046 0.245747 1
0.517617 0.250019 1
0.521202 0.254292 1
0.457618 0.132479 0.0892348
0.461189 0.136751 0.120607
0.464759 0.141009 0.151995
0.468345 0.145281 0.183383
0.471916 0.149538 0.214771
0.475486 0.153811 0.246174
0.479072 0.158083 0.277562
0.482643 0.162341 0.308949
0.486213 0.166613 0.340337
0.489799 0.170871 0.371725
0.49337 0.175143 0.403113
0.496941 0.179416 0.434516
0.500526 0.183673 0.465904
0.504097 0.187945 0.497292
0.507683 0.192218 0.528679
0.511254 0.196475 0.560067
0.514824 0.200748 0.591455
0.51841 0.205005 0.622858
0.521981 0.209277 0.654246
0.525551 0.21355 0.685634
0.529137 0.217807 0.717021
0.532708 0.22208 0.748409
0.536278 0.226337 0.779797
0.539864 0.23061 0.8112
0.543435 0.234882 0.842588
0.547021 0.239139 0.873976
0.550591 0.243412 0.905364
0.554162 0.247669 0.936751
0.557748 0.251942 0.968139
0.561318 0.256214 0.999527
0.564889 0.260471 1
0.568475 0.264744 1
0.572045 0.269001 1
0.508461 0.147204 0.0991531
0.512032 0.151461 0.130526
0.515618 0.155734 0.161913
0.519188 0.160006 0.193301
0.522759 0.164263 0.224689
0.526345 0.168536 0.256077
0.529915 0.172793 0.28748
0.533486 0.177066 0.318868
0.537072 0.181338 0.350256
0.540642 0.185595 0.381643
0.544213 0.189868 0.413031
0.547799 0.194125 0.444419
0.551369 0.198398 0.475822
0.554955 0.20267 0.50721
0.558526 0.206928 0.538598
0.562097 0.2112 0.569986
0.565682 0.215457 0.601373
0.569253 0.21973 0.632761
0.572824 0.224002 0.664149
0.57641 0.22826 0.695552
0.57998 0.232532 0.72694
0.583551 0.236805 0.758328
0.587137 0.241062 0.789715
0.590707 0.245335 0.821103
0.594293 0.249592 0.852491
0.597864 0.253864 0.883894
0.601434 0.258137 0.915282
0.60502 0.262394 0.94667
0.608591 0.266667 0.978058
0.612161 0.270924 1
0.615747 0.275196 1
0.619318 0.279469 1
0.622889 0.283726 1
0.559304 0.161929 0.109056
0.56289 0.166186 0.140444
0.566461 0.170459 0.171832
0.570031 0.174716 0.20322
0.573617 0.178988 0.234607
0.577188 0.183261 0.265995
0.580758 0.187518 0.297383
0.584344 0.191791 0.328786
0.587915 0.196048 0.360174
0.591485 0.20032 0.391562
0.595071 0.204593 0.42295
0.598642 0.20885 0.454337
0.602228 0.213123 0.485725
0.605798 0.21738 0.517113
0.609369 0.221653 0.548516
0.612955 0.225925 0.579904
0.616526 0.230182 0.611292
0.620096 0.234455 0.64268
0.623682 0.238712 0.674067
0.627253 0.242985 0.705455
0.630823 0.247257 0.736858
0.634409 0.251514 0.768246
0.63798 0.255787 0.799634
0.64155 0.260044 0.831022
0.645136 0.264317 0.862409
0.648707 0.268589 0.893797
0.652293 0.272847 0.9252
0.655863 0.277119 0.956588
0.659434 0.281376 0.987976
0.66302 0.285649 1
0.66659 0.289921 1
0.670161 0.294179 1
0.673747 0.298451 1
0.610162 0.176638 0.118975
0.613733 0.180911 0.150347
0.617304 0.185168 0.181735
0.62089 0.189441 0.213138
0.62446 0.193713 0.244526
0.628031 0.197971 0.275914
0.631617 0.202243 0.307301
0.635187 0.2065 0.338689
0.638758 0.210773 0.370077
0.642344 0.215045 0.40148
0.645914 0.219303 0.432868
0.6495 0.223575 0.464256
0.653071 0.227848 0.495644
0.656641 0.232105 0.527031
0.660227 0.236378 0.558419
0.663798 0.240635 0.589822
0.667369 0.244907 0.62121
0.670954 0.24918 0.652598
0.674525 0.253437 0.683986
0.678096 0.25771 0.715373
0.681682 0.261967 0.746761
0.685252 0.266239 0.778164
0.688823 0.270512 0.809552
0.692409 0.274769 0.84094
0.695979 0.279042 0.872328
0.699565 0.283299 0.903716
0.703136 0.287572 0.935103
0.706706 0.291844 0.966506
0.710292 0.296101 0.997894
0.713863 0.300374 1
0.717433 0.304631 1
0.721019 0.308904 1
0.72459 0.313176 1
0.661006 0.191363 0.128893
0.664576 0.195636 0.160266
0.668162 0.199893 0.191653
0.671733 0.204166 0.223041
0.675303 0.208423 0.254444
0.678889 0.212696 0.285832
0.68246 0.216968 0.31722
0.68603 0.221225 0.348608
0.689616 0.225498 0.379995
0.693187 0.229755 0.411383
0.696757 0.234028 0.442786
0.700343 0.2383 0.474174
0.703914 0.242557 0.505562
0.7075 0.24683 0.53695
0.71107 0.251087 0.568338
0.714641 0.25536 0.599725
0.718227 0.259632 0.631128
0.721798 0.26389 0.662516
0.725368 0.268162 0.693904
0.728954 0.272435 0.725292
0.732525 0.276692 0.75668
0.736095 0.280964 0.788067
0.739681 0.285222 0.819455
0.743252 0.289494 0.850858
0.746838 0.293767 0.882246
0.750408 0.298024 0.913634
0.753979 0.302296 0.945022
0.757565 0.306554 0.97641
0.761135 0.310826 1
0.764706 0.315099 1
0.768292 0.319356 1
0.771862 0.323629 1
0.775433 0.327886 1
0.711849 0.206088 0.138811
0.715434 0.210346 0.170184
0.719005 0.214618 0.201572
0.722576 0.218891 0.232959
0.726162 0.223148 0.264347
0.729732 0.22742 0.29575
0.733303 0.231678 0.327138
0.736889 0.23595 0.358526
0.740459 0.240223 0.389914
0.74403 0.24448 0.421302
0.747616 0.248753 0.452689
0.751186 0.25301 0.484092
0.754772 0.257282 0.51548
0.758343 0.261555 0.546868
0.761913 0.265812 0.578256
0.765499 0.270085 0.609644
0.76907 0.274342 0.641032
0.772641 0.278614 0.672419
0.776226 0.282887 0.703822
0.779797 0.287144 0.73521
0.783368 0.291417 0.766598
0.786954 0.295674 0.797986
0.790524 0.299947 0.829374
0.79411 0.304219 0.860761
0.797681 0.308476 0.892164
0.801251 0.312749 0.923552
0.804837 0.317006 0.95494
0.808408 0.321279 0.986328
0.811978 0.325551 1
0.815564 0.329809 1
0.819135 0.334081 1
0.822705 0.338354 1
0.826291 0.342611 1
0.762707 0.220813 0.14873
0.766278 0.225071 0.180102
0.769848 0.229343 0.21149
0.773434 0.2336 0.242878
0.777005 0.237873 0.274266
0.780575 0.24213 0.305653
0.784161 0.246403 0.337057
0.787732 0.250675 0.368444
0.791302 0.254932 0.399832
0.794888 0.259205 0.43122
0.798459 0.263478 0.462608
0.802045 0.267735 0.493996
0.805615 0.272007 0.525383
0.809186 0.276265 0.556786
0.812772 0.280537 0.588174
0.816342 0.28481 0.619562
0.819913 0.289067 0.65095
0.823499 0.293339 0.682338
0.82707 0.297597 0.713726
0.83064 0.301869 0.745129
0.834226 0.306142 0.776516
0.837797 0.310399 0.807904
0.841382 0.314672 0.839292
0.844953 0.318929 0.87068
0.848524 0.323201 0.902068
0.85211 0.327474 0.933471
0.85568 0.331731 0.964858
0.859251 0.336004 0.996246
0.862837 0.340261 1
0.866407 0.344533 1
0.869978 0.348806 1
0.873564 0.353063 1
0.877134 0.357336 1
0.81355 0.235523 0.158633
0.817121 0.239796 0.190005
0.820706 0.244053 0.221408
0.824277 0.248325 0.252796
0.827848 0.252598 0.284184
0.831434 0.256855 0.315572
0.835004 0.261128 0.34696
0.838575 0.265385 0.378347
0.842161 0.269657 0.409751
0.845731 0.27393 0.441138
0.849317 0.278187 0.472526
0.852888 0.28246 0.503914
0.856458 0.286717 0.535302
0.860044 0.29099 0.56669
0.863615 0.295262 0.598093
0.867185 0.299519 0.62948
0.870771 0.303792 0.660868
0.874342 0.308064 0.692256
0.877913 0.312322 0.723644
0.881498 0.316594 0.755032
0.885069 0.320851 0.786435
0.888655 0.325124 0.817823
0.892226 0.329397 0.84921
0.895796 0.333654 0.880598
0.899382 0.337926 0.911986
0.902953 0.342184 0.943374
0.906523 0.346456 0.974777
0.910109 0.350729 1
0.91368 0.354986 1
0.91725 0.359258 1
0.920836 0.363516 1
0.924407 0.367788 1
0.927993 0.372061 1
0.864393 0.250248 0.168551
0.867979 0.25452 0.199924
0.87155 0.258778 0.231312
0.87512 0.26305 0.262715
0.878706 0.267308 0.294102
0.882277 0.27158 0.32549
0.885847 0.275853 0.356878
0.889433 0.28011 0.388266
0.893004 0.284382 0.419654
0.89659 0.28864 0.451057
0.90016 0.292912 0.482444
0.903731 0.297185 0.513832
0.907317 0.301442 0.54522
0.910887 0.305715 0.576608
0.914458 0.309972 0.607996
0.918044 0.314244 0.639399
0.921614 0.318517 0.670787
0.925185 0.322774 0.702174
0.928771 0.327047 0.733562
0.932342 0.331304 0.76495
0.935927 0.335576 0.796338
0.939498 0.339849 0.827741
0.943069 0.344106 0.859129
0.946654 0.348379 0.890517
0.950225 0.352636 0.921904
0.953796 0.356909 0.953292
0.957382 0.361181 0.98468
0.960952 0.365438 1
0.964523 0.369711 1
0.968109 0.373983 1
0.971679 0.378241 1
0.975265 0.382513 1
0.978836 0.38677 1
0.915251 0.264973 0.17847
0.918822 0.26923 0.209842
0.922393 0.273503 0.24123
0.925978 0.27776 0.272618
0.929549 0.282032 0.304021
0.93312 0.286305 0.335409
0.936706 0.290562 0.366796
0.940276 0.294835 0.398184
0.943862 0.299107 0.429572
0.947433 0.303365 0.46096
0.951003 0.307637 0.492363
0.954589 0.311894 0.523751
0.95816 0.316167 0.555138
0.96173 0.320439 0.586526
0.965316 0.324697 0.617914
0.968887 0.328969 0.649302
0.972457 0.333227 0.68069
0.976043 0.337499 0.712093
0.979614 0.341772 0.743481
0.9832 0.346029 0.774868
0.98677 0.350301 0.806256
0.990341 0.354559 0.837644
0.993927 0.358831 0.869032
0.997497 0.363104 0.900435
1 0.367361 0.931823
1 0.371633 0.963211
1 0.375891 0.994598
1 0.380163 1
1 0.384436 1
1 0.388693 1
1 0.392966 1
1 0.397223 1
1 0.401495 1
0.966094 0.279698 0.188388
0.969665 0.283955 0.21976
0.973251 0.288228 0.251148
0.976822 0.292485 0.282536
0.980392 0.296757 0.313924
0.983978 0.301015 0.345327
0.987549 0.305287 0.376715
0.991135 0.30956 0.408103
0.994705 0.313817 0.43949
0.998276 0.31809 0.470878
1 0.322347 0.502266
1 0.326619 0.533654
1 0.330892 0.565057
1 0.335149 0.596445
1 0.339422 0.627832
1 0.343694 0.65922
1 0.347951 0.690608
1 0.352224 0.721996
1 0.356481 0.753399
1 0.360754 0.784787
1 0.365026 0.816175
1 0.369284 0.847562
1 0.373556 0.87895
1 0.377813 0.910338
1 0.382086 0.941741
1 0.386358 0.973129
1 0.390616 1
1 0.394888 1
1 0.399145 1
1 0.403418 1
1 0.407691 1
1 0.411948 1
1 0.41622 1
1 0.294408 0.198291
1 0.29868 0.229679
1 0.302937 0.261067
1 0.30721 0.292454
1 0.311482 0.323842
1 0.31574 0.35523
1 0.320012 0.386618
1 0.324269 0.418021
1 0.328542 0.449409
1 0.332815 0.480797
1 0.337072 0.512184
1 0.341344 0.543572
1 0.345602 0.57496
1 0.349874 0.606363
1 0.354147 0.637751
1 0.358404 0.669139
1 0.362676 0.700526
1 0.366934 0.731914
1 0.371206 0.763302
1 0.375479 0.794705
1 0.379736 0.826093
1 0.384009 0.857481
1 0.388266 0.888869
1 0.392538 0.920256
1 0.396811 0.951644
1 0.401068 0.983047
1 0.405341 1
1 0.409613 1
1 0.41387 1
1 0.418143 1
1 0.4224 1
1 0.426673 1
1 0.430945 1
1 0.309133 0.208209
1 0.31339 0.239582
1 0.317662 0.270985
1 0.321935 0.302373
1 0.326192 0.333761
1 0.330465 0.365148
1 0.334737 0.396536
1 0.338994 0.427924
1 0.343267 0.459327
1 0.347524 0.490715
1 0.351797 0.522103
1 0.356069 0.553491
1 0.360327 0.584878
1 0.364599 0.616266
1 0.368856 0.647669
1 0.373129 0.679057
1 0.377401 0.710445
1 0.381659 0.741833
1 0.385931 0.77322
1 0.390188 0.804608
1 0.394461 0.836011
1 0.398733 0.867399
1 0.402991 0.898787
1 0.407263 0.930175
1 0.411521 0.961563
1 0.415793 0.99295
1 0.420066 1
1 0.424323 1
1 0.428595 1
1 0.432853 1
1 0.437125 1
1 0.441398 1
1 0.445655 1
1 0.323857 0.218128
1 0.328115 0.2495
1 0.332387 0.280888
1 0.336645 0.312291
1 0.340917 0.343679
1 0.34519 0.375067
1 0.349447 0.406455
1 0.353719 0.437842
1 0.357977 0.46923
1 0.362249 0.500633
1 0.366522 0.532021
1 0.370779 0.563409
1 0.375051 0.594797
1 0.379324 0.626184
1 0.383581 0.657572
1 0.387854 0.68896
1 0.392111 0.720363
1 0.396384 0.751751
1 0.400656 0.783139
1 0.404913 0.814527
1 0.409186 0.845914
1 0.413443 0.877302
1 0.417716 0.908705
1 0.421988 0.940093
1 0.426246 0.971481
1 0.430518 1
1 0.434775 1
1 0.439048 1
1 0.44332 1
1 0.447578 1
1 0.45185 1
1 0.456107 1
1 0.46038 1
1 0.338582 0.228046
1 0.34284 0.259419
1 0.347112 0.290806
1 0.35137 0.322194
1 0.355642 0.353597
1 0.359899 0.384985
1 0.364172 0.416373
1 0.368444 0.447761
1 0.372702 0.479149
1 0.376974 0.510536
1 0.381231 0.541924
1 0.385504 0.573327
1 0.389776 0.604715
1 0.394034 0.636103
1 0.398306 0.667491
1 0.402564 0.698878
1 0.406836 0.730266
1 0.411109 0.761669
1 0.415366 0.793057
1 0.419638 0.824445
1 0.423896 0.855833
1 0.428168 0.887221
1 0.432441 0.918608
1 0.436698 0.950011
1 0.44097 0.981399
1 0.445243 1
1 0.4495 1
1 0.453773 1
1 0.45803 1
1 0.462303 1
1 0.466575 1
1 0.470832 1
1 0.475105 1
1 0.353292 0.237964
1 0.357565 0.269337
1 0.361822 0.300725
1 0.366094 0.332113
1 0.370367 0.3635
1 0.374624 0.394888
1 0.378897 0.426291
1 0.383154 0.457679
1 0.387427 0.489067
1 0.391699 0.520455
1 0.395956 0.551843
1 0.400229 0.58323
1 0.404486 0.614633
1 0.408759 0.646021
1 0.413031 0.677409
1 0.417288 0.708797
1 0.421561 0.740185
1 0.425818 0.771572
1 0.430091 0.802976
1 0.434363 0.834363
1 0.438621 0.865751
1 0.442893 0.897139
1 0.44715 0.928527
1 0.451423 0.959915
1 0.455695 0.991318
1 0.459953 1
1 0.464225 1
1 0.468482 1
1 0.472755 1
1 0.477028 1
1 0.481285 1
1 0.485557 1
1 0.48983 1
1 0.368017 0.247868
1 0.372274 0.279255
1 0.376547 0.310643
1 0.380819 0.342031
1 0.385077 0.373419
1 0.389349 0.404807
1 0.393606 0.436194
1 0.397879 0.467597
1 0.402152 0.498985
1 0.406409 0.530373
1 0.410681 0.561761
1 0.414954 0.593149
1 0.419211 0.624537
1 0.423484 0.65594
1 0.427741 0.687327
1 0.432013 0.718715
1 0.436286 0.750103
1 0.440543 0.781491
1 0.444816 0.812879
1 0.449073 0.844282
1 0.453346 0.875669
1 0.457618 0.907057
1 0.461875 0.938445
1 0.466148 0.969833
1 0.470405 1
1 0.474678 1
1 0.47895 1
1 0.483207 1
1 0.48748 1
1 0.491737 1
1 0.49601 1
1 0.500282 1
1 0.50454 1
1 0.382742 0.257786
1 0.386999 0.289158
1 0.391272 0.320562
1 0.395529 0.351949
1 0.399802 0.383337
1 0.404074 0.414725
1 0.408331 0.446113
1 0.412604 0.477501
1 0.416861 0.508904
1 0.421134 0.540291
1 0.425406 0.571679
1 0.429664 0.603067
1 0.433936 0.634455
1 0.438193 0.665843
1 0.442466 0.69723
1 0.446738 0.728634
1 0.450996 0.760021
1 0.455268 0.791409
1 0.459525 0.822797
1 0.463798 0.854185
1 0.468071 0.885573
1 0.472328 0.916976
1 0.4766 0.948363
1 0.480873 0.979751
1 0.48513 1
1 0.489403 1
1 0.49366 1
1 0.497932 1
1 0.502205 1
1 0.506462 1
1 0.510735 1
1 0.514992 1
1 0.519265 1
1 0.397452 0.267704
1 0.401724 0.299077
1 0.405997 0.330465
1 0.410254 0.361868
1 0.414527 0.393256
1 0.418784 0.424643
1 0.423056 0.456031
1 0.427329 0.487419
1 0.431586 0.518807
