public/LUTS/Color Shift/ColorShift_06.cube
TITLE "Generated by Resolve"
LUT_3D_SIZE 5
0 0 0
0 0.118791 0
0 0.237583 0
0 0.35639 0
0 0.475181 0
0.195102 0.137514 0.419577
0.0619669 0.256306 0.389624
0 0.375097 0.359655
0 0.493904 0.329686
0 0.612696 0.299718
0.390204 0.275044 0.839185
0.257069 0.393835 0.809232
0.123919 0.512627 0.779263
0 0.631418 0.749294
0 0.750225 0.719326
0.585306 0.412558 1
0.452171 0.53135 1
0.319036 0.650141 1
0.185885 0.768948 1
0.0527504 0.887739 1
0.780407 0.550088 1
0.647272 0.668879 1
0.514138 0.787671 1
0.380987 0.906462 1
0.247852 1 1
0.188022 0 0
0.0548867 0.112474 0
0 0.231266 0
0 0.350072 0
0 0.468864 0
0.383124 0.131197 0.279957
0.249989 0.249989 0.249989
0.116838 0.36878 0.22002
0 0.487587 0.190066
0 0.606378 0.160098
0.578225 0.268727 0.699565
0.44509 0.387518 0.669596
0.311955 0.50631 0.639628
0.178805 0.625101 0.609659
0.0456703 0.743908 0.579705
0.773342 0.406241 1
0.640208 0.525032 1
0.507057 0.643839 1
0.373922 0.762631 1
0.240772 0.881422 0.999313
0.968444 0.54377 1
0.835309 0.662562 1
0.702159 0.781353 1
0.569024 0.90016 1
0.435874 1 1
0.376074 0 0
0.242939 0.106157 0
0.109789 0.224948 0
0 0.343755 0
0 0.462547 0
0.57116 0.12488 0.140307
0.438025 0.243671 0.110353
0.304891 0.362463 0.0803845
0.17174 0.48127 0.0504158
0.0386053 0.600061 0.0204623
0.766278 0.262409 0.559915
0.633143 0.381201 0.529961
0.499992 0.499992 0.499992
0.366842 0.618784 0.470024
0.233707 0.737591 0.44007
0.961379 0.399924 0.979522
0.828244 0.518715 0.949569
0.695094 0.637522 0.9196
0.561959 0.756313 0.889632
0.428809 0.875105 0.859663
1 0.537453 1
1 0.656245 1
0.890211 0.775036 1
0.757061 0.893843 1
0.623926 1 1
0.564111 0 0
0.430976 0.0998398 0
0.297826 0.218631 0
0.164691 0.337438 0
0.0315404 0.45623 0
0.759197 0.118563 0.000671397
0.626062 0.237354 0
0.492927 0.356146 0
0.359777 0.474952 0
0.226642 0.593744 0
0.954314 0.256092 0.420279
0.82118 0.374884 0.390326
0.688029 0.493675 0.360357
0.554894 0.612467 0.330388
0.421744 0.731273 0.30042
1 0.393606 0.839887
1 0.512398 0.809934
0.883146 0.631205 0.779965
0.749996 0.749996 0.749996
0.616846 0.868788 0.720027
1 0.531136 1
1 0.649927 1
1 0.768719 1
0.945098 0.887526 1
0.811963 1 1
0.752148 0 0
0.619013 0.0935225 0
0.485878 0.212314 0
0.352728 0.331121 0
0.219593 0.449912 0
0.94725 0.112245 0
0.814115 0.231037 0
0.680964 0.349828 0
0.547829 0.468635 0
0.414679 0.587427 0
1 0.249775 0.280644
1 0.368566 0.250675
0.876066 0.487358 0.220722
0.742931 0.606149 0.190753
0.609781 0.724956 0.160784
1 0.387289 0.700252
1 0.506081 0.670283
1 0.624887 0.64033
0.938033 0.743679 0.610361
0.804898 0.86247 0.580392
1 0.524819 1
1 0.64361 1
1 0.762402 1
1 0.881209 1
1 1 1
