public/LUTS/Color Shift/ColorShift_38.cube
TITLE "Generated by Resolve"
LUT_3D_SIZE 9
0 0 0
0.0271153 0.013138 0.126146
0.0542306 0.0262913 0.252323
0.0813458 0.0394293 0.378485
0.108461 0.0525826 0.504662
0.135592 0.0657206 0.630823
0.162707 0.0788586 0.756985
0.189822 0.0920119 0.883162
0.216938 0.10515 1
0.196414 0.0627298 0.025864
0.223529 0.0758831 0.15201
0.250645 0.0890211 0.278187
0.27776 0.102174 0.404349
0.304875 0.115312 0.530526
0.331991 0.12845 0.656687
0.359121 0.141604 0.782849
0.386236 0.154742 0.909026
0.413352 0.167895 1
0.392844 0.125475 0.0517281
0.419959 0.138628 0.17789
0.447074 0.151766 0.304051
0.474205 0.16492 0.430228
0.50132 0.178058 0.55639
0.528435 0.191196 0.682551
0.55555 0.204349 0.808728
0.582666 0.217487 0.93489
0.609781 0.23064 1
0.589288 0.18822 0.0776074
0.616403 0.201373 0.203754
0.643519 0.214511 0.329915
0.670634 0.227649 0.456092
0.697749 0.240803 0.582254
0.724865 0.253941 0.708431
0.75198 0.267094 0.834592
0.77911 0.280232 0.960754
0.806226 0.29337 1
0.785718 0.250965 0.103471
0.812833 0.264118 0.229618
0.839948 0.277256 0.355795
0.867063 0.290394 0.481956
0.894194 0.303548 0.608133
0.921309 0.316686 0.734295
0.948425 0.329839 0.860456
0.97554 0.342977 0.986633
1 0.356115 1
0.982162 0.31371 0.129335
1 0.326863 0.255497
1 0.340002 0.381659
1 0.35314 0.50782
1 0.366293 0.633997
1 0.379431 0.760159
1 0.392584 0.886336
1 0.405722 1
1 0.41886 1
1 0.376455 0.155215
1 0.389609 0.281361
1 0.402747 0.407523
1 0.415885 0.5337
1 0.429038 0.659861
1 0.442176 0.786038
1 0.455329 0.9122
1 0.468467 1
1 0.481605 1
1 0.4392 0.181079
1 0.452338 0.307225
1 0.465492 0.433402
1 0.47863 0.559564
1 0.491783 0.685725
1 0.504921 0.811902
1 0.518074 0.938064
1 0.531212 1
1 0.54435 1
1 0.501945 0.206943
1 0.515084 0.333104
1 0.528237 0.459266
1 0.541375 0.585428
1 0.554528 0.711604
1 0.567666 0.837766
1 0.580804 0.963943
1 0.593957 1
1 0.607095 1
0 0.0491035 0
0 0.0622568 0.0991226
0 0.0753948 0.225284
0 0.0885328 0.351461
0.00993362 0.101686 0.477623
0.0370489 0.114824 0.603784
0.0641642 0.127977 0.729961
0.0912795 0.141115 0.856123
0.118395 0.154253 0.9823
0.0978714 0.111849 0
0.124987 0.124987 0.124987
0.152102 0.138125 0.251148
0.179217 0.151278 0.377325
0.206332 0.164416 0.503487
0.233463 0.177569 0.629664
0.260578 0.190707 0.755825
0.287694 0.203845 0.881987
0.314809 0.216999 1
0.294301 0.174594 0.0247044
0.321416 0.187732 0.150851
0.348547 0.20087 0.277028
0.375662 0.214023 0.403189
0.402777 0.227161 0.529351
0.429892 0.240314 0.655528
0.457008 0.253452 0.781689
0.484123 0.26659 0.907866
0.511238 0.279744 1
0.490745 0.237339 0.0505684
0.517861 0.250477 0.17673
0.544976 0.263615 0.302892
0.572091 0.276768 0.429053
0.599207 0.289906 0.55523
0.626322 0.303059 0.681392
0.653452 0.316197 0.807568
0.680568 0.329335 0.93373
0.707683 0.342489 1
0.687175 0.300084 0.0764477
0.71429 0.313222 0.202594
0.741405 0.32636 0.328756
0.768536 0.339513 0.454932
0.795651 0.352651 0.581094
0.822766 0.365789 0.707256
0.849882 0.378943 0.833432
0.876997 0.392081 0.959594
0.904112 0.405234 1
0.883619 0.362829 0.102312
0.910735 0.375967 0.228458
0.93785 0.389105 0.354635
0.964965 0.402258 0.480797
0.992081 0.415396 0.606958
1 0.428534 0.733135
1 0.441688 0.859297
1 0.454826 0.985473
1 0.467979 1
1 0.425559 0.128176
1 0.438712 0.254337
1 0.45185 0.380499
1 0.465003 0.506661
1 0.478141 0.632837
1 0.491279 0.758999
1 0.504433 0.885161
1 0.517571 1
1 0.530724 1
1 0.488304 0.15404
1 0.501457 0.280201
1 0.514595 0.406363
1 0.527749 0.53254
1 0.540887 0.658701
1 0.554025 0.784863
1 0.567178 0.91104
1 0.580316 1
1 0.593469 1
1 0.551049 0.179919
1 0.564202 0.306065
1 0.57734 0.432242
1 0.590494 0.558404
1 0.603632 0.684565
1 0.61677 0.810742
1 0.629923 0.936904
1 0.643061 1
1 0.656214 1
0 0.0982223 0
0 0.11136 0.0720836
0 0.124514 0.19826
0 0.137652 0.324422
0 0.15079 0.450584
0 0.163943 0.576761
0 0.177081 0.702922
0 0.190234 0.829099
0.019852 0.203372 0.955261
0 0.160952 0
0.0264286 0.174105 0.0979477
0.0535592 0.187243 0.224125
0.0806744 0.200381 0.350286
0.10779 0.213535 0.476448
0.134905 0.226673 0.602625
0.16202 0.239826 0.728786
0.189136 0.252964 0.854963
0.216251 0.266102 0.981125
0.195758 0.223697 0
0.222873 0.236851 0.123827
0.249989 0.249989 0.249989
0.277104 0.263127 0.37615
0.304219 0.27628 0.502327
0.331334 0.289418 0.628489
0.358465 0.302571 0.754665
0.38558 0.315709 0.880827
0.412695 0.328847 1
0.392187 0.286442 0.0235447
0.419303 0.299596 0.149691
0.446418 0.312734 0.275853
0.473548 0.325872 0.402029
0.500664 0.339025 0.528191
0.527779 0.352163 0.654353
0.554894 0.365316 0.780529
0.58201 0.378454 0.906691
0.609125 0.391592 1
0.588632 0.349187 0.0494087
0.615747 0.362341 0.175555
0.642863 0.375479 0.301732
0.669978 0.388617 0.427893
0.697093 0.40177 0.554055
0.724208 0.414908 0.680232
0.751324 0.428061 0.806394
0.778454 0.441199 0.93257
0.80557 0.454337 1
0.785061 0.411933 0.0752728
0.812177 0.425071 0.201434
0.839292 0.438224 0.327596
0.866407 0.451362 0.453758
0.893538 0.464515 0.579934
0.920653 0.477653 0.706096
0.947768 0.490791 0.832258
0.974884 0.503944 0.958434
1 0.517082 1
0.981506 0.474678 0.101137
1 0.487816 0.227298
1 0.500969 0.35346
1 0.514107 0.479637
1 0.52726 0.605798
1 0.540398 0.73196
1 0.553536 0.858137
1 0.56669 0.984298
1 0.579828 1
1 0.537423 0.127016
1 0.550561 0.253162
1 0.563714 0.379339
1 0.576852 0.505501
1 0.590005 0.631662
1 0.603143 0.757839
1 0.616281 0.884001
1 0.629435 1
1 0.642573 1
1 0.600168 0.15288
1 0.613306 0.279026
1 0.626459 0.405203
1 0.639597 0.531365
1 0.65275 0.657542
1 0.665888 0.783703
1 0.679026 0.909865
1 0.69218 1
1 0.705318 1
0 0.147341 0
0 0.160479 0.0450599
0 0.173617 0.171221
0 0.18677 0.297383
0 0.199908 0.42356
0 0.213046 0.549722
0 0.2262 0.675883
0 0.239338 0.80206
0 0.252491 0.928222
0 0.210071 0
0 0.223209 0.0709239
0 0.236362 0.197086
0 0.2495 0.323247
0.00923171 0.262638 0.449424
0.036347 0.275792 0.575586
0.0634775 0.28893 0.701762
0.0905928 0.302083 0.827924
0.117708 0.315221 0.954086
0.0972 0.272816 0
0.124315 0.285954 0.096788
0.151431 0.299107 0.22295
0.178561 0.312245 0.349126
0.205676 0.325383 0.475288
0.232792 0.338537 0.60145
0.259907 0.351675 0.727626
0.287022 0.364828 0.853788
0.314137 0.377966 0.979965
0.293645 0.335561 0
0.32076 0.348699 0.122652
0.347875 0.361852 0.248829
0.37499 0.37499 0.37499
0.402106 0.388128 0.501152
0.429221 0.401282 0.627329
0.456336 0.41442 0.753491
0.483467 0.427573 0.879667
0.510582 0.440711 1
0.490074 0.398306 0.0223697
0.517189 0.411444 0.148531
0.544305 0.424598 0.274693
0.57142 0.437736 0.400854
0.59855 0.450874 0.527031
0.625666 0.464027 0.653193
0.652781 0.477165 0.779355
0.679896 0.490318 0.905531
0.707012 0.503456 1
0.686519 0.461051 0.0482338
0.713634 0.474189 0.174395
0.740749 0.487343 0.300557
0.767865 0.500481 0.426734
0.79498 0.513619 0.552895
0.822095 0.526772 0.679057
0.84921 0.53991 0.805234
0.876326 0.553063 0.931395
0.903456 0.566201 1
0.882948 0.523796 0.0741131
0.910063 0.536934 0.200259
0.937179 0.550072 0.326436
0.964294 0.563226 0.452598
0.991409 0.576364 0.578759
1 0.589517 0.704936
1 0.602655 0.831098
1 0.615793 0.957259
1 0.628946 1
1 0.586542 0.0999771
1 0.59968 0.226123
1 0.612818 0.3523
1 0.625971 0.478462
1 0.639109 0.604639
1 0.652262 0.7308
1 0.6654 0.856962
1 0.678538 0.983139
1 0.691691 1
1 0.649287 0.125841
1 0.662425 0.252003
1 0.675563 0.378164
1 0.688716 0.504341
1 0.701854 0.630503
1 0.715007 0.756664
1 0.728145 0.882841
1 0.741283 1
1 0.754437 1
0 0.196445 0
0 0.209583 0.0180209
0 0.222736 0.144183
0 0.235874 0.270359
0 0.249027 0.396521
0 0.262165 0.522683
0 0.275303 0.648859
0 0.288457 0.775021
0 0.301595 0.901198
0 0.25919 0
0 0.272328 0.0438849
0 0.285466 0.170047
0 0.298619 0.296223
0 0.311757 0.422385
0 0.32491 0.548547
0 0.338048 0.674723
0 0.351186 0.800885
0.0191501 0.36434 0.927062
0 0.321935 0
0.0257725 0.335073 0.069749
0.0528878 0.348211 0.195926
0.0800031 0.361364 0.322087
0.107118 0.374502 0.448249
0.134234 0.38764 0.574426
0.161349 0.400793 0.700587
0.188479 0.413931 0.826764
0.215595 0.427085 0.952926
0.195087 0.38468 0
0.222202 0.397818 0.0956283
0.249317 0.410956 0.22179
0.276432 0.424109 0.347951
0.303563 0.437247 0.474128
0.330678 0.450385 0.60029
0.357794 0.463539 0.726452
0.384909 0.476677 0.852628
0.412024 0.48983 0.97879
0.391531 0.447425 0
0.418647 0.460563 0.121492
0.445762 0.473701 0.247654
0.472877 0.486854 0.373831
0.499992 0.499992 0.499992
0.527108 0.51313 0.626154
0.554223 0.526284 0.752331
0.581338 0.539422 0.878492
0.608469 0.552575 1
0.587961 0.510155 0.02121
0.615076 0.523308 0.147356
0.642191 0.536446 0.273533
0.669306 0.549599 0.399695
0.696422 0.562737 0.525856
0.723552 0.575875 0.652033
0.750668 0.589029 0.778195
0.777783 0.602167 0.904356
0.804898 0.61532 1
0.78439 0.5729 0.0470741
0.811505 0.586053 0.17322
0.838636 0.599191 0.299397
0.865751 0.612345 0.425559
0.892866 0.625483 0.551736
0.919982 0.638621 0.677897
0.947097 0.651774 0.804059
0.974212 0.664912 0.930236
1 0.678065 1
0.980835 0.635645 0.0729381
1 0.648798 0.1991
1 0.661936 0.325261
1 0.675074 0.451438
1 0.688228 0.5776
1 0.701366 0.703761
1 0.714519 0.829938
1 0.727657 0.9561
1 0.740795 1
1 0.69839 0.0988174
1 0.711543 0.224964
1 0.724681 0.351125
1 0.737819 0.477302
1 0.750973 0.603464
1 0.764111 0.729641
1 0.777264 0.855802
1 0.790402 0.981964
1 0.80354 1
0 0.245563 0
0 0.258701 0
0 0.271855 0.117144
0 0.284993 0.24332
0 0.298131 0.369482
0 0.311284 0.495659
0 0.324422 0.62182
0 0.337575 0.747982
0 0.350713 0.874159
0 0.308293 0
0 0.321447 0.016846
0 0.334585 0.143023
0 0.347723 0.269184
0 0.360876 0.395346
0 0.374014 0.521523
0 0.387167 0.647684
0 0.400305 0.773861
0 0.413443 0.900023
0 0.371038 0
0 0.384192 0.0427253
0 0.39733 0.168887
0 0.410468 0.295048
0.00857557 0.423621 0.421225
0.0356909 0.436759 0.547387
0.0628061 0.449912 0.673548
0.0899214 0.46305 0.799725
0.117037 0.476188 0.925887
0.0965438 0.433783 0
0.123659 0.446921 0.0685893
0.150774 0.460075 0.194751
0.17789 0.473213 0.320928
0.205005 0.486366 0.447089
0.23212 0.499504 0.573251
0.259236 0.512642 0.699428
0.286351 0.525795 0.825589
0.313481 0.538933 0.951766
0.292973 0.496529 0
0.320089 0.509667 0.0944533
0.347204 0.52282 0.22063
0.374319 0.535958 0.346792
0.401434 0.549111 0.472953
0.428565 0.562249 0.59913
0.45568 0.575387 0.725292
0.482795 0.58854 0.851453
0.509911 0.601678 0.97763
0.489403 0.559274 0
0.516518 0.572412 0.120317
0.543648 0.585565 0.246494
0.570764 0.598703 0.372656
0.597879 0.611856 0.498833
0.624994 0.624994 0.624994
0.65211 0.638132 0.751156
0.679225 0.651286 0.877333
0.70634 0.664424 1
0.685847 0.622019 0.0200351
0.712963 0.635157 0.146197
0.740078 0.64831 0.272358
0.767193 0.661448 0.398535
0.794308 0.674601 0.524697
0.821424 0.687739 0.650858
0.848554 0.700877 0.777035
0.875669 0.714031 0.903197
0.902785 0.727169 1
0.882277 0.684764 0.0459144
0.909392 0.697902 0.172061
0.936507 0.711055 0.298222
0.963638 0.724193 0.424399
0.990753 0.737346 0.550561
1 0.750484 0.676738
1 0.763622 0.802899
1 0.776776 0.929061
1 0.789914 1
1 0.747509 0.0717784
1 0.760647 0.197925
1 0.7738 0.324102
1 0.786938 0.450263
1 0.800076 0.57644
1 0.81323 0.702602
1 0.826368 0.828763
1 0.839521 0.95494
1 0.852659 1
0 0.294667 0
0 0.30782 0
0 0.320958 0.0901198
0 0.334112 0.216281
0 0.34725 0.342458
0 0.360388 0.46862
0 0.373541 0.594781
0 0.386679 0.720958
0 0.399832 0.84712
0 0.357412 0
0 0.37055 0
0 0.383703 0.115984
0 0.396841 0.242145
0 0.409979 0.368322
0 0.423133 0.494484
0 0.436271 0.620645
0 0.449424 0.746822
0 0.462562 0.872984
0 0.420157 0
0 0.433295 0.0156863
0 0.446448 0.141848
0 0.459586 0.268025
0 0.472724 0.394186
0 0.485878 0.520348
0 0.499016 0.646525
0 0.512169 0.772686
0.0184939 0.525307 0.898863
0 0.482902 0
0.0251011 0.49604 0.0415503
0.0522164 0.509194 0.167727
0.0793317 0.522332 0.293889
0.106447 0.53547 0.42005
0.133577 0.548623 0.546227
0.160693 0.561761 0.672389
0.187808 0.574914 0.79855
0.214923 0.588052 0.924727
0.194415 0.545647 0
0.22153 0.558785 0.0674144
0.248661 0.571923 0.193591
0.275776 0.585077 0.319753
0.302892 0.598215 0.44593
0.330007 0.611368 0.572091
0.357122 0.624506 0.698253
0.384237 0.637644 0.82443
0.411353 0.650797 0.950591
0.39086 0.608392 0
0.417975 0.62153 0.0932937
0.44509 0.634668 0.219455
0.472206 0.647822 0.345632
0.499321 0.66096 0.471794
0.526436 0.674113 0.597955
0.553567 0.687251 0.724132
0.580682 0.700389 0.850294
0.607797 0.713542 0.976455
0.587289 0.671138 0
0.614404 0.684276 0.119158
0.64152 0.697414 0.245319
0.66865 0.710567 0.371496
0.695766 0.723705 0.497658
0.722881 0.736858 0.623835
0.749996 0.749996 0.749996
0.777111 0.763134 0.876158
0.804227 0.776287 1
0.783734 0.733883 0.0188754
0.810849 0.747021 0.145022
0.837964 0.760159 0.271199
0.86508 0.773312 0.39736
0.892195 0.78645 0.523537
0.91931 0.799603 0.649699
0.946426 0.812741 0.77586
0.973556 0.825879 0.902037
1 0.839033 1
0.980163 0.796628 0.0447395
1 0.809766 0.170901
1 0.822904 0.297063
1 0.836057 0.423224
1 0.849195 0.549401
1 0.862348 0.675563
1 0.875486 0.80174
1 0.888624 0.927901
1 0.901778 1
0 0.343786 0
0 0.356924 0
0 0.370077 0.0630808
0 0.383215 0.189242
0 0.396368 0.315419
0 0.409506 0.441581
0 0.422644 0.567758
0 0.435798 0.693919
0 0.448936 0.820081
0 0.406531 0
0 0.419669 0
0 0.432807 0.0889448
0 0.44596 0.215122
0 0.459098 0.341283
0 0.472236 0.467445
0 0.48539 0.593622
0 0.498527 0.719783
0 0.511681 0.84596
0 0.469276 0
0 0.482414 0
0 0.495552 0.114824
0 0.508705 0.240986
0 0.521843 0.367147
0 0.534981 0.493324
0 0.548135 0.619486
0 0.561273 0.745647
0 0.574426 0.871824
0 0.532006 0
0 0.545159 0.0145113
0 0.558297 0.140688
0 0.57145 0.26685
0.00790417 0.584588 0.393027
0.0350195 0.597726 0.519188
0.0621347 0.61088 0.64535
0.08925 0.624018 0.771527
0.116365 0.637171 0.897688
0.0958724 0.594751 0
0.122988 0.607904 0.0403906
0.150103 0.621042 0.166552
0.177218 0.634195 0.292729
0.204334 0.647334 0.418891
0.231449 0.660471 0.545052
0.258579 0.673625 0.671229
0.285695 0.686763 0.797391
0.31281 0.699916 0.923552
0.292302 0.657496 0
0.319417 0.670649 0.0662547
0.346532 0.683787 0.192416
0.373663 0.696925 0.318593
0.400778 0.710079 0.444755
0.427893 0.723217 0.570932
0.455009 0.73637 0.697093
0.482124 0.749508 0.823255
0.509239 0.762646 0.949432
0.488746 0.720241 0
0.515862 0.733394 0.0921187
0.542977 0.746532 0.218296
0.570092 0.75967 0.344457
0.597208 0.772824 0.470634
0.624323 0.785962 0.596796
0.651438 0.799115 0.722957
0.678569 0.812253 0.849134
0.705684 0.825391 0.975296
0.685176 0.782986 0
0.712291 0.796139 0.117998
0.739406 0.809277 0.24416
0.766522 0.822416 0.370321
0.793652 0.835569 0.496498
0.820768 0.848707 0.62266
0.847883 0.86186 0.748837
0.874998 0.874998 0.874998
0.902113 0.888136 1
0.881621 0.845731 0.0177157
0.908736 0.858885 0.143862
0.935851 0.872023 0.270024
0.962966 0.885161 0.396201
0.990082 0.898314 0.522362
1 0.911452 0.648539
1 0.924605 0.774701
1 0.937743 0.900862
1 0.950881 1
0 0.392905 0
0 0.406043 0
0 0.419181 0.0360418
0 0.432334 0.162219
0 0.445472 0.28838
0 0.458625 0.414557
0 0.471763 0.540719
0 0.484901 0.66688
0 0.498054 0.793057
0 0.455634 0
0 0.468772 0
0 0.481926 0.0619211
0 0.495064 0.188083
0 0.508217 0.314244
0 0.521355 0.440421
0 0.534493 0.566583
0 0.547646 0.692744
0 0.560784 0.818921
0 0.51838 0
0 0.531518 0
0 0.544671 0.0877852
0 0.557809 0.213947
0 0.570962 0.340124
0 0.5841 0.466285
0 0.597238 0.592447
0 0.610391 0.718624
0 0.623529 0.844785
0 0.581125 0
0 0.594263 0
0 0.607416 0.113649
0 0.620554 0.239826
0 0.633707 0.365988
0 0.646845 0.492149
0 0.659983 0.618326
0 0.673136 0.744488
0.0178225 0.686275 0.870649
0 0.64387 0
0.0244297 0.657008 0.0133516
0.051545 0.670161 0.139513
0.0786755 0.683299 0.26569
0.105791 0.696452 0.391852
0.132906 0.70959 0.518029
0.160021 0.722728 0.64419
0.187137 0.735882 0.770352
0.214252 0.74902 0.896529
0.193759 0.706615 0
0.220874 0.719753 0.0392157
0.24799 0.732906 0.165393
0.275105 0.746044 0.291554
0.30222 0.759197 0.417731
0.329335 0.772335 0.543893
0.356451 0.785473 0.670054
0.383581 0.798627 0.796231
0.410697 0.811765 0.922393
0.390188 0.76936 0
0.417304 0.782498 0.065095
0.444419 0.795651 0.191257
0.471534 0.808789 0.317418
0.498665 0.821927 0.443595
0.52578 0.835081 0.569757
0.552895 0.848219 0.695933
0.580011 0.861372 0.822095
0.607126 0.87451 0.948257
0.586633 0.832105 0
0.613748 0.845243 0.090959
0.640864 0.858396 0.217121
0.667979 0.871534 0.343297
0.695094 0.884672 0.469459
0.72221 0.897826 0.595636
0.749325 0.910964 0.721798
0.77644 0.924117 0.847959
0.803571 0.937255 0.974136
0.783062 0.89485 0
0.810178 0.907988 0.116823
0.837293 0.921141 0.243
0.864408 0.934279 0.369162
0.891524 0.947417 0.495323
0.918654 0.960571 0.6215
0.945769 0.973709 0.747662
0.972885 0.986862 0.873838
1 1 1
