public/LUTS/Color Shift/ColorShift_78.cube
TITLE "Generated by Resolve"
LUT_3D_SIZE 33
0 0 0
0.0479591 0 0.019089
0.0959335 0 0.0381933
0.143908 0 0.0572976
0.191882 0 0.0763867
0.239857 0 0.095491
0.287831 0 0.114595
0.335805 0 0.133684
0.383795 0 0.152789
0.431769 0 0.171893
0.479744 0 0.190982
0.527718 0 0.210086
0.575692 0 0.229191
0.623667 0 0.248295
0.671641 0 0.267384
0.719631 0 0.286488
0.767605 0 0.305592
0.815579 0 0.324681
0.863554 0 0.343786
0.911528 0 0.36289
0.959503 0 0.381994
1 0 0.401083
1 0 0.420188
1 0 0.439292
1 0 0.458381
1 0 0.477485
1 0 0.49659
1 0 0.515679
1 0 0.534783
1 0 0.553887
1 0 0.572992
1 0 0.592081
1 0 0.611185
0.0109712 0.031693 0
0.0589151 0.0242161 0
0.106889 0.0167391 0.00907912
0.154879 0.00927749 0.0281682
0.202853 0.00180056 0.0472725
0.250828 0 0.0663767
0.298802 0 0.0854658
0.346777 0 0.10457
0.394751 0 0.123674
0.442725 0 0.142779
0.490715 0 0.161868
0.538689 0 0.180972
0.586664 0 0.200076
0.634638 0 0.219165
0.682612 0 0.23827
0.730587 0 0.257374
0.778561 0 0.276478
0.826535 0 0.295567
0.874525 0 0.314672
0.922499 0 0.333776
0.970474 0 0.352865
1 0 0.371969
1 0 0.391073
1 0 0.410178
1 0 0.429267
1 0 0.448371
1 0 0.467475
1 0 0.486564
1 0 0.505669
1 0 0.524773
1 0 0.543862
1 0 0.562966
1 0 0.582071
0.0219425 0.063386 0
0.0698863 0.0559243 0
0.117876 0.0484474 0
0.16585 0.0409705 0
0.213825 0.0335088 0.018143
0.261799 0.0260319 0.0372473
0.309773 0.018555 0.0563363
0.357748 0.0110781 0.0754406
0.405722 0.00360113 0.0945449
0.453696 0 0.113649
0.501686 0 0.132738
0.549661 0 0.151843
0.597635 0 0.170947
0.645609 0 0.190036
0.693584 0 0.20914
0.741558 0 0.228244
0.789532 0 0.247333
0.837522 0 0.266438
0.885496 0 0.285542
0.933471 0 0.304646
0.981445 0 0.323735
1 0 0.34284
1 0 0.361944
1 0 0.381033
1 0 0.400137
1 0 0.419242
1 0 0.438346
1 0 0.457435
1 0 0.476539
1 0 0.495644
1 0 0.514733
1 0 0.533837
1 0 0.552941
0.0329137 0.0950942 0
0.0808576 0.0876326 0
0.128847 0.0801556 0
0.176822 0.0726787 0
0.224796 0.0652018 0
0.27277 0.0577249 0.0081178
0.320745 0.0502632 0.0272068
0.368719 0.0427863 0.0463111
0.416693 0.0353094 0.0654154
0.464683 0.0278325 0.0845045
0.512657 0.0203708 0.103609
0.560632 0.0128939 0.122713
0.608606 0.00541695 0.141817
0.65658 0 0.160906
0.704555 0 0.180011
0.752529 0 0.199115
0.800504 0 0.218204
0.848493 0 0.237308
0.896468 0 0.256413
0.944442 0 0.275517
0.992416 0 0.294606
1 0 0.31371
1 0 0.332815
1 0 0.351904
1 0 0.371008
1 0 0.390112
1 0 0.409201
1 0 0.428305
1 0 0.44741
1 0 0.466514
1 0 0.485603
1 0 0.504707
1 0 0.523812
0.0438849 0.126802 0
0.0918288 0.119326 0
0.139818 0.111864 0
0.187793 0.104387 0
0.235767 0.09691 0
0.283742 0.0894331 0
0.331716 0.0819562 0
0.37969 0.0744945 0.0171817
0.427665 0.0670176 0.036286
0.475654 0.0595407 0.055375
0.523629 0.0520638 0.0744793
0.571603 0.0446021 0.0935836
0.619577 0.0371252 0.112688
0.667552 0.0296483 0.131777
0.715526 0.0221714 0.150881
0.7635 0.0146944 0.169986
0.81149 0.00723278 0.189075
0.859464 0 0.208179
0.907439 0 0.227283
0.955413 0 0.246372
1 0 0.265476
1 0 0.284581
1 0 0.303685
1 0 0.322774
1 0 0.341878
1 0 0.360983
1 0 0.380072
1 0 0.399176
1 0 0.41828
1 0 0.437385
1 0 0.456474
1 0 0.475578
1 0 0.494682
0.0548562 0.158511 0
0.102815 0.151034 0
0.15079 0.143557 0
0.198764 0.136095 0
0.246738 0.128618 0
0.294713 0.121141 0
0.342687 0.113664 0
0.390661 0.106188 0
0.438636 0.0987259 0.00715648
0.486625 0.091249 0.0262455
0.5346 0.083772 0.0453498
0.582574 0.0762951 0.0644541
0.630549 0.0688182 0.0835431
0.678523 0.0613565 0.102647
0.726497 0.0538796 0.121752
0.774472 0.0464027 0.140856
0.822461 0.0389258 0.159945
0.870436 0.0314641 0.179049
0.91841 0.0239872 0.198154
0.966384 0.0165103 0.217243
1 0.00903334 0.236347
1 0.00155642 0.255451
1 0 0.274556
1 0 0.293645
1 0 0.312749
1 0 0.331853
1 0 0.350942
1 0 0.370047
1 0 0.389151
1 0 0.40824
1 0 0.427344
1 0 0.446448
1 0 0.465553
0.0658274 0.190204 0
0.113787 0.182742 0
0.161761 0.175265 0
0.209735 0.167788 0
0.25771 0.160311 0
0.305684 0.15285 0
0.353658 0.145373 0
0.401633 0.137896 0
0.449622 0.130419 0
0.497597 0.122957 0
0.545571 0.11548 0.0162203
0.593545 0.108003 0.0353246
0.64152 0.100526 0.0544137
0.689494 0.0930495 0.073518
0.737469 0.0855879 0.0926223
0.785443 0.0781109 0.111727
0.833432 0.070634 0.130816
0.881407 0.0631571 0.14992
0.929381 0.0556802 0.169024
0.977356 0.0482185 0.188113
1 0.0407416 0.207218
1 0.0332647 0.226322
1 0.0257877 0.245411
1 0.0183261 0.264515
1 0.0108492 0.283619
1 0.00337224 0.302724
1 0 0.321813
1 0 0.340917
1 0 0.360021
1 0 0.37911
1 0 0.398215
1 0 0.417319
1 0 0.436423
0.0767987 0.221912 0
0.124758 0.21445 0
0.172732 0.206973 0
0.220706 0.199496 0
0.268681 0.19202 0
0.316655 0.184543 0
0.36463 0.177081 0
0.412604 0.169604 0
0.460594 0.162127 0
0.508568 0.15465 0
0.556542 0.147173 0
0.604517 0.139712 0.00619516
0.652491 0.132235 0.0252842
0.700465 0.124758 0.0443885
0.74844 0.117281 0.0634928
0.796429 0.109819 0.0825818
0.844404 0.102342 0.101686
0.892378 0.0948653 0.12079
0.940352 0.0873884 0.139895
0.988327 0.0799115 0.158984
1 0.0724498 0.178088
1 0.0649729 0.197192
1 0.057496 0.216281
1 0.0500191 0.235386
1 0.0425574 0.25449
1 0.0350805 0.273594
1 0.0276036 0.292683
1 0.0201267 0.311788
1 0.0126497 0.330892
1 0.00518807 0.349981
1 0 0.369085
1 0 0.38819
1 0 0.407279
0.0877699 0.25362 0
0.135729 0.246143 0
0.183703 0.238666 0
0.231678 0.231205 0
0.279652 0.223728 0
0.327626 0.216251 0
0.375601 0.208774 0
0.42359 0.201312 0
0.471565 0.193835 0
0.519539 0.186358 0
0.567514 0.178882 0
0.615488 0.171405 0
0.663462 0.163943 0
0.711437 0.156466 0.015259
0.759411 0.148989 0.0343633
0.807401 0.141512 0.0534524
0.855375 0.134035 0.0725567
0.903349 0.126574 0.0916609
0.951324 0.119097 0.11075
0.999298 0.11162 0.129854
1 0.104143 0.148959
1 0.0966812 0.168063
1 0.0892042 0.187152
1 0.0817273 0.206256
1 0.0742504 0.22536
1 0.0667735 0.24445
1 0.0593118 0.263554
1 0.0518349 0.282658
1 0.044358 0.301762
1 0.0368811 0.320851
1 0.0294194 0.339956
1 0.0219425 0.35906
1 0.0144656 0.378149
0.0987411 0.285328 0
0.1467 0.277852 0
0.194675 0.270375 0
0.242649 0.262898 0
0.290623 0.255436 0
0.338598 0.247959 0
0.386572 0.240482 0
0.434562 0.233005 0
0.482536 0.225528 0
0.53051 0.218067 0
0.578485 0.21059 0
0.626459 0.203113 0
0.674434 0.195636 0
0.722408 0.188174 0
0.770397 0.180697 0.00523384
0.818372 0.17322 0.0243229
0.866346 0.165743 0.0434272
0.914321 0.158267 0.0625315
0.962295 0.150805 0.0816205
1 0.143328 0.100725
1 0.135851 0.119829
1 0.128374 0.138933
1 0.120912 0.158022
1 0.113436 0.177127
1 0.105959 0.196231
1 0.0984817 0.21532
1 0.0910048 0.234424
1 0.0835431 0.253529
1 0.0760662 0.272618
1 0.0685893 0.291722
1 0.0611124 0.310826
1 0.0536355 0.329931
1 0.0461738 0.34902
0.109712 0.317021 0
0.157671 0.30956 0
0.205646 0.302083 0
0.25362 0.294606 0
0.301595 0.287129 0
0.349569 0.279667 0
0.397543 0.27219 0
0.445533 0.264714 0
0.493507 0.257237 0
0.541482 0.24976 0
0.589456 0.242298 0
0.63743 0.234821 0
0.685405 0.227344 0
0.733379 0.219867 0
0.781369 0.212406 0
0.829343 0.204929 0
0.877317 0.197452 0.0142977
0.925292 0.189975 0.033402
0.973266 0.182498 0.052491
1 0.175036 0.0715953
1 0.167559 0.0906996
1 0.160082 0.109789
1 0.152605 0.128893
1 0.145129 0.147997
1 0.137667 0.167102
1 0.13019 0.186191
1 0.122713 0.205295
1 0.115236 0.224399
1 0.107774 0.243488
1 0.100298 0.262592
1 0.0928206 0.281697
1 0.0853437 0.300801
1 0.0778668 0.31989
0.120684 0.34873 0
0.168643 0.341253 0
0.216617 0.333791 0
0.264591 0.326314 0
0.312566 0.318837 0
0.36054 0.31136 0
0.40853 0.303883 0
0.456504 0.296422 0
0.504479 0.288945 0
0.552453 0.281468 0
0.600427 0.273991 0
0.648402 0.266529 0
0.696376 0.259052 0
0.744366 0.251575 0
0.79234 0.244099 0
0.840314 0.236622 0
0.888289 0.22916 0
0.936263 0.221683 0.00427253
0.984237 0.214206 0.0233616
1 0.206729 0.0424659
1 0.199268 0.0615702
1 0.191791 0.0806592
1 0.184314 0.0997635
1 0.176837 0.118868
1 0.16936 0.137972
1 0.161898 0.157061
1 0.154421 0.176165
1 0.146944 0.19527
1 0.139467 0.214359
1 0.131991 0.233463
1 0.124529 0.252567
1 0.117052 0.271656
1 0.109575 0.290761
0.131655 0.380438 0
0.179614 0.372961 0
0.227588 0.365484 0
0.275563 0.358022 0
0.323537 0.350545 0
0.371511 0.343069 0
0.419501 0.335592 0
0.467475 0.328115 0
0.51545 0.320653 0
0.563424 0.313176 0
0.611399 0.305699 0
0.659373 0.298222 0
0.707347 0.290761 0
0.755337 0.283284 0
0.803311 0.275807 0
0.851286 0.26833 0
0.89926 0.260853 0
0.947234 0.253391 0
0.995209 0.245914 0
1 0.238437 0.0133364
1 0.230961 0.0324407
1 0.223484 0.0515297
1 0.216022 0.070634
1 0.208545 0.0897383
1 0.201068 0.108827
1 0.193591 0.127932
1 0.18613 0.147036
1 0.178653 0.16614
1 0.171176 0.185229
1 0.163699 0.204334
1 0.156222 0.223438
1 0.14876 0.242527
1 0.141283 0.261631
0.142626 0.412131 0
0.190585 0.404669 0
0.23856 0.397192 0
0.286534 0.389715 0
0.334508 0.382254 0
0.382498 0.374777 0
0.430472 0.3673 0
0.478447 0.359823 0
0.526421 0.352346 0
0.574395 0.344884 0
0.62237 0.337407 0
0.670344 0.329931 0
0.718318 0.322454 0
0.766308 0.314977 0
0.814282 0.307515 0
0.862257 0.300038 0
0.910231 0.292561 0
0.958206 0.285084 0
1 0.277623 0
1 0.270146 0
1 0.262669 0.00331121
1 0.255192 0.0224002
1 0.247715 0.0415045
1 0.240253 0.0606088
1 0.232776 0.0796979
1 0.225299 0.0988022
1 0.217823 0.117906
1 0.210361 0.136995
1 0.202884 0.1561
1 0.195407 0.175204
1 0.18793 0.194308
1 0.180453 0.213397
1 0.172992 0.232502
0.153597 0.443839 0
0.201556 0.436377 0
0.249531 0.428901 0
0.297505 0.421424 0
0.34548 0.413947 0
0.393469 0.40647 0
0.441444 0.399008 0
0.489418 0.391531 0
0.537392 0.384054 0
0.585367 0.376577 0
0.633341 0.369116 0
0.681315 0.361639 0
0.729305 0.354162 0
0.777279 0.346685 0
0.825254 0.339208 0
0.873228 0.331746 0
0.921202 0.324269 0
0.969177 0.316793 0
1 0.309316 0
1 0.301839 0
1 0.294377 0
1 0.2869 0
1 0.279423 0.0123751
1 0.271946 0.0314794
1 0.264485 0.0505684
1 0.257008 0.0696727
1 0.249531 0.088777
1 0.242054 0.107866
1 0.234577 0.12697
1 0.227115 0.146075
1 0.219638 0.165179
1 0.212161 0.184268
1 0.204685 0.203372
0.164569 0.475547 0
0.212528 0.468071 0
0.260502 0.460609 0
0.308476 0.453132 0
0.356466 0.445655 0
0.40444 0.438178 0
0.452415 0.430701 0
0.500389 0.423239 0
0.548363 0.415763 0
0.596338 0.408286 0
0.644312 0.400809 0
0.692287 0.393332 0
0.740276 0.38587 0
0.788251 0.378393 0
0.836225 0.370916 0
0.884199 0.363439 0
0.932174 0.355978 0
0.980148 0.348501 0
1 0.341024 0
1 0.333547 0
1 0.32607 0
1 0.318608 0
1 0.311131 0
1 0.303655 0.00234989
1 0.296178 0.0214389
1 0.288716 0.0405432
1 0.281239 0.0596475
1 0.273762 0.0787366
1 0.266285 0.0978408
1 0.258808 0.116945
1 0.251347 0.136034
1 0.24387 0.155138
1 0.236393 0.174243
0.175555 0.507256 0
0.223499 0.499779 0
0.271473 0.492302 0
0.319448 0.484825 0
0.367437 0.477363 0
0.415412 0.469886 0
0.463386 0.462409 0
0.51136 0.454932 0
0.559335 0.447471 0
0.607309 0.439994 0
0.655283 0.432517 0
0.703273 0.42504 0
0.751247 0.417563 0
0.799222 0.410101 0
0.847196 0.402625 0
0.895171 0.395148 0
0.943145 0.387671 0
0.991119 0.380209 0
1 0.372732 0
1 0.365255 0
1 0.357778 0
1 0.350301 0
1 0.34284 0
1 0.335363 0
1 0.327886 0
1 0.320409 0.0114137
1 0.312932 0.030518
1 0.30547 0.0496071
1 0.297993 0.0687114
1 0.290517 0.0878157
1 0.28304 0.106905
1 0.275578 0.126009
1 0.268101 0.145113
0.186526 0.538949 0
0.23447 0.531487 0
0.282445 0.52401 0
0.330419 0.516533 0
0.378408 0.509056 0
0.426383 0.501595 0
0.474357 0.494118 0
0.522332 0.486641 0
0.570306 0.479164 0
0.61828 0.471687 0
0.666255 0.464225 0
0.714244 0.456748 0
0.762219 0.449271 0
0.810193 0.441794 0
0.858167 0.434333 0
0.906142 0.426856 0
0.954116 0.419379 0
1 0.411902 0
1 0.404425 0
1 0.396963 0
1 0.389487 0
1 0.38201 0
1 0.374533 0
1 0.367071 0
1 0.359594 0
1 0.352117 0
1 0.34464 0.00138857
1 0.337163 0.0204776
1 0.329702 0.0395819
1 0.322225 0.0586862
1 0.314748 0.0777752
1 0.307271 0.0968795
1 0.299794 0.115984
0.197498 0.570657 0
0.245441 0.56318 0
0.293416 0.555718 0
0.341405 0.548241 0
0.38938 0.540764 0
0.437354 0.533288 0
0.485328 0.525826 0
0.533303 0.518349 0
0.581277 0.510872 0
0.629252 0.503395 0
0.677226 0.495918 0
0.725216 0.488457 0
0.77319 0.48098 0
0.821164 0.473503 0
0.869139 0.466026 0
0.917113 0.458564 0
0.965087 0.451087 0
1 0.44361 0
1 0.436133 0
1 0.428656 0
1 0.421195 0
1 0.413718 0
1 0.406241 0
1 0.398764 0
1 0.391287 0
1 0.383825 0
1 0.376349 0
1 0.368872 0
1 0.361395 0.0104524
1 0.353933 0.0295567
1 0.346456 0.0486458
1 0.338979 0.0677501
1 0.331502 0.0868544
0.208469 0.602365 0
0.256413 0.594888 0
0.304387 0.587411 0
0.352377 0.57995 0
0.400351 0.572473 0
0.448325 0.564996 0
0.4963 0.557519 0
0.544274 0.550057 0
0.592248 0.54258 0
0.640223 0.535103 0
0.688212 0.527626 0
0.736187 0.52015 0
0.784161 0.512688 0
0.832135 0.505211 0
0.88011 0.497734 0
0.928084 0.490257 0
0.976059 0.48278 0
1 0.475319 0
1 0.467842 0
1 0.460365 0
1 0.452888 0
1 0.445426 0
1 0.437949 0
1 0.430472 0
1 0.422995 0
1 0.415518 0
1 0.408057 0
1 0.40058 0
1 0.393103 0
1 0.385626 0.000411994
1 0.378164 0.0195163
1 0.370687 0.0386206
1 0.36321 0.0577249
0.21944 0.634058 0
0.267384 0.626596 0
0.315373 0.61912 0
0.363348 0.611643 0
0.411322 0.604181 0
0.459297 0.596704 0
0.507271 0.589227 0
0.555245 0.58175 0
0.60322 0.574273 0
0.651194 0.566812 0
0.699184 0.559335 0
0.747158 0.551858 0
0.795132 0.544381 0
0.843107 0.536919 0
0.891081 0.529442 0
0.939055 0.521965 0
0.98703 0.514488 0
1 0.507012 0
1 0.49955 0
1 0.492073 0
1 0.484596 0
1 0.477119 0
1 0.469642 0
1 0.462181 0
1 0.454704 0
1 0.447227 0
1 0.43975 0
1 0.432288 0
1 0.424811 0
1 0.417334 0
1 0.409857 0
1 0.40238 0.00949111
1 0.394919 0.0285954
0.230411 0.665766 0
0.278355 0.658305 0
0.326345 0.650828 0
0.374319 0.643351 0
0.422293 0.635874 0
0.470268 0.628412 0
0.518242 0.620935 0
0.566217 0.613458 0
0.614191 0.605982 0
0.662181 0.598505 0
0.710155 0.591043 0
0.758129 0.583566 0
0.806104 0.576089 0
0.854078 0.568612 0
0.902052 0.561135 0
0.950027 0.553674 0
0.998001 0.546197 0
1 0.53872 0
1 0.531243 0
1 0.523781 0
1 0.516304 0
1 0.508827 0
1 0.50135 0
1 0.493874 0
1 0.486412 0
1 0.478935 0
1 0.471458 0
1 0.463981 0
1 0.456519 0
1 0.449042 0
1 0.441566 0
1 0.434089 0
1 0.426612 0
0.241382 0.697475 0
0.289326 0.689998 0
0.337316 0.682536 0
0.38529 0.675059 0
0.433265 0.667582 0
0.481239 0.660105 0
0.529213 0.652628 0
0.577188 0.645167 0
0.625162 0.63769 0
0.673152 0.630213 0
0.721126 0.622736 0
0.7691 0.615274 0
0.817075 0.607797 0
0.865049 0.60032 0
0.913024 0.592844 0
0.960998 0.585367 0
1 0.577905 0
1 0.570428 0
1 0.562951 0
1 0.555474 0
1 0.548012 0
1 0.540536 0
1 0.533059 0
1 0.525582 0
1 0.518105 0
1 0.510643 0
1 0.503166 0
1 0.495689 0
1 0.488212 0
1 0.480735 0
1 0.473274 0
1 0.465797 0
1 0.45832 0
0.252354 0.729183 0
0.300313 0.721706 0
0.348287 0.714229 0
0.396262 0.706767 0
0.444236 0.69929 0
0.49221 0.691814 0
0.540185 0.684337 0
0.588159 0.67686 0
0.636149 0.669398 0
0.684123 0.661921 0
0.732097 0.654444 0
0.780072 0.646967 0
0.828046 0.63949 0
0.87602 0.632029 0
0.923995 0.624552 0
0.971969 0.617075 0
1 0.609598 0
1 0.602136 0
1 0.594659 0
1 0.587182 0
1 0.579705 0
1 0.572229 0
1 0.564767 0
1 0.55729 0
1 0.549813 0
1 0.542336 0
1 0.534874 0
1 0.527398 0
1 0.519921 0
1 0.512444 0
1 0.504967 0
1 0.497505 0
1 0.490028 0
0.263325 0.760876 0
0.311284 0.753414 0
0.359258 0.745937 0
0.407233 0.73846 0
0.455207 0.730983 0
0.503182 0.723522 0
0.551156 0.716045 0
0.59913 0.708568 0
0.64712 0.701091 0
0.695094 0.693629 0
0.743069 0.686152 0
0.791043 0.678676 0
0.839017 0.671199 0
0.886992 0.663722 0
0.934966 0.65626 0
0.982956 0.648783 0
1 0.641306 0
1 0.633829 0
1 0.626368 0
1 0.618891 0
1 0.611414 0
1 0.603937 0
1 0.59646 0
1 0.588998 0
1 0.581521 0
1 0.574044 0
1 0.566567 0
1 0.559091 0
1 0.551629 0
1 0.544152 0
1 0.536675 0
1 0.529198 0
1 0.521737 0
0.274296 0.792584 0
0.322255 0.785122 0
0.37023 0.777646 0
0.418204 0.770169 0
0.466178 0.762692 0
0.514153 0.755215 0
0.562127 0.747753 0
0.610101 0.740276 0
0.658091 0.732799 0
0.706065 0.725322 0
0.75404 0.717861 0
0.802014 0.710384 0
0.849989 0.702907 0
0.897963 0.69543 0
0.945937 0.687953 0
0.993927 0.680491 0
1 0.673014 0
1 0.665537 0
1 0.658061 0
1 0.650584 0
1 0.643122 0
1 0.635645 0
1 0.628168 0
1 0.620691 0
1 0.61323 0
1 0.605753 0
1 0.598276 0
1 0.590799 0
1 0.583322 0
1 0.57586 0
1 0.568383 0
1 0.560906 0
1 0.553429 0
0.285267 0.824292 0
0.333227 0.816815 0
0.381201 0.809354 0
0.429175 0.801877 0
0.47715 0.7944 0
0.525124 0.786923 0
0.573098 0.779446 0
0.621088 0.771984 0
0.669062 0.764508 0
0.717037 0.757031 0
0.765011 0.749554 0
0.812985 0.742077 0
0.86096 0.734615 0
0.908934 0.727138 0
0.956909 0.719661 0
1 0.712184 0
1 0.704723 0
1 0.697246 0
1 0.689769 0
1 0.682292 0
1 0.674815 0
1 0.667353 0
1 0.659876 0
1 0.652399 0
1 0.644923 0
1 0.637446 0
1 0.629984 0
1 0.622507 0
1 0.61503 0
1 0.607553 0
1 0.600092 0
1 0.592615 0
1 0.585138 0
0.296239 0.856001 0
0.344198 0.848524 0
0.392172 0.841047 0
0.440146 0.83357 0
0.488121 0.826108 0
0.536095 0.818631 0
0.58407 0.811154 0
0.632059 0.803677 0
0.680034 0.796216 0
