public/LUTS/Color Shift/ColorShift_63.cube
TITLE "Generated by Resolve"
LUT_3D_SIZE 5
0 0 0
0.049546 0.0970626 0
0.0991073 0.194125 0
0.148653 0.291188 0
0.198199 0.388235 0
0 0.259159 0.384527
0 0.356222 0.0973373
0 0.453285 0
0 0.550347 0
0.00283818 0.64741 0
0 0.518334 0.769085
0 0.615396 0.48188
0 0.712459 0.194659
0 0.809522 0
0 0.906584 0
0 0.777508 1
0 0.874571 0.866438
0 0.971633 0.579217
0 1 0.291997
0 1 0.00479133
0 1 1
0 1 1
0 1 0.963775
0 1 0.676555
0 1 0.389334
0.395804 0 0.152651
0.44535 0 0
0.494911 0.087892 0
0.544457 0.184955 0
0.594003 0.282017 0
0.200443 0.152926 0.537194
0.249989 0.249989 0.249989
0.299535 0.347051 0
0.349096 0.444114 0
0.398642 0.541176 0
0.005066 0.412116 0.921736
0.054612 0.509163 0.634546
0.104173 0.606226 0.347326
0.153719 0.703288 0.0601053
0.203265 0.800351 0
0 0.67129 1
0 0.768338 1
0 0.8654 0.731884
0 0.962463 0.444663
0.00788891 1 0.157443
0 0.930465 1
0 1 1
0 1 1
0 1 0.829221
0 1 0.542
0.791623 0 0.305333
0.841184 0 0.0181277
0.89073 0 0
0.940276 0.0787213 0
0.989837 0.175784 0
0.596262 0.0466926 0.68986
0.645808 0.143755 0.402655
0.695369 0.240818 0.115434
0.744915 0.337881 0
0.794476 0.434943 0
0.400885 0.305867 1
0.450446 0.40293 0.787213
0.499992 0.499992 0.499992
0.549538 0.597055 0.212772
0.5991 0.694118 0
0.205509 0.565057 1
0.25507 0.662104 1
0.304616 0.759167 0.88455
0.354177 0.856229 0.59733
0.403723 0.953292 0.310109
0.0101472 0.824231 1
0.0596933 0.921279 1
0.109239 1 1
0.158801 1 0.981888
0.208347 1 0.694667
1 0 0.458
1 0 0.170794
1 0 0
1 0 0
1 0.0695506 0
0.992096 0 0.842527
1 0.0375219 0.555322
1 0.134585 0.268101
1 0.231647 0
1 0.32871 0
0.796719 0.199634 1
0.846265 0.296696 0.939879
0.895811 0.393759 0.652659
0.945373 0.490822 0.365438
0.994919 0.587884 0.0782177
0.601343 0.458824 1
0.650889 0.555871 1
0.70045 0.652934 1
0.749996 0.749996 0.749996
0.799542 0.847059 0.462776
0.405966 0.717998 1
0.455512 0.815045 1
0.505074 0.912108 1
0.55462 1 1
0.604181 1 0.847333
1 0 0.610666
1 0 0.323461
1 0 0.0362402
1 0 0
1 0 0
1 0 0.995193
1 0 0.707988
1 0.0283513 0.420768
1 0.125414 0.133562
1 0.222477 0
1 0.0934005 1
1 0.190463 1
1 0.287526 0.805325
1 0.384588 0.518105
1 0.481651 0.2309
0.997162 0.352575 1
1 0.449638 1
1 0.5467 1
1 0.643763 0.902663
1 0.740826 0.615442
0.801801 0.611765 1
0.851347 0.708812 1
0.900893 0.805875 1
0.950454 0.902937 1
1 1 1
