public/LUTS/Color Shift/ColorShift_14.cube
TITLE "Generated by Resolve"
LUT_3D_SIZE 33
0 0 0
0.00314336 0.0107576 0
0.00628672 0.0215305 0
0.00943008 0.0323033 0
0.0125887 0.043061 0
0.0157321 0.0538338 0
0.0188754 0.0646067 0
0.0220188 0.0753643 0
0.0251621 0.0861372 0
0.0283055 0.09691 0
0.0314641 0.107668 0
0.0346075 0.118441 0
0.0377508 0.129213 0
0.0408942 0.139971 0
0.0440375 0.150744 0
0.0471809 0.161517 0
0.0503395 0.17229 0
0.0534829 0.183047 0
0.0566262 0.19382 0
0.0597696 0.204593 0
0.0629129 0.215351 0
0.0660563 0.226123 0
0.0692149 0.236896 0
0.0723583 0.247654 0
0.0755016 0.258427 0
0.078645 0.2692 0
0.0817884 0.279957 0
0.084947 0.29073 0
0.0880903 0.301503 0
0.0912337 0.312261 0
0.094377 0.323033 0
0.0975204 0.333806 0
0.100664 0.344564 0
0 0.0269932 0.0404669
0 0.0377508 0.0223087
0.00309758 0.0485237 0.0041352
0.0062562 0.0592813 0
0.00939956 0.0700542 0
0.0125429 0.080827 0
0.0156863 0.0915847 0
0.0188296 0.102358 0
0.021973 0.11313 0
0.0251316 0.123888 0
0.028275 0.134661 0
0.0314183 0.145434 0
0.0345617 0.156207 0
0.037705 0.166964 0
0.0408484 0.177737 0
0.044007 0.18851 0
0.0471504 0.199268 0
0.0502937 0.21004 0
0.0534371 0.220813 0
0.0565805 0.231571 0
0.0597238 0.242344 0
0.0628824 0.253117 0
0.0660258 0.263874 0
0.0691691 0.274647 0
0.0723125 0.28542 0
0.0754559 0.296178 0
0.0785992 0.30695 0
0.0817578 0.317723 0
0.0849012 0.328481 0
0.0880446 0.339254 0
0.0911879 0.350027 0
0.0943313 0.360784 0
0.0974746 0.371557 0
0 0.0539864 0.0809644
0 0.0647593 0.0627909
0 0.0755169 0.0446174
0.0030518 0.0862898 0.0264439
0.00621042 0.0970626 0.00827039
0.00935378 0.10782 0
0.0124971 0.118593 0
0.0156405 0.129366 0
0.0187839 0.140124 0
0.0219425 0.150896 0
0.0250858 0.161669 0
0.0282292 0.172427 0
0.0313726 0.1832 0
0.0345159 0.193973 0
0.0376593 0.20473 0
0.0408179 0.215503 0
0.0439612 0.226276 0
0.0471046 0.237034 0
0.050248 0.247807 0
0.0533913 0.258579 0
0.0565347 0.269352 0
0.0596933 0.28011 0
0.0628367 0.290883 0
0.06598 0.301656 0
0.0691234 0.312413 0
0.0722667 0.323186 0
0.0754101 0.333959 0
0.0785687 0.344717 0
0.0817121 0.355489 0
0.0848554 0.366262 0
0.0879988 0.37702 0
0.0911421 0.387793 0
0.0942855 0.398566 0
0 0.0809949 0.121447
0 0.0917525 0.103273
0 0.102525 0.0850996
0 0.113298 0.0669261
0.00302129 0.124056 0.0487526
0.00616464 0.134829 0.0305791
0.009308 0.145602 0.0124056
0.0124514 0.156359 0
0.0155947 0.167132 0
0.0187533 0.177905 0
0.0218967 0.188663 0
0.0250401 0.199435 0
0.0281834 0.210208 0
0.0313268 0.220966 0
0.0344701 0.231739 0
0.0376287 0.242512 0
0.0407721 0.253269 0
0.0439155 0.264042 0
0.0470588 0.274815 0
0.0502022 0.285573 0
0.0533455 0.296345 0
0.0565042 0.307118 0
0.0596475 0.317876 0
0.0627909 0.328649 0
0.0659342 0.339422 0
0.0690776 0.350179 0
0.072221 0.360952 0
0.0753796 0.371725 0
0.0785229 0.382483 0
0.0816663 0.393256 0
0.0848096 0.404028 0
0.087953 0.414801 0
0.0910964 0.425559 0
0 0.107988 0.161929
0 0.118761 0.143771
0 0.129519 0.125597
0 0.140291 0.107424
0 0.151064 0.08925
0.00297551 0.161822 0.0710765
0.00611887 0.172595 0.052903
0.00926223 0.183368 0.0347295
0.0124056 0.194125 0.0165408
0.0155489 0.204898 0
0.0187076 0.215671 0
0.0218509 0.226444 0
0.0249943 0.237201 0
0.0281376 0.247974 0
0.031281 0.258747 0
0.0344396 0.269505 0
0.037583 0.280278 0
0.0407263 0.291051 0
0.0438697 0.301808 0
0.047013 0.312581 0
0.0501564 0.323354 0
0.053315 0.334112 0
0.0564584 0.344884 0
0.0596017 0.355657 0
0.0627451 0.366415 0
0.0658885 0.377188 0
0.0690318 0.387961 0
0.0721904 0.398718 0
0.0753338 0.409491 0
0.0784772 0.420264 0
0.0816205 0.431022 0
0.0847639 0.441794 0
0.0879072 0.452567 0
0 0.134997 0.202426
0 0.145754 0.184253
0 0.156527 0.166079
0 0.1673 0.147906
0 0.178058 0.129732
0 0.18883 0.111559
0.00292973 0.199603 0.0933852
0.00607309 0.210361 0.0752117
0.00921645 0.221134 0.0570382
0.0123598 0.231907 0.0388647
0.0155184 0.242664 0.0206912
0.0186618 0.253437 0.00251774
0.0218051 0.26421 0
0.0249485 0.274968 0
0.0280919 0.28574 0
0.0312505 0.296513 0
0.0343938 0.307271 0
0.0375372 0.318044 0
0.0406806 0.328817 0
0.0438239 0.33959 0
0.0469673 0.350347 0
0.0501259 0.36112 0
0.0532692 0.371893 0
0.0564126 0.38265 0
0.059556 0.393423 0
0.0626993 0.404196 0
0.0658427 0.414954 0
0.0690013 0.425727 0
0.0721447 0.4365 0
0.075288 0.447257 0
0.0784314 0.45803 0
0.0815747 0.468803 0
0.0847181 0.479561 0
0 0.162005 0.242908
0 0.172763 0.22475
0 0.183536 0.206577
0 0.194293 0.188403
0 0.205066 0.17023
0 0.215839 0.152041
0 0.226596 0.133867
0.00288396 0.237369 0.115694
0.00602731 0.248142 0.0975204
0.00917067 0.2589 0.0793469
0.0123293 0.269673 0.0611734
0.0154726 0.280446 0.0429999
0.018616 0.291203 0.0248264
0.0217594 0.301976 0.00665293
0.0249027 0.312749 0
0.0280461 0.323507 0
0.0312047 0.334279 0
0.0343481 0.345052 0
0.0374914 0.35581 0
0.0406348 0.366583 0
0.0437781 0.377356 0
0.0469368 0.388113 0
0.0500801 0.398886 0
0.0532235 0.409659 0
0.0563668 0.420417 0
0.0595102 0.431189 0
0.0626535 0.441962 0
0.0658122 0.452735 0
0.0689555 0.463493 0
0.0720989 0.474266 0
0.0752422 0.485039 0
0.0783856 0.495796 0
0.081529 0.506569 0
0 0.188998 0.283406
0 0.199756 0.265232
0 0.210529 0.247059
0 0.221302 0.228885
0 0.232059 0.210712
0 0.242832 0.192538
0 0.253605 0.174365
0 0.264363 0.156191
0.00283818 0.275135 0.138018
0.00598154 0.285908 0.119844
0.00914015 0.296681 0.101671
0.0122835 0.307439 0.0834974
0.0154269 0.318212 0.0653086
0.0185702 0.328984 0.0471351
0.0217136 0.339742 0.0289616
0.0248569 0.350515 0.0107881
0.0280156 0.361288 0
0.0311589 0.372045 0
0.0343023 0.382818 0
0.0374456 0.393591 0
0.040589 0.404349 0
0.0437476 0.415122 0
0.046891 0.425895 0
0.0500343 0.436652 0
0.0531777 0.447425 0
0.0563211 0.458198 0
0.0594644 0.468956 0
0.062623 0.479728 0
0.0657664 0.490501 0
0.0689097 0.501259 0
0.0720531 0.512032 0
0.0751965 0.522805 0
0.0783398 0.533562 0
0 0.216007 0.323888
0 0.226764 0.30573
0 0.237537 0.287541
0 0.248295 0.269368
0 0.259068 0.251194
0 0.269841 0.233021
0 0.280598 0.214847
0 0.291371 0.196674
0 0.302144 0.1785
0.0027924 0.312901 0.160327
0.00595102 0.323674 0.142153
0.00909438 0.334447 0.12398
0.0122377 0.345205 0.105806
0.0153811 0.355978 0.0876326
0.0185245 0.366751 0.0694591
0.0216678 0.377508 0.0512856
0.0248264 0.388281 0.0331121
0.0279698 0.399054 0.0149386
0.0311131 0.409827 0
0.0342565 0.420584 0
0.0373999 0.431357 0
0.0405432 0.44213 0
0.0437018 0.452888 0
0.0468452 0.463661 0
0.0499886 0.474434 0
0.0531319 0.485191 0
0.0562753 0.495964 0
0.0594339 0.506737 0
0.0625772 0.517494 0
0.0657206 0.528267 0
0.068864 0.53904 0
0.0720073 0.549798 0
0.0751507 0.560571 0
0 0.243 0.36437
0 0.253773 0.346212
0 0.26453 0.328038
0 0.275303 0.309865
0 0.286076 0.291691
0 0.296834 0.273518
0 0.307607 0.255344
0 0.318379 0.237171
0 0.329137 0.218997
0 0.33991 0.200809
0.00276188 0.350683 0.182635
0.00590524 0.36144 0.164462
0.0090486 0.372213 0.146288
0.012192 0.382986 0.128115
0.0153353 0.393744 0.109941
0.0184787 0.404517 0.0917678
0.0216373 0.41529 0.0735943
0.0247807 0.426047 0.0554208
0.027924 0.43682 0.0372473
0.0310674 0.447593 0.0190738
0.0342107 0.458351 0.000900282
0.0373541 0.469123 0
0.0405127 0.479896 0
0.0436561 0.490654 0
0.0467994 0.501427 0
0.0499428 0.5122 0
0.0530861 0.522972 0
0.0562448 0.53373 0
0.0593881 0.544503 0
0.0625315 0.555276 0
0.0656748 0.566033 0
0.0688182 0.576806 0
0.0719615 0.587579 0
0 0.270008 0.404868
0 0.280766 0.386694
0 0.291539 0.368521
0 0.302296 0.350347
0 0.313069 0.332174
0 0.323842 0.314
0 0.3346 0.295827
0 0.345373 0.277653
0 0.356146 0.25948
0 0.366918 0.241306
0 0.377676 0.223133
0.00271611 0.388449 0.204959
0.00585946 0.399222 0.186786
0.00900282 0.409979 0.168612
0.0121462 0.420752 0.150439
0.0152895 0.431525 0.132265
0.0184482 0.442283 0.114076
0.0215915 0.453056 0.0959029
0.0247349 0.463828 0.0777295
0.0278782 0.474586 0.059556
0.0310216 0.485359 0.0413825
0.034165 0.496132 0.023209
0.0373236 0.506889 0.00503548
0.0404669 0.517662 0
0.0436103 0.528435 0
0.0467536 0.539193 0
0.049897 0.549966 0
0.0530404 0.560739 0
0.056199 0.571496 0
0.0593423 0.582269 0
0.0624857 0.593042 0
0.0656291 0.6038 0
0.0687724 0.614572 0
0 0.297002 0.44535
0 0.307774 0.427192
0 0.318532 0.409018
0 0.329305 0.390845
0 0.340078 0.372671
0 0.350835 0.354498
0 0.361608 0.336309
0 0.372381 0.318135
0 0.383139 0.299962
0 0.393912 0.281788
0 0.404685 0.263615
0 0.415442 0.245441
0.00267033 0.426215 0.227268
0.00581369 0.436988 0.209094
0.00895705 0.447745 0.190921
0.0121004 0.458518 0.172747
0.015259 0.469291 0.154574
0.0184024 0.480064 0.1364
0.0215457 0.490822 0.118227
0.0246891 0.501595 0.100053
0.0278325 0.512367 0.0818799
0.0309758 0.523125 0.0637064
0.0341344 0.533898 0.0455329
0.0372778 0.544671 0.0273594
0.0404212 0.555428 0.00917067
0.0435645 0.566201 0
0.0467079 0.576974 0
0.0498512 0.587732 0
0.0530098 0.598505 0
0.0561532 0.609277 0
0.0592966 0.620035 0
0.0624399 0.630808 0
0.0655833 0.641581 0
0 0.32401 0.485847
0 0.334768 0.467674
0 0.345541 0.4495
0 0.356313 0.431327
0 0.367071 0.413153
0 0.377844 0.39498
0 0.388617 0.376806
0 0.399374 0.358633
0 0.410147 0.340459
0 0.42092 0.322286
0 0.431678 0.304112
0 0.442451 0.285939
0 0.453223 0.267765
0.00262455 0.463981 0.249577
0.00576791 0.474754 0.231403
0.00891127 0.485527 0.21323
0.0120699 0.496284 0.195056
0.0152132 0.507057 0.176883
0.0183566 0.51783 0.158709
0.0215 0.528588 0.140536
0.0246433 0.539361 0.122362
0.0277867 0.550134 0.104189
0.0309453 0.560891 0.0860151
0.0340887 0.571664 0.0678416
0.037232 0.582437 0.0496681
0.0403754 0.59321 0.0314946
0.0435187 0.603967 0.0133211
0.0466621 0.61474 0
0.0498207 0.625513 0
0.0529641 0.636271 0
0.0561074 0.647044 0
0.0592508 0.657816 0
0.0623941 0.668574 0
0 0.351003 0.526329
0 0.361776 0.508171
0 0.372534 0.489998
0 0.383307 0.471809
0 0.39408 0.453635
0 0.404852 0.435462
0 0.41561 0.417288
0 0.426383 0.399115
0 0.437156 0.380941
0 0.447913 0.362768
0 0.458686 0.344594
0 0.469459 0.326421
0 0.480217 0.308248
0 0.49099 0.290074
0.00257877 0.501762 0.271901
0.00572213 0.51252 0.253727
0.00888075 0.523293 0.235554
0.0120241 0.534066 0.21738
0.0151675 0.544823 0.199207
0.0183108 0.555596 0.181033
0.0214542 0.566369 0.16286
0.0245975 0.577127 0.144671
0.0277562 0.5879 0.126497
0.0308995 0.598672 0.108324
0.0340429 0.60943 0.0901503
0.0371862 0.620203 0.0719768
0.0403296 0.630976 0.0538033
0.043473 0.641733 0.0356298
0.0466316 0.652506 0.0174563
0.0497749 0.663279 0
0.0529183 0.674037 0
0.0560616 0.68481 0
0.059205 0.695583 0
0 0.378012 0.566812
0 0.388769 0.548653
0 0.399542 0.53048
0 0.410315 0.512306
0 0.421073 0.494133
0 0.431846 0.475959
0 0.442618 0.457786
0 0.453376 0.439612
0 0.464149 0.421439
0 0.474922 0.403265
0 0.485679 0.385077
0 0.496452 0.366903
0 0.507225 0.34873
0 0.517983 0.330556
0 0.528756 0.312383
0.002533 0.539528 0.294209
0.00569162 0.550301 0.276036
0.00883497 0.561059 0.257862
0.0119783 0.571832 0.239689
0.0151217 0.582605 0.221515
0.018265 0.593362 0.203342
0.0214084 0.604135 0.185168
0.024567 0.614908 0.166995
0.0277104 0.625666 0.148821
0.0308537 0.636439 0.130648
0.0339971 0.647211 0.112474
0.0371405 0.657969 0.0943008
0.0402838 0.668742 0.0761273
0.0434424 0.679515 0.0579385
0.0465858 0.690272 0.039765
0.0497292 0.701045 0.0215915
0.0528725 0.711818 0.00341802
0.0560159 0.722576 0
0 0.40502 0.607309
0 0.415778 0.589136
0 0.426551 0.570962
0 0.437308 0.552789
0 0.448081 0.534615
0 0.458854 0.516442
0 0.469612 0.498268
0 0.480385 0.480095
0 0.491157 0.461921
0 0.501915 0.443748
0 0.512688 0.425574
0 0.523461 0.407401
0 0.534218 0.389227
0 0.544991 0.371054
0 0.555764 0.35288
0 0.566522 0.334707
0.00250248 0.577295 0.316533
0.00564584 0.588067 0.298344
0.0087892 0.598825 0.280171
0.0119326 0.609598 0.261997
0.0150759 0.620371 0.243824
0.0182193 0.631128 0.22565
0.0213779 0.641901 0.207477
0.0245212 0.652674 0.189303
0.0276646 0.663447 0.17113
0.030808 0.674205 0.152956
0.0339513 0.684977 0.134783
0.0370947 0.69575 0.116609
0.0402533 0.706508 0.098436
0.0433967 0.717281 0.0802625
0.04654 0.728054 0.062089
0.0496834 0.738811 0.0439155
0.0528267 0.749584 0.025742
0 0.432013 0.647791
0 0.442771 0.629633
0 0.453544 0.61146
0 0.464317 0.593286
0 0.47509 0.575113
0 0.485847 0.556939
0 0.49662 0.538766
0 0.507393 0.520577
0 0.518151 0.502403
0 0.528923 0.48423
0 0.539696 0.466056
0 0.550454 0.447883
0 0.561227 0.429709
0 0.572 0.411536
0 0.582757 0.393362
0 0.59353 0.375189
0 0.604303 0.357015
0.0024567 0.615061 0.338842
0.00560006 0.625834 0.320668
0.00874342 0.636606 0.302495
0.0118868 0.647364 0.284321
0.0150301 0.658137 0.266148
0.0181888 0.66891 0.247974
0.0213321 0.679667 0.229801
0.0244755 0.69044 0.211627
0.0276188 0.701213 0.193439
0.0307622 0.711971 0.175265
0.0339055 0.722744 0.157092
0.0370642 0.733516 0.138918
0.0402075 0.744274 0.120745
0.0433509 0.755047 0.102571
0.0464942 0.76582 0.0843977
0.0496376 0.776593 0.0662242
0 0.459022 0.688289
0 0.46978 0.670115
0 0.480552 0.651942
0 0.49131 0.633768
0 0.502083 0.615595
0 0.512856 0.597421
0 0.523613 0.579248
0 0.534386 0.561074
0 0.545159 0.542901
0 0.555917 0.524727
0 0.56669 0.506554
0 0.577462 0.48838
0 0.588235 0.470207
0 0.598993 0.452033
0 0.609766 0.433845
0 0.620539 0.415671
0 0.631296 0.397498
0 0.642069 0.379324
0.00241093 0.652842 0.361151
0.00555428 0.6636 0.342977
0.00869764 0.674372 0.324804
0.011841 0.685145 0.30663
0.0149996 0.695903 0.288457
0.018143 0.706676 0.270283
0.0212863 0.717449 0.25211
0.0244297 0.728206 0.233936
0.0275731 0.738979 0.215763
0.0307164 0.749752 0.197589
0.033875 0.76051 0.179416
0.0370184 0.771282 0.161242
0.0401617 0.782055 0.143069
0.0433051 0.792813 0.124895
0.0464485 0.803586 0.106706
0 0.486015 0.728771
0 0.496788 0.710613
0 0.507546 0.692439
0 0.518318 0.674266
0 0.529091 0.656077
0 0.539849 0.637903
0 0.550622 0.61973
0 0.561395 0.601556
0 0.572152 0.583383
0 0.582925 0.565209
0 0.593698 0.547036
0 0.604456 0.528862
0 0.615228 0.510689
0 0.626001 0.492515
0 0.636759 0.474342
0 0.647532 0.456168
0 0.658305 0.437995
0 0.669062 0.419821
0 0.679835 0.401648
0.00236515 0.690608 0.383474
0.00550851 0.701381 0.365301
0.00865187 0.712139 0.347127
0.0118105 0.722911 0.328939
0.0149538 0.733684 0.310765
0.0180972 0.744442 0.292592
0.0212406 0.755215 0.274418
0.0243839 0.765988 0.256245
0.0275273 0.776745 0.238071
0.0306859 0.787518 0.219898
0.0338293 0.798291 0.201724
0.0369726 0.809049 0.183551
0.040116 0.819821 0.165377
0.0432593 0.830594 0.147204
0 0.513024 0.769268
0 0.523781 0.751095
0 0.534554 0.732921
0 0.545327 0.714748
0 0.556085 0.696574
0 0.566857 0.678401
0 0.57763 0.660227
0 0.588388 0.642054
0 0.599161 0.62388
0 0.609934 0.605707
0 0.620691 0.587533
0 0.631464 0.569345
0 0.642237 0.551171
0 0.652995 0.532998
0 0.663767 0.514824
0 0.67454 0.496651
0 0.685298 0.478477
0 0.696071 0.460304
0 0.706844 0.44213
0 0.717601 0.423957
0.00231937 0.728374 0.405783
0.00546273 0.739147 0.38761
0.00862135 0.749905 0.369436
0.0117647 0.760678 0.351263
0.0149081 0.77145 0.333089
0.0180514 0.782208 0.314916
0.0211948 0.792981 0.296742
0.0243381 0.803754 0.278569
0.0274968 0.814511 0.260395
0.0306401 0.825284 0.242206
0.0337835 0.836057 0.224033
0.0369268 0.84683 0.205859
0.0400702 0.857588 0.187686
0 0.540017 0.80975
0 0.55079 0.791577
0 0.561547 0.773404
0 0.57232 0.75523
0 0.583093 0.737057
0 0.593851 0.718883
0 0.604623 0.70071
0 0.615396 0.682536
0 0.626154 0.664363
0 0.636927 0.646189
0 0.6477 0.628016
0 0.658473 0.609842
0 0.66923 0.591669
0 0.680003 0.573495
0 0.690776 0.555322
0 0.701534 0.537148
0 0.712306 0.518975
0 0.723079 0.500801
0 0.733837 0.482612
0 0.74461 0.464439
0 0.755383 0.446265
0.00227359 0.76614 0.428092
0.00543221 0.776913 0.409918
0.00857557 0.787686 0.391745
0.0117189 0.798444 0.373571
0.0148623 0.809216 0.355398
0.0180056 0.819989 0.337224
0.021149 0.830747 0.319051
0.0243076 0.84152 0.300877
0.027451 0.852293 0.282704
0.0305943 0.86305 0.26453
0.0337377 0.873823 0.246357
0.0368811 0.884596 0.228183
0 0.567025 0.850233
0 0.577783 0.832074
0 0.588556 0.813901
0 0.599329 0.795727
0 0.610086 0.777554
0 0.620859 0.75938
0 0.631632 0.741207
0 0.64239 0.723033
0 0.653162 0.704845
0 0.663935 0.686671
0 0.674693 0.668498
0 0.685466 0.650324
0 0.696239 0.632151
0 0.706996 0.613977
0 0.717769 0.595804
0 0.728542 0.57763
0 0.7393 0.559457
0 0.750072 0.541283
0 0.760845 0.52311
0 0.771618 0.504936
0 0.782376 0.486763
0 0.793149 0.468589
0.00224308 0.803922 0.450416
0.00538643 0.814679 0.432242
0.00852979 0.825452 0.414069
0.0116732 0.836225 0.395895
0.0148165 0.846983 0.377707
0.0179599 0.857755 0.359533
0.0211185 0.868528 0.34136
0.0242618 0.879286 0.323186
0.0274052 0.890059 0.305013
0.0305486 0.900832 0.286839
0.0336919 0.911589 0.268666
0 0.594034 0.89073
0 0.604791 0.872557
0 0.615564 0.854383
0 0.626322 0.83621
0 0.637095 0.818036
0 0.647868 0.799863
0 0.658625 0.781689
0 0.669398 0.763516
0 0.680171 0.745342
0 0.690929 0.727169
0 0.701701 0.708995
0 0.712474 0.690822
0 0.723232 0.672648
0 0.734005 0.654475
0 0.744778 0.636301
0 0.755535 0.618112
0 0.766308 0.599939
0 0.777081 0.581765
0 0.787839 0.563592
0 0.798611 0.545419
0 0.809384 0.527245
0 0.820142 0.509071
0 0.830915 0.490898
0.0021973 0.841688 0.472724
0.00534066 0.852445 0.454551
0.00848402 0.863218 0.436377
0.0116274 0.873991 0.418204
0.0147707 0.884764 0.400031
0.0179294 0.895521 0.381857
0.0210727 0.906294 0.363684
0.0242161 0.917067 0.34551
0.0273594 0.927825 0.327337
0.0305028 0.938598 0.309163
0 0.621027 0.931212
0 0.631785 0.913054
0 0.642557 0.894881
0 0.65333 0.876707
0 0.664088 0.858534
0 0.674861 0.840345
0 0.685634 0.822171
0 0.696391 0.803998
0 0.707164 0.785824
0 0.717937 0.767651
0 0.72871 0.749477
0 0.739467 0.731304
0 0.75024 0.71313
0 0.761013 0.694957
0 0.771771 0.676783
0 0.782544 0.65861
0 0.793317 0.640436
0 0.804074 0.622263
0 0.814847 0.604089
0 0.82562 0.585916
0 0.836378 0.567742
0 0.84715 0.549569
0 0.857923 0.531395
0 0.868681 0.513207
0.00215152 0.879454 0.495033
0.00529488 0.890227 0.47686
0.00843824 0.900984 0.458686
0.0115816 0.911757 0.440513
0.0147402 0.92253 0.422339
0.0178836 0.933288 0.404166
0.0210269 0.94406 0.385992
0.0241703 0.954833 0.367819
0.0273136 0.965591 0.349645
0 0.648035 0.97171
0 0.658793 0.953536
0 0.669566 0.935363
0 0.680323 0.917189
0 0.691096 0.899016
0 0.701869 0.880842
0 0.712627 0.862669
0 0.7234 0.844495
0 0.734173 0.826322
0 0.74493 0.808148
0 0.755703 0.789975
0 0.766476 0.771801
0 0.777234 0.753613
0 0.788006 0.735439
0 0.798779 0.717266
0 0.809537 0.699092
0 0.82031 0.680919
0 0.831083 0.662745
0 0.841856 0.644572
0 0.852613 0.626398
0 0.863386 0.608225
0 0.874159 0.590051
0 0.884916 0.571878
0 0.895689 0.553704
0 0.906462 0.535531
0.00210575 0.91722 0.517357
0.0052491 0.927993 0.499184
0.00839246 0.938766 0.48101
0.0115511 0.949523 0.462837
0.0146944 0.960296 0.444663
0.0178378 0.971069 0.426474
0.0209812 0.981826 0.408301
0.0241245 0.992599 0.390127
0 0.675029 1
0 0.685802 0.994034
0 0.696559 0.975845
0 0.707332 0.957671
0 0.718105 0.939498
0 0.728862 0.921324
0 0.739635 0.903151
0 0.750408 0.884978
0 0.761166 0.866804
0 0.771939 0.84863
0 0.782712 0.830457
0 0.793469 0.812284
0 0.804242 0.79411
0 0.815015 0.775937
0 0.825772 0.757763
0 0.836545 0.73959
0 0.847318 0.721416
0 0.858076 0.703243
0 0.868849 0.685069
0 0.879622 0.66688
0 0.890379 0.648707
0 0.901152 0.630533
0 0.911925 0.61236
0 0.922683 0.594186
0 0.933455 0.576013
0 0.944228 0.557839
0.00205997 0.955001 0.539666
0.00520333 0.965759 0.521492
0.00836194 0.976532 0.503319
0.0115053 0.987305 0.485145
0.0146487 0.998062 0.466972
0.017792 1 0.448798
0.0209354 1 0.430625
0 0.702037 1
0 0.712795 1
0 0.723568 1
0 0.734325 0.998169
0 0.745098 0.979995
0 0.755871 0.961822
0 0.766629 0.943648
0 0.777401 0.925475
0 0.788174 0.907301
0 0.798947 0.889113
0 0.809705 0.870939
0 0.820478 0.852766
0 0.83125 0.834592
0 0.842008 0.816419
0 0.852781 0.798245
0 0.863554 0.780072
0 0.874311 0.761898
0 0.885084 0.743725
0 0.895857 0.725551
0 0.906615 0.707378
0 0.917388 0.689204
0 0.928161 0.671031
0 0.938918 0.652857
0 0.949691 0.634684
0 0.960464 0.61651
0 0.971222 0.598337
0 0.981994 0.580163
0.00201419 0.992767 0.561975
0.00517281 1 0.543801
0.00831617 1 0.525628
0.0114595 1 0.507454
0.0146029 1 0.489281
0.0177462 1 0.471107
0 0.72903 1
0 0.739803 1
0 0.750561 1
0 0.761334 1
0 0.772107 1
0 0.782864 1
0 0.793637 0.984131
0 0.80441 0.965957
0 0.815167 0.947784
