public/LUTS/Color Shift/ColorShift_48.cube
TITLE "Generated by Resolve"
LUT_3D_SIZE 5
0 0 0
0 0.102342 0.117006
0 0.2047 0.234012
0 0.307057 0.351019
0 0.4094 0.468025
0.360937 0.098146 0.338827
0.219638 0.200488 0.455833
0.0783246 0.302846 0.572839
0 0.405203 0.689845
0 0.507546 0.806851
0.721904 0.196292 0.677668
0.580591 0.298634 0.794675
0.439277 0.400992 0.911681
0.297963 0.503349 1
0.156649 0.605692 1
1 0.294438 1
0.941558 0.39678 1
0.800244 0.499138 1
0.65893 0.601495 1
0.517617 0.703853 1
1 0.392584 1
1 0.494942 1
1 0.597284 1
1 0.699641 1
0.878569 0.801999 1
0.0303502 0.0495003 0
0 0.151843 0
0 0.2542 0.0281682
0 0.356558 0.145174
0 0.4589 0.262181
0.391302 0.147646 0.132982
0.249989 0.249989 0.249989
0.108675 0.352346 0.366995
0 0.454688 0.484001
0 0.557046 0.601007
0.752255 0.245792 0.471839
0.610956 0.348135 0.58883
0.469642 0.450492 0.705837
0.328313 0.55285 0.822843
0.186999 0.655192 0.939849
1 0.343938 0.810681
0.971908 0.446281 0.927687
0.830594 0.548638 1
0.689281 0.650996 1
0.547967 0.753353 1
1 0.442084 1
1 0.544442 1
1 0.646784 1
1 0.749142 1
0.908934 0.851499 1
0.0607156 0.0990005 0
0 0.201343 0
0 0.3037 0
0 0.406058 0
0 0.5084 0.0563363
0.421653 0.197147 0
0.280339 0.299489 0.0441444
0.139025 0.401846 0.161151
0 0.504204 0.278157
0 0.606546 0.395163
0.78262 0.295293 0.26598
0.641306 0.397635 0.382986
0.499992 0.499992 0.499992
0.358679 0.60235 0.616999
0.217365 0.704692 0.734005
1 0.393439 0.604837
1 0.495781 0.721828
0.86096 0.598138 0.838834
0.719646 0.700496 0.95584
0.578317 0.802853 1
1 0.491585 0.943679
1 0.593942 1
1 0.696284 1
1 0.798642 1
0.939284 0.900999 1
0.0910658 0.148501 0
0 0.250843 0
0 0.353201 0
0 0.455558 0
0 0.557916 0
0.452018 0.246647 0
0.310704 0.348989 0
0.16939 0.451347 0
0.0280766 0.553704 0.0722972
0 0.656046 0.189303
0.81297 0.344793 0.0601358
0.671672 0.447135 0.177142
0.530343 0.549493 0.294148
0.389029 0.65185 0.411154
0.247715 0.754208 0.528161
1 0.442939 0.398978
1 0.545296 0.515984
0.89131 0.647639 0.63299
0.749996 0.749996 0.749996
0.608682 0.852354 0.867002
1 0.541085 0.737835
1 0.643442 0.854826
1 0.745785 0.971832
1 0.848142 1
0.96965 0.9505 1
0.121431 0.198001 0
0 0.300359 0
0 0.402701 0
0 0.505058 0
0 0.607416 0
0.482368 0.296147 0
0.341054 0.398489 0
0.199741 0.500847 0
0.0584268 0.603204 0
0 0.705547 0
0.843336 0.394293 0
0.702022 0.496635 0
0.560708 0.598993 0.0882887
0.419394 0.70135 0.205295
0.27808 0.803708 0.322301
1 0.492439 0.193133
1 0.594797 0.31014
0.921675 0.697139 0.427146
0.780346 0.799496 0.544152
0.639033 0.901854 0.661158
1 0.5906 0.531975
1 0.692943 0.648981
1 0.7953 0.765988
1 0.897642 0.882994
1 1 1
