public/LUTS/Color Shift/ColorShift_90.cube
TITLE "Generated by Resolve"
LUT_3D_SIZE 9
0 0 0
0 0.0175479 0.191363
0 0.0350958 0.382742
0 0.0526436 0.574136
0 0.0702068 0.765515
0 0.0877546 0.956909
0 0.105303 1
0 0.12285 1
0 0.140398 1
0.293202 0.033051 0.0308995
0.277684 0.0505989 0.222263
0.262165 0.0681468 0.413642
0.246647 0.0856947 0.605035
0.231128 0.103258 0.796414
0.21561 0.120806 0.987793
0.200092 0.138354 1
0.184573 0.155901 1
0.169055 0.173449 1
0.58645 0.0661021 0.061799
0.570932 0.08365 0.253162
0.555413 0.101213 0.444541
0.539895 0.118761 0.635935
0.524376 0.136309 0.827314
0.508843 0.153857 1
0.493324 0.171405 1
0.477806 0.188952 1
0.462287 0.206516 1
0.879683 0.0991684 0.0926986
0.864164 0.116716 0.284062
0.848646 0.134264 0.475441
0.833127 0.151812 0.666835
0.817609 0.16936 0.858213
0.80209 0.186908 1
0.786572 0.204471 1
0.771054 0.222019 1
0.755535 0.239567 1
1 0.132219 0.123598
1 0.149767 0.314961
1 0.167315 0.50634
1 0.184863 0.697734
1 0.202426 0.889113
1 0.219974 1
1 0.237522 1
1 0.25507 1
1 0.272618 1
1 0.16527 0.154498
1 0.182818 0.345861
1 0.200366 0.537255
1 0.217929 0.728634
1 0.235477 0.920012
1 0.253025 1
1 0.270573 1
1 0.288121 1
1 0.305684 1
1 0.198337 0.185397
1 0.215885 0.376761
1 0.233433 0.568154
1 0.25098 0.759533
1 0.268528 0.950927
1 0.286076 1
1 0.303624 1
1 0.321187 1
1 0.338735 1
1 0.231388 0.216297
1 0.248936 0.40766
1 0.266484 0.599054
1 0.284031 0.790433
1 0.301579 0.981826
1 0.319142 1
1 0.33669 1
1 0.354238 1
1 0.371786 1
1 0.264439 0.247211
1 0.281987 0.43856
1 0.299535 0.629953
1 0.317098 0.821332
1 0.334646 1
1 0.352193 1
1 0.369741 1
1 0.387289 1
1 0.404837 1
0 0.0743877 0
0 0.0919356 0.0940871
0 0.109483 0.285481
0 0.127031 0.47686
0 0.144579 0.668238
0 0.162142 0.859632
0 0.17969 1
0 0.197238 1
0 0.214786 1
0.140505 0.107439 0
0.124987 0.124987 0.124987
0.109468 0.142535 0.316365
0.0939498 0.160082 0.507759
0.0784314 0.177646 0.699138
0.0629129 0.195193 0.890532
0.0473945 0.212741 1
0.0318761 0.230289 1
0.0163577 0.247837 1
0.433738 0.14049 0
0.418235 0.158038 0.155886
0.402701 0.175586 0.34728
0.387182 0.193149 0.538659
0.371664 0.210697 0.730037
0.356146 0.228244 0.921431
0.340627 0.245792 1
0.325109 0.26334 1
0.30959 0.280903 1
0.726986 0.173556 0
0.711467 0.191104 0.186786
0.695949 0.208652 0.37818
0.68043 0.2262 0.569558
0.664912 0.243748 0.760937
0.649393 0.261295 0.952331
0.633875 0.278859 1
0.618357 0.296407 1
0.602838 0.313954 1
1 0.206607 0.0263218
1 0.224155 0.217685
0.989181 0.241703 0.409079
0.973663 0.259251 0.600458
0.958144 0.276799 0.791852
0.942626 0.294362 0.98323
0.927108 0.31191 1
0.911589 0.329458 1
0.896071 0.347005 1
1 0.239658 0.0572366
1 0.257206 0.248585
1 0.274754 0.439979
1 0.292317 0.631357
1 0.309865 0.822751
1 0.327413 1
1 0.344961 1
1 0.362509 1
1 0.380056 1
1 0.272709 0.0881361
1 0.290272 0.2795
1 0.30782 0.470878
1 0.325368 0.662257
1 0.342916 0.853651
1 0.360464 1
1 0.378012 1
1 0.395575 1
1 0.413123 1
1 0.305776 0.119036
1 0.323323 0.310399
1 0.340871 0.501778
1 0.358419 0.693156
1 0.375967 0.88455
1 0.39353 1
1 0.411078 1
1 0.428626 1
1 0.446174 1
1 0.338827 0.149935
1 0.356374 0.341299
1 0.373922 0.532677
1 0.39147 0.724071
1 0.409033 0.91545
1 0.426581 1
1 0.444129 1
1 0.461677 1
1 0.479225 1
0 0.148775 0
0 0.166323 0
0 0.183886 0.18819
0 0.201434 0.379568
0 0.218982 0.570962
0 0.23653 0.762341
0 0.254078 0.953735
0 0.271641 1
0 0.289189 1
0 0.181827 0
0 0.19939 0.0276951
0 0.216938 0.219089
0 0.234485 0.410468
0 0.252033 0.601862
0 0.269581 0.79324
0 0.287129 0.984634
0 0.304692 1
0 0.32224 1
0.281025 0.214893 0
0.265507 0.232441 0.0586099
0.249989 0.249989 0.249989
0.23447 0.267536 0.441367
0.218952 0.285084 0.632761
0.203433 0.302647 0.82414
0.187915 0.320195 1
0.172396 0.337743 1
0.156878 0.355291 1
0.574273 0.247944 0
0.558755 0.265492 0.0895094
0.543236 0.28304 0.280888
0.527703 0.300587 0.472282
0.512184 0.318151 0.663661
0.496666 0.335698 0.855039
0.481147 0.353246 1
0.465629 0.370794 1
0.450111 0.388342 1
0.867506 0.280995 0
0.851987 0.298543 0.120409
0.836469 0.316106 0.311788
0.820951 0.333654 0.503182
0.805432 0.351202 0.69456
0.789914 0.36875 0.885939
0.774395 0.386297 1
0.758877 0.403861 1
0.743358 0.421408 1
1 0.314061 0
1 0.331609 0.151308
1 0.349157 0.342687
1 0.366705 0.534081
1 0.384253 0.72546
1 0.401801 0.916854
1 0.419364 1
1 0.436912 1
1 0.454459 1
1 0.347112 0
1 0.36466 0.182208
1 0.382208 0.373587
1 0.399756 0.564981
1 0.417319 0.756359
1 0.434867 0.947753
1 0.452415 1
1 0.469963 1
1 0.487511 1
1 0.380163 0.0217441
1 0.397711 0.213107
1 0.415274 0.404501
1 0.432822 0.59588
1 0.45037 0.787259
1 0.467918 0.978653
1 0.485466 1
1 0.503014 1
1 0.520577 1
1 0.41323 0.0526436
1 0.430777 0.244007
1 0.448325 0.435401
1 0.465873 0.62678
1 0.483421 0.818158
1 0.500969 1
1 0.518532 1
1 0.53608 1
1 0.553628 1
0 0.223178 0
0 0.240726 0
0 0.258274 0.0909133
0 0.275822 0.282292
0 0.293385 0.473671
0 0.310933 0.665064
0 0.328481 0.856443
0 0.346029 1
0 0.363577 1
0 0.256229 0
0 0.273777 0
0 0.291325 0.121798
0 0.308873 0.313191
0 0.326436 0.50457
0 0.343984 0.695964
0 0.361532 0.887343
0 0.37908 1
0 0.396628 1
0.128313 0.289281 0
0.112795 0.306828 0
0.0972763 0.324392 0.152697
0.0817578 0.341939 0.344091
0.0662242 0.359487 0.53547
0.0507057 0.377035 0.726864
0.0351873 0.394583 0.918242
0.0196689 0.412131 1
0.00415045 0.429694 1
0.421546 0.322347 0
0.406027 0.339895 0
0.390509 0.357443 0.183612
0.37499 0.37499 0.37499
0.359472 0.392538 0.566369
0.343954 0.410086 0.757763
0.328435 0.427649 0.949142
0.312917 0.445197 1
0.297398 0.462745 1
0.714794 0.355398 0
0.699275 0.372946 0.0231174
0.683757 0.390494 0.214511
0.668238 0.408042 0.40589
0.652705 0.425589 0.597284
0.637186 0.443153 0.788663
0.621668 0.4607 0.980041
0.606149 0.478248 1
0.590631 0.495796 1
1 0.388449 0
0.992508 0.405997 0.0540169
0.976989 0.423545 0.245411
0.961471 0.441108 0.43679
0.945953 0.458656 0.628183
0.930434 0.476204 0.819562
0.914916 0.493751 1
0.899397 0.511299 1
0.883879 0.528862 1
1 0.421515 0
1 0.439063 0.0849165
1 0.456611 0.27631
1 0.474159 0.467689
1 0.491707 0.659083
1 0.509255 0.850462
1 0.526802 1
1 0.544366 1
1 0.561913 1
1 0.454566 0
1 0.472114 0.115831
1 0.489662 0.30721
1 0.50721 0.498589
1 0.524758 0.689982
1 0.542321 0.881361
1 0.559869 1
1 0.577417 1
1 0.594965 1
1 0.487617 0
1 0.505165 0.146731
1 0.522713 0.338109
1 0.540276 0.529503
1 0.557824 0.720882
1 0.575372 0.912261
1 0.59292 1
1 0.610468 1
1 0.628016 1
0 0.297566 0
0 0.315129 0
0 0.332677 0
0 0.350225 0.185
0 0.367773 0.376394
0 0.385321 0.567773
0 0.402869 0.759167
0 0.420432 0.950545
0 0.43798 1
0 0.330632 0
0 0.34818 0
0 0.365728 0.0245212
0 0.383276 0.2159
0 0.400824 0.407294
0 0.418372 0.598672
0 0.43592 0.790066
0 0.453483 0.981445
0 0.471031 1
0 0.363684 0
0 0.381231 0
0 0.398779 0.0554208
0 0.416327 0.246799
0 0.433875 0.438193
0 0.451438 0.629572
0 0.468986 0.820966
0 0.486534 1
0 0.504082 1
0.268833 0.396735 0
0.253315 0.414282 0
0.237797 0.43183 0.0863203
0.222278 0.449393 0.277699
0.20676 0.466941 0.469093
0.191226 0.484489 0.660471
0.175708 0.502037 0.851865
0.160189 0.519585 1
0.144671 0.537133 1
0.562066 0.429786 0
0.546548 0.447333 0
0.531029 0.464897 0.11722
0.515511 0.482444 0.308614
0.499992 0.499992 0.499992
0.484474 0.51754 0.691371
0.468956 0.535088 0.882765
0.453437 0.552651 1
0.437919 0.570199 1
0.855314 0.462852 0
0.839796 0.4804 0
0.824277 0.497948 0.148119
0.808759 0.515496 0.339513
0.79324 0.533043 0.530892
0.777707 0.550591 0.722286
0.762188 0.568154 0.913664
0.74667 0.585702 1
0.731151 0.60325 1
1 0.495903 0
1 0.513451 0
1 0.530999 0.179019
1 0.548547 0.370413
1 0.56611 0.561791
1 0.583658 0.753185
1 0.601205 0.944564
1 0.618753 1
1 0.636301 1
1 0.528954 0
1 0.546502 0.0185397
1 0.564065 0.209918
1 0.581613 0.401312
1 0.599161 0.592691
1 0.616709 0.784085
1 0.634256 0.975464
1 0.651804 1
1 0.669367 1
1 0.56202 0
1 0.579568 0.0494392
1 0.597116 0.240833
1 0.614664 0.432212
1 0.632212 0.62359
1 0.64976 0.814984
1 0.667323 1
1 0.684871 1
1 0.702419 1
0 0.371969 0
0 0.389517 0
0 0.407065 0
0 0.424613 0.0877241
0 0.442176 0.279103
0 0.459724 0.470497
0 0.477272 0.661875
0 0.49482 0.853269
0 0.512367 1
0 0.40502 0
0 0.422568 0
0 0.440116 0
0 0.457664 0.118624
0 0.475227 0.310002
0 0.492775 0.501396
0 0.510323 0.692775
0 0.527871 0.884153
0 0.545419 1
0 0.438071 0
0 0.455619 0
0 0.473182 0
0 0.49073 0.149523
0 0.508278 0.340902
0 0.525826 0.532296
0 0.543374 0.723674
0 0.560922 0.915068
0 0.578485 1
0.116106 0.471138 0
0.100587 0.488685 0
0.085069 0.506233 0
0.0695506 0.523781 0.180423
0.0540322 0.541329 0.371801
0.0385138 0.558877 0.563195
0.0229953 0.57644 0.754574
0.00747692 0.593988 0.945968
0 0.611536 1
0.409354 0.504189 0
0.393835 0.521737 0
0.378317 0.539284 0.0199435
0.362799 0.556832 0.211322
0.34728 0.574395 0.402701
0.331762 0.591943 0.594095
0.316228 0.609491 0.785473
0.30071 0.627039 0.976867
0.285191 0.644587 1
0.702586 0.53724 0
0.687068 0.554788 0
0.67155 0.572335 0.0508431
0.656031 0.589899 0.242222
0.640513 0.607446 0.433616
0.624994 0.624994 0.624994
0.609476 0.642542 0.816373
0.593957 0.66009 1
0.578439 0.677653 1
0.995834 0.570306 0
0.980316 0.587854 0
0.964797 0.605402 0.0817426
0.949279 0.62295 0.273121
0.933761 0.640497 0.464515
0.918242 0.658045 0.655894
0.902708 0.675593 0.847288
0.88719 0.693156 1
0.871672 0.710704 1
1 0.603357 0
1 0.620905 0
1 0.638453 0.112642
1 0.656001 0.304021
1 0.673548 0.495415
1 0.691112 0.686793
1 0.708659 0.878187
1 0.726207 1
1 0.743755 1
1 0.636408 0
1 0.653956 0
1 0.671504 0.143542
1 0.689067 0.33492
1 0.706615 0.526314
1 0.724163 0.717693
1 0.741711 0.909087
1 0.759258 1
1 0.776806 1
0 0.446372 0
0 0.46392 0
0 0.481468 0
0 0.499016 0
0 0.516564 0.181827
0 0.534112 0.373205
0 0.551659 0.564599
0 0.569223 0.755978
0 0.58677 0.947356
0 0.479423 0
0 0.496971 0
0 0.514519 0
0 0.532067 0.0213321
0 0.549615 0.212726
0 0.567163 0.404105
0 0.58471 0.595483
0 0.602274 0.786877
0 0.619821 0.978256
0 0.512474 0
0 0.530022 0
0 0.54757 0
0 0.565118 0.0522316
0 0.582666 0.243626
0 0.600229 0.435004
0 0.617777 0.626398
0 0.635325 0.817777
0 0.652873 1
0 0.545525 0
0 0.563073 0
0 0.580621 0
0 0.598184 0.0831311
0 0.615732 0.274525
0 0.63328 0.465904
0 0.650828 0.657298
0 0.668376 0.848676
0 0.685924 1
0.256626 0.578576 0
0.241108 0.596124 0
0.225589 0.613687 0
0.210071 0.631235 0.114046
0.194553 0.648783 0.305425
0.179034 0.666331 0.496803
0.163516 0.683879 0.688197
0.147997 0.701442 0.879576
0.132479 0.71899 1
0.549874 0.611643 0
0.534356 0.629191 0
0.518837 0.646738 0
0.503319 0.664286 0.144945
0.4878 0.681834 0.336324
0.472282 0.699397 0.527703
0.456748 0.716945 0.719097
0.44123 0.734493 0.910475
0.425711 0.752041 1
0.843107 0.644694 0
0.827588 0.662242 0
0.81207 0.679789 0
0.796551 0.697337 0.175845
0.781033 0.7149 0.367224
0.765515 0.732448 0.558618
0.749996 0.749996 0.749996
0.734478 0.767544 0.941375
0.718959 0.785092 1
1 0.677745 0
1 0.695293 0
1 0.712856 0.0153506
1 0.730404 0.206744
1 0.747951 0.398123
1 0.765499 0.589517
1 0.783047 0.780896
1 0.800595 0.97229
1 0.818158 1
1 0.710811 0
1 0.728359 0
1 0.745907 0.0462654
1 0.763455 0.237644
1 0.781003 0.429023
1 0.79855 0.620417
1 0.816114 0.811795
1 0.833661 1
1 0.851209 1
0 0.52076 0
0 0.538308 0
0 0.555856 0
0 0.573404 0
0 0.590967 0.084535
0 0.608515 0.275929
0 0.626062 0.467308
0 0.64361 0.658701
0 0.661158 0.85008
0 0.553811 0
0 0.571359 0
0 0.588907 0
0 0.606455 0
0 0.624018 0.115434
0 0.641566 0.306828
0 0.659113 0.498207
0 0.676661 0.689586
0 0.694209 0.88098
0 0.586862 0
0 0.60441 0
0 0.621973 0
0 0.639521 0
0 0.657069 0.146334
0 0.674617 0.337728
0 0.692164 0.529107
0 0.709712 0.720485
0 0.727275 0.911879
0 0.619928 0
0 0.637476 0
0 0.655024 0
0 0.672572 0
0 0.69012 0.177234
0 0.707668 0.368627
0 0.725231 0.560006
0 0.742779 0.7514
0 0.760327 0.942779
0.103914 0.652979 0
0.0883955 0.670527 0
0.0728771 0.688075 0
0.0573587 0.705623 0.0167544
0.0418402 0.723186 0.208133
0.0263218 0.740734 0.399527
0.0108034 0.758282 0.590906
0 0.77583 0.7823
0 0.793378 0.973678
0.397147 0.68603 0
0.381628 0.703578 0
0.36611 0.721141 0
0.350591 0.738689 0.0476539
0.335073 0.756237 0.239048
0.319554 0.773785 0.430426
0.304036 0.791333 0.621805
0.288518 0.808881 0.813199
0.272999 0.826444 1
0.690394 0.719097 0
0.674876 0.736645 0
0.659358 0.754192 0
0.643839 0.77174 0.0785534
0.628321 0.789288 0.269947
0.612802 0.806836 0.461326
0.597284 0.824399 0.652705
0.581765 0.841947 0.844099
0.566232 0.859495 1
0.983627 0.752148 0
0.968109 0.769696 0
0.95259 0.787243 0
0.937072 0.804791 0.109453
0.921553 0.822339 0.300847
0.906035 0.839902 0.492226
0.890517 0.85745 0.683619
0.874998 0.874998 0.874998
0.85948 0.892546 1
1 0.785199 0
1 0.802747 0
1 0.820294 0
1 0.837858 0.140352
1 0.855406 0.331746
1 0.872953 0.523125
1 0.890501 0.714519
1 0.908049 0.905898
1 0.925597 1
0 0.595163 0
0 0.612711 0
0 0.630259 0
0 0.647807 0
0 0.665354 0
0 0.682902 0.178637
0 0.70045 0.370031
0 0.718013 0.56141
0 0.735561 0.752789
0 0.628214 0
0 0.645762 0
0 0.66331 0
0 0.680858 0
0 0.698405 0.0181582
0 0.715953 0.209537
0 0.733516 0.400916
0 0.751064 0.592309
0 0.768612 0.783688
0 0.661265 0
0 0.678813 0
0 0.696361 0
0 0.713909 0
0 0.731456 0.0490578
0 0.74902 0.240436
0 0.766567 0.43183
0 0.784115 0.623209
0 0.801663 0.814588
0 0.694316 0
0 0.711864 0
0 0.729412 0
0 0.746975 0
0 0.764523 0.0799573
0 0.782071 0.271336
0 0.799619 0.46273
0 0.817166 0.654108
0 0.834714 0.845487
0 0.727367 0
0 0.74493 0
0 0.762478 0
0 0.780026 0
0 0.797574 0.110857
0 0.815122 0.302235
0 0.83267 0.493629
0 0.850233 0.685008
0 0.867781 0.876402
0.244434 0.760433 0
0.228916 0.777981 0
0.213397 0.795529 0
0.197879 0.813077 0
0.182361 0.830625 0.141756
0.166842 0.848188 0.333135
0.151324 0.865736 0.524529
0.135805 0.883284 0.715908
0.120272 0.900832 0.907301
0.537667 0.793484 0
0.522148 0.811032 0
0.50663 0.82858 0
0.491112 0.846128 0
0.475593 0.863691 0.172656
0.460075 0.881239 0.36405
0.444556 0.898787 0.555428
0.429038 0.916335 0.746807
0.41352 0.933883 0.938201
0.830915 0.826535 0
0.815396 0.844083 0
0.799878 0.861646 0
0.78436 0.879194 0.0121767
0.768841 0.896742 0.203555
0.753323 0.91429 0.394949
0.737804 0.931838 0.586328
0.722286 0.949401 0.777707
0.706767 0.966949 0.9691
1 0.859602 0
1 0.87715 0
1 0.894697 0
1 0.912245 0.0430762
1 0.929793 0.234455
1 0.947341 0.425849
1 0.964904 0.617227
1 0.982452 0.808621
1 1 1
