public/LUTS/Color Shift/ColorShift_59.cube
TITLE "Generated by Resolve"
LUT_3D_SIZE 5
0 0 0
0 0.141451 0
0 0.282902 0
0 0.424353 0
0 0.565805 0
0 0.195743 0.532494
0 0.337194 0.289677
0 0.478645 0.0468605
0 0.620096 0
0 0.761563 0
0 0.391501 1
0 0.532952 0.822217
0 0.674403 0.579385
0 0.815869 0.336553
0 0.957321 0.0937362
0 0.587259 1
0 0.72871 1
0 0.870161 1
0 1 0.869093
0 1 0.626261
0 0.783032 1
0 0.924468 1
0 1 1
0 1 1
0 1 1
0.414832 0 0
0.297383 0.0542458 0
0.17995 0.195697 0
0.062501 0.337148 0
0 0.478599 0
0.367422 0.108537 0.492805
0.249989 0.249989 0.249989
0.13254 0.39144 0.00715648
0.0150912 0.532891 0
0 0.674357 0
0.320027 0.304295 1
0.202594 0.445747 0.782513
0.0851453 0.587198 0.539696
0 0.728664 0.296864
0 0.870115 0.0540322
0.272618 0.500053 1
0.155184 0.641505 1
0.0377356 0.782956 1
0 0.924422 0.829389
0 1 0.586572
0.225223 0.695827 1
0.10779 0.837263 1
0 0.978714 1
0 1 1
0 1 1
0.829679 0 0
0.712245 0 0
0.594797 0.108492 0
0.477348 0.249943 0
0.359899 0.391394 0
0.782284 0.0213321 0.453101
0.664836 0.162783 0.210285
0.547387 0.304234 0
0.429953 0.445686 0
0.312505 0.587137 0
0.734874 0.21709 0.985626
0.617441 0.358541 0.742824
0.499992 0.499992 0.499992
0.382544 0.641443 0.25716
0.265095 0.782895 0.0143435
0.68748 0.412848 1
0.570031 0.554299 1
0.452598 0.69575 1
0.335149 0.837201 0.7897
0.2177 0.978668 0.546868
0.64007 0.608606 1
0.522637 0.750057 1
0.405188 0.891508 1
0.287739 1 1
0.170291 1 1
1 0 0
1 0 0
1 0.0212711 0
0.892195 0.162737 0
0.774762 0.304189 0
1 0 0.413397
1 0.0755627 0.170596
0.962249 0.217029 0
0.8448 0.35848 0
0.727352 0.499931 0
1 0.129885 0.945937
1 0.271321 0.70312
0.914839 0.412787 0.460288
0.797391 0.554238 0.217472
0.679957 0.695689 0
1 0.325643 1
0.984894 0.467094 1
0.867445 0.608545 0.992828
0.749996 0.749996 0.749996
0.632547 0.891447 0.507164
1 0.521401 1
0.937484 0.662852 1
0.820035 0.804303 1
0.702602 0.945754 1
0.585153 1 1
1 0 0
1 0 0
1 0 0
1 0.0755169 0
1 0.216968 0
1 0 0.373709
1 0 0.130892
1 0.129809 0
1 0.271275 0
1 0.412726 0
1 0.0426642 0.906233
1 0.184115 0.663417
1 0.325567 0.4206
1 0.467033 0.177768
1 0.608484 0
1 0.238437 1
1 0.379873 1
1 0.521324 0.953124
1 0.662791 0.710292
1 0.804242 0.467475
1 0.434195 1
1 0.575631 1
1 0.717098 1
1 0.858549 1
1 1 1
