public/LUTS/Color Shift/ColorShift_21.cube
TITLE "Generated by Resolve"
LUT_3D_SIZE 9
0 0 0
0.095552 0.0149386 0
0.191119 0.0298924 0
0.286671 0.0448463 0
0.382239 0.0597848 0
0.477806 0.0747387 0
0.573373 0.0896925 0
0.668925 0.104631 0
0.764492 0.119585 0
0 0.127687 0.0597543
0.0609598 0.142626 0.0121767
0.156512 0.15758 0
0.252079 0.172534 0
0.347646 0.187472 0
0.443198 0.202426 0
0.538766 0.217365 0
0.634333 0.232319 0
0.7299 0.247272 0
0 0.25539 0.119509
0.0263523 0.270329 0.071931
0.12192 0.285283 0.0243534
0.217472 0.300221 0
0.313039 0.315175 0
0.408606 0.330129 0
0.504158 0.345068 0
0.599725 0.360021 0
0.695293 0.374975 0
0 0.383093 0.179263
0 0.398032 0.131685
0.0873121 0.412985 0.0841077
0.182879 0.427924 0.0365301
0.278431 0.442878 0
0.373999 0.457832 0
0.469566 0.47277 0
0.565118 0.487724 0
0.660685 0.502663 0
0 0.510781 0.239017
0 0.525734 0.19144
0.0527047 0.540688 0.143862
0.148272 0.555627 0.0962844
0.243839 0.570581 0.0487068
0.339391 0.585519 0.00112917
0.434958 0.600473 0
0.530526 0.615427 0
0.626078 0.630365 0
0 0.638483 0.298772
0 0.653437 0.251194
0.0180972 0.668376 0.203616
0.113664 0.68333 0.156039
0.209232 0.698283 0.108461
0.304784 0.713222 0.0608835
0.400351 0.728176 0.0133059
0.495918 0.743114 0
0.591485 0.758068 0
0 0.766186 0.358526
0 0.78114 0.310948
0 0.796078 0.263371
0.079057 0.811032 0.215793
0.174624 0.825986 0.168215
0.270191 0.840925 0.120638
0.365743 0.855879 0.0730602
0.461311 0.870817 0.0254826
0.556878 0.885771 0
0 0.893889 0.41828
0 0.908843 0.370703
0 0.923781 0.323125
0.0444648 0.938735 0.275547
0.140017 0.953674 0.22797
0.235584 0.968627 0.180392
0.331151 0.983581 0.132815
0.426703 0.99852 0.0852522
0.522271 1 0.0376745
0 1 0.478035
0 1 0.430457
0 1 0.382879
0.00985733 1 0.335302
0.105425 1 0.287724
0.200977 1 0.240146
0.296544 1 0.192584
0.392111 1 0.145006
0.487663 1 0.0974289
0.0640269 0 0.11281
0.159579 0 0.0652323
0.255146 0.012253 0.0176547
0.350713 0.0271916 0
0.446281 0.0421454 0
0.541833 0.0570993 0
0.6374 0.0720378 0
0.732967 0.0869917 0
0.828534 0.10193 0
0.0294347 0.110048 0.172564
0.124987 0.124987 0.124987
0.220554 0.13994 0.077409
0.316106 0.154879 0.0298314
0.411673 0.169833 0
0.50724 0.184771 0
0.602808 0.199725 0
0.69836 0.214679 0
0.793927 0.229618 0
0 0.237736 0.232319
0.0903792 0.252689 0.184741
0.185946 0.267628 0.137163
0.281514 0.282582 0.0895857
0.377066 0.297536 0.0420081
0.472633 0.312474 0
0.5682 0.327428 0
0.663767 0.342382 0
0.759319 0.357321 0
0 0.365438 0.292073
0.055787 0.380392 0.244495
0.151339 0.395331 0.196918
0.246906 0.410285 0.14934
0.342473 0.425238 0.101762
0.438025 0.440177 0.0541848
0.533593 0.455131 0.00660716
0.62916 0.470069 0
0.724727 0.485023 0
0 0.493141 0.351827
0.0211795 0.508095 0.30425
0.116732 0.523033 0.256672
0.212299 0.537987 0.209094
0.307866 0.552926 0.161517
0.403433 0.56788 0.113939
0.498985 0.582834 0.0663615
0.594553 0.597772 0.0187839
0.69012 0.612726 0
0 0.620844 0.411582
0 0.635782 0.364004
0.0821393 0.650736 0.316426
0.177691 0.66569 0.268849
0.273259 0.680629 0.221271
0.368826 0.695583 0.173693
0.464393 0.710536 0.126116
0.559945 0.725475 0.0785382
0.655512 0.740429 0.0309606
0 0.748547 0.471336
0 0.763485 0.423758
0.0475319 0.778439 0.376181
0.143099 0.793393 0.328603
0.238651 0.808331 0.281025
0.334218 0.823285 0.233448
0.429786 0.838224 0.18587
0.525353 0.853178 0.138293
0.620905 0.868132 0.0907301
0 0.876249 0.53109
0 0.891188 0.483513
0.0129244 0.906142 0.435935
0.108492 0.92108 0.388357
0.204059 0.936034 0.34078
0.299611 0.950988 0.293202
0.395178 0.965927 0.245624
0.490745 0.98088 0.198062
0.586313 0.995819 0.150484
0 1 0.590845
0 1 0.543267
0 1 0.495689
0.0738842 1 0.448112
0.169451 1 0.400534
0.265019 1 0.352956
0.360571 1 0.305394
0.456138 1 0.257816
0.551705 1 0.210239
0.128069 0 0.225635
0.223621 0 0.178058
0.319188 0 0.13048
0.414755 0.00955215 0.0829023
0.510323 0.024506 0.0353246
0.605875 0.0394446 0
0.701442 0.0543984 0
0.797009 0.069337 0
0.892576 0.0842908 0
0.0934768 0.0923934 0.285374
0.189029 0.107347 0.237812
0.284596 0.122286 0.190234
0.380163 0.13724 0.142657
0.475715 0.152178 0.095079
0.571283 0.167132 0.0475013
0.66685 0.182086 0
0.762402 0.197024 0
0.857969 0.211978 0
0.0588693 0.220096 0.345144
0.154421 0.235035 0.297566
0.249989 0.249989 0.249989
0.345556 0.264942 0.202411
0.441108 0.279881 0.154833
0.536675 0.294835 0.107256
0.632242 0.309773 0.059678
0.72781 0.324727 0.0121004
0.823362 0.339681 0
0.0242771 0.347799 0.404898
0.119829 0.362737 0.357321
0.215381 0.377691 0.309743
0.310948 0.39263 0.262165
0.406516 0.407584 0.214588
0.502068 0.422538 0.16701
0.597635 0.437476 0.119432
0.693202 0.45243 0.0718547
0.788769 0.467384 0.0242771
0 0.475502 0.464652
0.0852216 0.49044 0.417075
0.180789 0.505394 0.369497
0.276341 0.520333 0.32192
0.371908 0.535286 0.274342
0.467475 0.55024 0.226764
0.563027 0.565179 0.179187
0.658595 0.580133 0.131609
0.754162 0.595071 0.0840314
0 0.603189 0.524407
0.0506142 0.618143 0.476829
0.146181 0.633097 0.429252
0.241733 0.648035 0.381674
0.337301 0.662989 0.334096
0.432868 0.677928 0.286519
0.528435 0.692882 0.238941
0.623987 0.707835 0.191363
0.719554 0.722774 0.143786
0 0.730892 0.584161
0.0160067 0.745846 0.536583
0.111574 0.760784 0.489006
0.207141 0.775738 0.441428
0.302708 0.790692 0.393851
0.39826 0.805631 0.346273
0.493828 0.820584 0.298695
0.589395 0.835538 0.251118
0.684947 0.850477 0.20354
0 0.858595 0.643915
0 0.873549 0.596338
0.0769665 0.888487 0.54876
0.172534 0.903441 0.501183
0.268101 0.918395 0.453605
0.363653 0.933333 0.406027
0.45922 0.948287 0.35845
0.554788 0.963226 0.310872
0.650355 0.97818 0.263294
0 0.986297 0.70367
0 1 0.656092
0.0423743 1 0.608515
0.137926 1 0.560937
0.233494 1 0.513359
0.329061 1 0.465782
0.424613 1 0.418204
0.52018 1 0.370626
0.615747 1 0.323064
0.192111 0 0.33846
0.287663 0 0.290883
0.38323 0 0.243305
0.478798 0 0.195727
0.574365 0.0068513 0.14815
0.669917 0.0218051 0.100572
0.765484 0.0367437 0.0529946
0.861051 0.0516976 0.00543221
0.956619 0.0666514 0
0.157519 0.0747539 0.398199
0.253071 0.0896925 0.350637
0.348638 0.104646 0.303059
0.444205 0.119585 0.255482
0.539757 0.134539 0.207904
0.635325 0.149493 0.160327
0.730892 0.164431 0.112749
0.826444 0.179385 0.0651713
0.922011 0.194324 0.0175937
0.122911 0.202441 0.457954
0.218463 0.217395 0.410391
0.314031 0.232349 0.362814
0.409598 0.247288 0.315236
0.505165 0.262242 0.267659
0.600717 0.27718 0.220081
0.696284 0.292134 0.172503
0.791852 0.307088 0.124926
0.887404 0.322026 0.077348
0.0883192 0.330144 0.517708
0.183871 0.345098 0.470146
0.279423 0.360037 0.422568
0.37499 0.37499 0.37499
0.470558 0.389944 0.327413
0.56611 0.404883 0.279835
0.661677 0.419837 0.232258
0.757244 0.434775 0.18468
0.852811 0.449729 0.137102
0.0537118 0.457847 0.577478
0.149264 0.472801 0.5299
0.244831 0.487739 0.482322
0.340383 0.502693 0.434745
0.43595 0.517632 0.387167
0.531518 0.532586 0.33959
0.62707 0.547539 0.292012
0.722637 0.562478 0.244434
0.818204 0.577432 0.196857
0.0191043 0.58555 0.637232
0.114656 0.600488 0.589654
0.210224 0.615442 0.542077
0.305776 0.630396 0.494499
0.401343 0.645335 0.446921
0.49691 0.660288 0.399344
0.592477 0.675242 0.351766
0.688029 0.690181 0.304189
0.783597 0.705135 0.256611
0 0.713252 0.696986
0.0800488 0.728191 0.649409
0.175616 0.743145 0.601831
0.271183 0.758099 0.554253
0.366735 0.773037 0.506676
0.462303 0.787991 0.459098
0.55787 0.80293 0.411521
0.653437 0.817884 0.363943
0.748989 0.832837 0.316365
0 0.840955 0.756741
0.0454566 0.855894 0.709163
0.141009 0.870848 0.661585
0.236576 0.885786 0.614008
0.332143 0.90074 0.56643
0.427695 0.915694 0.518853
0.523262 0.930632 0.471275
0.61883 0.945586 0.423697
0.714397 0.96054 0.37612
0 0.968658 0.816495
0.0108492 0.983597 0.768917
0.106416 0.99855 0.72134
0.201968 1 0.673762
0.297536 1 0.626184
0.393103 1 0.578607
0.488655 1 0.531029
0.584222 1 0.483452
0.679789 1 0.435874
0.256168 0 0.451286
0.351705 0 0.403708
0.447272 0 0.35613
0.54284 0 0.308553
0.638407 0 0.260975
0.733959 0.00415045 0.213397
0.829526 0.0191043 0.16582
0.925093 0.0340429 0.118242
1 0.0489967 0.0706645
0.221561 0.0570993 0.511025
0.317113 0.0720531 0.463462
0.41268 0.0869917 0.415885
0.508247 0.101946 0.368307
0.6038 0.116884 0.320729
0.699367 0.131838 0.273152
0.794934 0.146792 0.225574
0.890486 0.16173 0.177996
0.986053 0.176684 0.130419
0.186954 0.184802 0.570779
0.282506 0.199741 0.523217
0.378073 0.214694 0.475639
0.47364 0.229648 0.428061
0.569192 0.244587 0.380484
0.664759 0.259541 0.332906
0.760327 0.274495 0.285328
0.855894 0.289433 0.237751
0.951446 0.304387 0.190173
0.152361 0.312505 0.630533
0.247913 0.327443 0.582971
0.343465 0.342397 0.535393
0.439033 0.357351 0.487816
0.5346 0.37229 0.440238
0.630152 0.387243 0.39266
0.725719 0.402182 0.345083
0.821286 0.417136 0.297505
0.916854 0.43209 0.249928
0.117754 0.440208 0.690288
0.213306 0.455146 0.642725
0.308873 0.4701 0.595148
0.404425 0.485039 0.54757
0.499992 0.499992 0.499992
0.59556 0.514946 0.452415
0.691112 0.529885 0.404837
0.786679 0.544839 0.357259
0.882246 0.559777 0.309682
0.0831464 0.56791 0.750057
0.178698 0.582849 0.70248
0.274266 0.597803 0.654902
0.369833 0.612741 0.607324
0.465385 0.627695 0.559747
0.560952 0.642634 0.512169
0.656519 0.657588 0.464591
0.752071 0.672541 0.417014
0.847639 0.68748 0.369436
0.0485389 0.695598 0.809812
0.144091 0.710552 0.762234
0.239658 0.72549 0.714656
0.335225 0.740444 0.667079
0.430793 0.755398 0.619501
0.526345 0.770336 0.571923
0.621912 0.78529 0.524346
0.717479 0.800244 0.476768
0.813031 0.815183 0.429191
0.0139467 0.823301 0.869566
0.109499 0.838254 0.821988
0.205051 0.853193 0.774411
0.300618 0.868147 0.726833
0.396185 0.883101 0.679255
0.491737 0.898039 0.631678
0.587304 0.912993 0.5841
0.682872 0.927932 0.536522
0.778439 0.942885 0.488945
0 0.951003 0.92932
0.0748913 0.965957 0.881743
0.170459 0.980896 0.834165
0.266011 0.99585 0.786587
0.361578 1 0.73901
0.457145 1 0.691432
0.552712 1 0.643854
0.648264 1 0.596277
0.743832 1 0.548699
0.320211 0 0.564111
0.415747 0 0.516533
0.511315 0 0.468956
0.606882 0 0.421378
0.702449 0 0.3738
0.798001 0 0.326223
0.893568 0.00144961 0.278645
0.989136 0.0164034 0.231067
1 0.0313573 0.18349
0.285603 0.0394598 0.62385
0.381155 0.0543984 0.576288
0.476722 0.0693523 0.52871
0.57229 0.0842908 0.481132
0.667842 0.0992447 0.433555
0.763409 0.114199 0.385977
0.858976 0.129137 0.338399
0.954528 0.144091 0.290822
1 0.15903 0.243244
0.250996 0.167147 0.683604
0.346548 0.182101 0.636042
0.442115 0.197055 0.588464
0.537682 0.211994 0.540887
0.633249 0.226947 0.493309
0.728801 0.241886 0.445731
0.824369 0.25684 0.398154
0.919936 0.271794 0.350576
1 0.286732 0.302998
0.216403 0.29485 0.743358
0.311955 0.309804 0.695796
0.407507 0.324742 0.648219
0.503075 0.339696 0.600641
0.598642 0.35465 0.553063
0.694194 0.369589 0.505486
0.789761 0.384543 0.457908
0.885328 0.399496 0.41033
0.980896 0.414435 0.362753
0.181796 0.422553 0.803113
0.277348 0.437507 0.75555
0.372915 0.452445 0.707973
0.468467 0.467399 0.660395
0.564034 0.482353 0.612818
0.659602 0.497292 0.56524
0.755169 0.512245 0.517662
0.850721 0.527184 0.470085
0.946288 0.542138 0.422507
0.147189 0.550256 0.862867
0.242741 0.565209 0.815305
0.338308 0.580148 0.767727
0.433875 0.595102 0.72015
0.529427 0.61004 0.672572
0.624994 0.624994 0.624994
0.720562 0.639948 0.577417
0.816114 0.654887 0.529839
0.911681 0.669841 0.482261
0.112581 0.677958 0.922621
0.208133 0.692897 0.875059
0.3037 0.707851 0.827482
0.399268 0.722805 0.779904
0.494835 0.737743 0.732326
0.590387 0.752697 0.684749
0.685954 0.767636 0.637171
0.781521 0.782589 0.589593
0.877073 0.797543 0.542016
0.0779889 0.805661 0.982391
0.173541 0.8206 0.934813
0.269093 0.835554 0.887236
0.36466 0.850492 0.839658
0.460227 0.865446 0.792081
0.555795 0.8804 0.744503
0.651347 0.895338 0.696925
0.746914 0.910292 0.649348
0.842481 0.925246 0.60177
0.0433814 0.933364 1
0.138933 0.948302 0.994568
0.234501 0.963256 0.94699
0.330053 0.978195 0.899413
0.42562 0.993149 0.851835
0.521187 1 0.804257
0.616754 1 0.75668
0.712306 1 0.709102
0.807874 1 0.661524
0.384253 0 0.676936
0.479789 0 0.629358
0.575357 0 0.581781
0.670924 0 0.534203
0.766491 0 0.486625
0.862043 0 0.439048
0.95761 0 0.39147
1 0 0.343893
1 0.0137026 0.296315
0.349645 0.0218051 0.736675
0.445197 0.036759 0.689113
0.540764 0.0516976 0.641535
0.636332 0.0666514 0.593957
0.731884 0.08159 0.54638
0.827451 0.0965438 0.498802
0.923018 0.111498 0.451225
1 0.126436 0.403647
1 0.14139 0.356069
0.315038 0.149508 0.796429
0.41059 0.164446 0.748867
0.506157 0.1794 0.701289
0.601724 0.194354 0.653712
0.697292 0.209293 0.606134
0.792844 0.224247 0.558556
0.888411 0.2392 0.510979
0.983978 0.254139 0.463401
1 0.269093 0.415824
0.280446 0.277211 0.856184
0.375998 0.292149 0.808621
0.47155 0.307103 0.761044
0.567117 0.322057 0.713466
0.662684 0.336996 0.665888
0.758251 0.351949 0.618311
0.853803 0.366888 0.570733
0.949371 0.381842 0.523156
1 0.396796 0.475578
0.245838 0.404913 0.915938
0.34139 0.419852 0.868376
0.436957 0.434806 0.820798
0.532509 0.449744 0.77322
0.628077 0.464698 0.725643
0.723644 0.479652 0.678065
0.819211 0.494591 0.630488
0.914763 0.509544 0.58291
1 0.524498 0.535332
0.211231 0.532616 0.975692
0.306783 0.547555 0.92813
0.40235 0.562509 0.880552
0.497917 0.577447 0.832975
0.593469 0.592401 0.785397
0.689036 0.607355 0.737819
0.784604 0.622293 0.690242
0.880171 0.637247 0.642664
0.975723 0.652186 0.595087
0.176623 0.660304 1
0.272175 0.675258 0.987884
0.367742 0.690211 0.940307
0.46331 0.70515 0.892729
0.558877 0.720104 0.845151
0.654429 0.735042 0.797574
0.749996 0.749996 0.749996
0.845563 0.76495 0.702419
0.941115 0.779889 0.654841
0.142031 0.788006 1
0.237583 0.80296 1
0.333135 0.817899 1
0.428702 0.832853 0.952483
0.524269 0.847807 0.904906
0.619837 0.862745 0.857328
0.715389 0.877699 0.80975
0.810956 0.892638 0.762173
0.906523 0.907591 0.714595
0.107424 0.915709 1
0.202976 0.930663 1
0.298543 0.945602 1
0.394095 0.960555 1
0.489662 0.975494 0.96466
0.585229 0.990448 0.917082
0.680797 1 0.869505
0.776349 1 0.821927
0.871916 1 0.77435
0.448295 0 0.789746
0.543832 0 0.742184
0.639399 0 0.694606
0.734966 0 0.647028
0.830533 0 0.599451
0.926085 0 0.551873
1 0 0.504295
1 0 0.456718
1 0 0.40914
0.413687 0.00416571 0.8495
0.509239 0.0191043 0.801923
0.604807 0.0340581 0.75436
0.700374 0.0489967 0.706783
0.795926 0.0639506 0.659205
0.891493 0.0789044 0.611627
0.98706 0.093843 0.56405
1 0.108797 0.516472
1 0.123735 0.468894
0.37908 0.131853 0.909255
0.474632 0.146807 0.861692
0.570199 0.161761 0.814115
0.665766 0.176699 0.766537
0.761334 0.191653 0.718959
0.856886 0.206592 0.671382
0.952453 0.221546 0.623804
1 0.2365 0.576226
1 0.251438 0.528649
0.344488 0.259556 0.969009
0.44004 0.27451 0.921447
0.535592 0.289448 0.873869
0.631159 0.304402 0.826291
0.726726 0.319356 0.778714
0.822293 0.334295 0.731136
0.917845 0.349248 0.683558
1 0.364202 0.635981
1 0.379141 0.588403
0.30988 0.387259 1
0.405432 0.402213 0.981201
0.500999 0.417151 0.933623
0.596551 0.432105 0.886046
0.692119 0.447059 0.838468
0.787686 0.461997 0.79089
0.883253 0.476951 0.743313
0.978805 0.49189 0.695735
1 0.506844 0.648157
0.275273 0.514961 1
0.370825 0.529915 1
0.466392 0.544854 0.993378
0.561959 0.559808 0.9458
0.657511 0.574746 0.898222
0.753079 0.5897 0.850645
0.848646 0.604654 0.803067
0.944198 0.619593 0.755489
1 0.634546 0.707912
0.240665 0.642664 1
0.336217 0.657603 1
0.431785 0.672557 1
0.527352 0.68751 1
0.622919 0.702449 0.957977
0.718471 0.717403 0.910399
0.814038 0.732357 0.862821
0.909606 0.747295 0.815244
1 0.762249 0.767666
0.206073 0.770367 1
0.301625 0.785306 1
0.397177 0.800259 1
0.492744 0.815213 1
0.588312 0.830152 1
0.683879 0.845106 0.970153
0.779431 0.860044 0.922576
0.874998 0.874998 0.874998
0.970565 0.889952 0.82742
0.171466 0.89807 1
0.267018 0.913008 1
0.362585 0.927962 1
0.458137 0.942901 1
0.553704 0.957855 1
0.649271 0.972808 1
0.744839 0.987747 0.98233
0.840391 1 0.934752
0.935958 1 0.887175
0.512337 0 0.902571
0.607874 0 0.855009
0.703441 0 0.807431
0.799008 0 0.759854
0.894575 0 0.712276
0.990127 0 0.664698
1 0 0.617121
1 0 0.569543
1 0 0.521965
0.477729 0 0.962325
0.573281 0.00146487 0.914748
0.668849 0.0164034 0.86717
0.764416 0.0313573 0.819593
0.859968 0.0463111 0.77203
0.955535 0.0612497 0.724453
1 0.0762036 0.676875
1 0.0911421 0.629297
1 0.106096 0.58172
0.443122 0.114214 1
0.538674 0.129168 0.974502
0.634241 0.144106 0.926925
0.729809 0.15906 0.879362
0.825376 0.173999 0.831785
0.920928 0.188952 0.784207
1 0.203906 0.736629
1 0.218845 0.689052
1 0.233799 0.641474
0.40853 0.241917 1
0.504082 0.256855 1
0.599634 0.271809 0.986694
0.695201 0.286763 0.939116
0.790768 0.301701 0.891539
0.886336 0.316655 0.843961
0.981888 0.331594 0.796384
1 0.346548 0.748806
1 0.361501 0.701228
0.373922 0.369619 1
0.469474 0.384558 1
0.565042 0.399512 1
0.660594 0.41445 0.998871
0.756161 0.429404 0.951293
0.851728 0.444358 0.903716
0.947295 0.459297 0.856138
1 0.47425 0.80856
1 0.489204 0.760983
0.339315 0.497322 1
0.434867 0.512261 1
0.530434 0.527214 1
0.626001 0.542153 1
0.721553 0.557107 1
0.817121 0.572061 0.96347
0.912688 0.586999 0.915892
1 0.601953 0.868315
1 0.616892 0.820737
0.304707 0.62501 1
0.400259 0.639963 1
0.495827 0.654917 1
0.591394 0.669856 1
0.686961 0.68481 1
0.782513 0.699748 1
0.87808 0.714702 0.975647
0.973648 0.729656 0.928069
1 0.744595 0.880491
0.270115 0.752712 1
0.365667 0.767666 1
0.461219 0.782605 1
0.556786 0.797559 1
0.652354 0.812512 1
0.747921 0.827451 1
0.843473 0.842405 1
0.93904 0.857359 0.987823
1 0.872297 0.940246
0.235508 0.880415 1
0.33106 0.895369 1
0.426627 0.910307 1
0.522179 0.925261 1
0.617746 0.940215 1
0.713314 0.955154 1
0.808881 0.970108 1
0.904433 0.985046 1
1 1 1
