public/LUTS/Color Shift/ColorShift_65.cube
TITLE "Generated by Resolve"
LUT_3D_SIZE 9
0 0 0
0.0680095 0.0349432 0
0.136034 0.0699016 0
0.204059 0.104845 0
0.272068 0.139803 0
0.340093 0.174746 0
0.408118 0.209689 0
0.476127 0.244648 0
0.544152 0.279591 0
0 0.141924 0.144091
0 0.176883 0.00521859
0.0178073 0.211826 0
0.085832 0.246769 0
0.153857 0.281727 0
0.221866 0.31667 0
0.289891 0.351629 0
0.357916 0.386572 0
0.425925 0.42153 0
0 0.283879 0.288182
0 0.318822 0.149325
0 0.35378 0.0104372
0 0.388724 0
0.0356146 0.423667 0
0.103639 0.458625 0
0.171649 0.493568 0
0.239673 0.528527 0
0.307698 0.56347 0
0 0.425818 0.432288
0 0.460777 0.293416
0 0.49572 0.154528
0 0.530663 0.0156558
0 0.565621 0
0 0.600565 0
0.0534218 0.635523 0
0.121431 0.670466 0
0.189456 0.705425 0
0 0.567773 0.576394
0 0.602716 0.437522
0 0.637659 0.298634
0 0.672618 0.159747
0 0.707561 0.0208743
0 0.742519 0
0 0.777462 0
0.00320439 0.812421 0
0.0712139 0.847364 0
0 0.709712 0.720485
0 0.744671 0.581628
0 0.779614 0.442741
0 0.814557 0.303853
0 0.849515 0.164965
0 0.884459 0.0260929
0 0.919417 0
0 0.95436 0
0 0.989319 0
0 0.851667 0.864591
0 0.88661 0.725719
0 0.921553 0.586847
0 0.956512 0.447959
0 0.991455 0.309071
0 1 0.170184
0 1 0.0312963
0 1 0
0 1 0
0 0.993606 1
0 1 0.869825
0 1 0.730938
0 1 0.59205
0 1 0.453178
0 1 0.31429
0 1 0.175402
0 1 0.0365148
0 1 0
0 1 1
0 1 1
0 1 0.875044
0 1 0.736156
0 1 0.597269
0 1 0.458396
0 1 0.319509
0 1 0.180621
0 1 0.0417334
0.175204 0 0.119768
0.243214 0 0
0.311223 0.0180056 0
0.379248 0.0529641 0
0.447272 0.0879072 0
0.515297 0.12285 0
0.583307 0.157809 0
0.651331 0.192752 0
0.719356 0.22771 0
0.0569772 0.0900435 0.263859
0.124987 0.124987 0.124987
0.193011 0.15993 0
0.261021 0.194888 0
0.329046 0.229831 0
0.39707 0.26479 0
0.465095 0.299733 0
0.533104 0.334691 0
0.601129 0.369635 0
0 0.231983 0.40795
0.00674449 0.266926 0.269093
0.0747692 0.301885 0.130205
0.142794 0.336828 0
0.210803 0.371786 0
0.278828 0.406729 0
0.346853 0.441688 0
0.414878 0.476631 0
0.482887 0.511589 0
0 0.373938 0.552056
0 0.408881 0.413184
0 0.443824 0.274311
0.0245518 0.478782 0.135424
0.0925765 0.513726 0
0.160586 0.548684 0
0.228611 0.583627 0
0.296635 0.618585 0
0.36466 0.653529 0
0 0.515877 0.696162
0 0.55082 0.55729
0 0.585779 0.418402
0 0.620722 0.27953
0 0.65568 0.140642
0.042359 0.690623 0.00175479
0.110369 0.725582 0
0.178393 0.760525 0
0.246418 0.795483 0
0 0.657832 0.840253
0 0.692775 0.701396
0 0.727718 0.562509
0 0.762676 0.423621
0 0.79762 0.284733
0 0.832578 0.145861
0 0.867521 0.00697337
0.0601511 0.90248 0
0.128176 0.937423 0
0 0.799771 0.98436
0 0.834714 0.845487
0 0.869673 0.706615
0 0.904616 0.567727
0 0.939574 0.42884
0 0.974517 0.289952
0 1 0.15108
0 1 0.012192
0.00993362 1 0
0 0.941726 1
0 0.976669 0.989593
0 1 0.850706
0 1 0.711833
0 1 0.572946
0 1 0.434058
0 1 0.295171
0 1 0.156298
0 1 0.0174105
0 1 1
0 1 1
0 1 0.994812
0 1 0.855924
0 1 0.717052
0 1 0.578164
0 1 0.439277
0 1 0.300389
0 1 0.161501
0.350423 0 0.239551
0.418433 0 0.100694
0.486442 0 0
0.554467 0.00106813 0
0.622492 0.0360113 0
0.690517 0.0709697 0
0.758526 0.105913 0
0.826551 0.140856 0
0.894575 0.175814 0
0.232197 0.0381476 0.383642
0.300206 0.0730907 0.24477
0.368231 0.108049 0.105882
0.43624 0.142992 0
0.504265 0.177935 0
0.57229 0.212894 0
0.640314 0.247837 0
0.708324 0.282795 0
0.776349 0.317739 0
0.113954 0.180087 0.527733
0.181964 0.215045 0.388876
0.249989 0.249989 0.249989
0.318013 0.284932 0.111101
0.386023 0.31989 0
0.454047 0.354833 0
0.522072 0.389792 0
0.590097 0.424735 0
0.658106 0.459693 0
0 0.322042 0.671839
0.0637369 0.356985 0.532967
0.131746 0.391928 0.394095
0.199771 0.426886 0.255207
0.267796 0.46183 0.11632
0.335805 0.496788 0
0.40383 0.531731 0
0.471855 0.56669 0
0.539879 0.601633 0
0 0.463981 0.815946
0 0.498939 0.677073
0.0135195 0.533883 0.538186
0.081529 0.568826 0.399313
0.149554 0.603784 0.260426
0.217578 0.638727 0.121538
0.285588 0.673686 0
0.353613 0.708629 0
0.421637 0.743587 0
0 0.605936 0.960052
0 0.640879 0.82118
0 0.675822 0.682292
0 0.710781 0.543404
0.0313115 0.745724 0.404532
0.0993362 0.780682 0.265644
0.167361 0.815625 0.126757
0.23537 0.850584 0
0.303395 0.885527 0
0 0.747875 1
0 0.782834 0.965286
0 0.817777 0.826398
0 0.85272 0.68751
0 0.887678 0.548623
0 0.922621 0.409735
0.0491188 0.95758 0.270863
0.117144 0.992523 0.131975
0.185153 1 0
0 0.88983 1
0 0.924773 1
0 0.959716 0.970489
0 0.994675 0.831617
0 1 0.692729
0 1 0.553841
0 1 0.414954
0 1 0.276081
0.0669261 1 0.137194
0 1 1
0 1 1
0 1 1
0 1 0.975708
0 1 0.836835
0 1 0.697948
0 1 0.55906
0 1 0.420172
0 1 0.281285
0.525643 0 0.359335
0.593652 0 0.220478
0.661662 0 0.08159
0.729686 0 0
0.797711 0 0
0.865736 0.0190738 0
0.933745 0.0540169 0
1 0.0889601 0
1 0.123919 0
0.407416 0 0.503426
0.475425 0.0211948 0.364553
0.54345 0.0561532 0.225666
0.61146 0.0910964 0.0867933
0.679484 0.12604 0
0.747509 0.160998 0
0.815534 0.195941 0
0.883543 0.2309 0
0.951568 0.265843 0
0.289174 0.128191 0.647532
0.357183 0.163149 0.508659
0.425208 0.198093 0.369772
0.493233 0.233051 0.230884
0.561242 0.267994 0.0920119
0.629267 0.302937 0
0.697292 0.337896 0
0.765316 0.372839 0
0.833326 0.407797 0
0.170932 0.270146 0.791623
0.238956 0.305089 0.652766
0.306966 0.340047 0.513878
0.37499 0.37499 0.37499
0.443015 0.409934 0.236103
0.511025 0.444892 0.0972152
0.579049 0.479835 0
0.647074 0.514794 0
0.715099 0.549737 0
0.0527047 0.412085 0.935729
0.120714 0.447044 0.796857
0.188739 0.481987 0.657969
0.256748 0.51693 0.519097
0.324773 0.551888 0.380209
0.392798 0.586831 0.241321
0.460807 0.62179 0.102434
0.528832 0.656733 0
0.596857 0.691691 0
0 0.55404 1
0.00247196 0.588983 0.940963
0.0704967 0.623941 0.802075
0.138521 0.658885 0.663188
0.206531 0.693828 0.524315
0.274556 0.728786 0.385428
0.34258 0.763729 0.24654
0.41059 0.798688 0.107652
0.478614 0.833631 0
0 0.695979 1
0 0.730938 1
0 0.765881 0.946181
0.0202792 0.800824 0.807294
0.088304 0.835782 0.668406
0.156313 0.870726 0.529534
0.224338 0.905684 0.390646
0.292363 0.940627 0.251759
0.360372 0.975586 0.112871
0 0.837934 1
0 0.872877 1
0 0.907835 1
0 0.942779 0.9514
0 0.977722 0.812512
0.0380865 1 0.673625
0.106096 1 0.534737
0.174121 1 0.395865
0.242145 1 0.256977
0 0.979873 1
0 1 1
0 1 1
0 1 1
0 1 0.956619
0 1 0.817731
0 1 0.678843
0.0558785 1 0.539956
0.123903 1 0.401083
0.700862 0 0.479118
0.768872 0 0.340261
0.836881 0 0.201373
0.904906 0 0.0624857
0.97293 0 0
1 0 0
1 0.002121 0
1 0.0370794 0
1 0.0720226 0
0.582635 0 0.623209
0.650645 0 0.484337
0.718669 0.00425727 0.345449
0.786679 0.0392004 0.206577
0.854704 0.0741588 0.067689
0.922728 0.109102 0
0.990753 0.144045 0
1 0.179004 0
1 0.213947 0
0.464393 0.0762951 0.767315
0.532403 0.111254 0.628443
0.600427 0.146197 0.489555
0.668452 0.181155 0.350668
0.736461 0.216098 0.211795
0.804486 0.251041 0.0729076
0.872511 0.286 0
0.940536 0.320943 0
1 0.355901 0
0.346151 0.21825 0.911406
0.414176 0.253193 0.772549
0.482185 0.288151 0.633661
0.55021 0.323095 0.494774
0.618235 0.358053 0.355886
0.686244 0.392996 0.217014
0.754269 0.427939 0.0781262
0.822293 0.462898 0
0.890318 0.497841 0
0.227924 0.360189 1
0.295933 0.395148 0.91664
0.363958 0.430091 0.777768
0.431968 0.465049 0.63888
0.499992 0.499992 0.499992
0.568017 0.534936 0.361105
0.636027 0.569894 0.222217
0.704051 0.604837 0.0833448
0.772076 0.639796 0
0.109682 0.502144 1
0.177691 0.537087 1
0.245716 0.572045 0.921859
0.313741 0.606989 0.782971
0.38175 0.641932 0.644099
0.449775 0.67689 0.505211
0.5178 0.711833 0.366323
0.585809 0.746792 0.227436
0.653834 0.781735 0.0885634
0 0.644083 1
0.0594492 0.679042 1
0.127474 0.713985 1
0.195499 0.748943 0.927077
0.263523 0.783886 0.78819
0.331533 0.81883 0.649317
0.399558 0.853788 0.51043
0.467582 0.888731 0.371542
0.535592 0.92369 0.232654
0 0.786038 1
0 0.820981 1
0.00923171 0.85594 1
0.0772564 0.890883 1
0.145281 0.925826 0.932296
0.213306 0.960784 0.793408
0.281315 0.995727 0.654536
0.34934 1 0.515648
0.417365 1 0.376761
0 0.927977 1
0 0.962936 1
0 0.997879 1
0 1 1
0.027039 1 1
0.0950637 1 0.937514
0.163088 1 0.798627
0.231098 1 0.659739
0.299123 1 0.520867
0.876081 0 0.598901
0.944091 0 0.460044
1 0 0.321157
1 0 0.182269
1 0 0.0433814
1 0 0
1 0 0
1 0 0
1 0.0201267 0
0.757855 0 0.742992
0.825864 0 0.60412
0.893889 0 0.465248
0.961898 0 0.32636
1 0.0222629 0.187472
1 0.0572061 0.0485847
1 0.0921492 0
1 0.127108 0
1 0.162051 0
0.639612 0.0243992 0.887098
0.707622 0.0593576 0.748226
0.775647 0.0943008 0.609339
0.843671 0.129259 0.470451
0.911681 0.164202 0.331579
0.979706 0.199161 0.192691
1 0.234104 0.0538033
1 0.269047 0
1 0.304006 0
0.52137 0.166354 1
0.589395 0.201297 0.892332
0.657404 0.236255 0.753445
0.725429 0.271199 0.614557
0.793454 0.306157 0.47567
0.861463 0.3411 0.336797
0.929488 0.376043 0.19791
0.997513 0.411002 0.0590219
1 0.445945 0
0.403143 0.308293 1
0.471153 0.343252 1
0.539178 0.378195 0.897551
0.607187 0.413153 0.758663
0.675212 0.448096 0.619776
0.743236 0.483055 0.480888
0.811246 0.517998 0.342016
0.879271 0.552941 0.203128
0.947295 0.5879 0.0642405
0.284901 0.450248 1
0.352911 0.485191 1
0.420935 0.52015 1
0.48896 0.555093 0.90277
0.55697 0.590051 0.763882
0.624994 0.624994 0.624994
0.693019 0.659937 0.486107
0.761028 0.694896 0.347219
0.829053 0.729839 0.208347
0.166659 0.592187 1
0.234668 0.627146 1
0.302693 0.662089 1
0.370718 0.697047 1
0.438743 0.731991 0.907973
0.506752 0.766949 0.7691
0.574777 0.801892 0.630213
0.642802 0.836835 0.491325
0.710811 0.871794 0.352438
0.0484321 0.734142 1
0.116442 0.769085 1
0.184451 0.804044 1
0.252476 0.838987 1
0.3205 0.873945 1
0.388525 0.908888 0.913191
0.456535 0.943832 0.774319
0.524559 0.97879 0.635431
0.592584 1 0.496544
0 0.876081 1
0 0.91104 1
0.0662242 0.945983 1
0.134234 0.980941 1
0.202258 1 1
0.270283 1 1
0.338308 1 0.91841
0.406317 1 0.779538
0.474342 1 0.64065
1 0 0.7187
1 0 0.579828
1 0 0.44094
1 0 0.302052
1 0 0.16318
1 0 0.0242924
1 0 0
1 0 0
1 0 0
0.933074 0 0.862776
1 0 0.723903
1 0 0.585031
1 0 0.446143
1 0 0.307256
1 0.00531014 0.168368
1 0.0402686 0.0294957
1 0.0752117 0
1 0.110155 0
0.814832 0 1
0.882841 0.00746166 0.868009
0.950866 0.0424048 0.729122
1 0.0773632 0.590249
1 0.112306 0.451362
1 0.147265 0.312474
1 0.182208 0.173587
1 0.217151 0.034699
1 0.25211 0
0.69659 0.114458 1
0.764614 0.149401 1
0.832624 0.18436 0.873228
0.900649 0.219303 0.73434
0.968673 0.254261 0.595453
1 0.289204 0.45658
1 0.324163 0.317693
1 0.359106 0.178805
1 0.394049 0.0399176
0.578363 0.256413 1
0.646372 0.291356 1
0.714397 0.326299 1
0.782406 0.361257 0.878447
0.850431 0.396201 0.739559
0.918456 0.431159 0.600671
0.986465 0.466102 0.461799
1 0.501045 0.322911
1 0.536004 0.184024
0.460121 0.398352 1
0.52813 0.433295 1
0.596155 0.468254 1
0.664179 0.503197 1
0.732189 0.538155 0.883665
0.800214 0.573098 0.744778
0.868238 0.608057 0.60589
0.936248 0.643 0.467018
1 0.677943 0.32813
0.341878 0.540307 1
0.409888 0.57525 1
0.477913 0.610193 1
0.545937 0.645151 1
0.613962 0.680095 1
0.681971 0.715053 0.888884
0.749996 0.749996 0.749996
0.818021 0.784939 0.611109
0.88603 0.819898 0.472221
0.223651 0.682246 1
0.291661 0.717189 1
0.35967 0.752148 1
0.427695 0.787091 1
0.49572 0.822049 1
0.563745 0.856992 1
0.631754 0.891936 0.894102
0.699779 0.926894 0.755215
0.767803 0.961837 0.616327
0.105409 0.824186 1
0.173419 0.859144 1
0.241443 0.894087 1
0.309453 0.929046 1
0.377478 0.963989 1
0.445502 0.998947 1
0.513527 1 1
0.581537 1 0.899321
0.649561 1 0.760433
1 0 0.838483
1 0 0.699611
1 0 0.560723
1 0 0.421836
1 0 0.282963
1 0 0.144076
1 0 0.00518807
1 0 0
1 0 0
1 0 0.982559
1 0 0.843702
1 0 0.704814
1 0 0.565927
1 0 0.427039
1 0 0.288151
1 0 0.149279
1 0.0233158 0.0103914
1 0.0582589 0
0.990051 0 1
1 0 0.987793
1 0 0.848905
1 0.0254673 0.710033
1 0.0604105 0.571145
1 0.0953689 0.432258
1 0.130312 0.29337
1 0.16527 0.154498
1 0.200214 0.01561
0.871809 0.062562 1
0.939834 0.0975052 1
1 0.132464 0.993011
1 0.167407 0.854124
1 0.202365 0.715251
1 0.237308 0.576364
1 0.272267 0.437476
1 0.30721 0.298589
1 0.342153 0.159701
0.753582 0.204517 1
0.821591 0.23946 1
0.889616 0.274403 1
0.957626 0.309361 0.99823
1 0.344305 0.859342
1 0.379263 0.720455
1 0.414206 0.581582
1 0.449165 0.442695
1 0.484108 0.303807
0.63534 0.346456 1
0.703349 0.381399 1
0.771374 0.416358 1
0.839399 0.451301 1
0.907408 0.486259 1
0.975433 0.521202 0.864561
1 0.556161 0.725673
1 0.591104 0.586801
1 0.626047 0.447913
0.517098 0.488411 1
0.585107 0.523354 1
0.653132 0.558297 1
0.721157 0.593256 1
0.789181 0.628199 1
0.857191 0.663157 1
0.925216 0.6981 0.86978
0.99324 0.733059 0.730892
1 0.768002 0.59202
0.398871 0.63035 1
0.46688 0.665293 1
0.53489 0.700252 1
0.602914 0.735195 1
0.670939 0.770153 1
0.738964 0.805097 1
0.806973 0.840055 1
0.874998 0.874998 0.874998
0.943023 0.909941 0.73611
0.280629 0.772305 1
0.348638 0.807248 1
0.416663 0.842191 1
0.484672 0.87715 1
0.552697 0.912093 1
0.620722 0.947051 1
0.688746 0.981994 1
0.756756 1 1
0.824781 1 0.880217
1 0 0.958267
1 0 0.819394
1 0 0.680507
1 0 0.541619
1 0 0.402747
1 0 0.263859
1 0 0.124971
1 0 0
1 0 0
1 0 1
1 0 0.963485
1 0 0.824598
1 0 0.68571
1 0 0.546822
1 0 0.407935
1 0 0.269062
1 0 0.130175
1 0.00637827 0
1 0 1
1 0 1
1 0 0.968704
1 0 0.829816
1 0.00851453 0.690929
1 0.043473 0.552041
1 0.0784161 0.413153
1 0.113375 0.274281
1 0.148318 0.135393
1 0.0106661 1
1 0.0456092 1
1 0.0805676 1
1 0.115511 0.973907
1 0.150469 0.835035
1 0.185412 0.696147
1 0.220371 0.55726
1 0.255314 0.418372
1 0.290272 0.2795
0.928801 0.152621 1
0.996811 0.187564 1
1 0.222507 1
1 0.257465 1
1 0.292409 0.979126
1 0.327367 0.840253
1 0.36231 0.701366
1 0.397269 0.562478
1 0.432212 0.42359
0.810559 0.29456 1
0.878569 0.329503 1
0.946593 0.364462 1
1 0.399405 1
1 0.434363 1
1 0.469306 0.984344
1 0.504265 0.845457
1 0.539208 0.706584
1 0.574166 0.567697
0.692317 0.436515 1
0.760327 0.471458 1
0.828351 0.506401 1
0.896376 0.54136 1
0.964401 0.576303 1
1 0.611261 1
1 0.646204 0.989563
1 0.681163 0.850675
1 0.716106 0.711803
0.57409 0.578454 1
0.6421 0.613397 1
0.710109 0.648356 1
0.778134 0.683299 1
0.846159 0.718257 1
0.914183 0.753201 1
0.982193 0.788159 1
1 0.823102 0.994781
1 0.858061 0.855894
0.455848 0.720409 1
0.523857 0.755352 1
0.591882 0.790295 1
0.659892 0.825254 1
0.727916 0.860197 1
0.795941 0.895155 1
0.863966 0.930098 1
0.931975 0.965057 1
1 1 1
