public/LUTS/Color Shift/ColorShift_73.cube
TITLE "Generated by Resolve"
LUT_3D_SIZE 33
0 0 0
0.0477302 0 0
0.0954757 0 0
0.143221 0 0
0.190967 0 0
0.238727 0 0
0.286473 0 0
0.334218 0 0
0.381964 0 0
0.429709 0 0
0.47747 0 0
0.525216 0 0
0.572961 0 0
0.620706 0 0
0.668452 0 0
0.716213 0 0
0.763958 0 0
0.811704 0 0
0.859449 0 0
0.907195 0 0
0.954955 0 0
1 0 0
1 0 0
1 0 0
1 0 0
1 0 0
1 0 0
1 0 0
1 0 0
1 0 0
1 0 0
1 0 0
1 0 0
0 0.0381933 0
0.0300908 0.034165 0
0.0778363 0.0301213 0
0.125597 0.0260929 0
0.173342 0.0220645 0
0.221088 0.0180362 0
0.268833 0.0140078 0
0.316579 0.0099794 0
0.36434 0.00593576 0
0.412085 0.00190738 0
0.459831 0 0
0.507576 0 0
0.555322 0 0
0.603082 0 0
0.650828 0 0
0.698573 0 0
0.746319 0 0
0.794064 0 0
0.841825 0 0
0.88957 0 0
0.937316 0 0
0.985061 0 0
1 0 0
1 0 0
1 0 0
1 0 0
1 0 0
1 0 0
1 0 0
1 0 0
1 0 0
1 0 0
1 0 0
0 0.0764019 0
0.0124514 0.0723583 0
0.0601968 0.0683299 0
0.107942 0.0643015 0
0.155703 0.0602731 0
0.203449 0.0562448 0
0.251194 0.0522164 0
0.298939 0.0481727 0
0.346685 0.0441444 0
0.394446 0.040116 0
0.442191 0.0360876 0
0.489937 0.0320592 0
0.537682 0.0280308 0
0.585443 0.0239872 0
0.633188 0.0199588 0
0.680934 0.0159304 0
0.728679 0.011902 0
0.776425 0.00787366 0
0.824186 0.00384527 0
0.871931 0 0
0.919676 0 0
0.967422 0 0
1 0 0
1 0 0
1 0 0
1 0 0
1 0 0
1 0 0
1 0 0
1 0 0
1 0 0
1 0 0
1 0 0
0 0.114595 0
0 0.110567 0
0.0425574 0.106538 0
0.0903029 0.10251 0
0.138064 0.0984817 0
0.185809 0.0944533 0
0.233555 0.0904097 0
0.2813 0.0863813 0
0.329046 0.0823529 0
0.376806 0.0783246 0
0.424552 0.0742962 0
0.472297 0.0702678 0
0.520043 0.0662242 0
0.567788 0.0621958 0
0.615549 0.0581674 0
0.663294 0.054139 0
0.71104 0.0501106 0
0.758785 0.0460822 0
0.806531 0.0420386 0
0.854292 0.0380102 0
0.902037 0.0339818 0
0.949783 0.0299535 0
0.997528 0.0259251 0
1 0.0218967 0
1 0.0178531 0
1 0.0138247 0
1 0.00979629 0
1 0.00576791 0
1 0.00173953 0
1 0 0
1 0 0
1 0 0
1 0 0
0 0.152804 0
0 0.148775 0
0.024918 0.144747 0
0.0726635 0.140719 0
0.120409 0.13669 0
0.16817 0.132662 0
0.215915 0.128618 0
0.263661 0.12459 0
0.311406 0.120562 0
0.359152 0.116533 0
0.406912 0.112505 0
0.454658 0.108476 0
0.502403 0.104433 0
0.550149 0.100404 0
0.59791 0.096376 0
0.645655 0.0923476 0
0.693401 0.0883192 0
0.741146 0.0842756 0
0.788891 0.0802472 0
0.836652 0.0762188 0
0.884398 0.0721904 0
0.932143 0.0681621 0
0.979889 0.0641337 0
1 0.06009 0
1 0.0560616 0
1 0.0520333 0
1 0.0480049 0
1 0.0439765 0
1 0.0399481 0
1 0.0359045 0
1 0.0318761 0
1 0.0278477 0
1 0.0238193 0
0 0.191012 0
0 0.186984 0
0.00727855 0.182956 0
0.055024 0.178927 0
0.10277 0.174899 0
0.15053 0.170855 0
0.198276 0.166827 0
0.246021 0.162799 0
0.293767 0.15877 0
0.341512 0.154742 0
0.389273 0.150713 0
0.437018 0.14667 0
0.484764 0.142641 0
0.532509 0.138613 0
0.580255 0.134585 0
0.628016 0.130556 0
0.675761 0.126528 0
0.723507 0.122484 0
0.771252 0.118456 0
0.818998 0.114427 0
0.866758 0.110399 0
0.914504 0.106371 0
0.962249 0.102327 0
1 0.0982986 0
1 0.0942702 0
1 0.0902419 0
1 0.0862135 0
1 0.0821851 0
1 0.0781415 0
1 0.0741131 0
1 0.0700847 0
1 0.0660563 0
1 0.0620279 0
0 0.229221 0
0 0.225193 0
0 0.221164 0
0.0373846 0.217136 0
0.0851301 0.213107 0
0.132876 0.209064 0
0.180636 0.205035 0
0.228382 0.201007 0
0.276127 0.196979 0
0.323873 0.19295 0
0.371618 0.188907 0
0.419379 0.184878 0
0.467124 0.18085 0
0.51487 0.176822 0
0.562615 0.172793 0
0.610361 0.168765 0
0.658122 0.164721 0
0.705867 0.160693 0
0.753613 0.156664 0
0.801358 0.152636 0
0.849119 0.148608 0
0.896864 0.144579 0
0.94461 0.140536 0
0.992355 0.136507 0
1 0.132479 0
1 0.12845 0
1 0.124422 0
1 0.120378 0
1 0.11635 0
1 0.112322 0
1 0.108293 0
1 0.104265 0
1 0.100237 0
0 0.26743 0
0 0.263401 0
0 0.259373 0
0.0197452 0.255344 0
0.0674907 0.251301 0
0.115236 0.247272 0
0.162997 0.243244 0
0.210742 0.239216 0
0.258488 0.235187 0
0.306233 0.231159 0
0.353979 0.227115 0
0.40174 0.223087 0
0.449485 0.219059 0
0.49723 0.21503 0
0.544976 0.211002 0
0.592721 0.206958 0
0.640482 0.20293 0
0.688228 0.198901 0
0.735973 0.194873 0
0.783719 0.190845 0
0.831464 0.186816 0
0.879225 0.182773 0
0.92697 0.178744 0
0.974716 0.174716 0
1 0.170687 0
1 0.166659 0
1 0.162631 0
1 0.158587 0
1 0.154559 0
1 0.15053 0
1 0.146502 0
1 0.142473 0
1 0.13843 0
0 0.305638 0
0 0.30161 0
0 0.297581 0
0.00210575 0.293538 0
0.0498512 0.289509 0
0.0975967 0.285481 0
0.145342 0.281453 0
0.193103 0.277424 0
0.240848 0.273396 0
0.288594 0.269352 0
0.336339 0.265324 0
0.384085 0.261295 0
0.431846 0.257267 0
0.479591 0.253239 0
0.527337 0.24921 0
0.575082 0.245167 0
0.622827 0.241138 0
0.670588 0.23711 0
0.718334 0.233082 0
0.766079 0.229053 0
0.813825 0.22501 0
0.861585 0.220981 0
0.909331 0.216953 0
0.957076 0.212924 0
1 0.208896 0
1 0.204868 0
1 0.200824 0
1 0.196796 0
1 0.192767 0
1 0.188739 0
1 0.18471 0
1 0.180682 0
1 0.176638 0
0 0.343847 0
0 0.339818 0
0 0.33579 0
0 0.331746 0
0.0322118 0.327718 0
0.0799573 0.32369 0
0.127703 0.319661 0
0.175448 0.315633 0
0.223209 0.311589 0
0.270954 0.307561 0
0.3187 0.303532 0
0.366445 0.299504 0
0.414206 0.295476 0
0.461952 0.291447 0
0.509697 0.287404 0
0.557443 0.283375 0
0.605188 0.279347 0
0.652949 0.275319 0
0.700694 0.27129 0
0.74844 0.267262 0
0.796185 0.263218 0
0.843931 0.25919 0
0.891691 0.255161 0
0.939437 0.251133 0
0.987182 0.247105 0
1 0.243061 0
1 0.239033 0
1 0.235004 0
1 0.230976 0
1 0.226947 0
1 0.222919 0
1 0.218875 0
1 0.214847 0
0 0.382055 0
0 0.378027 0
0 0.373983 0
0 0.369955 0
0.0145724 0.365927 0
0.0623178 0.361898 0
0.110063 0.35787 0
0.157809 0.353841 0
0.20557 0.349798 0
0.253315 0.345769 0
0.30106 0.341741 0
0.348806 0.337713 0
0.396551 0.333684 0
0.444312 0.329641 0
0.492058 0.325612 0
0.539803 0.321584 0
0.587549 0.317556 0
0.635294 0.313527 0
0.683055 0.309499 0
0.7308 0.305455 0
0.778546 0.301427 0
0.826291 0.297398 0
0.874052 0.29337 0
0.921798 0.289342 0
0.969543 0.285313 0
1 0.28127 0
1 0.277241 0
1 0.273213 0
1 0.269184 0
1 0.265156 0
1 0.261112 0
1 0.257084 0
1 0.253056 0
0 0.420249 0
0 0.41622 0
0 0.412192 0
0 0.408164 0
0 0.404135 0
0.0446784 0.400107 0
0.0924239 0.396078 0
0.140169 0.392035 0
0.187915 0.388006 0
0.235676 0.383978 0
0.283421 0.37995 0
0.331167 0.375921 0
0.378912 0.371893 0
0.426673 0.367849 0
0.474418 0.363821 0
0.522164 0.359792 0
0.569909 0.355764 0
0.617655 0.351736 0
0.665415 0.347692 0
0.713161 0.343664 0
0.760906 0.339635 0
0.808652 0.335607 0
0.856397 0.331579 0
0.904158 0.32755 0
0.951904 0.323507 0
0.999649 0.319478 0
1 0.31545 0
1 0.311421 0
1 0.307393 0
1 0.303365 0
1 0.299321 0
1 0.295293 0
1 0.291264 0
0 0.458457 0
0 0.454429 0
0 0.450401 0
0 0.446372 0
0 0.442344 0
0.027039 0.438315 0
0.0747845 0.434272 0
0.12253 0.430243 0
0.170275 0.426215 0
0.218036 0.422187 0
0.265782 0.418158 0
0.313527 0.41413 0
0.361273 0.410086 0
0.409018 0.406058 0
0.456779 0.402029 0
0.504524 0.398001 0
0.55227 0.393973 0
0.600015 0.389944 0
0.647761 0.385901 0
0.695521 0.381872 0
0.743267 0.377844 0
0.791012 0.373816 0
0.838758 0.369787 0
0.886503 0.365743 0
0.934264 0.361715 0
0.98201 0.357687 0
1 0.353658 0
1 0.34963 0
1 0.345602 0
1 0.341558 0
1 0.33753 0
1 0.333501 0
1 0.329473 0
0 0.496666 0
0 0.492638 0
0 0.488609 0
0 0.484581 0
0 0.480552 0
0.00939956 0.476524 0
0.057145 0.47248 0
0.104891 0.468452 0
0.152636 0.464424 0
0.200381 0.460395 0
0.248142 0.456367 0
0.295888 0.452323 0
0.343633 0.448295 0
0.391379 0.444266 0
0.439139 0.440238 0
0.486885 0.43621 0
0.53463 0.432181 0
0.582376 0.428138 0
0.630121 0.424109 0
0.677882 0.420081 0
0.725628 0.416052 0
0.773373 0.412024 0
0.821118 0.407996 0
0.868864 0.403952 0
0.916625 0.399924 0
0.96437 0.395895 0
1 0.391867 0
1 0.387839 0
1 0.383795 0
1 0.379767 0
1 0.375738 0
1 0.37171 0
1 0.367681 0
0 0.534874 0
0 0.530846 0
0 0.526818 0
0 0.522789 0
0 0.518761 0
0 0.514717 0
0.0395056 0.510689 0
0.0872511 0.506661 0
0.134997 0.502632 0
0.182742 0.498604 0
0.230503 0.494575 0
0.278248 0.490532 0
0.325994 0.486503 0
0.373739 0.482475 0
0.421485 0.478447 0
0.469245 0.474418 0
0.516991 0.470375 0
0.564736 0.466346 0
0.612482 0.462318 0
0.660227 0.458289 0
0.707988 0.454261 0
0.755734 0.450233 0
0.803479 0.446189 0
0.851225 0.442161 0
0.89897 0.438132 0
0.946731 0.434104 0
0.994476 0.430076 0
1 0.426047 0
1 0.422004 0
1 0.417975 0
1 0.413947 0
1 0.409918 0
1 0.40589 0
0 0.573083 0
0 0.569055 0
0 0.565026 0
0 0.560998 0
0 0.556954 0
0 0.552926 0
0.0218662 0.548898 0
0.0696117 0.544869 0
0.117357 0.540841 0
0.165103 0.536812 0
0.212848 0.532769 0
0.260609 0.52874 0
0.308354 0.524712 0
0.3561 0.520684 0
0.403845 0.516655 0
0.451591 0.512627 0
0.499352 0.508583 0
0.547097 0.504555 0
0.594842 0.500526 0
0.642588 0.496498 0
0.690349 0.49247 0
0.738094 0.488426 0
0.78584 0.484398 0
0.833585 0.480369 0
0.881331 0.476341 0
0.929091 0.472313 0
0.976837 0.468284 0
1 0.46424 0
1 0.460212 0
1 0.456184 0
1 0.452155 0
1 0.448127 0
1 0.444099 0
0 0.611292 0
0 0.607263 0
0 0.603235 0
0 0.599207 0
0 0.595163 0
0 0.591134 0
0.00422675 0.587106 0
0.0519722 0.583078 0
0.0997177 0.579049 0
0.147463 0.575006 0
0.195209 0.570977 0
0.242969 0.566949 0
0.290715 0.562921 0
0.33846 0.558892 0
0.386206 0.554864 0
0.433951 0.55082 0
0.481712 0.546792 0
0.529458 0.542763 0
0.577203 0.538735 0
0.624949 0.534707 0
0.672694 0.530678 0
0.720455 0.526635 0
0.7682 0.522606 0
0.815946 0.518578 0
0.863691 0.514549 0
0.911437 0.510521 0
0.959197 0.506477 0
1 0.502449 0
1 0.498421 0
1 0.494392 0
1 0.490364 0
1 0.486336 0
1 0.482292 0
0 0.6495 0
0 0.645472 0
0 0.641443 0
0 0.6374 0
0 0.633371 0
0 0.629343 0
0 0.625315 0
0.0343328 0.621286 0
0.0820783 0.617258 0
0.129824 0.613214 0
0.177569 0.609186 0
0.225315 0.605158 0
0.273075 0.601129 0
0.320821 0.597101 0
0.368566 0.593057 0
0.416312 0.589029 0
0.464057 0.585 0
0.511818 0.580972 0
0.559564 0.576944 0
0.607309 0.572915 0
0.655055 0.568872 0
0.702815 0.564843 0
0.750561 0.560815 0
0.798306 0.556786 0
0.846052 0.552758 0
0.893797 0.54873 0
0.941558 0.544686 0
0.989303 0.540658 0
1 0.536629 0
1 0.532601 0
1 0.528572 0
1 0.524529 0
1 0.5205 0
0 0.687709 0
0 0.68368 0
0 0.679637 0
0 0.675608 0
0 0.67158 0
0 0.667552 0
0 0.663523 0
0.0166781 0.659495 0
0.0644388 0.655451 0
0.112184 0.651423 0
0.15993 0.647395 0
0.207675 0.643366 0
0.255436 0.639338 0
0.303181 0.635309 0
0.350927 0.631266 0
0.398672 0.627237 0
0.446418 0.623209 0
0.494179 0.619181 0
0.541924 0.615152 0
0.58967 0.611109 0
0.637415 0.60708 0
0.685161 0.603052 0
0.732921 0.599023 0
0.780667 0.594995 0
0.828412 0.590967 0
0.876158 0.586923 0
0.923903 0.582895 0
0.971664 0.578866 0
1 0.574838 0
1 0.570809 0
1 0.566781 0
1 0.562737 0
1 0.558709 0
0 0.725917 0
0 0.721889 0
0 0.717845 0
0 0.713817 0
0 0.709789 0
0 0.70576 0
0 0.701732 0
0 0.697688 0
0.0467994 0.69366 0
0.0945449 0.689632 0
0.14229 0.685603 0
0.190036 0.681575 0
0.237781 0.677546 0
0.285542 0.673503 0
0.333288 0.669474 0
0.381033 0.665446 0
0.428779 0.661418 0
0.476524 0.657389 0
0.524285 0.653361 0
0.57203 0.649317 0
0.619776 0.645289 0
0.667521 0.64126 0
0.715282 0.637232 0
0.763027 0.633204 0
0.810773 0.62916 0
0.858518 0.625132 0
0.906264 0.621103 0
0.954025 0.617075 0
1 0.613046 0
1 0.609018 0
1 0.604974 0
1 0.600946 0
1 0.596918 0
0 0.764111 0
0 0.760082 0
0 0.756054 0
0 0.752026 0
0 0.747997 0
0 0.743969 0
0 0.73994 0
0 0.735897 0
0.0291447 0.731868 0
0.0769055 0.72784 0
0.124651 0.723812 0
0.172396 0.719783 0
0.220142 0.71574 0
0.267903 0.711711 0
0.315648 0.707683 0
0.363394 0.703655 0
0.411139 0.699626 0
0.458885 0.695598 0
0.506645 0.691554 0
0.554391 0.687526 0
0.602136 0.683497 0
0.649882 0.679469 0
0.697627 0.675441 0
0.745388 0.671412 0
0.793133 0.667369 0
0.840879 0.66334 0
0.888624 0.659312 0
0.93637 0.655283 0
0.984131 0.651255 0
1 0.647211 0
1 0.643183 0
1 0.639155 0
1 0.635126 0
0 0.802319 0
0 0.798291 0
0 0.794263 0
0 0.790234 0
0 0.786206 0
0 0.782177 0
0 0.778134 0
0 0.774105 0
0.0115053 0.770077 0
0.059266 0.766049 0
0.107012 0.76202 0
0.154757 0.757992 0
0.202502 0.753948 0
0.250248 0.74992 0
0.298009 0.745892 0
0.345754 0.741863 0
0.3935 0.737835 0
0.441245 0.733791 0
0.488991 0.729763 0
0.536751 0.725734 0
0.584497 0.721706 0
0.632242 0.717678 0
0.679988 0.713649 0
0.727749 0.709606 0
0.775494 0.705577 0
0.82324 0.701549 0
0.870985 0.69752 0
0.91873 0.693492 0
0.966491 0.689464 0
1 0.68542 0
1 0.681392 0
1 0.677363 0
1 0.673335 0
0 0.840528 0
0 0.8365 0
0 0.832471 0
0 0.828443 0
0 0.824414 0
0 0.820371 0
0 0.816342 0
0 0.812314 0
0 0.808286 0
0.0416114 0.804257 0
0.0893721 0.800229 0
0.137118 0.796185 0
0.184863 0.792157 0
0.232609 0.788128 0
0.280369 0.7841 0
0.328115 0.780072 0
0.37586 0.776043 0
0.423606 0.772 0
0.471351 0.767971 0
0.519112 0.763943 0
0.566857 0.759915 0
0.614603 0.755886 0
0.662348 0.751842 0
0.710094 0.747814 0
0.757855 0.743786 0
0.8056 0.739757 0
0.853346 0.735729 0
0.901091 0.731701 0
0.948837 0.727657 0
0.996597 0.723629 0
1 0.7196 0
1 0.715572 0
1 0.711543 0
0 0.878737 0
0 0.874708 0
0 0.87068 0
0 0.866651 0
0 0.862623 0
0 0.858579 0
0 0.854551 0
0 0.850523 0
0 0.846494 0
0.0239719 0.842466 0
0.0717327 0.838422 0
0.119478 0.834394 0
0.167224 0.830365 0
0.214969 0.826337 0
0.262715 0.822309 0
0.310475 0.81828 0
0.358221 0.814237 0
0.405966 0.810208 0
0.453712 0.80618 0
0.501457 0.802152 0
0.549218 0.798123 0
0.596963 0.794095 0
0.644709 0.790051 0
0.692454 0.786023 0
0.7402 0.781994 0
0.787961 0.777966 0
0.835706 0.773938 0
0.883452 0.769894 0
0.931197 0.765866 0
0.978958 0.761837 0
1 0.757809 0
1 0.75378 0
1 0.749752 0
0 0.916945 0
0 0.912917 0
0 0.908888 0
0 0.90486 0
0 0.900816 0
0 0.896788 0
0 0.89276 0
0 0.888731 0
0 0.884703 0
0.00633249 0.880674 0
0.054078 0.876631 0
0.101839 0.872602 0
0.149584 0.868574 0
0.19733 0.864546 0
0.245075 0.860517 0
0.292821 0.856474 0
0.340581 0.852445 0
0.388327 0.848417 0
0.436072 0.844388 0
0.483818 0.84036 0
0.531579 0.836332 0
0.579324 0.832288 0
0.62707 0.82826 0
0.674815 0.824231 0
0.72256 0.820203 0
0.770321 0.816175 0
0.818067 0.812146 0
0.865812 0.808103 0
0.913558 0.804074 0
0.961303 0.800046 0
1 0.796017 0
1 0.791989 0
1 0.787945 0
0 0.955154 0
0 0.951125 0
0 0.947097 0
0 0.943053 0
0 0.939025 0
0 0.934997 0
0 0.930968 0
0 0.92694 0
0 0.922911 0
0 0.918868 0
0.0364385 0.914839 0
0.0841993 0.910811 0
0.131945 0.906783 0
0.17969 0.902754 0
0.227436 0.898726 0
0.275181 0.894682 0
0.322942 0.890654 0
0.370687 0.886625 0
0.418433 0.882597 0
0.466178 0.878569 0
0.513924 0.874525 0
0.561685 0.870497 0
0.60943 0.866468 0
0.657176 0.86244 0
0.704921 0.858412 0
0.752667 0.854383 0
0.800427 0.85034 0
0.848173 0.846311 0
0.895918 0.842283 0
0.943664 0.838254 0
0.991424 0.834226 0
1 0.830198 0
1 0.826154 0
0 0.993362 0
0 0.989334 0
0 0.985306 0
0 0.981262 0
0 0.977234 0
0 0.973205 0
0 0.969177 0
0 0.965148 0
0 0.961105 0
0 0.957076 0
0.0187991 0.953048 0
0.0665446 0.94902 0
0.114305 0.944991 0
0.162051 0.940963 0
0.209796 0.936919 0
0.257542 0.932891 0
0.305287 0.928862 0
0.353048 0.924834 0
0.400793 0.920806 0
0.448539 0.916777 0
0.496284 0.912734 0
0.544045 0.908705 0
0.591791 0.904677 0
0.639536 0.900649 0
0.687282 0.89662 0
0.735027 0.892576 0
0.782788 0.888548 0
0.830533 0.88452 0
0.878279 0.880491 0
0.926024 0.876463 0
0.97377 0.872435 0
1 0.868391 0
1 0.864363 0
0 1 0
0 1 0
0 1 0
0 1 0
0 1 0
0 1 0
0 1 0
0 1 0
0 0.999313 0
