public/LUTS/Color Shift/ColorShift_74.cube
TITLE "Generated by Resolve"
LUT_3D_SIZE 5
0 0 0
0.393179 0 0
0.786374 0 0
1 0 0
1 0 0
0 0.298833 0
0.290486 0.257939 0
0.68368 0.217029 0
1 0.17612 0
1 0.135225 0
0 0.597681 0
0.187778 0.556786 0
0.580972 0.515877 0
0.974166 0.474983 0
1 0.434073 0
0 0.896544 0
0.0850843 0.855634 0
0.478279 0.81474 0
0.871473 0.773831 0
1 0.732921 0
0 1 0
0 1 0
0.37557 1 0
0.76878 1 0
1 1 0
0 0 0.406271
0.352682 0 0.39028
0.745876 0 0.374289
1 0 0.358297
1 0 0.342306
0 0.290883 0.26598
0.249989 0.249989 0.249989
0.643183 0.209079 0.233997
1 0.168185 0.218006
1 0.127275 0.202014
0 0.589746 0.125689
0.147295 0.548837 0.109697
0.54049 0.507942 0.0937057
0.933684 0.467033 0.0777142
1 0.426123 0.0617227
0 0.888594 0
0.0445869 0.8477 0
0.437781 0.80679 0
0.830976 0.765881 0
1 0.724987 0
0 1 0
0 1 0
0.335088 1 0
0.728283 1 0
1 1 0
0 0 0.812558
0.312184 0 0.796567
0.705394 0 0.780575
1 0 0.764584
1 0 0.748592
0 0.282948 0.672267
0.209491 0.242039 0.656275
0.602686 0.201144 0.640284
0.995895 0.160235 0.624292
1 0.119326 0.608301
0 0.581796 0.531975
0.106798 0.540902 0.515984
0.499992 0.499992 0.499992
0.893187 0.459083 0.484001
1 0.418189 0.468009
0 0.880644 0.391669
0.00408942 0.83975 0.375692
0.397299 0.79884 0.359701
0.790494 0.757946 0.343709
1 0.717037 0.327718
0 1 0.251377
0 1 0.235386
0.294591 1 0.219394
0.687785 1 0.203403
1 1 0.187411
0 0 1
0.271702 0 1
0.664897 0 1
1 0 1
1 0 1
0 0.274998 1
0.169009 0.234104 1
0.562203 0.193194 1
0.955398 0.152285 1
1 0.111391 1
0 0.573846 0.938262
0.0663005 0.532952 0.922271
0.459495 0.492042 0.906279
0.852689 0.451148 0.890288
1 0.410239 0.874296
0 0.872709 0.797971
0 0.8318 0.781979
0.356802 0.790906 0.765988
0.749996 0.749996 0.749996
1 0.709087 0.734005
0 1 0.657664
0 1 0.641688
0.254093 1 0.625696
0.647303 1 0.609705
1 1 0.593713
0 0 1
0.231205 0 1
0.624399 0 1
1 0 1
1 0 1
0 0.267063 1
0.128511 0.226154 1
0.521706 0.185245 1
0.9149 0.14435 1
1 0.103441 1
0 0.565911 1
0.025803 0.525002 1
0.419013 0.484108 1
0.812207 0.443198 1
1 0.402289 1
0 0.864759 1
0 0.823865 1
0.316304 0.782956 1
0.709499 0.742046 1
1 0.701152 1
0 1 1
0 1 1
0.213611 1 1
0.606806 1 1
1 1 1
