public/LUTS/Color Shift/ColorShift_70.cube
TITLE "Generated by Resolve"
LUT_3D_SIZE 5
0 0 0
0.318288 0.00108339 0
0.636576 0.00218204 0
0.954879 0.00326543 0
1 0.00434882 0
0 0.31342 0.030457
0.0938125 0.314504 0
0.412116 0.315587 0
0.730419 0.316686 0
1 0.317769 0
0 0.626841 0.0608988
0 0.627939 0
0.18764 0.629023 0
0.505943 0.630106 0
0.824231 0.631205 0
0 0.940276 0.0913558
0 0.941375 0
0 0.942458 0
0.281453 0.943542 0
0.599756 0.94464 0
0 1 0.121798
0 1 0
0 1 0
0.0569772 1 0
0.37528 1 0
0.156176 0 0.387366
0.474449 0 0.219532
0.792752 0 0.0516976
1 0 0
1 0 0
0 0.248905 0.417807
0.249989 0.249989 0.249989
0.568292 0.251072 0.0821546
0.886595 0.252171 0
1 0.253254 0
0 0.562341 0.448264
0.0255131 0.563424 0.280446
0.343816 0.564508 0.112612
0.662104 0.565591 0
0.980407 0.56669 0
0 0.875761 0.478721
0 0.87686 0.310887
0.119326 0.877943 0.143053
0.437629 0.879026 0
0.755932 0.880125 0
0 1 0.509163
0 1 0.341344
0 1 0.17351
0.213153 1 0.00567636
0.531456 1 0
0.312352 0 0.774746
0.63064 0 0.606928
0.948928 0 0.439094
1 0 0.27126
1 0 0.103426
0.087892 0.18439 0.805203
0.406165 0.185473 0.637369
0.724468 0.186557 0.469535
1 0.18764 0.301701
1 0.188739 0.133867
0 0.49781 0.83566
0.181689 0.498909 0.667826
0.499992 0.499992 0.499992
0.818296 0.501076 0.332158
1 0.502174 0.164324
0 0.811246 0.866102
0 0.812345 0.698283
0.275517 0.813428 0.530449
0.59382 0.814511 0.362615
0.912108 0.815595 0.194766
0 1 0.896559
0 1 0.728725
0.0510414 1 0.560891
0.369329 1 0.393057
0.687633 1 0.225223
0.468544 0 1
0.786816 0 0.994308
1 0 0.826474
1 0 0.65864
1 0 0.490806
0.244068 0.11986 1
0.562356 0.120958 1
0.880659 0.122042 0.856931
1 0.123125 0.689097
1 0.124224 0.521263
0.0195926 0.433295 1
0.337881 0.434394 1
0.656168 0.435477 0.887373
0.974472 0.436561 0.719539
1 0.437644 0.551705
0 0.746731 1
0.11339 0.747814 1
0.431693 0.748913 0.91783
0.749996 0.749996 0.749996
1 0.75108 0.582162
0 1 1
0 1 1
0.207218 1 0.948287
0.525521 1 0.780453
0.843824 1 0.612619
0.62472 0 1
0.942992 0 1
1 0 1
1 0 1
1 0 0.878202
0.400259 0.0553445 1
0.718532 0.0564431 1
1 0.0575265 1
1 0.0586099 1
1 0.0596933 0.908644
0.175784 0.36878 1
0.494057 0.369863 1
0.81236 0.370962 1
1 0.372045 1
1 0.373129 0.939101
0 0.682216 1
0.269581 0.683299 1
0.587884 0.684398 1
0.906172 0.685481 1
1 0.686564 0.969543
0 0.995651 1
0.0451057 0.996735 1
0.363394 0.997818 1
0.681697 0.998917 1
1 1 1
