public/LUTS/Color Shift/ColorShift_79.cube
TITLE "Generated by Resolve"
LUT_3D_SIZE 9
0 0 0
0.184024 0 0.0963302
0.368078 0 0.192676
0.552117 0 0.289021
0.736171 0 0.385367
0.920211 0 0.481712
1 0 0.578073
1 0 0.674418
1 0 0.770764
0.0704051 0.119341 0
0.254429 0.08925 0
0.438483 0.059144 0.072282
0.622522 0.0290379 0.168627
0.806577 0 0.264973
0.990616 0 0.361318
1 0 0.457664
1 0 0.554009
1 0 0.650355
0.14081 0.238697 0
0.324849 0.208606 0
0.508888 0.1785 0
0.692943 0.148409 0.0482185
0.876982 0.118303 0.144564
1 0.0881971 0.240909
1 0.0580911 0.337255
1 0.0280003 0.4336
1 0 0.529946
0.211231 0.358068 0
0.395254 0.327962 0
0.579309 0.297856 0
0.763348 0.267765 0
0.947402 0.237659 0.024155
1 0.207553 0.1205
1 0.177462 0.216846
1 0.147356 0.313191
1 0.11725 0.409537
0.281651 0.477424 0
0.465675 0.447318 0
0.649714 0.417227 0
0.833768 0.387121 0
1 0.357015 0
1 0.326909 7.62951e-05
1 0.296818 0.096437
1 0.266712 0.192782
1 0.236606 0.289128
0.352056 0.59678 0
0.53608 0.566674 0
0.720134 0.536583 0
0.904173 0.506477 0
1 0.476371 0
1 0.446281 0
1 0.416175 0
1 0.386069 0.0723583
1 0.355978 0.168704
0.422477 0.716136 0
0.6065 0.686046 0
0.790539 0.65594 0
0.974594 0.625834 0
1 0.595743 0
1 0.565637 0
1 0.535531 0
1 0.505425 0
1 0.475334 0.0482948
0.492882 0.835492 0
0.676905 0.805402 0
0.86096 0.775296 0
1 0.74519 0
1 0.715099 0
1 0.684993 0
1 0.654887 0
1 0.624796 0
1 0.59469 0
0.563302 0.954864 0
0.747326 0.924758 0
0.931365 0.894652 0
1 0.864561 0
1 0.834455 0
1 0.804349 0
1 0.774258 0
1 0.744152 0
1 0.714046 0
0 0.0357366 0.14905
0.0545815 0.00564584 0.24538
0.238636 0 0.341726
0.422675 0 0.438071
0.606729 0 0.534417
0.790768 0 0.630762
0.974823 0 0.727123
1 0 0.823468
1 0 0.919814
0 0.155077 0.0286564
0.124987 0.124987 0.124987
0.309041 0.0948806 0.221332
0.49308 0.0647898 0.317678
0.677134 0.0346838 0.414023
0.861173 0.00457771 0.510369
1 0 0.606714
1 0 0.703059
1 0 0.799405
0.011368 0.274449 0
0.195407 0.244343 0.00457771
0.379446 0.214237 0.100923
0.5635 0.184146 0.197269
0.747539 0.15404 0.293614
0.931594 0.123934 0.38996
1 0.093843 0.486305
1 0.0637369 0.58265
1 0.0336309 0.678996
0.0817884 0.393805 0
0.265812 0.363699 0
0.449866 0.333608 0
0.633906 0.303502 0.0768597
0.81796 0.273396 0.173205
1 0.243305 0.269551
1 0.213199 0.365896
1 0.183093 0.462242
1 0.152987 0.558587
0.152193 0.513161 0
0.336233 0.48307 0
0.520272 0.452964 0
0.704326 0.422858 0
0.888365 0.392752 0.052781
1 0.362661 0.149126
1 0.332555 0.245487
1 0.302449 0.341833
1 0.272358 0.438178
0.222614 0.632517 0
0.406638 0.602426 0
0.590692 0.57232 0
0.774731 0.542214 0
0.958785 0.512123 0
1 0.482017 0.0287175
1 0.451911 0.125063
1 0.42182 0.221408
1 0.391714 0.317754
0.293034 0.751873 0
0.477058 0.721782 0
0.661097 0.691676 0
0.845151 0.66157 0
1 0.631479 0
1 0.601373 0
1 0.571267 0.004654
1 0.541176 0.100999
1 0.51107 0.197345
0.363439 0.871244 0
0.547463 0.841138 0
0.731517 0.811032 0
0.915557 0.780941 0
1 0.750835 0
1 0.720729 0
1 0.690639 0
1 0.660533 0
1 0.630426 0.076936
0.43386 0.9906 0
0.617884 0.960494 0
0.801923 0.930404 0
0.985977 0.900298 0
1 0.870192 0
1 0.840085 0
1 0.809995 0
1 0.779889 0
1 0.749783 0
0 0.0714885 0.298116
0 0.0413825 0.394446
0.109178 0.0112917 0.490806
0.293217 0 0.587152
0.477272 0 0.683497
0.661311 0 0.779843
0.845365 0 0.876188
1 0 0.972534
1 0 1
0 0.190829 0.177722
0 0.160739 0.274052
0.179568 0.130632 0.370398
0.363622 0.100526 0.466743
0.547677 0.0704204 0.563088
0.731716 0.0403296 0.659434
0.91577 0.0102235 0.755779
1 0 0.852125
1 0 0.948486
0 0.310185 0.0573129
0.0659342 0.280095 0.153643
0.249989 0.249989 0.249989
0.434043 0.219883 0.346334
0.618082 0.189792 0.442679
0.802136 0.159686 0.539025
0.986175 0.12958 0.63537
1 0.0994736 0.731716
1 0.0693828 0.828061
0 0.429541 0
0.136355 0.399451 0.0332341
0.320409 0.369345 0.12958
0.504448 0.339239 0.225925
0.688502 0.309148 0.322271
0.872541 0.279042 0.418616
1 0.248936 0.514961
1 0.218845 0.611307
1 0.188739 0.707652
0.0227359 0.548913 0
0.20676 0.518807 0
0.390814 0.488701 0.00917067
0.574868 0.45861 0.105516
0.758907 0.428504 0.201862
0.942962 0.398398 0.298207
1 0.368307 0.394553
1 0.338201 0.490898
1 0.308095 0.587243
0.0931563 0.668269 0
0.27718 0.638163 0
0.461234 0.608072 0
0.645274 0.577966 0
0.829328 0.54786 0.0814374
1 0.517754 0.177783
1 0.487663 0.274128
1 0.457557 0.370489
1 0.427451 0.466835
0.163561 0.787625 0
0.347601 0.757519 0
0.53164 0.727428 0
0.715694 0.697322 0
0.899733 0.667216 0
1 0.637125 0.0573739
1 0.607019 0.153719
1 0.576913 0.250065
1 0.546822 0.34641
0.233982 0.906981 0
0.418006 0.87689 0
0.60206 0.846784 0
0.786099 0.816678 0
0.970153 0.786587 0
1 0.756481 0
1 0.726375 0.0333104
1 0.696269 0.129656
1 0.666178 0.226001
0.304387 1 0
0.488426 0.996246 0
0.672465 0.96614 0
0.856519 0.936034 0
1 0.905943 0
1 0.875837 0
1 0.845731 0
1 0.815641 0.00924697
1 0.785534 0.105592
0 0.107225 0.447181
0 0.0771344 0.543526
0 0.0470283 0.639872
0.16376 0.0169223 0.736217
0.347814 0 0.832563
0.531853 0 0.928908
0.715908 0 1
0.899947 0 1
1 0 1
0 0.226581 0.326787
0 0.196475 0.423117
0.0501106 0.166369 0.519463
0.234165 0.136278 0.615808
0.418219 0.106172 0.712169
0.602258 0.0760662 0.808515
0.786313 0.0459754 0.90486
0.970352 0.0158694 1
1 0 1
0 0.345937 0.206378
0 0.315831 0.302708
0.120531 0.28574 0.399054
0.30457 0.255634 0.495399
0.488624 0.225528 0.591745
0.672679 0.195422 0.68809
0.856718 0.165331 0.784436
1 0.135225 0.880781
1 0.105119 0.977127
0 0.465293 0.0859693
0.00689708 0.435187 0.1823
0.190936 0.405097 0.278645
0.37499 0.37499 0.37499
0.559045 0.344884 0.471336
0.743084 0.314794 0.567681
0.927138 0.284688 0.664027
1 0.254582 0.760372
1 0.224475 0.856718
0 0.584649 0
0.0773022 0.554559 0.0618906
0.261357 0.524453 0.158236
0.445411 0.494347 0.254582
0.62945 0.46424 0.350927
0.813504 0.43415 0.447272
0.997543 0.404044 0.543618
1 0.373938 0.639963
1 0.343847 0.736309
0 0.704005 0
0.147723 0.673915 0
0.331762 0.643809 0.0378119
0.515816 0.613703 0.134173
0.69987 0.583612 0.230518
0.883909 0.553506 0.326863
1 0.5234 0.423209
1 0.493309 0.519554
1 0.463203 0.6159
0.0341039 0.823362 0
0.218128 0.793271 0
0.402182 0.763165 0
0.586236 0.733074 0.0137484
0.770275 0.702968 0.110094
0.95433 0.672862 0.206439
1 0.642756 0.302785
1 0.612665 0.39913
1 0.582559 0.495491
0.104524 0.942733 0
0.288548 0.912627 0
0.472602 0.882521 0
0.656641 0.85243 0
0.840696 0.822324 0
1 0.792218 0.0860304
1 0.762127 0.182376
1 0.732021 0.278721
1 0.701915 0.375067
0.174929 1 0
0.358953 1 0
0.543008 1 0
0.727062 0.971786 0
0.911101 0.94168 0
1 0.911589 0
1 0.881483 0.0619669
1 0.851377 0.158312
1 0.821271 0.254658
0 0.142977 0.596262
0 0.112871 0.692592
0 0.0827802 0.788937
0.0343023 0.0526741 0.885283
0.218341 0.0225681 0.981628
0.402396 0 1
0.58645 0 1
0.770489 0 1
0.954543 0 1
0 0.262318 0.475853
0 0.232227 0.572198
0 0.202121 0.668544
0.104707 0.172015 0.764889
0.288746 0.141909 0.861234
0.472801 0.111818 0.95758
0.656855 0.0817121 1
0.840894 0.051606 1
1 0.0215152 1
0 0.381674 0.355444
0 0.351583 0.451774
0 0.321477 0.548119
0.175113 0.291371 0.644465
0.359167 0.26128 0.74081
0.543221 0.231174 0.837171
0.72726 0.201068 0.933516
0.911315 0.170977 1
1 0.140871 1
0 0.50103 0.235035
0 0.470939 0.331365
0.0614786 0.440833 0.42771
0.245533 0.410742 0.524056
0.429572 0.380636 0.620401
0.613626 0.35053 0.716747
0.797681 0.320424 0.813092
0.98172 0.290333 0.909438
1 0.260227 1
0 0.620401 0.114626
0 0.590295 0.210956
0.131899 0.560189 0.307301
0.315938 0.530098 0.403647
0.499992 0.499992 0.499992
0.684047 0.469886 0.596338
0.868086 0.439796 0.692683
1 0.409689 0.789029
1 0.379583 0.885374
0 0.739757 0
0.018265 0.709651 0.090547
0.202304 0.679561 0.186892
0.386358 0.649454 0.283238
0.570413 0.619348 0.379583
0.754452 0.589242 0.475929
0.938506 0.559152 0.572274
1 0.529046 0.66862
1 0.498939 0.764965
0 0.859113 0
0.0886702 0.829007 0
0.272725 0.798917 0.0664683
0.456764 0.768811 0.162814
0.640818 0.738705 0.259174
0.824872 0.708614 0.35552
1 0.678508 0.451865
1 0.648402 0.548211
1 0.618311 0.644556
0 0.978469 0
0.159091 0.948379 0
0.34313 0.918273 0
0.527184 0.888167 0.0424048
0.711238 0.858076 0.13875
0.895277 0.82797 0.235096
1 0.797864 0.331441
1 0.767758 0.427787
1 0.737667 0.524132
0.0454719 1 0
0.229496 1 0
0.41355 1 0
0.597604 1 0
0.781643 0.977432 0.0183413
0.965698 0.947326 0.114687
1 0.91722 0.211032
1 0.887129 0.307378
1 0.857023 0.403723
0 0.178714 0.745327
0 0.148623 0.841657
0 0.118517 0.938003
0 0.0884108 1
0.0888838 0.05832 1
0.272938 0.0282139 1
0.456992 0 1
0.641032 0 1
0.825086 0 1
0 0.29807 0.624918
0 0.267964 0.721263
0 0.237858 0.817609
0 0.207767 0.913954
0.159289 0.177661 1
0.343343 0.147555 1
0.527382 0.117464 1
0.711437 0.0873579 1
0.895491 0.0572519 1
0 0.417426 0.504509
0 0.38732 0.600855
0 0.357229 0.6972
0.045655 0.327123 0.793545
0.229709 0.297017 0.889891
0.413748 0.266911 0.986236
0.597803 0.23682 1
0.781857 0.206714 1
0.965896 0.176608 1
0 0.536782 0.3841
0 0.506676 0.48043
0 0.476585 0.576776
0.116075 0.446479 0.673121
0.300114 0.416373 0.769467
0.484169 0.386282 0.865812
0.668223 0.356176 0.962173
0.852262 0.32607 1
1 0.295979 1
0 0.656138 0.263691
0 0.626047 0.360021
0.00244144 0.595941 0.456367
0.186481 0.565835 0.552712
0.370535 0.535744 0.649058
0.554574 0.505638 0.745403
0.738628 0.475532 0.841749
0.922683 0.445426 0.938094
1 0.415335 1
0 0.775494 0.143282
0 0.745403 0.239612
0.0728466 0.715297 0.335958
0.256901 0.685191 0.432303
0.44094 0.6551 0.528649
0.624994 0.624994 0.624994
0.809049 0.594888 0.72134
0.993088 0.564797 0.817685
1 0.534691 0.914031
0 0.89485 0.022858
0 0.864759 0.119203
0.143267 0.834653 0.215549
0.327306 0.804562 0.311894
0.51136 0.774456 0.40824
0.695415 0.74435 0.504585
0.879454 0.714244 0.600931
1 0.684153 0.697276
1 0.654047 0.793622
0 1 0
0.029633 0.984115 0
0.213672 0.954009 0.0951247
0.397726 0.923919 0.19147
0.581765 0.893812 0.287816
0.76582 0.863706 0.384176
0.949874 0.833616 0.480522
1 0.80351 0.576867
1 0.773404 0.673213
0 1 0
0.100038 1 0
0.284092 1 0
0.468132 1 0.0710613
0.652186 1 0.167407
0.83624 0.983078 0.263752
1 0.952972 0.360098
1 0.922866 0.456443
1 0.89276 0.552789
0 0.214466 0.894392
0 0.18436 0.990723
0 0.154269 1
0 0.124163 1
0 0.0940566 1
0.143481 0.0639658 1
0.32752 0.0338598 1
0.511574 0.00375372 1
0.695628 0 1
0 0.333806 0.773999
0 0.303716 0.870329
0 0.27361 0.966674
0 0.243503 1
0.0298314 0.213413 1
0.213886 0.183307 1
0.397925 0.153201 1
0.581979 0.123095 1
0.766033 0.0930037 1
0 0.453162 0.653574
0 0.423072 0.74992
0 0.392966 0.846265
0 0.36286 0.942611
0.100252 0.332769 1
0.284291 0.302663 1
0.468345 0.272557 1
0.652384 0.242466 1
0.836439 0.21236 1
0 0.572519 0.533165
0 0.542428 0.629496
0 0.512322 0.725856
0 0.482231 0.822202
0.170657 0.452125 0.918547
0.354711 0.422019 1
0.53875 0.391913 1
0.722805 0.361822 1
0.906859 0.331716 1
0 0.69189 0.412757
0 0.661784 0.509087
0 0.631678 0.605432
0.057023 0.601587 0.701778
0.241077 0.571481 0.798123
0.425116 0.541375 0.894469
0.609171 0.511284 0.990814
0.793225 0.481178 1
0.977264 0.451072 1
0 0.811246 0.292348
0 0.78114 0.388678
0 0.751049 0.485023
0.127443 0.720943 0.581369
0.311482 0.690837 0.677714
0.495537 0.660746 0.77406
0.679576 0.63064 0.870405
0.86363 0.600534 0.966751
1 0.570428 1
0 0.930602 0.171923
0 0.900511 0.268269
0.0138094 0.870405 0.364614
0.197848 0.840299 0.46096
0.381903 0.810193 0.557305
0.565942 0.780102 0.653651
0.749996 0.749996 0.749996
0.934051 0.71989 0.846342
1 0.689799 0.942687
0 1 0.0515145
0 1 0.14786
0.0842145 0.989761 0.244205
0.268269 0.959655 0.340551
0.452308 0.929564 0.436896
0.636362 0.899458 0.533242
0.820417 0.869352 0.629587
1 0.839246 0.725933
1 0.809155 0.822278
0 1 0
0 1 0.0274357
0.154635 1 0.123781
0.338674 1 0.220127
0.522728 1 0.316472
0.706767 1 0.412818
0.890822 0.988708 0.509178
1 0.958618 0.605524
1 0.928512 0.701869
0 0.250202 1
0 0.220111 1
0 0.190005 1
0 0.159915 1
0 0.129809 1
0.014023 0.0997024 1
0.198062 0.0695964 1
0.382116 0.0395056 1
0.566155 0.00939956 1
0 0.369558 0.923064
0 0.339452 1
0 0.309346 1
0 0.279255 1
0 0.249149 1
0.0844282 0.219043 1
0.268467 0.188952 1
0.452522 0.158846 1
0.636561 0.12874 1
0 0.488914 0.802655
0 0.458808 0.898985
0 0.428717 0.995331
0 0.398611 1
0 0.368505 1
0.154833 0.338415 1
0.338888 0.308309 1
0.522927 0.278202 1
0.706981 0.248096 1
0 0.60827 0.682231
0 0.57818 0.778576
0 0.548074 0.874922
0 0.517968 0.971267
0.0411994 0.487861 1
0.225254 0.457771 1
0.409293 0.427665 1
0.593347 0.397559 1
0.777386 0.367468 1
0 0.727626 0.561822
0 0.697536 0.658152
0 0.66743 0.754498
0 0.637324 0.850858
0.11162 0.607233 0.947204
0.295659 0.577127 1
0.479713 0.547021 1
0.663752 0.516915 1
0.847807 0.486824 1
0 0.846983 0.441413
0 0.816892 0.537743
0 0.786786 0.634089
0 0.75668 0.730434
0.182025 0.726589 0.82678
0.366079 0.696483 0.923125
0.550118 0.666377 1
0.734173 0.636286 1
0.918227 0.60618 1
0 0.966354 0.321004
0 0.936248 0.417334
0 0.906142 0.51368
0.0683909 0.876051 0.610025
0.252445 0.845945 0.706371
0.436484 0.815839 0.802716
0.620539 0.785748 0.899062
0.804578 0.755642 0.995407
0.988632 0.725536 1
0 1 0.20058
0 1 0.296925
0 1 0.393271
0.138811 0.995407 0.489616
0.32285 0.965301 0.585962
0.506905 0.935195 0.682307
0.690944 0.905104 0.778653
0.874998 0.874998 0.874998
1 0.844892 0.971344
0 1 0.0801709
0 1 0.176501
0.0251774 1 0.272862
0.209216 1 0.369207
0.393271 1 0.465553
0.57731 1 0.561898
0.761364 1 0.658244
0.945418 0.994354 0.754589
1 0.964248 0.850935
0 0.285954 1
0 0.255848 1
0 0.225757 1
0 0.195651 1
0 0.165545 1
0 0.135454 1
0.0686046 0.105348 1
0.252659 0.0752422 1
0.436698 0.0451514 1
0 0.405295 1
0 0.375204 1
0 0.345098 1
0 0.314992 1
0 0.284901 1
0 0.254795 1
0.13901 0.224689 1
0.323064 0.194583 1
0.507103 0.164492 1
0 0.524651 0.95172
0 0.49456 1
0 0.464454 1
0 0.434348 1
0 0.404257 1
0.0253758 0.374151 1
0.20943 0.344045 1
0.393469 0.313954 1
0.577523 0.283848 1
0 0.644007 0.831312
0 0.613916 0.927642
0 0.58381 1
0 0.553719 1
0 0.523613 1
0.0957961 0.493507 1
0.279835 0.463416 1
0.46389 0.43331 1
0.647929 0.403204 1
0 0.763378 0.710887
0 0.733272 0.807233
0 0.703182 0.903578
0 0.673075 0.999924
0 0.642969 1
0.166201 0.612863 1
0.350256 0.582773 1
0.534295 0.552666 1
0.718349 0.52256 1
0 0.882734 0.590478
0 0.852628 0.686809
0 0.822538 0.783154
0 0.792432 0.879499
0.0525673 0.762325 0.97586
0.236622 0.732235 1
0.420661 0.702129 1
0.604715 0.672023 1
0.788754 0.641917 1
0 1 0.470069
0 0.972 0.5664
0 0.941894 0.662745
0 0.911788 0.759091
0.122988 0.881682 0.855436
0.307027 0.851591 0.951782
0.491081 0.821485 1
0.67512 0.791379 1
0.859174 0.761288 1
0 1 0.34966
0 1 0.445991
0 1 0.542336
0.00935378 1 0.638682
0.193393 1 0.735027
0.377447 0.970947 0.831373
0.561486 0.940841 0.927718
0.745541 0.91075 1
0.92958 0.880644 1
0 1 0.229236
0 1 0.325582
0 1 0.421927
0.0797589 1 0.518273
0.263813 1 0.614618
0.447852 1 0.710964
0.631907 1 0.807309
0.815946 1 0.903655
1 1 1
