public/LUTS/Color Shift/ColorShift_56.cube
TITLE "Generated by Resolve"
LUT_3D_SIZE 5
0 0 0
0 0.160708 0
0 0.321431 0
0 0.482155 0
0 0.642878 0
0.102296 0.143877 0.586664
0 0.304585 0.426429
0 0.465309 0.266163
0 0.626032 0.105913
0 0.786755 0
0.204608 0.287755 1
0 0.448463 1
0 0.609186 0.852872
0 0.769909 0.692622
0 0.930632 0.532372
0.30692 0.431632 1
0.0898756 0.59234 1
0 0.753063 1
0 0.913787 1
0 1 1
0.409232 0.575509 1
0.192187 0.736233 1
0 0.896941 1
0 1 1
0 1 1
0.364736 0 0
0.147692 0.106111 0
0 0.266835 0
0 0.427558 0
0 0.588281 0
0.467033 0.0892805 0.410224
0.249989 0.249989 0.249989
0.032929 0.410712 0.0897383
0 0.571435 0
0 0.732158 0
0.569345 0.233158 0.996933
0.3523 0.393866 0.836683
0.135241 0.554589 0.676432
0 0.715312 0.516182
0 0.876036 0.355932
0.671656 0.377035 1
0.454612 0.537743 1
0.237552 0.698466 1
0.0204929 0.85919 1
0 1 0.942626
0.773953 0.520912 1
0.556909 0.681636 1
0.339864 0.842359 1
0.122805 1 1
0 1 1
0.729488 0 0
0.512444 0.0515145 0
0.295384 0.212238 0
0.0783246 0.372961 0
0 0.533684 0
0.831785 0.0346838 0.233783
0.61474 0.195392 0.0735485
0.397681 0.356115 0
0.180621 0.516838 0
0 0.677562 0
0.934096 0.178561 0.820493
0.717052 0.339269 0.660243
0.499992 0.499992 0.499992
0.282933 0.660716 0.339742
0.0658732 0.821439 0.179492
1 0.322438 1
0.819364 0.483146 1
0.602304 0.64387 1
0.385245 0.804593 0.926436
0.168185 0.965316 0.766186
1 0.466316 1
0.92166 0.627024 1
0.704616 0.787747 1
0.487556 0.94847 1
0.270497 1 1
1 0 0
0.877195 0 0
0.660136 0.157641 0
0.443076 0.318364 0
0.226017 0.479088 0
1 0 0.0573434
0.979492 0.140795 0
0.762432 0.301518 0
0.545373 0.462242 0
0.328328 0.622965 0
1 0.123964 0.644038
1 0.284672 0.483803
0.864744 0.445396 0.323552
0.647684 0.606119 0.163302
0.430625 0.766842 0.0030518
1 0.267842 1
1 0.42855 1
0.967056 0.589273 0.910246
0.749996 0.749996 0.749996
0.532937 0.910719 0.589746
1 0.411719 1
1 0.572427 1
1 0.73315 1
0.852308 0.893874 1
0.635248 1 1
1 0 0
1 0 0
1 0.103044 0
0.807828 0.263767 0
0.590768 0.424491 0
1 0 0
1 0.0861982 0
1 0.246921 0
0.910124 0.40763 0
0.69308 0.568353 0
1 0.0693523 0.467597
1 0.230076 0.307362
1 0.390799 0.147112
1 0.551522 0
0.795377 0.712245 0
1 0.213245 1
1 0.373953 0.894057
1 0.534676 0.733806
1 0.695399 0.573556
0.897688 0.856123 0.413306
1 0.357122 1
1 0.51783 1
1 0.678553 1
1 0.839277 1
1 1 1
