public/LUTS/Color Shift/ColorShift_82.cube
TITLE "Generated by Resolve"
LUT_3D_SIZE 33
0 0 0
0.0365454 0 0.0370794
0.0730907 0 0.0741741
0.109651 0 0.111269
0.146212 0 0.148363
0.182773 0 0.185473
0.219333 0 0.222568
0.255894 0 0.259663
0.292439 0 0.296757
0.329 0 0.333852
0.36556 0 0.370947
0.402121 0 0.408042
0.438682 0 0.445151
0.475242 0 0.482246
0.511788 0 0.519341
0.548348 0 0.556435
0.584909 0 0.59353
0.621469 0 0.630625
0.65803 0 0.66772
0.694591 0 0.704829
0.731136 0 0.741924
0.767697 0 0.779019
0.804257 0 0.816114
0.840818 0 0.853208
0.877379 0 0.890303
0.913924 0 0.927413
0.950484 0 0.964508
0.987045 0 1
1 0 1
1 0 1
1 0 1
1 0 1
1 0 1
0.0374609 0.0236057 0
0.0740063 0.0172427 0.00898756
0.110552 0.0108949 0.0460822
0.147112 0.00453193 0.0831769
0.183673 0 0.120272
0.220233 0 0.157382
0.256794 0 0.194476
0.293355 0 0.231571
0.3299 0 0.268666
0.366461 0 0.30576
0.403021 0 0.342855
0.439582 0 0.37995
0.476143 0 0.41706
0.512703 0 0.454154
0.549249 0 0.491249
0.585809 0 0.528344
0.62237 0 0.565438
0.65893 0 0.602533
0.695491 0 0.639628
0.732052 0 0.676738
0.768597 0 0.713832
0.805158 0 0.750927
0.841718 0 0.788022
0.878279 0 0.825116
0.914839 0 0.862211
0.951385 0 0.899306
0.987945 0 0.936416
1 0 0.97351
1 0 1
1 0 1
1 0 1
1 0 1
1 0 1
0.0749371 0.0472267 0
0.111482 0.0408637 0
0.148043 0.0345006 0.0179751
0.184588 0.0281529 0.0550698
0.221149 0.0217899 0.0921645
0.25771 0.0154269 0.129274
0.29427 0.00906386 0.166369
0.330831 0.00270085 0.203464
0.367391 0 0.240558
0.403937 0 0.277653
0.440497 0 0.314748
0.477058 0 0.351858
0.513619 0 0.388952
0.550179 0 0.426047
0.58674 0 0.463142
0.623285 0 0.500237
0.659846 0 0.537331
0.696406 0 0.574426
0.732967 0 0.611536
0.769528 0 0.64863
0.806088 0 0.685725
0.842634 0 0.72282
0.879194 0 0.759915
0.915755 0 0.797009
0.952316 0 0.834104
0.988876 0 0.871214
1 0 0.908309
1 0 0.945403
1 0 0.982498
1 0 1
1 0 1
1 0 1
1 0 1
0.112413 0.0708476 0
0.148959 0.0644846 0
0.185519 0.0581216 0
0.22208 0.0517739 0.0269627
0.25864 0.0454108 0.0640726
0.295186 0.0390478 0.101167
0.331746 0.0326848 0.138262
0.368307 0.0263218 0.175357
0.404868 0.0199588 0.212451
0.441428 0.0135958 0.249546
0.477974 0.00723278 0.286641
0.514534 0.000869764 0.323751
0.551095 0 0.360845
0.587655 0 0.39794
0.624216 0 0.435035
0.660777 0 0.472129
0.697322 0 0.509224
0.733883 0 0.546319
0.770443 0 0.583429
0.807004 0 0.620523
0.843565 0 0.657618
0.880125 0 0.694713
0.916671 0 0.731807
0.953231 0 0.768902
0.989792 0 0.806012
1 0 0.843107
1 0 0.880201
1 0 0.917296
1 0 0.954391
1 0 0.991485
1 0 1
1 0 1
1 0 1
0.149905 0.0944686 0
0.186435 0.0881056 0
0.222995 0.0817426 0
0.259556 0.0753796 0
0.296117 0.0690318 0.0359655
0.332677 0.0626688 0.0730602
0.369223 0.0563058 0.110155
0.405783 0.0499428 0.14725
0.442344 0.0435798 0.184344
0.478904 0.0372168 0.221439
0.515465 0.0308537 0.258549
0.55201 0.0244907 0.295644
0.588571 0.0181277 0.332738
0.625132 0.0117647 0.369833
0.661692 0.00540169 0.406928
0.698253 0 0.444022
0.734813 0 0.481117
0.771359 0 0.518227
0.807919 0 0.555322
0.84448 0 0.592416
0.881041 0 0.629511
0.917601 0 0.666606
0.954162 0 0.7037
0.990707 0 0.740795
1 0 0.777905
1 0 0.815
1 0 0.852094
1 0 0.889189
1 0 0.926284
1 0 0.963378
1 0 1
1 0 1
1 0 1
0.187381 0.11809 0
0.223911 0.111727 0
0.260471 0.105364 0
0.297032 0.0990005 0
0.333593 0.0926375 0.0078584
0.370153 0.0862898 0.0449531
0.406714 0.0799268 0.0820478
0.443259 0.0735637 0.119142
0.47982 0.0672007 0.156237
0.516381 0.0608377 0.193332
0.552941 0.0544747 0.230442
0.589502 0.0481117 0.267536
0.626062 0.0417487 0.304631
0.662608 0.0353857 0.341726
0.699168 0.0290227 0.37882
0.735729 0.0226596 0.415915
0.77229 0.0162966 0.453025
0.80885 0.00993362 0.49012
0.845396 0.00358587 0.527214
0.881956 0 0.564309
0.918517 0 0.601404
0.955077 0 0.638498
0.991638 0 0.675593
1 0 0.712703
1 0 0.749798
1 0 0.786892
1 0 0.823987
1 0 0.861082
1 0 0.898177
1 0 0.935271
1 0 0.972381
1 0 1
1 0 1
0.224857 0.141711 0
0.261402 0.135348 0
0.297948 0.128985 0
0.334508 0.122621 0
0.371069 0.116258 0
0.40763 0.109895 0.016846
0.44419 0.103548 0.0539406
0.480751 0.0971847 0.0910353
0.517296 0.0908217 0.12813
0.553857 0.0844587 0.16524
0.590417 0.0780957 0.202335
0.626978 0.0717327 0.239429
0.663539 0.0653697 0.276524
0.700099 0.0590066 0.313619
0.736645 0.0526436 0.350713
0.773205 0.0462806 0.387808
0.809766 0.0399176 0.424918
0.846326 0.0335546 0.462013
0.882887 0.0271916 0.499107
0.919432 0.0208438 0.536202
0.955993 0.0144808 0.573297
0.992554 0.0081178 0.610391
1 0.00175479 0.647486
1 0 0.684596
1 0 0.721691
1 0 0.758785
1 0 0.79588
1 0 0.832975
1 0 0.870069
1 0 0.907179
1 0 0.944274
1 0 0.981369
1 0 1
0.262333 0.165331 0
0.298878 0.158968 0
0.335439 0.152605 0
0.371984 0.146242 0
0.408545 0.139879 0
0.445106 0.133516 0
0.481666 0.127169 0.0258335
0.518227 0.120806 0.0629282
0.554788 0.114443 0.100023
0.591333 0.10808 0.137133
0.627894 0.101717 0.174228
0.664454 0.0953536 0.211322
0.701015 0.0889906 0.248417
0.737575 0.0826276 0.285512
0.774136 0.0762646 0.322606
0.810681 0.0699016 0.359716
0.847242 0.0635386 0.396811
0.883803 0.0571756 0.433906
0.920363 0.0508125 0.471
0.956924 0.0444495 0.508095
0.993469 0.0381018 0.54519
1 0.0317388 0.582284
1 0.0253758 0.619394
1 0.0190127 0.656489
1 0.0126497 0.693584
1 0.00628672 0.730678
1 0 0.767773
1 0 0.804868
1 0 0.841962
1 0 0.879072
1 0 0.916167
1 0 0.953262
1 0 0.990356
0.299809 0.188952 0
0.336355 0.182589 0
0.372915 0.176226 0
0.409476 0.169863 0
0.446021 0.1635 0
0.482582 0.157137 0
0.519142 0.150774 0
0.555703 0.144427 0.0348211
0.592264 0.138064 0.071931
0.628824 0.131701 0.109026
0.66537 0.125338 0.14612
0.70193 0.118975 0.183215
0.738491 0.112612 0.22031
0.775051 0.106249 0.257404
0.811612 0.0998856 0.294499
0.848173 0.0935225 0.331609
0.884718 0.0871595 0.368704
0.921279 0.0807965 0.405798
0.957839 0.0744335 0.442893
0.9944 0.0680705 0.479988
1 0.0617075 0.517082
1 0.0553597 0.554177
1 0.0489967 0.591287
1 0.0426337 0.628382
1 0.0362707 0.665476
1 0.0299077 0.702571
1 0.0235447 0.739666
1 0.0171817 0.776761
1 0.0108186 0.81387
1 0.00445563 0.850965
1 0 0.88806
1 0 0.925155
1 0 0.962249
0.337301 0.212573 0
0.373831 0.20621 0
0.410391 0.199847 0
0.446952 0.193484 0
0.483513 0.187121 0
0.520058 0.180758 0
0.556619 0.174395 0
0.593179 0.168032 0.00672923
0.62974 0.161685 0.0438239
0.6663 0.155322 0.0809186
0.702861 0.148959 0.118013
0.739406 0.142596 0.155108
0.775967 0.136233 0.192203
0.812528 0.12987 0.229297
0.849088 0.123507 0.266407
0.885649 0.117144 0.303502
0.92221 0.11078 0.340597
0.958755 0.104417 0.377691
0.995315 0.0980545 0.414786
1 0.0916915 0.451881
1 0.0853285 0.488975
1 0.0789807 0.526085
1 0.0726177 0.56318
1 0.0662547 0.600275
1 0.0598917 0.637369
1 0.0535286 0.674464
1 0.0471656 0.711559
1 0.0408026 0.748653
1 0.0344396 0.785763
1 0.0280766 0.822858
1 0.0217136 0.859953
1 0.0153506 0.897047
1 0.00898756 0.934142
0.374777 0.236194 0
0.411307 0.229831 0
0.447868 0.223468 0
0.484428 0.217105 0
0.520989 0.210742 0
0.557549 0.204379 0
0.59411 0.198016 0
0.630655 0.191653 0
0.667216 0.18529 0.0157168
0.703777 0.178943 0.0528115
0.740337 0.17258 0.0899062
0.776898 0.166217 0.127001
0.813443 0.159854 0.164096
0.850004 0.15349 0.20119
0.886564 0.147127 0.2383
0.923125 0.140764 0.275395
0.959686 0.134401 0.31249
0.996246 0.128038 0.349584
1 0.121675 0.386679
1 0.115312 0.423774
1 0.108949 0.460883
1 0.102586 0.497978
1 0.0962387 0.535073
1 0.0898756 0.572168
1 0.0835126 0.609262
1 0.0771496 0.646357
1 0.0707866 0.683452
1 0.0644236 0.720562
1 0.0580606 0.757656
1 0.0516976 0.794751
1 0.0453346 0.831846
1 0.0389715 0.86894
1 0.0326085 0.906035
0.412253 0.259815 0
0.448798 0.253452 0
0.485344 0.247089 0
0.521904 0.240726 0
0.558465 0.234363 0
0.595026 0.228 0
0.631586 0.221637 0
0.668147 0.215274 0
0.704692 0.208911 0
0.741253 0.202548 0.0247044
0.777813 0.196201 0.061799
0.814374 0.189837 0.0988937
0.850935 0.183474 0.135988
0.88748 0.177111 0.173098
0.924041 0.170748 0.210193
0.960601 0.164385 0.247288
0.997162 0.158022 0.284382
1 0.151659 0.321477
1 0.145296 0.358572
1 0.138933 0.395666
1 0.13257 0.432776
1 0.126207 0.469871
1 0.119844 0.506966
1 0.113497 0.54406
1 0.107134 0.581155
1 0.100771 0.61825
1 0.0944076 0.655344
1 0.0880446 0.692454
1 0.0816815 0.729549
1 0.0753185 0.766644
1 0.0689555 0.803738
1 0.0625925 0.840833
1 0.0562295 0.877928
0.449729 0.283436 0
0.486275 0.277073 0
0.522835 0.27071 0
0.55938 0.264347 0
0.595941 0.257984 0
0.632502 0.251621 0
0.669062 0.245258 0
0.705623 0.238895 0
0.742184 0.232532 0
0.778729 0.226169 0
0.81529 0.219821 0.0336919
0.85185 0.213458 0.0707866
0.888411 0.207095 0.107897
0.924971 0.200732 0.144991
0.961517 0.194369 0.182086
0.998077 0.188006 0.219181
1 0.181643 0.256275
1 0.17528 0.29337
1 0.168917 0.330465
1 0.162554 0.367575
1 0.156191 0.404669
1 0.149828 0.441764
1 0.143465 0.478859
1 0.137102 0.515953
1 0.130755 0.553048
1 0.124392 0.590143
1 0.118029 0.627253
1 0.111666 0.664347
1 0.105303 0.701442
1 0.0989395 0.738537
1 0.0925765 0.775631
1 0.0862135 0.812726
1 0.0798505 0.849821
0.487205 0.307042 0
0.523751 0.300694 0
0.560311 0.294331 0
0.596872 0.287968 0
0.633417 0.281605 0
0.669978 0.275242 0
0.706538 0.268879 0
0.743099 0.262516 0
0.77966 0.256153 0
0.81622 0.24979 0
0.852766 0.243427 0.0055848
0.889326 0.237079 0.0426795
0.925887 0.230716 0.0797894
0.962448 0.224353 0.116884
0.999008 0.21799 0.153979
1 0.211627 0.191073
1 0.205264 0.228168
1 0.198901 0.265263
1 0.192538 0.302358
1 0.186175 0.339467
1 0.179812 0.376562
1 0.173449 0.413657
1 0.167086 0.450752
1 0.160723 0.487846
1 0.154376 0.524941
1 0.148013 0.562051
1 0.141649 0.599145
1 0.135286 0.63624
1 0.128923 0.673335
1 0.12256 0.71043
1 0.116197 0.747524
1 0.109834 0.784619
1 0.103471 0.821729
0.524681 0.330663 0
0.561227 0.324315 0
0.597787 0.317952 0
0.634348 0.311589 0
0.670909 0.305226 0
0.707454 0.298863 0
0.744015 0.2925 0
0.780575 0.286137 0
0.817136 0.279774 0
0.853697 0.273411 0
0.890257 0.267048 0
0.926802 0.260685 0.0145876
0.963363 0.254337 0.0516823
0.999924 0.247974 0.088777
1 0.241611 0.125872
1 0.235248 0.162966
1 0.228885 0.200061
1 0.222522 0.237156
1 0.216159 0.274266
1 0.209796 0.31136
1 0.203433 0.348455
1 0.19707 0.38555
1 0.190707 0.422644
1 0.184344 0.459739
1 0.177981 0.496834
1 0.171633 0.533944
1 0.16527 0.571038
1 0.158907 0.608133
1 0.152544 0.645228
1 0.146181 0.682322
1 0.139818 0.719417
1 0.133455 0.756512
1 0.127092 0.793622
0.562173 0.354284 0
0.598703 0.347936 0
0.635264 0.341573 0
0.671824 0.33521 0
0.708385 0.328847 0
0.744945 0.322484 0
0.781491 0.316121 0
0.818051 0.309758 0
0.854612 0.303395 0
0.891173 0.297032 0
0.927733 0.290669 0
0.964294 0.284306 0
1 0.277943 0.0235752
1 0.271595 0.0606699
1 0.265232 0.0977646
1 0.258869 0.134859
1 0.252506 0.171954
1 0.246143 0.209049
1 0.23978 0.246159
1 0.233417 0.283253
1 0.227054 0.320348
1 0.220691 0.357443
1 0.214328 0.394537
1 0.207965 0.431632
1 0.201602 0.468742
1 0.195239 0.505837
1 0.188891 0.542931
1 0.182528 0.580026
1 0.176165 0.617121
1 0.169802 0.654215
1 0.163439 0.69131
1 0.157076 0.72842
1 0.150713 0.765515
0.599649 0.377905 0
0.636194 0.371557 0
0.67274 0.365194 0
0.7093 0.358831 0
0.745861 0.352468 0
0.782422 0.346105 0
0.818982 0.339742 0
0.855528 0.333379 0
0.892088 0.327016 0
0.928649 0.320653 0
0.965209 0.31429 0
1 0.307927 0
1 0.301564 0
1 0.295216 0.0325628
1 0.288853 0.0696574
1 0.28249 0.106752
1 0.276127 0.143847
1 0.269764 0.180957
1 0.263401 0.218051
1 0.257038 0.255146
1 0.250675 0.292241
1 0.244312 0.329335
1 0.237949 0.36643
1 0.231586 0.403525
1 0.225223 0.440635
1 0.21886 0.477729
1 0.212497 0.514824
1 0.206149 0.551919
1 0.199786 0.589014
1 0.193423 0.626108
1 0.18706 0.663218
1 0.180697 0.700313
1 0.174334 0.737408
0.637125 0.401526 0
0.673671 0.395178 0
0.710231 0.388815 0
0.746777 0.382452 0
0.783337 0.376089 0
0.819898 0.369726 0
0.856458 0.363363 0
0.893019 0.357 0
0.92958 0.350637 0
0.966125 0.344274 0
1 0.337911 0
1 0.331548 0
1 0.325185 0
1 0.318822 0.00445563
1 0.312474 0.0415503
1 0.306111 0.078645
1 0.299748 0.115755
1 0.293385 0.15285
1 0.287022 0.189944
1 0.280659 0.227039
1 0.274296 0.264134
1 0.267933 0.301228
1 0.26157 0.338323
1 0.255207 0.375433
1 0.248844 0.412528
1 0.242481 0.449622
1 0.236118 0.486717
1 0.22977 0.523812
1 0.223407 0.560906
1 0.217044 0.598001
1 0.210681 0.635111
1 0.204318 0.672206
1 0.197955 0.7093
0.674601 0.425147 0
0.711147 0.418784 0
0.747707 0.412436 0
0.784268 0.406073 0
0.820813 0.39971 0
0.857374 0.393347 0
0.893935 0.386984 0
0.930495 0.380621 0
0.967056 0.374258 0
1 0.367895 0
1 0.361532 0
1 0.355169 0
1 0.348806 0
1 0.342443 0
1 0.33608 0.0134432
1 0.329732 0.0505379
1 0.323369 0.0876478
1 0.317006 0.124743
1 0.310643 0.161837
1 0.30428 0.198932
1 0.297917 0.236027
1 0.291554 0.273121
1 0.285191 0.310216
1 0.278828 0.347326
1 0.272465 0.384421
1 0.266102 0.421515
1 0.259739 0.45861
1 0.253376 0.495705
1 0.247028 0.532799
1 0.240665 0.569909
1 0.234302 0.607004
1 0.227939 0.644099
1 0.221576 0.681193
0.712077 0.448768 0
0.748623 0.442405 0
0.785183 0.436057 0
0.821744 0.429694 0
0.858305 0.423331 0
0.89485 0.416968 0
0.931411 0.410605 0
0.967971 0.404242 0
1 0.397879 0
1 0.391516 0
1 0.385153 0
1 0.37879 0
1 0.372427 0
1 0.366064 0
1 0.359701 0
1 0.353338 0.022446
1 0.34699 0.0595407
1 0.340627 0.0966354
1 0.334264 0.13373
1 0.327901 0.170825
1 0.321538 0.207919
1 0.315175 0.245014
1 0.308812 0.282124
1 0.302449 0.319219
1 0.296086 0.356313
1 0.289723 0.393408
1 0.28336 0.430503
1 0.276997 0.467597
1 0.270634 0.504692
1 0.264286 0.541802
1 0.257923 0.578897
1 0.25156 0.615991
1 0.245197 0.653086
0.749569 0.472389 0
0.786099 0.466026 0
0.82266 0.459663 0
0.85922 0.453315 0
0.895781 0.446952 0
0.932342 0.440589 0
0.968887 0.434226 0
1 0.427863 0
1 0.4215 0
1 0.415137 0
1 0.408774 0
1 0.402411 0
1 0.396048 0
1 0.389685 0
1 0.383322 0
1 0.376959 0
1 0.370611 0.0314336
1 0.364248 0.0685283
1 0.357885 0.105623
1 0.351522 0.142718
1 0.345159 0.179812
1 0.338796 0.216922
1 0.332433 0.254017
1 0.32607 0.291112
1 0.319707 0.328206
1 0.313344 0.365301
1 0.306981 0.402396
1 0.300618 0.43949
1 0.294255 0.4766
1 0.287892 0.513695
1 0.281544 0.55079
1 0.275181 0.587884
1 0.268818 0.624979
0.787045 0.49601 0
0.823575 0.489647 0
0.860136 0.483284 0
0.896696 0.476921 0
0.933257 0.470573 0
0.969818 0.46421 0
1 0.457847 0
1 0.451484 0
1 0.445121 0
1 0.438758 0
1 0.432395 0
1 0.426032 0
1 0.419669 0
1 0.413306 0
1 0.406943 0
1 0.40058 0
1 0.394217 0.00332647
1 0.387869 0.0404212
1 0.381506 0.0775158
1 0.375143 0.114611
1 0.36878 0.151705
1 0.362417 0.188815
1 0.356054 0.22591
1 0.349691 0.263005
1 0.343328 0.300099
1 0.336965 0.337194
1 0.330602 0.374289
1 0.324239 0.411383
1 0.317876 0.448493
1 0.311513 0.485588
1 0.305165 0.522683
1 0.298802 0.559777
1 0.292439 0.596872
0.824521 0.519631 0
0.861067 0.513268 0
0.897627 0.506905 0
0.934173 0.500542 0
0.970733 0.494179 0
1 0.487831 0
1 0.481468 0
1 0.475105 0
1 0.468742 0
1 0.462379 0
1 0.456016 0
1 0.449653 0
1 0.44329 0
1 0.436927 0
1 0.430564 0
1 0.424201 0
1 0.417838 0
1 0.411475 0.012314
1 0.405127 0.0494087
1 0.398764 0.0865034
1 0.392401 0.123613
1 0.386038 0.160708
1 0.379675 0.197803
1 0.373312 0.234897
1 0.366949 0.271992
1 0.360586 0.309087
1 0.354223 0.346181
1 0.34786 0.383291
1 0.341497 0.420386
1 0.335134 0.457481
1 0.328771 0.494575
1 0.322423 0.53167
1 0.31606 0.568765
0.861997 0.543252 0
0.898543 0.536889 0
0.935103 0.530526 0
0.971664 0.524163 0
1 0.5178 0
1 0.511452 0
1 0.505089 0
1 0.498726 0
1 0.492363 0
1 0.486 0
1 0.479637 0
1 0.473274 0
1 0.466911 0
1 0.460548 0
1 0.454185 0
1 0.447822 0
1 0.441459 0
1 0.435096 0
1 0.428733 0.0213016
1 0.422385 0.0583963
1 0.416022 0.0955062
1 0.409659 0.132601
1 0.403296 0.169696
1 0.396933 0.20679
1 0.39057 0.243885
1 0.384207 0.28098
1 0.377844 0.31809
1 0.371481 0.355184
1 0.365118 0.392279
1 0.358755 0.429374
1 0.352392 0.466468
1 0.346029 0.503563
1 0.339681 0.540658
0.899474 0.566873 0
0.936019 0.56051 0
0.97258 0.554147 0
1 0.547784 0
1 0.541421 0
1 0.535058 0
1 0.52871 0
1 0.522347 0
1 0.515984 0
1 0.509621 0
1 0.503258 0
1 0.496895 0
1 0.490532 0
1 0.484169 0
1 0.477806 0
1 0.471443 0
1 0.46508 0
1 0.458717 0
1 0.452354 0
1 0.446006 0.0303044
1 0.439643 0.0673991
1 0.43328 0.104494
1 0.426917 0.141588
1 0.420554 0.178683
1 0.414191 0.215778
1 0.407828 0.252872
1 0.401465 0.289982
1 0.395102 0.327077
1 0.388739 0.364172
1 0.382376 0.401266
1 0.376013 0.438361
1 0.36965 0.475456
1 0.363287 0.512551
0.936965 0.590494 0
0.973495 0.584131 0
1 0.577768 0
1 0.571405 0
1 0.565042 0
1 0.558679 0
1 0.552316 0
1 0.545968 0
1 0.539605 0
1 0.533242 0
1 0.526879 0
1 0.520516 0
1 0.514153 0
1 0.50779 0
1 0.501427 0
1 0.495064 0
1 0.488701 0
1 0.482338 0
1 0.475975 0
1 0.469612 0.0021973
1 0.463264 0.039292
1 0.456901 0.0763867
1 0.450538 0.113481
1 0.444175 0.150576
1 0.437812 0.187671
1 0.431449 0.224781
1 0.425086 0.261875
1 0.418723 0.29897
1 0.41236 0.336065
1 0.405997 0.373159
1 0.399634 0.410254
1 0.393271 0.447349
1 0.386908 0.484459
0.974441 0.614115 0
1 0.607752 0
1 0.601389 0
1 0.595026 0
1 0.588663 0
1 0.5823 0
1 0.575936 0
1 0.569574 0
1 0.563226 0
1 0.556863 0
1 0.5505 0
1 0.544137 0
1 0.537774 0
1 0.531411 0
1 0.525048 0
1 0.518685 0
1 0.512322 0
1 0.505959 0
1 0.499596 0
1 0.493233 0
1 0.48687 0.0111849
1 0.480522 0.0482795
1 0.474159 0.0853742
1 0.467796 0.122469
1 0.461433 0.159564
1 0.45507 0.196674
1 0.448707 0.233768
1 0.442344 0.270863
1 0.435981 0.307958
1 0.429618 0.345052
1 0.423255 0.382147
1 0.416892 0.419257
1 0.410529 0.456352
1 0.637736 0
1 0.631373 0
1 0.62501 0
1 0.618647 0
1 0.612284 0
1 0.60592 0
1 0.599557 0
1 0.593194 0
1 0.586847 0
