public/LUTS/Color Shift/ColorShift_41.cube
TITLE "Generated by Resolve"
LUT_3D_SIZE 33
0 0 0
0 0.00631724 0.0299077
0 0.0126345 0.0598306
0 0.0189517 0.0897536
0 0.0252842 0.119677
0 0.0316014 0.149584
0 0.0379187 0.179507
0 0.0442359 0.20943
0 0.0505531 0.239353
0 0.0568704 0.269276
0 0.0632029 0.299199
0 0.0695201 0.329122
0 0.0758373 0.35903
0 0.0821546 0.388952
0 0.0884718 0.418875
0 0.0948043 0.448798
0 0.101122 0.478721
0 0.107439 0.508644
0 0.113756 0.538567
0 0.120073 0.56849
0 0.126406 0.598398
0 0.132723 0.628321
0 0.13904 0.658244
0 0.145357 0.688167
0 0.151675 0.71809
0 0.157992 0.748012
0 0.164324 0.777935
0 0.170642 0.807858
0 0.176959 0.837766
0 0.183276 0.867689
0 0.189593 0.897612
0 0.195926 0.927535
0 0.202243 0.957458
0.052903 0.013138 0.0173037
0.0502785 0.0194553 0.0472114
0.0476387 0.0257725 0.0771344
0.0449989 0.0320897 0.107057
0.042359 0.038407 0.13698
0.0397192 0.0447395 0.166903
0.0370794 0.0510567 0.196826
0.0344396 0.0573739 0.226749
0.0317998 0.0636912 0.256672
0.02916 0.0700084 0.28658
0.0265202 0.0763409 0.316503
0.0238804 0.0826581 0.346426
0.0212406 0.0889754 0.376349
0.0186007 0.0952926 0.406271
0.0159609 0.10161 0.436194
0.0133211 0.107927 0.466117
0.0106813 0.11426 0.496025
0.0080415 0.120577 0.525948
0.00540169 0.126894 0.555871
0.00276188 0.133211 0.585794
0.000122072 0.139528 0.615717
0 0.145861 0.64564
0 0.152178 0.675563
0 0.158495 0.705486
0 0.164813 0.735393
0 0.17113 0.765316
0 0.177462 0.795239
0 0.18378 0.825162
0 0.190097 0.855085
0 0.196414 0.885008
0 0.202731 0.914931
0 0.209049 0.944854
0 0.215381 0.974762
0.105852 0.026276 0.034638
0.103212 0.0325933 0.0645304
0.100572 0.0389105 0.0944533
0.0979324 0.045243 0.124376
0.0952926 0.0515602 0.154299
0.0926528 0.0578775 0.184222
0.090013 0.0641947 0.214145
0.0873732 0.0705119 0.244068
0.0847334 0.0768292 0.273991
0.0820935 0.0831617 0.303899
0.0794537 0.0894789 0.333822
0.0768139 0.0957961 0.363745
0.0741741 0.102113 0.393668
0.0715343 0.108431 0.42359
0.0688945 0.114763 0.453513
0.0662547 0.12108 0.483436
0.0636149 0.127398 0.513359
0.0609751 0.133715 0.543267
0.0583352 0.140032 0.57319
0.0556954 0.146365 0.603113
0.0530556 0.152682 0.633036
0.0504158 0.158999 0.662959
0.047776 0.165316 0.692882
0.0451514 0.171633 0.722805
0.0425116 0.177951 0.752712
0.0398718 0.184283 0.782635
0.037232 0.1906 0.812558
0.0345922 0.196918 0.842481
0.0319524 0.203235 0.872404
0.0293126 0.209552 0.902327
0.0266728 0.215885 0.93225
0.024033 0.222202 0.962173
0.0213931 0.228519 0.992081
0.158785 0.0394141 0.051957
0.156146 0.0457313 0.0818494
0.153506 0.0520638 0.111772
0.150866 0.058381 0.141695
0.148226 0.0646983 0.171618
0.145586 0.0710155 0.201541
0.142947 0.0773327 0.231464
0.140307 0.0836652 0.261387
0.137667 0.0899825 0.29131
0.135027 0.0962997 0.321218
0.132387 0.102617 0.351141
0.129747 0.108934 0.381064
0.127108 0.115267 0.410986
0.124468 0.121584 0.440909
0.121828 0.127901 0.470832
0.119188 0.134218 0.500755
0.116548 0.140536 0.530678
0.113924 0.146853 0.560586
0.111284 0.153185 0.590509
0.108644 0.159503 0.620432
0.106004 0.16582 0.650355
0.103365 0.172137 0.680278
0.100725 0.178454 0.710201
0.098085 0.184787 0.740124
0.0954452 0.191104 0.770047
0.0928054 0.197421 0.799954
0.0901656 0.203738 0.829877
0.0875257 0.210056 0.8598
0.0848859 0.216388 0.889723
0.0822461 0.222705 0.919646
0.0796063 0.229023 0.949569
0.0769665 0.23534 0.979492
0.0743267 0.241657 1
0.211719 0.0525673 0.069276
0.209079 0.0588846 0.0991836
0.206439 0.0652018 0.129091
0.2038 0.071519 0.159014
0.20116 0.0778363 0.188937
0.19852 0.0841688 0.21886
0.19588 0.090486 0.248783
0.19324 0.0968032 0.278706
0.1906 0.10312 0.308629
0.187961 0.109438 0.338537
0.185321 0.115755 0.36846
0.182696 0.122087 0.398383
0.180056 0.128405 0.428305
0.177417 0.134722 0.458228
0.174777 0.141039 0.488151
0.172137 0.147356 0.518074
0.169497 0.153689 0.547997
0.166857 0.160006 0.577905
0.164218 0.166323 0.607828
0.161578 0.172641 0.637751
0.158938 0.178958 0.667674
0.156298 0.185275 0.697597
0.153658 0.191608 0.72752
0.151019 0.197925 0.757443
0.148379 0.204242 0.787366
0.145739 0.210559 0.817273
0.143099 0.216876 0.847196
0.140459 0.223209 0.877119
0.137819 0.229526 0.907042
0.13518 0.235843 0.936965
0.13254 0.242161 0.966888
0.1299 0.248478 0.996811
0.12726 0.25481 1
0.264652 0.0657054 0.0865949
0.262013 0.0720226 0.116503
0.259373 0.0783398 0.14641
0.256733 0.0846571 0.176333
0.254093 0.0909895 0.206256
0.251469 0.0973068 0.236179
0.248829 0.103624 0.266102
0.246189 0.109941 0.296025
0.243549 0.116258 0.325948
0.240909 0.122591 0.355871
0.23827 0.128908 0.385779
0.23563 0.135225 0.415702
0.23299 0.141543 0.445624
0.23035 0.14786 0.475547
0.22771 0.154177 0.50547
0.225071 0.16051 0.535393
0.222431 0.166827 0.565316
0.219791 0.173144 0.595239
0.217151 0.179461 0.625147
0.214511 0.185779 0.65507
0.211872 0.192111 0.684993
0.209232 0.198428 0.714916
0.206592 0.204746 0.744839
0.203952 0.211063 0.774762
0.201312 0.21738 0.804685
0.198672 0.223713 0.834592
0.196033 0.23003 0.864515
0.193393 0.236347 0.894438
0.190753 0.242664 0.924361
0.188113 0.248981 0.954284
0.185473 0.255299 0.984207
0.182834 0.261631 1
0.180194 0.267948 1
0.317586 0.0788434 0.103914
0.314961 0.0851606 0.133822
0.312322 0.0914931 0.163729
0.309682 0.0978103 0.193652
0.307042 0.104128 0.223575
0.304402 0.110445 0.253498
0.301762 0.116762 0.283421
0.299123 0.123079 0.313344
0.296483 0.129412 0.343267
0.293843 0.135729 0.37319
0.291203 0.142046 0.403098
0.288563 0.148363 0.433021
0.285924 0.154681 0.462943
0.283284 0.161013 0.492866
0.280644 0.16733 0.522789
0.278004 0.173648 0.552712
0.275364 0.179965 0.582635
0.272725 0.186282 0.612558
0.270085 0.192615 0.642466
0.267445 0.198932 0.672389
0.264805 0.205249 0.702312
0.262165 0.211566 0.732235
0.259525 0.217884 0.762158
0.256886 0.224201 0.792081
0.254246 0.230533 0.822003
0.251606 0.236851 0.851926
0.248966 0.243168 0.881834
0.246326 0.249485 0.911757
0.243687 0.255802 0.94168
0.241047 0.262135 0.971603
0.238422 0.268452 1
0.235782 0.274769 1
0.233143 0.281086 1
0.370535 0.0919966 0.121233
0.367895 0.0983139 0.151141
0.365255 0.104631 0.181064
0.362615 0.110948 0.210971
0.359976 0.117266 0.240894
0.357336 0.123583 0.270817
0.354696 0.129915 0.30074
0.352056 0.136233 0.330663
0.349416 0.14255 0.360586
0.346777 0.148867 0.390509
0.344137 0.155184 0.420417
0.341497 0.161517 0.45034
0.338857 0.167834 0.480262
0.336217 0.174151 0.510185
0.333577 0.180468 0.540108
0.330938 0.186786 0.570031
0.328298 0.193103 0.599954
0.325658 0.199435 0.629877
0.323018 0.205753 0.659785
0.320378 0.21207 0.689708
0.317739 0.218387 0.719631
0.315099 0.224704 0.749554
0.312459 0.231037 0.779477
0.309819 0.237354 0.8094
0.307195 0.243671 0.839323
0.304555 0.249989 0.869245
0.301915 0.256306 0.899153
0.299275 0.262638 0.929076
0.296635 0.268956 0.958999
0.293996 0.275273 0.988922
0.291356 0.28159 1
0.288716 0.287907 1
0.286076 0.294224 1
0.423468 0.105135 0.138552
0.420829 0.111452 0.16846
0.418189 0.117769 0.198383
0.415549 0.124086 0.22829
0.412909 0.130419 0.258213
0.410269 0.136736 0.288136
0.40763 0.143053 0.318059
0.40499 0.149371 0.347982
0.40235 0.155688 0.377905
0.39971 0.162005 0.407828
0.39707 0.168338 0.437751
0.39443 0.174655 0.467658
0.391791 0.180972 0.497581
0.389151 0.187289 0.527504
0.386511 0.193606 0.557427
0.383871 0.199939 0.58735
0.381231 0.206256 0.617273
0.378592 0.212573 0.647196
0.375967 0.218891 0.677119
0.373327 0.225208 0.707027
0.370687 0.231525 0.73695
0.368048 0.237858 0.766873
0.365408 0.244175 0.796796
0.362768 0.250492 0.826719
0.360128 0.256809 0.856641
0.357488 0.263127 0.886564
0.354849 0.269459 0.916472
0.352209 0.275776 0.946395
0.349569 0.282094 0.976318
0.346929 0.288411 1
0.344289 0.294728 1
0.34165 0.30106 1
0.33901 0.307378 1
0.476402 0.118273 0.155871
0.473762 0.12459 0.185779
0.471122 0.130907 0.215702
0.468482 0.13724 0.245609
0.465843 0.143557 0.275532
0.463203 0.149874 0.305455
0.460563 0.156191 0.335378
0.457923 0.162509 0.365301
0.455283 0.168841 0.395224
0.452644 0.175158 0.425147
0.450004 0.181476 0.45507
0.447364 0.187793 0.484977
0.444739 0.19411 0.5149
0.4421 0.200427 0.544823
0.43946 0.20676 0.574746
0.43682 0.213077 0.604669
0.43418 0.219394 0.634592
0.43154 0.225711 0.664515
0.428901 0.232029 0.694438
0.426261 0.238361 0.724346
0.423621 0.244678 0.754269
0.420981 0.250996 0.784192
0.418341 0.257313 0.814115
0.415702 0.26363 0.844038
0.413062 0.269963 0.87396
0.410422 0.27628 0.903883
0.407782 0.282597 0.933806
0.405142 0.288914 0.963714
0.402502 0.295232 0.993637
0.399863 0.301549 1
0.397223 0.307881 1
0.394583 0.314199 1
0.391943 0.320516 1
0.529335 0.131426 0.17319
0.526696 0.137743 0.203098
0.524056 0.14406 0.233021
0.521416 0.150378 0.262943
0.518776 0.156695 0.292851
0.516136 0.163012 0.322774
0.513512 0.169329 0.352697
0.510872 0.175662 0.38262
0.508232 0.181979 0.412543
0.505592 0.188296 0.442466
0.502953 0.194614 0.472389
0.500313 0.200931 0.502297
0.497673 0.207263 0.532219
0.495033 0.213581 0.562142
0.492393 0.219898 0.592065
0.489754 0.226215 0.621988
0.487114 0.232532 0.651911
0.484474 0.238865 0.681834
0.481834 0.245182 0.711757
0.479194 0.251499 0.741665
0.476555 0.257816 0.771588
0.473915 0.264134 0.801511
0.471275 0.270451 0.831434
0.468635 0.276783 0.861357
0.465995 0.283101 0.891279
0.463355 0.289418 0.921202
0.460716 0.295735 0.951125
0.458076 0.302052 0.981033
0.455436 0.308385 1
0.452796 0.314702 1
0.450156 0.321019 1
0.447517 0.327337 1
0.444877 0.333654 1
0.582269 0.144564 0.190509
0.579644 0.150881 0.220417
0.577005 0.157198 0.25034
0.574365 0.163516 0.280262
0.571725 0.169833 0.31017
0.569085 0.176165 0.340093
0.566445 0.182483 0.370016
0.563806 0.1888 0.399939
0.561166 0.195117 0.429862
0.558526 0.201434 0.459785
0.555886 0.207767 0.489708
0.553246 0.214084 0.519631
0.550607 0.220401 0.549538
0.547967 0.226719 0.579461
0.545327 0.233036 0.609384
0.542687 0.239353 0.639307
0.540047 0.245686 0.66923
0.537408 0.252003 0.699153
0.534768 0.25832 0.729076
0.532128 0.264637 0.758999
0.529488 0.270954 0.788907
0.526848 0.277287 0.81883
0.524208 0.283604 0.848753
0.521569 0.289921 0.878676
0.518929 0.296239 0.908598
0.516289 0.302556 0.938521
0.513649 0.308888 0.968444
0.511009 0.315206 0.998352
0.50837 0.321523 1
0.50573 0.32784 1
0.50309 0.334157 1
0.500465 0.340475 1
0.497826 0.346807 1
0.635218 0.157702 0.207828
0.632578 0.164019 0.237736
0.629938 0.170336 0.267659
0.627298 0.176669 0.297581
0.624659 0.182986 0.327489
0.622019 0.189303 0.357412
0.619379 0.195621 0.387335
0.616739 0.201938 0.417258
0.614099 0.208255 0.447181
0.61146 0.214588 0.477104
0.60882 0.220905 0.507027
0.60618 0.227222 0.53695
0.60354 0.233539 0.566857
0.6009 0.239857 0.59678
0.59826 0.246189 0.626703
0.595621 0.252506 0.656626
0.592981 0.258824 0.686549
0.590341 0.265141 0.716472
0.587701 0.271458 0.746395
0.585061 0.27779 0.776318
0.582422 0.284108 0.806226
0.579782 0.290425 0.836149
0.577142 0.296742 0.866072
0.574502 0.303059 0.895994
0.571862 0.309377 0.925917
0.569238 0.315709 0.95584
0.566598 0.322026 0.985763
0.563958 0.328344 1
0.561318 0.334661 1
0.558679 0.340978 1
0.556039 0.347311 1
0.553399 0.353628 1
0.550759 0.359945 1
0.688151 0.17084 0.225147
0.685512 0.177157 0.255055
0.682872 0.18349 0.284977
0.680232 0.189807 0.3149
0.677592 0.196124 0.344823
0.674952 0.202441 0.374731
0.672312 0.208759 0.404654
0.669673 0.215091 0.434577
0.667033 0.221408 0.4645
0.664393 0.227726 0.494423
0.661753 0.234043 0.524346
0.659113 0.24036 0.554269
0.656474 0.246677 0.584176
0.653834 0.25301 0.614099
0.651194 0.259327 0.644022
0.648554 0.265644 0.673945
0.645914 0.271962 0.703868
0.643275 0.278279 0.733791
0.640635 0.284611 0.763714
0.63801 0.290929 0.793637
0.63537 0.297246 0.823545
0.632731 0.303563 0.853468
0.630091 0.30988 0.883391
0.627451 0.316213 0.913314
0.624811 0.32253 0.943236
0.622171 0.328847 0.973159
0.619532 0.335164 1
0.616892 0.341482 1
0.614252 0.347799 1
0.611612 0.354131 1
0.608972 0.360449 1
0.606332 0.366766 1
0.603693 0.373083 1
0.741085 0.183993 0.242466
0.738445 0.190311 0.272374
0.735805 0.196628 0.302296
0.733166 0.202945 0.332219
0.730526 0.209262 0.362142
0.727886 0.215579 0.39205
0.725246 0.221912 0.421973
0.722606 0.228229 0.451896
0.719966 0.234546 0.481819
0.717327 0.240864 0.511742
0.714687 0.247181 0.541665
0.712047 0.253513 0.571588
0.709407 0.259831 0.601511
0.706783 0.266148 0.631418
0.704143 0.272465 0.661341
0.701503 0.278782 0.691264
0.698863 0.285115 0.721187
0.696223 0.291432 0.75111
0.693584 0.297749 0.781033
0.690944 0.304067 0.810956
0.688304 0.310384 0.840864
0.685664 0.316701 0.870787
0.683024 0.323033 0.90071
0.680385 0.329351 0.930632
0.677745 0.335668 0.960555
0.675105 0.341985 0.990478
0.672465 0.348302 1
0.669825 0.354635 1
0.667185 0.360952 1
0.664546 0.367269 1
0.661906 0.373587 1
0.659266 0.379904 1
0.656626 0.386236 1
0.794018 0.197131 0.259785
0.791379 0.203449 0.289693
0.788739 0.209766 0.319615
0.786099 0.216083 0.349538
0.783459 0.222416 0.379461
0.780819 0.228733 0.409369
0.77818 0.23505 0.439292
0.775555 0.241367 0.469215
0.772915 0.247684 0.499138
0.770275 0.254017 0.529061
0.767636 0.260334 0.558984
0.764996 0.266651 0.588907
0.762356 0.272969 0.61883
0.759716 0.279286 0.648737
0.757076 0.285603 0.67866
0.754437 0.291936 0.708583
0.751797 0.298253 0.738506
0.749157 0.30457 0.768429
0.746517 0.310887 0.798352
0.743877 0.317205 0.828275
0.741238 0.323537 0.858198
0.738598 0.329854 0.888106
0.735958 0.336172 0.918029
0.733318 0.342489 0.947951
0.730678 0.348806 0.977874
0.728038 0.355138 1
0.725399 0.361456 1
0.722759 0.367773 1
0.720119 0.37409 1
0.717479 0.380407 1
0.714839 0.386725 1
0.7122 0.393057 1
0.70956 0.399374 1
0.846952 0.210269 0.277104
0.844327 0.216587 0.307012
0.841688 0.222919 0.336934
0.839048 0.229236 0.366857
0.836408 0.235554 0.39678
0.833768 0.241871 0.426703
0.831128 0.248188 0.456611
0.828489 0.254505 0.486534
0.825849 0.260838 0.516457
0.823209 0.267155 0.54638
0.820569 0.273472 0.576303
0.817929 0.279789 0.606226
0.81529 0.286107 0.636149
0.81265 0.292439 0.666056
0.81001 0.298756 0.695979
0.80737 0.305074 0.725902
0.80473 0.311391 0.755825
0.80209 0.317708 0.785748
0.799451 0.324041 0.815671
0.796811 0.330358 0.845594
0.794171 0.336675 0.875517
0.791531 0.342992 0.905425
0.788891 0.34931 0.935347
0.786252 0.355627 0.96527
0.783612 0.361959 0.995193
0.780972 0.368277 1
0.778332 0.374594 1
0.775692 0.380911 1
0.773053 0.387228 1
0.770413 0.393561 1
0.767773 0.399878 1
0.765133 0.406195 1
0.762509 0.412512 1
0.899901 0.223423 0.294423
0.897261 0.22974 0.324331
0.894621 0.236057 0.354253
0.891981 0.242374 0.384176
0.889342 0.248692 0.414099
0.886702 0.255009 0.444022
0.884062 0.261341 0.47393
0.881422 0.267659 0.503853
0.878782 0.273976 0.533776
0.876143 0.280293 0.563699
0.873503 0.28661 0.593622
0.870863 0.292943 0.623545
0.868223 0.29926 0.653468
0.865583 0.305577 0.683391
0.862943 0.311894 0.713298
0.860304 0.318212 0.743221
0.857664 0.324529 0.773144
0.855024 0.330861 0.803067
0.852384 0.337179 0.83299
0.849744 0.343496 0.862913
0.847105 0.349813 0.892836
0.844465 0.35613 0.922744
0.841825 0.362463 0.952667
0.839185 0.36878 0.982589
0.836545 0.375097 1
0.833906 0.381415 1
0.831281 0.387732 1
0.828641 0.394049 1
0.826001 0.400381 1
0.823362 0.406699 1
0.820722 0.413016 1
0.818082 0.419333 1
0.815442 0.42565 1
0.952834 0.236561 0.311742
0.950195 0.242878 0.34165
0.947555 0.249195 0.371572
0.944915 0.255512 0.401495
0.942275 0.26183 0.431418
0.939635 0.268162 0.461341
0.936996 0.274479 0.491249
0.934356 0.280797 0.521172
0.931716 0.287114 0.551095
0.929076 0.293431 0.581018
0.926436 0.299763 0.610941
0.923796 0.306081 0.640864
0.921157 0.312398 0.670787
0.918517 0.318715 0.70071
0.915877 0.325032 0.730617
0.913237 0.331365 0.76054
0.910597 0.337682 0.790463
0.907958 0.343999 0.820386
0.905318 0.350317 0.850309
0.902678 0.356634 0.880232
0.900053 0.362951 0.910155
0.897414 0.369284 0.940078
0.894774 0.375601 0.969985
0.892134 0.381918 0.999908
0.889494 0.388235 1
0.886854 0.394553 1
0.884215 0.400885 1
0.881575 0.407202 1
0.878935 0.41352 1
0.876295 0.419837 1
0.873655 0.426154 1
0.871015 0.432486 1
0.868376 0.438804 1
1 0.249699 0.329061
1 0.256016 0.358968
1 0.262333 0.388891
0.997848 0.268666 0.418814
0.995209 0.274983 0.448737
0.992569 0.2813 0.47866
0.989929 0.287617 0.508583
0.987289 0.293935 0.538491
0.984649 0.300267 0.568414
0.98201 0.306584 0.598337
0.97937 0.312901 0.62826
0.97673 0.319219 0.658183
0.97409 0.325536 0.688106
0.97145 0.331853 0.718029
0.968826 0.338186 0.747936
0.966186 0.344503 0.777859
0.963546 0.35082 0.807782
0.960906 0.357137 0.837705
0.958267 0.363455 0.867628
0.955627 0.369787 0.897551
0.952987 0.376104 0.927474
0.950347 0.382422 0.957397
0.947707 0.388739 0.987305
0.945068 0.395056 1
0.942428 0.401389 1
0.939788 0.407706 1
0.937148 0.414023 1
0.934508 0.42034 1
0.931868 0.426657 1
0.929229 0.432975 1
0.926589 0.439307 1
0.923949 0.445624 1
0.921309 0.451942 1
1 0.262852 0.34638
1 0.269169 0.376287
1 0.275486 0.40621
1 0.281804 0.436133
1 0.288121 0.466056
1 0.294438 0.495979
1 0.300755 0.525902
1 0.307088 0.55581
1 0.313405 0.585733
1 0.319722 0.615656
1 0.32604 0.645579
1 0.332357 0.675502
1 0.338689 0.705425
1 0.345006 0.735348
1 0.351324 0.76527
1 0.357641 0.795178
1 0.363958 0.825101
1 0.370291 0.855024
1 0.376608 0.884947
1 0.382925 0.91487
1 0.389242 0.944793
1 0.39556 0.974716
1 0.401877 1
0.998001 0.408209 1
0.995361 0.414527 1
0.992721 0.420844 1
0.990082 0.427161 1
0.987442 0.433478 1
0.984802 0.439811 1
0.982162 0.446128 1
0.979522 0.452445 1
0.976883 0.458762 1
0.974243 0.46508 1
1 0.27599 0.363699
1 0.282307 0.393606
1 0.288624 0.423529
1 0.294942 0.453452
1 0.301259 0.483375
1 0.307591 0.513298
1 0.313909 0.543221
1 0.320226 0.573129
1 0.326543 0.603052
1 0.33286 0.632975
1 0.339193 0.662898
1 0.34551 0.692821
1 0.351827 0.722744
1 0.358144 0.752667
1 0.364462 0.782589
1 0.370779 0.812497
1 0.377111 0.84242
1 0.383429 0.872343
1 0.389746 0.902266
1 0.396063 0.932189
1 0.40238 0.962112
1 0.408713 0.992035
1 0.41503 1
1 0.421347 1
1 0.427665 1
1 0.433982 1
1 0.440299 1
1 0.446632 1
1 0.452949 1
1 0.459266 1
1 0.465583 1
1 0.471901 1
1 0.478233 1
1 0.289128 0.381018
1 0.295445 0.410925
1 0.301762 0.440848
1 0.30808 0.470771
1 0.314412 0.500694
1 0.320729 0.530617
1 0.327047 0.56054
1 0.333364 0.590463
1 0.339681 0.620371
1 0.346014 0.650294
1 0.352331 0.680217
1 0.358648 0.71014
1 0.364965 0.740063
1 0.371283 0.769985
1 0.377615 0.799908
1 0.383932 0.829816
1 0.390249 0.859739
1 0.396567 0.889662
1 0.402884 0.919585
1 0.409201 0.949508
1 0.415534 0.979431
1 0.421851 1
1 0.428168 1
1 0.434485 1
1 0.440803 1
1 0.447135 1
1 0.453452 1
1 0.45977 1
1 0.466087 1
1 0.472404 1
1 0.478737 1
1 0.485054 1
1 0.491371 1
1 0.302266 0.398337
1 0.308583 0.428244
1 0.314916 0.458167
1 0.321233 0.48809
1 0.32755 0.518013
1 0.333867 0.547936
1 0.340185 0.577859
1 0.346517 0.607782
1 0.352834 0.63769
1 0.359152 0.667613
1 0.365469 0.697536
1 0.371786 0.727459
1 0.378103 0.757382
1 0.384436 0.787305
1 0.390753 0.817227
1 0.39707 0.84715
1 0.403388 0.877058
1 0.409705 0.906981
1 0.416037 0.936904
1 0.422354 0.966827
1 0.428672 0.99675
1 0.434989 1
1 0.441306 1
1 0.447639 1
1 0.453956 1
1 0.460273 1
1 0.46659 1
1 0.472908 1
1 0.479225 1
1 0.485557 1
1 0.491875 1
1 0.498192 1
1 0.504509 1
1 0.315419 0.415656
1 0.321736 0.445563
1 0.328054 0.475486
1 0.334371 0.505409
1 0.340688 0.535332
1 0.347005 0.565255
1 0.353338 0.595178
1 0.359655 0.625101
1 0.365972 0.655009
1 0.37229 0.684932
1 0.378607 0.714855
1 0.384939 0.744778
1 0.391257 0.774701
1 0.397574 0.804623
1 0.403891 0.834546
1 0.410208 0.864469
1 0.416541 0.894377
1 0.422858 0.9243
1 0.429175 0.954223
1 0.435492 0.984146
1 0.44181 1
1 0.448127 1
1 0.454459 1
1 0.460777 1
1 0.467094 1
1 0.473411 1
1 0.479728 1
1 0.486061 1
1 0.492378 1
1 0.498695 1
1 0.505013 1
1 0.51133 1
1 0.517662 1
1 0.328557 0.432975
1 0.334874 0.462882
1 0.341192 0.492805
1 0.347509 0.522728
1 0.353841 0.552651
1 0.360159 0.582574
1 0.366476 0.612497
1 0.372793 0.64242
1 0.37911 0.672343
1 0.385443 0.702251
1 0.39176 0.732174
1 0.398077 0.762097
1 0.404395 0.79202
1 0.410712 0.821942
1 0.417029 0.851865
1 0.423362 0.881788
1 0.429679 0.911696
1 0.435996 0.941619
1 0.442313 0.971542
1 0.448631 1
1 0.454963 1
1 0.46128 1
1 0.467597 1
1 0.473915 1
1 0.480232 1
1 0.486564 1
1 0.492882 1
1 0.499199 1
1 0.505516 1
1 0.511833 1
1 0.518151 1
1 0.524483 1
1 0.5308 1
1 0.341695 0.450309
1 0.348013 0.480201
1 0.354345 0.510124
1 0.360662 0.540047
1 0.366979 0.56997
1 0.373297 0.599893
1 0.379614 0.629816
1 0.385931 0.659739
1 0.392264 0.689662
1 0.398581 0.71957
1 0.404898 0.749493
1 0.411215 0.779416
1 0.417533 0.809339
1 0.423865 0.839261
1 0.430182 0.869184
1 0.4365 0.899107
1 0.442817 0.92903
1 0.449134 0.958938
1 0.455451 0.988861
1 0.461784 1
1 0.468101 1
1 0.474418 1
1 0.480735 1
1 0.487053 1
1 0.493385 1
1 0.499702 1
1 0.50602 1
1 0.512337 1
1 0.518654 1
1 0.524987 1
1 0.531304 1
1 0.537621 1
1 0.543938 1
1 0.354849 0.467628
1 0.361166 0.497536
1 0.367483 0.527443
1 0.3738 0.557366
1 0.380118 0.587289
1 0.386435 0.617212
1 0.392767 0.647135
1 0.399084 0.677058
1 0.405402 0.706981
