public/LUTS/Color Shift/ColorShift_11.cube
TITLE "Generated by Resolve"
LUT_3D_SIZE 5
0 0 0
0 0.104814 0
0 0.209644 0
0 0.314473 0
0 0.419303 0
0.0441749 0.187198 0.38529
0 0.292027 0.264073
0 0.396841 0.142855
0 0.501671 0.0216373
0 0.6065 0
0.0883497 0.374411 0.770596
0.0408789 0.47924 0.649378
0 0.584054 0.528161
0 0.688884 0.406943
0 0.793713 0.285725
0.132525 0.561624 1
0.085069 0.666453 1
0.0375982 0.771267 0.913481
0 0.876097 0.792248
0 0.980926 0.671031
0.176699 0.748837 1
0.129244 0.853651 1
0.0817731 0.95848 1
0.0343023 1 1
0 1 1
0.253285 0 0
0.205814 0.0627909 0
0.158343 0.16762 0
0.110887 0.272435 0
0.0634165 0.377264 0
0.297459 0.145174 0.371206
0.249989 0.249989 0.249989
0.202518 0.354818 0.128771
0.155047 0.459648 0.00755322
0.107591 0.564462 0
0.341634 0.332387 0.756512
0.294163 0.437201 0.635294
0.246693 0.542031 0.514076
0.199237 0.64686 0.392859
0.151766 0.751675 0.271641
0.385809 0.5196 1
0.338338 0.624414 1
0.290867 0.729244 0.899397
0.243412 0.834073 0.778164
0.195941 0.938888 0.656947
0.429984 0.706798 1
0.382513 0.811627 1
0.335058 0.916457 1
0.287587 1 1
0.240116 1 1
0.506569 0 0
0.459113 0.0207523 0
0.411643 0.125582 0
0.364172 0.230411 0
0.316701 0.335225 0
0.550744 0.103136 0.357122
0.503288 0.20795 0.235904
0.455817 0.312779 0.114687
0.408347 0.417609 0
0.360876 0.522438 0
0.594919 0.290349 0.742428
0.547463 0.395163 0.62121
0.499992 0.499992 0.499992
0.452522 0.604822 0.378775
0.405051 0.709651 0.257557
0.639094 0.477562 1
0.591638 0.582376 1
0.544167 0.687205 0.885298
0.496696 0.792035 0.76408
0.449241 0.896864 0.642863
0.683284 0.664775 1
0.635813 0.769589 1
0.588342 0.874418 1
0.540871 0.979248 1
0.493416 1 1
0.759869 0 0
0.712398 0 0
0.664942 0.0835431 0
0.617472 0.188373 0
0.570001 0.293202 0
0.804044 0.0610971 0.343023
0.756573 0.165911 0.22182
0.709117 0.270741 0.100587
0.661646 0.37557 0
0.614176 0.4804 0
0.848219 0.24831 0.728344
0.800748 0.353124 0.607126
0.753292 0.457954 0.485908
0.705821 0.562783 0.364691
0.658351 0.667613 0.243458
0.892393 0.435523 1
0.844938 0.540337 0.992432
0.797467 0.645167 0.871214
0.749996 0.749996 0.749996
0.702525 0.854826 0.628779
0.936568 0.622736 1
0.889113 0.72755 1
0.841642 0.83238 1
0.794171 0.937209 1
0.7467 1 1
1 0 0
0.965698 0 0
0.918227 0.0415045 0
0.870771 0.146334 0
0.823301 0.251164 0
1 0.0190585 0.328939
1 0.123888 0.207736
0.962402 0.228702 0.0865034
0.914931 0.333532 0
0.867475 0.438361 0
1 0.206271 0.71426
1 0.311101 0.593042
1 0.415915 0.471824
0.959121 0.520745 0.350591
0.91165 0.625574 0.229374
1 0.393484 1
1 0.498314 0.978347
1 0.603128 0.85713
1 0.707958 0.735912
0.955825 0.812787 0.614694
1 0.580697 1
1 0.685527 1
1 0.790341 1
1 0.895171 1
1 1 1
