public/LUTS/Color Shift/ColorShift_07.cube
TITLE "Generated by Resolve"
LUT_3D_SIZE 9
0 0 0
0 0.0589914 0
0 0.117983 0
0 0.176989 0
0 0.235981 0
0 0.294987 0
0 0.353979 0
0 0.41297 0
0 0.471977 0
0.0817884 0.0734417 0.210132
0.0213016 0.132418 0.18407
0 0.191424 0.158007
0 0.250416 0.131945
0 0.309422 0.105882
0 0.368414 0.0798199
0 0.42742 0.0537423
0 0.486412 0.0276799
0 0.545403 0.00161746
0.163577 0.146883 0.420294
0.10309 0.205875 0.394232
0.0426032 0.264866 0.36817
0 0.323857 0.342107
0 0.382864 0.316045
0 0.441855 0.289982
0 0.500862 0.263905
0 0.559853 0.237842
0 0.61886 0.21178
0.245365 0.220325 0.630457
0.184894 0.279316 0.604395
0.124407 0.338308 0.578332
0.06392 0.397314 0.55227
0.00343328 0.456306 0.526207
0 0.515297 0.500145
0 0.574304 0.474067
0 0.633295 0.448005
0 0.692302 0.421942
0.327153 0.293767 0.840635
0.266682 0.352758 0.814572
0.206195 0.411749 0.788495
0.145708 0.470756 0.762432
0.0852216 0.529747 0.73637
0.0247349 0.588754 0.710307
0 0.647745 0.68423
0 0.706737 0.658167
0 0.765743 0.632105
0.408957 0.367208 1
0.34847 0.4262 1
0.287984 0.485191 0.998657
0.227497 0.544198 0.972595
0.16701 0.603189 0.946532
0.106523 0.662196 0.92047
0.0460517 0.721187 0.894408
0 0.780194 0.86833
0 0.839185 0.842268
0.490745 0.44065 1
0.430259 0.499641 1
0.369772 0.558648 1
0.3093 0.617639 1
0.248814 0.676631 1
0.188327 0.735637 1
0.12784 0.794629 1
0.0673533 0.853635 1
0.00686656 0.912627 1
0.572534 0.514092 1
0.512062 0.573083 1
0.451575 0.63209 1
0.391089 0.691081 1
0.330602 0.750088 1
0.270115 0.809079 1
0.209628 0.86807 1
0.149142 0.927077 1
0.0886549 0.986068 1
0.654322 0.587549 1
0.593851 0.646525 1
0.533364 0.705531 1
0.472877 0.764523 1
0.41239 0.823529 1
0.351904 0.882521 1
0.291417 0.941527 1
0.23093 1 1
0.170443 1 1
0.103685 0 0
0.0431983 0.051545 0
0 0.110552 0
0 0.169543 0
0 0.22855 0
0 0.287541 0
0 0.346548 0
0 0.405539 0
0 0.46453 0
0.185458 0.0659953 0.151049
0.124987 0.124987 0.124987
0.0644999 0.183978 0.0989242
0.00401312 0.242985 0.0728618
0 0.301976 0.0467842
0 0.360983 0.0207218
0 0.419974 0
0 0.478965 0
0 0.537972 0
0.267262 0.139437 0.361212
0.206775 0.198428 0.335149
0.146288 0.257435 0.309087
0.0858015 0.316426 0.283024
0.02533 0.375418 0.256947
0 0.434424 0.230884
0 0.493416 0.204822
0 0.552422 0.178759
0 0.611414 0.152697
0.34905 0.212879 0.571374
0.288563 0.27187 0.545312
0.228092 0.330877 0.519249
0.167605 0.389868 0.493187
0.107118 0.448875 0.467109
0.0466316 0.507866 0.441047
0 0.566857 0.414984
0 0.625864 0.388922
0 0.684855 0.36286
0.430838 0.28632 0.781537
0.370367 0.345312 0.755474
0.30988 0.404318 0.729412
0.249393 0.46331 0.703349
0.188907 0.522316 0.677287
0.12842 0.581308 0.651209
0.0679332 0.640299 0.625147
0.0074464 0.699306 0.599084
0 0.758297 0.573022
0.512627 0.359777 0.991699
0.452155 0.418769 0.965637
0.391669 0.47776 0.939574
0.331182 0.536751 0.913512
0.270695 0.595758 0.887449
0.210208 0.654749 0.861372
0.149722 0.713756 0.835309
0.0892348 0.772747 0.809247
0.0287633 0.831739 0.783185
0.59443 0.433219 1
0.533944 0.49221 1
0.473457 0.551202 1
0.41297 0.610208 1
0.352483 0.6692 1
0.292012 0.728191 1
0.231525 0.787198 1
0.171038 0.846189 1
0.110552 0.905196 0.993347
0.676219 0.506661 1
0.615732 0.565652 1
0.555261 0.624643 1
0.494774 0.68365 1
0.434287 0.742641 1
0.3738 0.801648 1
0.313313 0.860639 1
0.252827 0.919631 1
0.19234 0.978637 1
0.758007 0.580102 1
0.697536 0.639094 1
0.637049 0.698085 1
0.576562 0.757092 1
0.516075 0.816083 1
0.455589 0.87509 1
0.395102 0.934081 1
0.334615 0.993072 1
0.274128 1 1
0.207385 0 0
0.146899 0.0441138 0
0.0864118 0.103105 0
0.0259251 0.162112 0
0 0.221103 0
0 0.28011 0
0 0.339101 0
0 0.398093 0
0 0.457099 0
0.289158 0.0585641 0.0919509
0.228687 0.11754 0.0658885
0.1682 0.176547 0.039826
0.107713 0.235538 0.0137636
0.0472267 0.294545 0
0 0.353536 0
0 0.412543 0
0 0.471534 0
0 0.530526 0
0.370947 0.132006 0.302113
0.310475 0.190997 0.276051
0.249989 0.249989 0.249989
0.189502 0.30898 0.223926
0.129015 0.367987 0.197864
0.0685283 0.426978 0.171786
0.0080415 0.485985 0.145724
0 0.544976 0.119661
0 0.603967 0.0935988
0.45275 0.205447 0.512276
0.392264 0.264439 0.486213
0.331777 0.32343 0.460151
0.27129 0.382437 0.434089
0.210803 0.441428 0.408026
0.150332 0.50042 0.381949
0.0898451 0.559426 0.355886
0.0293584 0.618418 0.329824
0 0.677424 0.303761
0.534539 0.278889 0.722438
0.474052 0.337881 0.696376
0.413565 0.396872 0.670314
0.353094 0.455879 0.644251
0.292607 0.51487 0.618189
0.23212 0.573877 0.592111
0.171633 0.632868 0.566049
0.111147 0.691859 0.539986
0.05066 0.750866 0.513924
0.616327 0.352331 0.932601
0.555856 0.411322 0.906538
0.495369 0.470314 0.880476
0.434882 0.52932 0.854414
0.374395 0.588312 0.828351
0.313909 0.647318 0.802289
0.253422 0.70631 0.776211
0.192935 0.765301 0.750149
0.132448 0.824308 0.724086
0.698116 0.425772 1
0.637644 0.484764 1
0.577157 0.54377 1
0.51667 0.602762 1
0.456184 0.661753 1
0.395697 0.72076 1
0.33521 0.779751 0.986374
0.274723 0.838758 0.960311
0.214237 0.897749 0.934249
0.779919 0.499214 1
0.719432 0.558206 1
0.658946 0.617212 1
0.598459 0.676204 1
0.537972 0.73521 1
0.477485 0.794202 1
0.417014 0.853193 1
0.356527 0.9122 1
0.29604 0.971191 1
0.861708 0.572671 1
0.801221 0.631647 1
0.740734 0.690654 1
0.680262 0.749645 1
0.619776 0.808652 1
0.559289 0.867643 1
0.498802 0.92665 1
0.438315 0.985641 1
0.377829 1 1
0.31107 0 0
0.250599 0.0366674 0
0.190112 0.0956741 0
0.129625 0.154665 0
0.0691386 0.213672 0
0.00865187 0.272663 0
0 0.331655 0
0 0.390661 0
0 0.449653 0
0.392859 0.0511177 0.0328527
0.332372 0.110109 0.00679026
0.271885 0.1691 0
0.211414 0.228107 0
0.150927 0.287098 0
0.0904402 0.346105 0
0.0299535 0.405097 0
0 0.464088 0
0 0.523095 0
0.474647 0.124559 0.243015
0.414176 0.183551 0.216953
0.353689 0.242542 0.19089
0.293202 0.301549 0.164828
0.232715 0.36054 0.138766
0.172229 0.419547 0.112703
0.111742 0.478538 0.0866255
0.0512551 0.537545 0.0605631
0 0.596536 0.0345006
0.556435 0.198001 0.453178
0.495964 0.256992 0.427115
0.435477 0.315999 0.401053
0.37499 0.37499 0.37499
0.314504 0.433982 0.348928
0.254017 0.492988 0.322866
0.19353 0.55198 0.296788
0.133043 0.610986 0.270726
0.0725567 0.669978 0.244663
0.638224 0.271443 0.66334
0.577752 0.330434 0.637278
0.517266 0.389441 0.611215
0.456779 0.448432 0.585153
0.396292 0.507439 0.559091
0.335805 0.56643 0.533028
0.275334 0.625422 0.50695
0.214847 0.684428 0.480888
0.15436 0.74342 0.454826
0.720027 0.3449 0.873518
0.659541 0.403876 0.847456
0.599054 0.462882 0.821378
0.538567 0.521874 0.795316
0.478096 0.58088 0.769253
0.417609 0.639872 0.743191
0.357122 0.698878 0.717113
0.296635 0.75787 0.691051
0.236149 0.816861 0.664988
0.801816 0.418341 1
0.741344 0.477333 1
0.680858 0.536324 1
0.620371 0.595315 1
0.559884 0.654322 0.979416
0.499397 0.713314 0.953353
0.438911 0.77232 0.927291
0.378424 0.831312 0.901213
0.317937 0.890303 0.875151
0.883604 0.491783 1
0.823133 0.550774 1
0.762646 0.609766 1
0.702159 0.668772 1
0.641672 0.727764 1
0.581186 0.786755 1
0.520699 0.845762 1
0.460212 0.904753 1
0.399725 0.96376 1
0.965393 0.565225 1
0.904921 0.624216 1
0.844434 0.683207 1
0.783948 0.742214 1
0.723461 0.801205 1
0.662974 0.860212 1
0.602487 0.919203 1
0.542016 0.978195 1
0.481529 1 1
0.414771 0 0
0.354284 0.0292363 0
0.293812 0.0882277 0
0.233326 0.147234 0
0.172839 0.206226 0
0.112352 0.265217 0
0.0518654 0.324224 0
0 0.383215 0
0 0.442222 0
0.496544 0.0436713 0
0.436072 0.102663 0
0.375586 0.161669 0
0.315099 0.220661 0
0.254612 0.279667 0
0.194125 0.338659 0
0.133639 0.39765 0
0.073167 0.456657 0
0.0126802 0.515648 0
0.578347 0.117128 0.183932
0.517861 0.176104 0.15787
0.457374 0.235111 0.131792
0.396887 0.294102 0.10573
0.336416 0.353109 0.0796674
0.275929 0.4121 0.0536049
0.215442 0.471107 0.0275273
0.154955 0.530098 0.00146487
0.0944686 0.58909 0
0.660136 0.19057 0.394095
0.599649 0.249561 0.368032
0.539178 0.308553 0.341955
0.478691 0.367544 0.315892
0.418204 0.426551 0.28983
0.357717 0.485542 0.263767
0.29723 0.544549 0.237705
0.236744 0.60354 0.211627
0.176257 0.662531 0.185565
0.741924 0.264012 0.604257
0.681453 0.323003 0.578195
0.620966 0.381994 0.552117
0.560479 0.441001 0.526055
0.499992 0.499992 0.499992
0.439506 0.558984 0.47393
0.379019 0.61799 0.447868
0.318532 0.676982 0.42179
0.258045 0.735988 0.395727
0.823713 0.337453 0.81442
0.763241 0.396445 0.788357
0.702754 0.455436 0.76228
0.642267 0.514443 0.736217
0.581781 0.573434 0.710155
0.521294 0.632441 0.684092
0.460807 0.691432 0.65803
0.400336 0.750423 0.631952
0.339849 0.80943 0.60589
0.905516 0.410895 1
0.845029 0.469886 0.99852
0.784543 0.528878 0.972457
0.724056 0.587884 0.94638
0.663569 0.646876 0.920317
0.603098 0.705882 0.894255
0.542611 0.764874 0.868193
0.482124 0.82388 0.842115
0.421637 0.882872 0.816052
0.987305 0.484337 1
0.926818 0.543328 1
0.866346 0.602335 1
0.805859 0.661326 1
0.745373 0.720317 1
0.684886 0.779324 1
0.624399 0.838315 1
0.563912 0.897322 1
0.503426 0.956313 1
1 0.557778 1
1 0.61677 1
0.948135 0.675776 1
0.887648 0.734768 1
0.827161 0.793774 1
0.766674 0.852766 1
0.706188 0.911757 1
0.645701 0.970764 1
0.585214 1 1
0.518471 0 0
0.457984 0.0217899 0
0.397498 0.0807965 0
0.337011 0.139788 0
0.276524 0.198779 0
0.216037 0.257786 0
0.155566 0.316777 0
0.095079 0.375784 0
0.0345922 0.434775 0
0.600244 0.0362402 0
0.539773 0.0952316 0
0.479286 0.154223 0
0.418799 0.21323 0
0.358312 0.272221 0
0.297826 0.331212 0
0.237339 0.390219 0
0.176852 0.44921 0
0.116365 0.508217 0
0.682033 0.109682 0.124834
0.621561 0.168673 0.0987716
0.561074 0.227665 0.072694
0.500587 0.286671 0.0466316
0.440101 0.345663 0.0205692
0.379614 0.404669 0
0.319127 0.463661 0
0.25864 0.522652 0
0.198169 0.581659 0
0.763836 0.183124 0.334997
0.703349 0.242115 0.308934
0.642863 0.301106 0.282872
0.582376 0.360113 0.256794
0.521889 0.419104 0.230732
0.461418 0.478111 0.204669
0.400931 0.537102 0.178607
0.340444 0.596109 0.152529
0.279957 0.6551 0.126467
0.845624 0.256565 0.545159
0.785138 0.315557 0.519097
0.724651 0.374563 0.493034
0.664179 0.433555 0.466957
0.603693 0.492546 0.440894
0.543206 0.551553 0.414832
0.482719 0.610544 0.388769
0.422232 0.669551 0.362707
0.361746 0.728542 0.336629
0.927413 0.330007 0.755322
0.866941 0.388998 0.729259
0.806455 0.448005 0.703197
0.745968 0.506996 0.677119
0.685481 0.566003 0.651057
0.624994 0.624994 0.624994
0.564508 0.683986 0.598932
0.504021 0.742992 0.572869
0.443534 0.801984 0.546792
1 0.403464 0.965484
0.94873 0.46244 0.939422
0.888243 0.521447 0.913359
0.827756 0.580438 0.887282
0.767269 0.639445 0.861219
0.706783 0.698436 0.835157
0.646296 0.757443 0.809094
0.585809 0.816434 0.783032
0.525338 0.875425 0.756954
1 0.476905 1
1 0.535897 1
0.970031 0.594888 1
0.909545 0.65388 1
0.849058 0.712886 1
0.788571 0.771878 1
0.728099 0.830884 1
0.667613 0.889876 0.993194
0.607126 0.948882 0.967117
1 0.550347 1
1 0.609339 1
1 0.66833 1
0.991348 0.727337 1
0.930861 0.786328 1
0.870375 0.845319 1
0.809888 0.904326 1
0.749401 0.963317 1
0.688914 1 1
0.622156 0 0
0.561685 0.0143587 0
0.501198 0.0733501 0
0.440711 0.132357 0
0.380224 0.191348 0
0.319738 0.25034 0
0.259251 0.309346 0
0.198764 0.368338 0
0.138277 0.427344 0
0.703944 0.0287938 0
0.643458 0.0877852 0
0.582971 0.146792 0
0.522499 0.205783 0
0.462013 0.264775 0
0.401526 0.323781 0
0.341039 0.382773 0
0.280552 0.441779 0
0.220066 0.500771 0
0.785733 0.102235 0.0657359
0.725261 0.161227 0.0396735
0.664775 0.220233 0.013611
0.604288 0.279225 0
0.543801 0.338231 0
0.483314 0.397223 0
0.422827 0.456214 0
0.362341 0.515221 0
0.301854 0.574212 0
0.867521 0.175692 0.275898
0.80705 0.234684 0.249836
0.746563 0.293675 0.223774
0.686076 0.352667 0.197696
0.625589 0.411673 0.171633
0.565103 0.470665 0.145571
0.504616 0.529671 0.119509
0.444129 0.588663 0.0934462
0.383642 0.647654 0.0673686
0.949325 0.249134 0.486061
0.888838 0.308125 0.459998
0.828351 0.367117 0.433936
0.767865 0.426108 0.407874
0.707378 0.485115 0.381796
0.646891 0.544106 0.355734
0.586419 0.603113 0.329671
0.525933 0.662104 0.303609
0.465446 0.721111 0.277531
1 0.322576 0.696223
0.970626 0.381567 0.670161
0.91014 0.440558 0.644099
0.849653 0.499565 0.618036
0.789181 0.558556 0.591959
0.728695 0.617548 0.565896
0.668208 0.676555 0.539834
0.607721 0.735546 0.513771
0.547234 0.794553 0.487709
1 0.396017 0.906386
1 0.455009 0.880323
0.991943 0.514 0.854261
0.931456 0.573007 0.828199
0.87097 0.631998 0.802121
0.810483 0.691005 0.776059
0.749996 0.749996 0.749996
0.689509 0.808988 0.723934
0.629023 0.867994 0.697871
1 0.469459 1
1 0.52845 1
1 0.587457 1
1 0.646448 1
0.952758 0.70544 1
0.892271 0.764446 0.986221
0.831785 0.823438 0.960159
0.771298 0.882445 0.934096
0.710811 0.941436 0.908034
1 0.542901 1
1 0.601892 1
1 0.660899 1
1 0.71989 1
1 0.778881 1
0.97406 0.837888 1
0.913573 0.89688 1
0.853101 0.955886 1
0.792615 1 1
0.725856 0 0
0.66537 0.00691234 0
0.604898 0.065919 0
0.544411 0.12491 0
0.483925 0.183902 0
0.423438 0.242908 0
0.362951 0.3019 0
0.302464 0.360906 0
0.241978 0.419898 0
0.80763 0.0213626 0
0.747158 0.080354 0
0.686671 0.139345 0
0.626184 0.198352 0
0.565698 0.257343 0
0.505211 0.316335 0
0.444739 0.375341 0
0.384253 0.434333 0
0.323766 0.493339 0
0.889433 0.0948043 0.00663767
0.828946 0.153796 0
0.76846 0.212787 0
0.707973 0.271794 0
0.647501 0.330785 0
0.587015 0.389776 0
0.526528 0.448783 0
0.466041 0.507774 0
0.405554 0.566781 0
0.971222 0.168246 0.2168
0.91075 0.227237 0.190738
0.850263 0.286229 0.164675
0.789776 0.345235 0.138613
0.72929 0.404227 0.112535
0.668803 0.463233 0.0864729
0.608316 0.522225 0.0604105
0.547829 0.581216 0.0343481
0.487343 0.640223 0.00828565
1 0.241688 0.426963
0.992538 0.300679 0.4009
0.932052 0.359686 0.374838
0.871565 0.418677 0.348775
0.811078 0.477668 0.322698
0.750591 0.536675 0.296635
0.690105 0.595666 0.270573
0.629618 0.654673 0.244511
0.569131 0.713664 0.218448
1 0.315129 0.637125
1 0.374121 0.611063
1 0.433127 0.585
0.953353 0.492119 0.558938
0.892866 0.55111 0.532876
0.83238 0.610117 0.506798
0.771893 0.669108 0.480735
0.711421 0.728115 0.454673
0.650935 0.787106 0.428611
1 0.388571 0.847288
1 0.447562 0.821225
1 0.506569 0.795163
1 0.56556 0.7691
0.974655 0.624567 0.743038
0.914183 0.683558 0.71696
0.853697 0.74255 0.690898
0.79321 0.801556 0.664836
0.732723 0.860548 0.638773
1 0.462028 1
1 0.521019 1
1 0.580011 1
1 0.639002 0.979263
1 0.698009 0.953201
0.995972 0.757 0.927123
0.935485 0.816007 0.901061
0.874998 0.874998 0.874998
0.814511 0.933989 0.848936
1 0.53547 1
1 0.594461 1
1 0.653452 1
1 0.712444 1
1 0.77145 1
1 0.830442 1
1 0.889448 1
0.956786 0.94844 1
0.8963 1 1
0.829557 0 0
0.76907 0 0
0.708583 0.0584726 0
0.648096 0.117464 0
0.58761 0.176471 0
0.527138 0.235462 0
0.466651 0.294469 0
0.406165 0.35346 0
0.345678 0.412451 0
0.91133 0.0139162 0
0.850858 0.0729076 0
0.790372 0.131914 0
0.729885 0.190906 0
0.669398 0.249897 0
0.608911 0.308904 0
0.548424 0.367895 0
0.487938 0.426902 0
0.427451 0.485893 0
0.993118 0.0873579 0
0.932647 0.146349 0
0.87216 0.205356 0
0.811673 0.264347 0
0.751186 0.323354 0
0.6907 0.382345 0
0.630213 0.441337 0
0.569741 0.500343 0
0.509255 0.559335 0
1 0.1608 0.157702
1 0.219791 0.13164
0.953948 0.278798 0.105577
0.893462 0.337789 0.0795148
0.832975 0.396796 0.0534524
0.772503 0.455787 0.0273747
0.712016 0.514778 0.00131228
0.65153 0.573785 0
0.591043 0.632776 0
1 0.234257 0.367864
1 0.293248 0.341802
1 0.352239 0.31574
0.975265 0.411231 0.289677
0.914778 0.470237 0.263615
0.854292 0.529229 0.237537
0.793805 0.588235 0.211475
0.733318 0.647227 0.185412
0.672831 0.706218 0.15935
1 0.307698 0.578027
1 0.36669 0.551965
1 0.425681 0.525902
1 0.484688 0.49984
0.996567 0.543679 0.473777
0.93608 0.60267 0.4477
0.875593 0.661677 0.421637
0.815106 0.720668 0.395575
0.75462 0.779675 0.369512
1 0.38114 0.78819
1 0.440131 0.762127
1 0.499123 0.736065
1 0.558129 0.710002
1 0.617121 0.68394
1 0.676112 0.657877
0.957382 0.735119 0.6318
0.896895 0.79411 0.605737
0.836423 0.853117 0.579675
1 0.454582 0.998352
1 0.513573 0.97229
1 0.572564 0.946227
1 0.631571 0.920165
1 0.690562 0.894102
1 0.749569 0.86804
1 0.80856 0.841962
0.978698 0.867552 0.8159
0.918212 0.926558 0.789837
1 0.528023 1
1 0.587015 1
1 0.646021 1
1 0.705013 1
1 0.764004 1
1 0.823011 1
1 0.882002 1
1 0.941009 1
1 1 1
