public/LUTS/Color Shift/ColorShift_14.cube
TITLE "Generated by Resolve"
LUT_3D_SIZE 9
0 0 0
0.0125887 0.043061 0
0.0251621 0.0861372 0
0.0377508 0.129213 0
0.0503395 0.17229 0
0.0629129 0.215351 0
0.0755016 0.258427 0
0.0880903 0.301503 0
0.100664 0.344564 0
0 0.107988 0.161929
0 0.151064 0.08925
0.0124056 0.194125 0.0165408
0.0249943 0.237201 0
0.037583 0.280278 0
0.0501564 0.323354 0
0.0627451 0.366415 0
0.0753338 0.409491 0
0.0879072 0.452567 0
0 0.216007 0.323888
0 0.259068 0.251194
0 0.302144 0.1785
0.0122377 0.345205 0.105806
0.0248264 0.388281 0.0331121
0.0373999 0.431357 0
0.0499886 0.474434 0
0.0625772 0.517494 0
0.0751507 0.560571 0
0 0.32401 0.485847
0 0.367071 0.413153
0 0.410147 0.340459
0 0.453223 0.267765
0.0120699 0.496284 0.195056
0.0246433 0.539361 0.122362
0.037232 0.582437 0.0496681
0.0498207 0.625513 0
0.0623941 0.668574 0
0 0.432013 0.647791
0 0.47509 0.575113
0 0.518151 0.502403
0 0.561227 0.429709
0 0.604303 0.357015
0.0118868 0.647364 0.284321
0.0244755 0.69044 0.211627
0.0370642 0.733516 0.138918
0.0496376 0.776593 0.0662242
0 0.540017 0.80975
0 0.583093 0.737057
0 0.626154 0.664363
0 0.66923 0.591669
0 0.712306 0.518975
0 0.755383 0.446265
0.0117189 0.798444 0.373571
0.0243076 0.84152 0.300877
0.0368811 0.884596 0.228183
0 0.648035 0.97171
0 0.691096 0.899016
0 0.734173 0.826322
0 0.777234 0.753613
0 0.82031 0.680919
0 0.863386 0.608225
0 0.906462 0.535531
0.0115511 0.949523 0.462837
0.0241245 0.992599 0.390127
0 0.756039 1
0 0.7991 1
0 0.842176 0.988266
0 0.885252 0.915572
0 0.928313 0.842878
0 0.971389 0.770184
0 1 0.697475
0 1 0.624781
0.011368 1 0.552087
0 0.864042 1
0 0.907118 1
0 0.950179 1
0 0.993255 1
0 1 1
0 1 0.932128
0 1 0.859434
0 1 0.78674
0 1 0.714046
0.125154 0 0.0357366
0.137743 0.0169985 0
0.150332 0.0600595 0
0.162905 0.103136 0
0.175494 0.146212 0
0.188083 0.189273 0
0.200656 0.232349 0
0.213245 0.275425 0
0.225834 0.318502 0
0.112398 0.0819257 0.197681
0.124987 0.124987 0.124987
0.137575 0.168063 0.0522927
0.150149 0.211124 0
0.162737 0.2542 0
0.175326 0.297276 0
0.1879 0.340352 0
0.200488 0.383413 0
0.213077 0.42649 0
0.0996414 0.189929 0.359625
0.11223 0.23299 0.286946
0.124819 0.276066 0.214237
0.137392 0.319142 0.141543
0.149981 0.362203 0.0688487
0.16257 0.40528 0
0.175143 0.448356 0
0.187732 0.491432 0
0.20032 0.534493 0
0.0868849 0.297932 0.521584
0.0994736 0.341009 0.44889
0.112062 0.38407 0.376196
0.124636 0.427146 0.303502
0.137224 0.470222 0.230808
0.149813 0.513283 0.158099
0.162387 0.556359 0.0854047
0.174975 0.599435 0.0127108
0.187564 0.642512 0
0.0741283 0.405936 0.683543
0.086717 0.449012 0.610849
0.0993057 0.492073 0.538155
0.111879 0.535149 0.465446
0.124468 0.578225 0.392752
0.137057 0.621302 0.320058
0.14963 0.664363 0.247364
0.162219 0.707439 0.17467
0.174807 0.750515 0.101961
0.0613718 0.513954 0.845487
0.0739605 0.557015 0.772808
0.0865492 0.600092 0.700099
0.0991226 0.643153 0.627405
0.111711 0.686229 0.554711
0.1243 0.729305 0.482017
0.136873 0.772381 0.409308
0.149462 0.815442 0.336614
0.162051 0.858518 0.26392
0.0486152 0.621958 1
0.0612039 0.665019 0.934752
0.0737774 0.708095 0.862058
0.0863661 0.751171 0.789364
0.0989548 0.794232 0.71667
0.111543 0.837308 0.643961
0.124117 0.880385 0.571267
0.136706 0.923461 0.498573
0.149294 0.966522 0.425879
0.0358587 0.729961 1
0.0484474 0.773037 1
0.0610208 0.816098 1
0.0736095 0.859174 0.951308
0.0861982 0.902251 0.878614
0.0987716 0.945312 0.80592
0.11136 0.988388 0.733227
0.123949 1 0.660533
0.136538 1 0.587823
0.0231022 0.837964 1
0.0356909 0.881041 1
0.0482643 0.924102 1
0.060853 0.967178 1
0.0734417 1 1
0.0860151 1 0.96788
0.0986038 1 0.895171
0.111192 1 0.822477
0.123766 1 0.749783
0.25034 0 0.0714885
0.262913 0 0
0.275502 0.0339818 0
0.28809 0.0770581 0
0.300664 0.120134 0
0.313252 0.16321 0
0.325841 0.206271 0
0.338415 0.249348 0
0.351003 0.292424 0
0.237583 0.055848 0.233417
0.250156 0.098909 0.160739
0.262745 0.141985 0.0880293
0.275334 0.185046 0.0153353
0.287907 0.228122 0
0.300496 0.271199 0
0.313085 0.314275 0
0.325658 0.357336 0
0.338247 0.400412 0
0.224826 0.163851 0.395377
0.2374 0.206912 0.322683
0.249989 0.249989 0.249989
0.262577 0.293065 0.177295
0.275151 0.336126 0.104601
0.287739 0.379202 0.0318914
0.300328 0.422278 0
0.312901 0.465354 0
0.32549 0.508415 0
0.21207 0.271855 0.557336
0.224643 0.314931 0.484642
0.237232 0.357992 0.411948
0.249821 0.401068 0.339239
0.262394 0.444144 0.266545
0.274983 0.487205 0.193851
0.287572 0.530282 0.121157
0.300145 0.573358 0.0484627
0.312734 0.616434 0
0.199313 0.379858 0.71928
0.211887 0.422934 0.646601
0.224475 0.466011 0.573892
0.237064 0.509071 0.501198
0.249638 0.552148 0.428504
0.262226 0.595224 0.35581
0.274815 0.638285 0.283101
0.287388 0.681361 0.210407
0.299977 0.724437 0.137713
0.186557 0.487877 0.881239
0.19913 0.530938 0.808545
0.211719 0.574014 0.735851
0.224308 0.617075 0.663157
0.236881 0.660151 0.590448
0.24947 0.703227 0.517754
0.262058 0.746303 0.44506
0.274632 0.789364 0.372366
0.287221 0.832441 0.299672
0.1738 0.59588 1
0.186374 0.638941 0.970504
0.198962 0.682017 0.89781
0.211551 0.725093 0.825101
0.224125 0.768154 0.752407
0.236713 0.811231 0.679713
0.249302 0.854307 0.607019
0.261875 0.897383 0.53431
0.274464 0.940444 0.461616
0.161044 0.703883 1
0.173617 0.74696 1
0.186206 0.790021 1
0.198779 0.833097 0.98706
0.211368 0.876173 0.914366
0.223957 0.919234 0.841672
0.236545 0.96231 0.768963
0.249119 1 0.696269
0.261707 1 0.623575
0.148272 0.811887 1
0.160861 0.854963 1
0.173449 0.898024 1
0.186023 0.9411 1
0.198611 0.984176 1
0.2112 1 1
0.223774 1 0.930922
0.236362 1 0.858228
0.248951 1 0.785534
0.375509 0 0.107225
0.388098 0 0.0345464
0.400671 0.00790417 0
0.41326 0.0509804 0
0.425849 0.0940566 0
0.438422 0.137133 0
0.451011 0.180194 0
0.4636 0.22327 0
0.476173 0.266346 0
0.362753 0.0297704 0.269169
0.375341 0.0728313 0.196475
0.387915 0.115908 0.123781
0.400504 0.158984 0.0510872
0.413092 0.202045 0
0.425666 0.245121 0
0.438254 0.288197 0
0.450843 0.331258 0
0.463416 0.374334 0
0.349996 0.137774 0.431113
0.362585 0.180835 0.358434
0.375158 0.223911 0.28574
0.387747 0.266987 0.213031
0.400336 0.310048 0.140337
0.412909 0.353124 0.0676432
0.425498 0.396201 0
0.438087 0.439277 0
0.45066 0.482338 0
0.33724 0.245777 0.593072
0.349828 0.288853 0.520378
0.362402 0.331914 0.447684
0.37499 0.37499 0.37499
0.387579 0.418067 0.302296
0.400153 0.461128 0.229603
0.412741 0.504204 0.156893
0.42533 0.54728 0.0841993
0.437903 0.590356 0.0115053
0.324483 0.35378 0.755032
0.337072 0.396857 0.682338
0.349645 0.439933 0.609644
0.362234 0.482994 0.53695
0.374823 0.52607 0.46424
0.387396 0.569146 0.391546
0.399985 0.612207 0.318853
0.412573 0.655283 0.246159
0.425147 0.69836 0.173465
0.311727 0.461799 0.916976
0.324315 0.50486 0.844297
0.336889 0.547936 0.771603
0.349477 0.590997 0.698894
0.362066 0.634073 0.6262
0.37464 0.67715 0.553506
0.387228 0.720226 0.480812
0.399817 0.763287 0.408103
0.41239 0.806363 0.335409
0.29897 0.569802 1
0.311559 0.612863 1
0.324132 0.65594 0.933547
0.336721 0.699016 0.860853
0.34931 0.742077 0.788159
0.361883 0.785153 0.71545
0.374472 0.828229 0.642756
0.38706 0.871305 0.570062
0.399634 0.914366 0.497368
0.286213 0.677806 1
0.298787 0.720882 1
0.311376 0.763943 1
0.323964 0.807019 1
0.336553 0.850095 0.950103
0.349126 0.893156 0.877409
0.361715 0.936233 0.804715
0.374304 0.979309 0.732021
0.386877 1 0.659312
0.273457 0.785809 1
0.28603 0.828885 1
0.298619 0.871962 1
0.311208 0.915022 1
0.323781 0.958099 1
0.33637 1 1
0.348959 1 0.966674
0.361547 1 0.893965
0.374121 1 0.821271
0.500679 0 0.142977
0.513268 0 0.0702831
0.525856 0 0
0.53843 0.0249027 0
0.551019 0.0679789 0
0.563607 0.111055 0
0.576181 0.154116 0
0.588769 0.197192 0
0.601358 0.240269 0
0.487938 0.00369268 0.304906
0.500511 0.0467536 0.232227
0.5131 0.0898299 0.159533
0.525673 0.132906 0.0868238
0.538262 0.175967 0.0141299
0.550851 0.219043 0
0.563424 0.262119 0
0.576013 0.30518 0
0.588602 0.348257 0
0.475166 0.111696 0.466865
0.487755 0.154757 0.394171
0.500343 0.197833 0.321477
0.512917 0.240909 0.248783
0.525505 0.283986 0.176089
0.538094 0.327047 0.10338
0.550668 0.370123 0.0306859
0.563256 0.413199 0
0.575845 0.45626 0
0.462409 0.219699 0.628824
0.474998 0.262776 0.55613
0.487587 0.305837 0.483436
0.50016 0.348913 0.410742
0.512749 0.391989 0.338033
0.525338 0.43505 0.265339
0.537911 0.478126 0.192645
0.5505 0.521202 0.119951
0.563088 0.564279 0.0472419
0.449653 0.327703 0.790768
0.462242 0.370779 0.71809
0.47483 0.413855 0.64538
0.487404 0.456916 0.572686
0.499992 0.499992 0.499992
0.512581 0.543069 0.427298
0.525154 0.58613 0.354604
0.537743 0.629206 0.281895
0.550332 0.672282 0.209201
0.436896 0.435721 0.952728
0.449485 0.478782 0.880034
0.462074 0.521859 0.80734
0.474647 0.564935 0.734646
0.487236 0.607996 0.661952
0.499825 0.651072 0.589242
0.512398 0.694148 0.516548
0.524987 0.737209 0.443854
0.537575 0.780285 0.37116
0.42414 0.543725 1
0.436728 0.586786 1
0.449317 0.629862 0.969299
0.461891 0.672938 0.896605
0.474479 0.716014 0.823896
0.487068 0.759075 0.751202
0.499641 0.802152 0.678508
0.51223 0.845228 0.605814
0.524819 0.888289 0.533104
0.411383 0.651728 1
0.423972 0.694804 1
0.436561 0.737865 1
0.449134 0.780941 1
0.461723 0.824018 0.985855
0.474311 0.867079 0.913161
0.486885 0.910155 0.840452
0.499474 0.953231 0.767758
0.512062 0.996307 0.695064
0.398627 0.759731 1
0.411215 0.802808 1
0.423789 0.845884 1
0.436377 0.888945 1
0.448966 0.932021 1
0.461555 0.975097 1
0.474128 1 1
0.486717 1 0.929717
0.499306 1 0.857023
0.625864 0 0.178729
0.638437 0 0.106035
0.651026 0 0.033341
0.663615 0 0
0.676188 0.0419013 0
0.688777 0.0849775 0
0.701366 0.128038 0
0.713939 0.171115 0
0.726528 0.214191 0
0.613108 0 0.340658
0.625681 0.020676 0.267964
0.63827 0.0637522 0.19527
0.650858 0.106828 0.122576
0.663432 0.149889 0.0498817
0.67602 0.192966 0
0.688609 0.236042 0
0.701198 0.279103 0
0.713771 0.322179 0
0.600351 0.0856184 0.502617
0.612924 0.128679 0.429923
0.625513 0.171756 0.357229
0.638102 0.214832 0.284535
0.650675 0.257908 0.211826
0.663264 0.300969 0.139132
0.675853 0.344045 0.0664378
0.688426 0.387121 0
0.701015 0.430182 0
0.587594 0.193622 0.664561
0.600168 0.236698 0.591882
0.612757 0.279759 0.519173
0.625345 0.322835 0.446479
0.637919 0.365911 0.373785
0.650507 0.408988 0.301091
0.663096 0.452049 0.228382
0.675669 0.495125 0.155688
0.688258 0.538201 0.0829938
0.574838 0.30164 0.82652
0.587411 0.344701 0.753826
0.6 0.387778 0.681132
0.612589 0.430838 0.608438
0.625162 0.473915 0.535744
0.637751 0.516991 0.463035
0.650339 0.560052 0.390341
0.662913 0.603128 0.317647
0.675502 0.646204 0.244953
0.562081 0.409644 0.988479
0.574655 0.452705 0.915785
0.587243 0.495781 0.843091
0.599832 0.538857 0.770382
0.612406 0.581918 0.697688
0.624994 0.624994 0.624994
0.637583 0.66807 0.5523
0.650156 0.711131 0.479606
0.662745 0.754208 0.406897
0.549325 0.517647 1
0.561898 0.560708 1
0.574487 0.603784 1
0.587076 0.64686 0.932342
0.599649 0.689937 0.859648
0.612238 0.732998 0.786954
0.624826 0.776074 0.714244
0.6374 0.81915 0.64155
0.649989 0.862211 0.568856
0.536568 0.62565 1
0.549142 0.668727 1
0.56173 0.711788 1
0.574319 0.754864 1
0.586892 0.79794 1
0.599481 0.841016 0.948898
0.61207 0.884077 0.876204
0.624643 0.927153 0.80351
0.637232 0.97023 0.730816
0.523812 0.733669 1
0.536385 0.77673 1
0.548974 0.819806 1
0.561563 0.862867 1
0.574136 0.905943 1
0.586725 0.94902 1
0.599313 0.992081 1
0.611887 1 0.965454
0.624475 1 0.89276
0.751034 0 0.214466
0.763622 0 0.141787
0.776196 0 0.0690776
0.788785 0 0
0.801373 0.0158236 0
0.813947 0.0588998 0
0.826535 0.101961 0
0.839124 0.145037 0
0.851713 0.188113 0
0.738277 0 0.37641
0.750866 0 0.303716
0.763439 0.0376745 0.231022
0.776028 0.0807507 0.158312
0.788617 0.123812 0.0856184
0.801205 0.166888 0.0129244
0.813779 0.209964 0
0.826368 0.253025 0
0.838956 0.296101 0
0.725521 0.0595407 0.538354
0.738109 0.102602 0.465675
0.750683 0.145678 0.392966
0.763272 0.188754 0.320272
0.77586 0.23183 0.247578
0.788434 0.274891 0.174884
0.801022 0.317968 0.102174
0.813611 0.361044 0.0294804
0.8262 0.404105 0
0.712764 0.167544 0.700313
0.725353 0.21062 0.627619
0.737926 0.253681 0.554925
0.750515 0.296757 0.482231
0.763104 0.339834 0.409537
0.775677 0.38291 0.336828
0.788266 0.425971 0.264134
0.800855 0.469047 0.19144
0.813443 0.512123 0.118746
0.700008 0.275563 0.862257
0.712596 0.318624 0.789578
0.72517 0.3617 0.716884
0.737758 0.404761 0.644175
0.750347 0.447837 0.571481
0.762921 0.490913 0.498787
0.775509 0.533974 0.426093
0.788098 0.57705 0.353384
0.800671 0.620127 0.28069
0.687251 0.383566 1
0.69984 0.426627 0.951522
0.712413 0.469703 0.878828
0.725002 0.512779 0.806134
0.737591 0.55584 0.73344
0.750164 0.598917 0.660746
0.762753 0.641993 0.588037
0.775341 0.685054 0.515343
0.787915 0.72813 0.442649
0.674495 0.491569 1
0.687083 0.53463 1
0.699657 0.577707 1
0.712245 0.620783 0.968093
0.724834 0.663859 0.895384
0.737408 0.70692 0.82269
0.749996 0.749996 0.749996
0.762585 0.793072 0.677302
0.775158 0.836133 0.604608
0.661738 0.599573 1
0.674327 0.642649 1
0.6869 0.68571 1
0.699489 0.728786 1
0.712077 0.771862 1
0.724651 0.814939 0.984649
0.73724 0.858 0.911955
0.749828 0.901076 0.839246
0.762402 0.944152 0.766552
0.648981 0.707591 1
0.66157 0.750652 1
0.674144 0.793729 1
0.686732 0.836789 1
0.699321 0.879866 1
0.711894 0.922942 1
0.724483 0.966018 1
0.737072 1 1
0.749645 1 0.928512
0.876219 0 0.250217
0.888792 0 0.177523
0.901381 0 0.104829
0.913954 0 0.0321355
0.926543 0 0
0.939132 0.0328222 0
0.95172 0.0758831 0
0.964294 0.118959 0
0.976883 0.162036 0
0.863462 0 0.412146
0.876036 0 0.339452
0.888624 0.0115969 0.266758
0.901213 0.0546731 0.194064
0.913787 0.097734 0.12137
0.926375 0.14081 0.0486763
0.938964 0.183886 0
0.951537 0.226963 0
0.964126 0.270024 0
0.850706 0.033463 0.574105
0.863279 0.076524 0.501411
0.875868 0.1196 0.428717
0.888441 0.162676 0.356023
0.90103 0.205753 0.283314
0.913619 0.248814 0.21062
0.926207 0.29189 0.137926
0.938781 0.334966 0.0652323
0.95137 0.378027 0
0.837934 0.141466 0.736049
0.850523 0.184543 0.663371
0.863111 0.227604 0.590677
0.875685 0.27068 0.517968
0.888273 0.313756 0.445274
0.900862 0.356832 0.37258
0.913436 0.399893 0.299886
0.926024 0.442969 0.227176
0.938613 0.486046 0.154482
0.825177 0.249485 0.898009
0.837766 0.292546 0.825315
0.850355 0.335622 0.752621
0.862928 0.378683 0.679927
0.875517 0.421759 0.607233
0.888106 0.464836 0.534539
0.900679 0.507912 0.46183
0.913268 0.550973 0.389136
0.925856 0.594049 0.316442
0.812421 0.357488 1
0.82501 0.400549 0.987274
0.837598 0.443626 0.91458
0.850172 0.486702 0.841886
0.86276 0.529763 0.769177
0.875349 0.572839 0.696483
0.887922 0.615915 0.623789
0.900511 0.658976 0.551095
0.9131 0.702052 0.478386
0.799664 0.465492 1
0.812253 0.508553 1
0.824842 0.551629 1
0.837415 0.594705 1
0.850004 0.637781 0.931136
0.862593 0.680842 0.858442
0.875166 0.723918 0.785748
0.887755 0.766995 0.713039
0.900343 0.810056 0.640345
0.786908 0.573495 1
0.799496 0.616571 1
0.812085 0.659632 1
0.824659 0.702708 1
0.837247 0.745785 1
0.849836 0.788861 1
0.862409 0.831922 0.947692
0.874998 0.874998 0.874998
0.887587 0.918074 0.802304
0.774151 0.681514 1
0.78674 0.724575 1
0.799329 0.767651 1
0.811902 0.810712 1
0.824491 0.853788 1
0.837079 0.896864 1
0.849653 0.939941 1
0.862242 0.983001 1
0.87483 1 0.964248
1 0 0.285954
1 0 0.213275
1 0 0.140566
1 0 0.0678721
1 0 0
1 0.00674449 0
1 0.0498054 0
1 0.0928817 0
1 0.135958 0
0.988632 0 0.447898
1 0 0.375204
1 0 0.30251
1 0.0285954 0.229816
1 0.0716564 0.157107
1 0.114733 0.0844129
1 0.157809 0.0117189
1 0.200885 0
1 0.243946 0
0.975875 0.00738537 0.609842
0.988449 0.0504463 0.537163
1 0.0935225 0.464454
1 0.136599 0.39176
1 0.179675 0.319066
1 0.222736 0.246372
1 0.265812 0.173678
1 0.308888 0.100969
1 0.351965 0.028275
0.963119 0.115389 0.771801
0.975692 0.158465 0.699107
0.988281 0.201526 0.626413
1 0.244602 0.553719
1 0.287678 0.481025
1 0.330755 0.408316
1 0.373816 0.335622
1 0.416892 0.262928
1 0.459968 0.190234
0.950362 0.223407 0.933761
0.962936 0.266468 0.861067
0.975525 0.309545 0.788373
0.988113 0.352605 0.715679
1 0.395682 0.642969
1 0.438758 0.570275
1 0.481834 0.497581
1 0.524895 0.424887
1 0.567971 0.352178
0.937606 0.331411 1
0.950179 0.374472 1
0.962768 0.417548 0.950317
0.975357 0.460624 0.877623
0.98793 0.503685 0.804929
1 0.546761 0.732235
1 0.589837 0.659541
1 0.632914 0.586831
1 0.675975 0.514138
0.924849 0.439414 1
0.937423 0.482475 1
0.950011 0.525551 1
0.9626 0.568627 1
0.975174 0.611704 0.966888
0.987762 0.654765 0.894179
1 0.697841 0.821485
1 0.740917 0.748791
1 0.783993 0.676097
0.912093 0.547417 1
0.924666 0.590494 1
0.937255 0.633555 1
0.949844 0.676631 1
0.962417 0.719707 1
0.975006 0.762783 1
0.987594 0.805844 0.983444
1 0.84892 0.91075
1 0.891997 0.838041
0.899336 0.655436 1
0.91191 0.698497 1
0.924498 0.741573 1
0.937087 0.784634 1
0.94966 0.82771 1
0.962249 0.870787 1
0.974838 0.913863 1
0.987411 0.956924 1
1 1 1
