public/LUTS/Color Shift/ColorShift_99.cube
TITLE "Generated by Resolve"
LUT_3D_SIZE 33
0 0 0
0 0.0183719 0.0183719
0 0.0367437 0.0367437
0 0.0551156 0.0551156
0 0.0734875 0.0734875
0 0.0918746 0.0918746
0 0.110246 0.110246
0 0.128618 0.128618
0 0.14699 0.14699
0 0.165377 0.165362
0 0.183749 0.183749
0 0.202121 0.202121
0 0.220493 0.220493
0 0.23888 0.238865
0 0.257252 0.257252
0 0.275624 0.275624
0 0.293996 0.293996
0 0.312367 0.312367
0 0.330755 0.330739
0 0.349126 0.349126
0 0.367498 0.367498
0 0.38587 0.38587
0 0.404257 0.404242
0 0.422629 0.422629
0 0.441001 0.441001
0 0.459373 0.459373
0 0.47776 0.477745
0 0.496132 0.496132
0 0.514504 0.514504
0 0.532876 0.532876
0 0.551263 0.551247
0 0.569635 0.569619
0 0.588006 0.588006
0.0612192 0.00500496 0.0612192
0.0233616 0.0233616 0.0795911
0 0.0417334 0.0979629
0 0.0601205 0.116335
0 0.0784924 0.134707
0 0.0968643 0.153094
0 0.115236 0.171466
0 0.133623 0.189837
0 0.151995 0.208209
0 0.170367 0.226596
0 0.188739 0.244968
0 0.207126 0.26334
0 0.225498 0.281712
0 0.24387 0.300084
0 0.262242 0.318471
0 0.280629 0.336843
0 0.299001 0.355215
0 0.317372 0.373587
0 0.335744 0.391974
0 0.354116 0.410346
0 0.372503 0.428717
0 0.390875 0.447089
0 0.409247 0.465476
0 0.427619 0.483848
0 0.446006 0.50222
0 0.464378 0.520592
0 0.48275 0.538964
0 0.501122 0.557351
0 0.519509 0.575723
0 0.537881 0.594095
0 0.556252 0.612467
0 0.574624 0.630854
0 0.593011 0.649226
0.122469 0.00999466 0.122469
0.0846113 0.0283665 0.140841
0.0467384 0.0467384 0.159213
0.00886549 0.0651102 0.177584
0 0.0834974 0.195972
0 0.101869 0.214343
0 0.120241 0.232715
0 0.138613 0.251087
0 0.157 0.269459
0 0.175372 0.287846
0 0.193744 0.306218
0 0.212116 0.32459
0 0.230488 0.342962
0 0.248875 0.361349
0 0.267247 0.379721
0 0.285618 0.398093
0 0.30399 0.416464
0 0.322377 0.434836
0 0.340749 0.453223
0 0.359121 0.471595
0 0.377493 0.489967
0 0.39588 0.508339
0 0.414252 0.526726
0 0.432624 0.545098
0 0.450996 0.56347
0 0.469383 0.581842
0 0.487755 0.600229
0 0.506127 0.618601
0 0.524498 0.636973
0 0.542885 0.655344
0 0.561257 0.673716
0 0.579629 0.692103
0 0.598001 0.710475
0.183719 0.0149996 0.183719
0.145861 0.0333715 0.20209
0.107988 0.0517433 0.220462
0.0701152 0.0701152 0.238834
0.0322423 0.0884871 0.257221
0 0.106859 0.275593
0 0.125246 0.293965
0 0.143618 0.312337
0 0.16199 0.330724
0 0.180362 0.349096
0 0.198749 0.367468
0 0.217121 0.38584
0 0.235492 0.404211
0 0.253864 0.422599
0 0.272251 0.44097
0 0.290623 0.459342
0 0.308995 0.477714
0 0.327367 0.496101
0 0.345754 0.514473
0 0.364126 0.532845
0 0.382498 0.551217
0 0.40087 0.569589
0 0.419257 0.587976
0 0.437629 0.606348
0 0.456001 0.62472
0 0.474372 0.643091
0 0.49276 0.661479
0 0.511131 0.67985
0 0.529503 0.698222
0 0.547875 0.716594
0 0.566247 0.734981
0 0.584634 0.753353
0 0.603006 0.771725
0.244968 0.0200046 0.244968
0.207111 0.0383612 0.26334
0.169238 0.056733 0.281712
0.131365 0.0751202 0.300084
0.093492 0.093492 0.318471
0.0556191 0.111864 0.336843
0.0177462 0.130236 0.355215
0 0.148623 0.373587
0 0.166995 0.391974
0 0.185367 0.410346
0 0.203738 0.428717
0 0.222126 0.447089
0 0.240497 0.465476
0 0.258869 0.483848
0 0.277241 0.50222
0 0.295628 0.520592
0 0.314 0.538964
0 0.332372 0.557351
0 0.350744 0.575723
0 0.369131 0.594095
0 0.387503 0.612467
0 0.405875 0.630854
0 0.424247 0.649226
0 0.442618 0.667597
0 0.461006 0.685969
0 0.479377 0.704341
0 0.497749 0.722728
0 0.516121 0.7411
0 0.534508 0.759472
0 0.55288 0.777844
0 0.571252 0.796231
0 0.589624 0.814603
0 0.608011 0.832975
0.306218 0.0249943 0.306218
0.26836 0.0433661 0.32459
0.230488 0.061738 0.342962
0.192615 0.0801099 0.361349
0.154742 0.098497 0.379721
0.116869 0.116869 0.398093
0.078996 0.135241 0.416464
0.0411078 0.153613 0.434836
0.00323491 0.172 0.453223
0 0.190372 0.471595
0 0.208743 0.489967
0 0.227115 0.508339
0 0.245502 0.526726
0 0.263874 0.545098
0 0.282246 0.56347
0 0.300618 0.581842
0 0.31899 0.600229
0 0.337377 0.618601
0 0.355749 0.636973
0 0.374121 0.655344
0 0.392493 0.673716
0 0.41088 0.692103
0 0.429252 0.710475
0 0.447623 0.728847
0 0.465995 0.747219
0 0.484382 0.765606
0 0.502754 0.783978
0 0.521126 0.80235
0 0.539498 0.820722
0 0.557885 0.839094
0 0.576257 0.857481
0 0.594629 0.875853
0 0.613001 0.894224
0.367483 0.0299992 0.367483
0.329625 0.0483711 0.38584
0.291737 0.066743 0.404211
0.253864 0.0851148 0.422599
0.215991 0.103487 0.44097
0.178119 0.121874 0.459342
0.140246 0.140246 0.477714
0.102358 0.158618 0.496101
0.0644846 0.176989 0.514473
0.0266117 0.195361 0.532845
0 0.213748 0.551217
0 0.23212 0.569589
0 0.250492 0.587976
0 0.268864 0.606348
0 0.287251 0.62472
0 0.305623 0.643091
0 0.323995 0.661479
0 0.342367 0.67985
0 0.360754 0.698222
0 0.379126 0.716594
0 0.397498 0.734981
0 0.415869 0.753353
0 0.434256 0.771725
0 0.452628 0.790097
0 0.471 0.808469
0 0.489372 0.826856
0 0.507759 0.845228
0 0.526131 0.8636
0 0.544503 0.881971
0 0.562875 0.900359
0 0.581262 0.91873
0 0.599634 0.937102
0 0.618006 0.955474
0.428733 0.0350042 0.428733
0.390875 0.0533608 0.447089
0.352987 0.0717327 0.465476
0.315114 0.0901198 0.483848
0.277241 0.108492 0.50222
0.239368 0.126864 0.520592
0.201495 0.145235 0.538964
0.163622 0.163622 0.557351
0.125734 0.181994 0.575723
0.0878614 0.200366 0.594095
0.0499886 0.218738 0.612467
0.0121157 0.237125 0.630854
0 0.255497 0.649226
0 0.273869 0.667597
0 0.292241 0.685969
0 0.310628 0.704341
0 0.329 0.722728
0 0.347372 0.7411
0 0.365743 0.759472
0 0.384131 0.777844
0 0.402502 0.796231
0 0.420874 0.814603
0 0.439246 0.832975
0 0.457633 0.851347
0 0.476005 0.869734
0 0.494377 0.888106
0 0.512749 0.906477
0 0.531121 0.924849
0 0.549508 0.943221
0 0.56788 0.961608
0 0.586252 0.97998
0 0.604623 0.998352
0 0.623011 1
0.489982 0.0399939 0.489982
0.452125 0.0583658 0.508339
0.414252 0.0767376 0.526726
0.376364 0.0951095 0.545098
0.338491 0.113497 0.56347
0.300618 0.131868 0.581842
0.262745 0.15024 0.600229
0.224872 0.168612 0.618601
0.186984 0.186999 0.636973
0.149111 0.205371 0.655344
0.111238 0.223743 0.673716
0.0733654 0.242115 0.692103
0.0354925 0.260502 0.710475
0 0.278874 0.728847
0 0.297246 0.747219
0 0.315618 0.765606
0 0.334005 0.783978
0 0.352377 0.80235
0 0.370748 0.820722
0 0.38912 0.839094
0 0.407492 0.857481
0 0.425879 0.875853
0 0.444251 0.894224
0 0.462623 0.912596
0 0.480995 0.930983
0 0.499382 0.949355
0 0.517754 0.967727
0 0.536126 0.986099
0 0.554498 1
0 0.572885 1
0 0.591257 1
0 0.609628 1
0 0.628 1
0.551232 0.0449989 0.551232
0.513375 0.0633707 0.569589
0.475502 0.0817426 0.587976
0.437613 0.100114 0.606348
0.399741 0.118486 0.62472
0.361868 0.136873 0.643091
0.323995 0.155245 0.661479
0.286122 0.173617 0.67985
0.248249 0.191989 0.698222
0.210361 0.210376 0.716594
0.172488 0.228748 0.734981
0.134615 0.24712 0.753353
0.0967422 0.265492 0.771725
0.0588693 0.283864 0.790097
0.0209964 0.302251 0.808469
0 0.320623 0.826856
0 0.338994 0.845228
0 0.357366 0.8636
0 0.375753 0.881971
0 0.394125 0.900359
0 0.412497 0.91873
0 0.430869 0.937102
0 0.449256 0.955474
0 0.467628 0.973846
0 0.486 0.992233
0 0.504372 1
0 0.522759 1
0 0.541131 1
0 0.559503 1
0 0.577874 1
0 0.596262 1
0 0.614633 1
0 0.633005 1
0.612482 0.0500038 0.612482
0.574624 0.0683604 0.630854
0.536751 0.0867475 0.649226
0.498878 0.105119 0.667597
0.46099 0.123491 0.685969
0.423117 0.141863 0.704341
0.385245 0.160235 0.722728
0.347372 0.178622 0.7411
0.309499 0.196994 0.759472
0.271611 0.215366 0.777844
0.233738 0.233738 0.796231
0.195865 0.252125 0.814603
0.157992 0.270497 0.832975
0.120119 0.288869 0.851347
0.0822461 0.30724 0.869734
0.044358 0.325628 0.888106
0.00648508 0.343999 0.906477
0 0.362371 0.924849
0 0.380743 0.943221
0 0.39913 0.961608
0 0.417502 0.97998
0 0.435874 0.998352
0 0.454246 1
0 0.472633 1
0 0.491005 1
0 0.509377 1
0 0.527749 1
0 0.54612 1
0 0.564508 1
0 0.582879 1
0 0.601251 1
0 0.619623 1
0 0.63801 1
0.673732 0.0549935 0.673732
0.635874 0.0733654 0.692103
0.598001 0.0917372 0.710475
0.560128 0.110109 0.728847
0.52224 0.128496 0.747219
0.484367 0.146868 0.765606
0.446494 0.16524 0.783978
0.408621 0.183612 0.80235
0.370748 0.201999 0.820722
0.332876 0.220371 0.839094
0.294987 0.238743 0.857481
0.257115 0.257115 0.875853
0.219242 0.275502 0.894224
0.181369 0.293873 0.912596
0.143496 0.312245 0.930983
0.105608 0.330617 0.949355
0.0677348 0.349004 0.967727
0.0298619 0.367376 0.986099
0 0.385748 1
0 0.40412 1
0 0.422492 1
0 0.440879 1
0 0.459251 1
0 0.477623 1
0 0.495995 1
0 0.514382 1
0 0.532753 1
0 0.551125 1
0 0.569497 1
0 0.587884 1
0 0.606256 1
0 0.624628 1
0 0.643 1
0.734981 0.0599985 0.734981
0.697124 0.0783703 0.753353
0.659251 0.0967422 0.771725
0.621378 0.115114 0.790097
0.583505 0.133486 0.808469
0.545617 0.151873 0.826856
0.507744 0.170245 0.845228
0.469871 0.188617 0.8636
0.431998 0.206989 0.881971
0.394125 0.225376 0.900359
0.356237 0.243748 0.91873
0.318364 0.262119 0.937102
0.280491 0.280491 0.955474
0.242618 0.298863 0.973846
0.204746 0.31725 0.992233
0.166873 0.335622 1
0.128985 0.353994 1
0.0911116 0.372366 1
0.0532387 0.390753 1
0.0153658 0.409125 1
0 0.427497 1
0 0.445869 1
0 0.464256 1
0 0.482628 1
0 0.500999 1
0 0.519371 1
0 0.537758 1
0 0.55613 1
0 0.574502 1
0 0.592874 1
0 0.611261 1
0 0.629633 1
0 0.648005 1
0.796231 0.0650034 0.796231
0.758373 0.08336 0.814603
0.7205 0.101747 0.832975
0.682628 0.120119 0.851347
0.644755 0.138491 0.869734
0.606867 0.156863 0.888106
0.568994 0.17525 0.906477
0.531121 0.193622 0.924849
0.493248 0.211994 0.943221
0.455375 0.230365 0.961608
0.417502 0.248737 0.97998
0.379614 0.267124 0.998352
0.341741 0.285496 1
0.303868 0.303868 1
0.265995 0.32224 1
0.228122 0.340627 1
0.190234 0.358999 1
0.152361 0.377371 1
0.114488 0.395743 1
0.0766155 0.41413 1
0.0387427 0.432502 1
0.000869764 0.450874 1
0 0.469245 1
0 0.487633 1
0 0.506004 1
0 0.524376 1
0 0.542748 1
0 0.561135 1
0 0.579507 1
0 0.597879 1
0 0.616251 1
0 0.634623 1
0 0.65301 1
0.857481 0.0699931 0.857481
0.819623 0.088365 0.875853
0.78175 0.106737 0.894224
0.743877 0.125109 0.912596
0.706004 0.143496 0.930983
0.668116 0.161868 0.949355
0.630243 0.18024 0.967727
0.592371 0.198611 0.986099
0.554498 0.216999 1
0.516625 0.23537 1
0.478752 0.253742 1
0.440864 0.272114 1
0.402991 0.290501 1
0.365118 0.308873 1
0.327245 0.327245 1
0.289372 0.345617 1
0.251499 0.364004 1
0.213611 0.382376 1
0.175738 0.400748 1
0.137865 0.41912 1
0.0999924 0.437507 1
0.0621195 0.455879 1
0.0242313 0.47425 1
0 0.492622 1
0 0.510994 1
0 0.529381 1
0 0.547753 1
0 0.566125 1
0 0.584497 1
0 0.602884 1
0 0.621256 1
0 0.639628 1
0 0.658 1
0.91873 0.0749981 0.91873
0.880873 0.09337 0.937102
0.843 0.111742 0.955474
0.805127 0.130114 0.973846
0.767254 0.148486 0.992233
0.729381 0.166873 1
0.691493 0.185245 1
0.65362 0.203616 1
0.615747 0.221988 1
0.577874 0.240375 1
0.540002 0.258747 1
0.502129 0.277119 1
0.46424 0.295491 1
0.426368 0.313878 1
0.388495 0.33225 1
0.350622 0.350622 1
0.312749 0.368994 1
0.274861 0.387366 1
0.236988 0.405753 1
0.199115 0.424125 1
0.161242 0.442496 1
0.123369 0.460868 1
0.0854963 0.479255 1
0.0476081 0.497627 1
0.00973526 0.515999 1
0 0.534371 1
0 0.552758 1
0 0.57113 1
0 0.589502 1
0 0.607874 1
0 0.626261 1
0 0.644633 1
0 0.663005 1
0.97998 0.0800031 0.97998
0.942123 0.0983597 0.998352
0.90425 0.116747 1
0.866377 0.135119 1
0.828504 0.15349 1
0.790631 0.171862 1
0.752743 0.190249 1
0.71487 0.208621 1
0.676997 0.226993 1
0.639124 0.245365 1
0.601251 0.263737 1
0.563378 0.282124 1
0.52549 0.300496 1
0.487617 0.318868 1
0.449744 0.33724 1
0.411872 0.355627 1
0.373999 0.373999 1
0.336126 0.39237 1
0.298238 0.410742 1
0.260365 0.429129 1
0.222492 0.447501 1
0.184619 0.465873 1
0.146746 0.484245 1
0.108858 0.502632 1
0.070985 0.521004 1
0.0331121 0.539376 1
0 0.557748 1
0 0.576135 1
0 0.594507 1
0 0.612879 1
0 0.631251 1
0 0.649638 1
0 0.668009 1
1 0.0849928 1
1 0.103365 1
0.965499 0.121736 1
0.927626 0.140108 1
0.889754 0.158495 1
0.851881 0.176867 1
0.814008 0.195239 1
0.77612 0.213611 1
0.738247 0.231998 1
0.700374 0.25037 1
0.662501 0.268742 1
0.624628 0.287114 1
0.58674 0.305501 1
0.548867 0.323873 1
0.510994 0.342245 1
0.473121 0.360616 1
0.435248 0.379004 1
0.397375 0.397375 1
0.359487 0.415747 1
0.321614 0.434119 1
0.283742 0.452506 1
0.245869 0.470878 1
0.207996 0.48925 1
0.170123 0.507622 1
0.132235 0.526009 1
0.0943618 0.544381 1
0.0564889 0.562753 1
0.018616 0.581125 1
0 0.599496 1
0 0.617884 1
0 0.636255 1
0 0.654627 1
0 0.672999 1
1 0.0899977 1
1 0.10837 1
1 0.126741 1
0.988876 0.145113 1
0.951003 0.163485 1
0.91313 0.181872 1
0.875257 0.200244 1
0.837369 0.218616 1
0.799496 0.236988 1
0.761624 0.255375 1
0.723751 0.273747 1
0.685878 0.292119 1
0.648005 0.310491 1
0.610117 0.328878 1
0.572244 0.34725 1
0.534371 0.365621 1
0.496498 0.383993 1
0.458625 0.40238 1
0.420752 0.420752 1
0.382864 0.439124 1
0.344991 0.457496 1
0.307118 0.475868 1
0.269245 0.494255 1
0.231373 0.512627 1
0.193484 0.530999 1
0.155612 0.549371 1
0.117739 0.567758 1
0.0798657 0.58613 1
0.0419928 0.604501 1
0.00411994 0.622873 1
0 0.64126 1
0 0.659632 1
0 0.678004 1
1 0.0950027 1
1 0.113359 1
1 0.131746 1
1 0.150118 1
1 0.16849 1
0.97438 0.186862 1
0.936507 0.205249 1
0.898634 0.223621 1
0.860746 0.241993 1
0.822873 0.260365 1
0.785 0.278752 1
0.747127 0.297124 1
0.709255 0.315496 1
0.671366 0.333867 1
0.633494 0.352239 1
0.595621 0.370626 1
0.557748 0.388998 1
0.519875 0.40737 1
0.482002 0.425742 1
0.444114 0.444129 1
0.406241 0.462501 1
0.368368 0.480873 1
0.330495 0.499245 1
0.292622 0.517632 1
0.254749 0.536004 1
0.216861 0.554376 1
0.178988 0.572747 1
0.141115 0.591134 1
0.103243 0.609506 1
0.0653697 0.627878 1
0.0274815 0.64625 1
0 0.664637 1
0 0.683009 1
1 0.0999924 1
1 0.118364 1
1 0.136736 1
1 0.155123 1
1 0.173495 1
1 0.191867 1
0.997757 0.210239 1
0.959884 0.228611 1
0.921996 0.246998 1
0.884123 0.26537 1
0.84625 0.283742 1
0.808377 0.302113 1
0.770504 0.3205 1
0.732631 0.338872 1
0.694743 0.357244 1
0.65687 0.375616 1
0.618997 0.394003 1
0.581125 0.412375 1
0.543252 0.430747 1
0.505379 0.449119 1
0.467491 0.467506 1
0.429618 0.485878 1
0.391745 0.50425 1
0.353872 0.522622 1
0.315999 0.541009 1
0.278111 0.55938 1
0.240238 0.577752 1
0.202365 0.596124 1
0.164492 0.614511 1
0.126619 0.632883 1
0.0887465 0.651255 1
0.0508583 0.669627 1
0.0129854 0.687999 1
1 0.104997 1
1 0.123369 1
1 0.141741 1
1 0.160113 1
1 0.178485 1
1 0.196872 1
1 0.215244 1
1 0.233616 1
0.983261 0.251987 1
0.945373 0.270375 1
0.9075 0.288746 1
0.869627 0.307118 1
0.831754 0.32549 1
0.793881 0.343877 1
0.755993 0.362249 1
0.71812 0.380621 1
0.680247 0.398993 1
0.642374 0.41738 1
0.604501 0.435752 1
0.566629 0.454124 1
0.52874 0.472496 1
0.490867 0.490883 1
0.452995 0.509255 1
0.415122 0.527626 1
0.377249 0.545998 1
0.339376 0.56437 1
0.301488 0.582757 1
0.263615 0.601129 1
0.225742 0.619501 1
0.187869 0.637873 1
0.149996 0.65626 1
0.112108 0.674632 1
0.0742351 0.693004 1
1 0.110002 1
1 0.128359 1
1 0.146746 1
1 0.165118 1
1 0.18349 1
1 0.201862 1
1 0.220249 1
1 0.238621 1
1 0.256992 1
1 0.275364 1
0.96875 0.293751 1
0.930877 0.312123 1
0.893004 0.330495 1
0.855131 0.348867 1
0.817258 0.367254 1
0.77937 0.385626 1
0.741497 0.403998 1
0.703624 0.42237 1
0.665751 0.440742 1
0.627878 0.459129 1
0.58999 0.477501 1
0.552117 0.495872 1
0.514244 0.514244 1
0.476371 0.532631 1
0.438499 0.551003 1
0.400626 0.569375 1
0.362737 0.587747 1
0.324865 0.606134 1
0.286992 0.624506 1
0.249119 0.642878 1
0.211246 0.66125 1
0.173373 0.679637 1
0.135485 0.698009 1
1 0.114992 1
1 0.133364 1
1 0.151736 1
1 0.170123 1
1 0.188495 1
1 0.206867 1
1 0.225238 1
1 0.243626 1
1 0.261997 1
1 0.280369 1
1 0.298741 1
0.992126 0.317113 1
0.954253 0.3355 1
0.916381 0.353872 1
0.878508 0.372244 1
0.84062 0.390616 1
0.802747 0.409003 1
0.764874 0.427375 1
0.727001 0.445747 1
0.689128 0.464118 1
0.651255 0.482506 1
0.613367 0.500877 1
0.575494 0.519249 1
0.537621 0.537621 1
0.499748 0.556008 1
0.461875 0.57438 1
0.424002 0.592752 1
0.386114 0.611124 1
0.348241 0.629511 1
0.310369 0.647883 1
0.272496 0.666255 1
0.234623 0.684627 1
0.196735 0.703014 1
1 0.119997 1
1 0.138369 1
1 0.156741 1
1 0.175113 1
1 0.193484 1
1 0.211872 1
1 0.230243 1
1 0.248615 1
1 0.266987 1
1 0.285374 1
1 0.303746 1
1 0.322118 1
1 0.34049 1
0.97763 0.358877 1
0.939757 0.377249 1
0.901884 0.395621 1
0.863996 0.413993 1
0.826123 0.43238 1
0.788251 0.450752 1
0.750378 0.469123 1
0.712505 0.487495 1
0.674617 0.505882 1
0.636744 0.524254 1
0.598871 0.542626 1
0.560998 0.560998 1
0.523125 0.579385 1
0.485252 0.597757 1
0.447364 0.616129 1
0.409491 0.634501 1
0.371618 0.652873 1
0.333745 0.67126 1
0.295872 0.689632 1
0.258 0.708003 1
1 0.125002 1
1 0.143359 1
1 0.161746 1
1 0.180117 1
1 0.198489 1
1 0.216861 1
1 0.235248 1
1 0.25362 1
1 0.271992 1
1 0.290364 1
1 0.308751 1
1 0.327123 1
1 0.345495 1
1 0.363867 1
1 0.382254 1
0.963134 0.400626 1
0.925246 0.418997 1
0.887373 0.437369 1
0.8495 0.455756 1
0.811627 0.474128 1
0.773754 0.4925 1
0.735882 0.510872 1
0.697993 0.529244 1
0.660121 0.547631 1
0.622248 0.566003 1
0.584375 0.584375 1
0.546502 0.602747 1
0.508614 0.621134 1
0.470741 0.639506 1
0.432868 0.657877 1
0.394995 0.676249 1
0.357122 0.694636 1
0.319249 0.713008 1
1 0.129992 1
1 0.148363 1
1 0.166735 1
1 0.185122 1
1 0.203494 1
1 0.221866 1
1 0.240238 1
1 0.258625 1
1 0.276997 1
1 0.295369 1
1 0.313741 1
1 0.332128 1
1 0.3505 1
1 0.368872 1
1 0.387243 1
1 0.405615 1
0.986511 0.424002 1
0.948623 0.442374 1
0.91075 0.460746 1
0.872877 0.479118 1
0.835004 0.497505 1
0.797131 0.515877 1
0.759243 0.534249 1
0.72137 0.552621 1
0.683497 0.571008 1
0.645624 0.58938 1
0.607752 0.607752 1
0.569879 0.626123 1
0.531991 0.644511 1
0.494118 0.662882 1
0.456245 0.681254 1
0.418372 0.699626 1
0.380499 0.718013 1
1 0.134997 1
1 0.153368 1
1 0.17174 1
1 0.190112 1
1 0.208499 1
1 0.226871 1
1 0.245243 1
1 0.263615 1
1 0.281987 1
