public/LUTS/Color Shift/ColorShift_37.cube
TITLE "Generated by Resolve"
LUT_3D_SIZE 5
0 0 0
0.0798352 0.0188602 0.250385
0.15967 0.0377203 0.500771
0.23949 0.0565652 0.751171
0.319326 0.0754253 1
0.375494 0.133989 0.0260929
0.455329 0.152834 0.276478
0.535164 0.171695 0.526879
0.615 0.190555 0.777264
0.694835 0.209415 1
0.751019 0.267979 0.0522011
0.830839 0.286824 0.302571
0.910674 0.305684 0.552972
0.990509 0.324544 0.803372
1 0.343404 1
1 0.401968 0.078294
1 0.420829 0.328679
1 0.439673 0.579065
1 0.458534 0.829465
1 0.477394 1
1 0.535958 0.104387
1 0.554818 0.354772
1 0.573663 0.605173
1 0.592523 0.855558
1 0.611383 1
0 0.0971542 0
0 0.115999 0.223896
0 0.134859 0.474296
0.034165 0.153719 0.724681
0.114 0.17258 0.975082
0.170153 0.231128 0
0.249989 0.249989 0.249989
0.329824 0.268849 0.500389
0.409659 0.287709 0.750774
0.489494 0.306569 1
0.545678 0.365118 0.0257115
0.625513 0.383978 0.276081
0.705348 0.402838 0.526482
0.785183 0.421698 0.776883
0.865003 0.440558 1
0.921202 0.499107 0.0518044
1 0.517968 0.30219
1 0.536828 0.552575
1 0.555688 0.802976
1 0.574548 1
1 0.633112 0.0778973
1 0.651957 0.328283
1 0.670817 0.578683
1 0.689677 0.829068
1 0.708537 1
0 0.194308 0
0 0.213153 0.197406
0 0.232013 0.447791
0 0.250874 0.698192
0 0.269734 0.948592
0 0.328283 0
0.0446326 0.347143 0.223499
0.124468 0.366003 0.473899
0.204303 0.384863 0.724285
0.284138 0.403723 0.974685
0.340322 0.462272 0
0.420157 0.481132 0.249592
0.499992 0.499992 0.499992
0.579828 0.518853 0.750393
0.659663 0.537713 1
0.715846 0.596262 0.0253147
0.795682 0.615122 0.2757
0.875517 0.633982 0.526085
0.955352 0.652842 0.776486
1 0.671702 1
1 0.730266 0.0514076
1 0.749111 0.301793
1 0.767971 0.552193
1 0.786831 0.802579
1 0.805692 1
0 0.291463 0
0 0.310323 0.170916
0 0.329168 0.421302
0 0.348028 0.671702
0 0.366888 0.922103
0 0.425437 0
0 0.444297 0.197009
0 0.463157 0.44741
0 0.482017 0.697795
0.0787976 0.500877 0.948196
0.134981 0.559426 0
0.214801 0.578286 0.223102
0.294636 0.597147 0.473503
0.374472 0.616007 0.723903
0.454307 0.634867 0.974289
0.510506 0.693431 0
0.590326 0.712276 0.24921
0.670161 0.731136 0.499596
0.749996 0.749996 0.749996
0.829831 0.768856 1
0.886015 0.82742 0.024918
0.96585 0.846265 0.275303
1 0.865125 0.525704
1 0.883986 0.776089
1 0.902846 1
0 0.388617 0
0 0.407477 0.144427
0 0.426322 0.394812
0 0.445182 0.645212
0 0.464042 0.895613
0 0.522591 0
0 0.541451 0.17052
0 0.560311 0.42092
0 0.579171 0.671305
0 0.598032 0.921706
0 0.65658 0
0.00946059 0.675441 0.196612
0.0892958 0.694301 0.447013
0.169131 0.713161 0.697414
0.248966 0.732021 0.947799
0.30515 0.790585 0
0.384985 0.80943 0.222721
0.464805 0.82829 0.473106
0.54464 0.84715 0.723507
0.624475 0.866011 0.973907
0.680674 0.924575 0
0.760494 0.94342 0.248814
0.84033 0.96228 0.499214
0.920165 0.98114 0.749599
1 1 1
