public/LUTS/Color Shift/ColorShift_42.cube
TITLE "Generated by Resolve"
LUT_3D_SIZE 5
0 0 0
0 0.0588846 0.228992
0 0.117769 0.458015
0 0.176654 0.687022
0 0.235538 0.91603
0.425986 0.100435 0.169268
0.381567 0.159304 0.39826
0.337133 0.218204 0.627268
0.292714 0.277089 0.856291
0.24828 0.335973 1
0.852003 0.200855 0.338537
0.807584 0.259739 0.567544
0.763149 0.318624 0.796551
0.71873 0.377523 1
0.674296 0.436408 1
1 0.301289 0.50782
1 0.360174 0.736812
1 0.419059 0.96582
1 0.477943 1
1 0.536843 1
1 0.401724 0.677089
1 0.460609 0.906081
1 0.519493 1
1 0.578378 1
1 0.637278 1
0 0.0906844 0
0 0.149554 0.0807202
0 0.208453 0.309743
0 0.267338 0.53875
0 0.326223 0.767758
0.294408 0.191104 0.0209964
0.249989 0.249989 0.249989
0.205554 0.308873 0.478996
0.161135 0.367758 0.708019
0.116701 0.426642 0.937026
0.720424 0.291539 0.190265
0.676005 0.350423 0.419257
0.631571 0.409308 0.64828
0.587152 0.468193 0.877287
0.542718 0.527077 1
1 0.391974 0.359533
1 0.450858 0.58854
1 0.509743 0.817548
1 0.568627 1
0.968734 0.627512 1
1 0.492409 0.528817
1 0.551293 0.757809
1 0.610178 0.986831
1 0.669062 1
1 0.727947 1
0 0.181369 0
0 0.240238 0
0 0.299138 0.161456
0 0.358022 0.390463
0 0.416907 0.619471
0.162829 0.281788 0
0.11841 0.340673 0.101701
0.0739757 0.399558 0.330724
0.0295415 0.458442 0.559731
0 0.517327 0.788739
0.588846 0.382223 0.0419776
0.544427 0.441108 0.270985
0.499992 0.499992 0.499992
0.455558 0.558877 0.729
0.411139 0.617761 0.958022
1 0.482658 0.211261
0.970443 0.541543 0.440253
0.926009 0.600427 0.669261
0.881575 0.659312 0.898283
0.837156 0.718196 1
1 0.583093 0.380529
1 0.641978 0.609537
1 0.700862 0.838544
1 0.759747 1
1 0.818631 1
0 0.272053 0
0 0.330922 0
0 0.389822 0.0131685
0 0.448707 0.242176
0 0.507591 0.471199
0.0312505 0.372473 0
0 0.431357 0
0 0.490242 0.182437
0 0.549126 0.411444
0 0.608011 0.640452
0.457267 0.472908 0
0.412833 0.531792 0.122698
0.368414 0.590677 0.351705
0.32398 0.649561 0.580728
0.279545 0.708446 0.809735
0.883284 0.573343 0.062974
0.838849 0.632227 0.291966
0.79443 0.691112 0.520989
0.749996 0.749996 0.749996
0.705562 0.808881 0.979004
1 0.673777 0.232258
1 0.732662 0.46125
1 0.791547 0.690257
1 0.850431 0.919264
1 0.909316 1
0 0.362722 0
0 0.421607 0
0 0.480491 0
0 0.539391 0.093904
0 0.598276 0.322911
0 0.463157 0
0 0.522042 0
0 0.580926 0.0341497
0 0.639811 0.263157
0 0.698695 0.49218
0.325673 0.563592 0
0.281254 0.622477 0
0.23682 0.681361 0.203433
0.192401 0.740246 0.432441
0.147967 0.79913 0.661448
0.75169 0.664027 0
0.707271 0.722911 0.143694
0.662837 0.781796 0.372702
0.618418 0.840681 0.601709
0.573983 0.899565 0.830732
1 0.764462 0.0839704
1 0.823346 0.312963
1 0.882231 0.54197
1 0.941115 0.770993
1 1 1
