public/LUTS/Color Shift/ColorShift_22.cube
TITLE "Generated by Resolve"
LUT_3D_SIZE 5
0 0 0
0.208835 0.0222629 0
0.4177 0.0445106 0
0.626551 0.0667735 0
0.835401 0.0890364 0
0 0.256413 0.0899672
0.148852 0.278676 0.0128634
0.357717 0.300938 0
0.566567 0.323186 0
0.775418 0.345449 0
0 0.512856 0.179934
0.0888685 0.535103 0.102831
0.297719 0.557366 0.0257267
0.506584 0.579629 0
0.715434 0.601877 0
0 0.769284 0.269917
0.0288853 0.791531 0.192813
0.237736 0.813794 0.115694
0.446586 0.836057 0.0385901
0.655451 0.858305 0
0 1 0.359884
0 1 0.28278
0.177752 1 0.205676
0.386603 1 0.128557
0.595453 1 0.0514534
0.101137 0 0.237125
0.309972 0 0.160021
0.518822 0.0158236 0.0829175
0.727672 0.0380865 0.00579843
0.936538 0.0603494 0
0.0411536 0.227726 0.327092
0.249989 0.249989 0.249989
0.458839 0.272251 0.172885
0.667689 0.294499 0.0957656
0.876554 0.316762 0.0186618
0 0.484169 0.41706
0.190005 0.506416 0.339956
0.398856 0.528679 0.262852
0.607706 0.550942 0.185748
0.816556 0.57319 0.108629
0 0.740597 0.507042
0.130022 0.76286 0.429938
0.338872 0.785107 0.352819
0.547723 0.80737 0.275715
0.756573 0.829633 0.198611
0 0.997024 0.597009
0.0700236 1 0.519905
0.278889 1 0.442802
0.487739 1 0.365682
0.69659 1 0.288579
0.202274 0 0.474266
0.411109 0 0.397162
0.619959 0 0.320058
0.828809 0.00939956 0.242939
1 0.0316625 0.165835
0.14229 0.199039 0.564233
0.351125 0.221302 0.487129
0.559976 0.243565 0.410025
0.768826 0.265812 0.332906
0.977691 0.288075 0.255802
0.0822919 0.455482 0.6542
0.291142 0.477729 0.577096
0.499992 0.499992 0.499992
0.708843 0.522255 0.422889
0.917693 0.544503 0.345769
0.0223087 0.71191 0.744183
0.231159 0.734173 0.667079
0.440009 0.75642 0.58996
0.648859 0.778683 0.512856
0.85771 0.800946 0.435752
0 0.968338 0.83415
0.17116 0.9906 0.757046
0.380026 1 0.679942
0.588876 1 0.602823
0.797726 1 0.525719
0.30341 0 0.711406
0.512245 0 0.634302
0.721096 0 0.557198
0.929946 0 0.480079
1 0.00297551 0.402975
0.243427 0.170352 0.801373
0.452262 0.192615 0.724269
0.661112 0.214878 0.647166
0.869963 0.237125 0.570047
1 0.259388 0.492943
0.183429 0.426795 0.89134
0.392279 0.449042 0.814237
0.601129 0.471305 0.737133
0.809979 0.493568 0.660029
1 0.515816 0.58291
0.123445 0.683223 0.981323
0.332296 0.705486 0.904219
0.541146 0.727733 0.8271
0.749996 0.749996 0.749996
0.958846 0.772259 0.672892
0.0634623 0.939651 1
0.272297 0.961913 0.994186
0.481163 0.984176 0.917082
0.690013 1 0.839963
0.898863 1 0.76286
0.404547 0 0.948547
0.613382 0 0.871443
0.822232 0 0.794339
1 0 0.71722
1 0 0.640116
0.344564 0.141665 1
0.553399 0.163928 0.96141
0.762249 0.186191 0.884306
0.971099 0.208438 0.807187
1 0.230701 0.730083
0.284566 0.398108 1
0.493416 0.420356 1
0.702266 0.442618 0.974273
0.911116 0.464881 0.897169
1 0.487129 0.82005
0.224582 0.654536 1
0.433433 0.676799 1
0.642283 0.699046 1
0.851133 0.721309 0.987137
1 0.743572 0.910033
0.164599 0.910964 1
0.373434 0.933227 1
0.5823 0.955489 1
0.79115 0.977737 1
1 1 1
