public/LUTS/Color Shift/ColorShift_33.cube
TITLE "Generated by Resolve"
LUT_3D_SIZE 33
0 0 0
0.0217441 0 0.0265507
0.0434882 0 0.0531014
0.0652476 0 0.0796674
0.0870069 0 0.106218
0.108751 0 0.132784
0.13051 0 0.159335
0.152255 0 0.185901
0.174014 0 0.212451
0.195758 0 0.239017
0.217517 0 0.265568
0.239261 0 0.292134
0.261021 0 0.318685
0.28278 0 0.345251
0.304524 0 0.371801
0.326284 0 0.398367
0.348028 0 0.424918
0.369787 0 0.451484
0.391531 0 0.478035
0.413291 0 0.504601
0.435035 0 0.531151
0.456794 0 0.557717
0.478553 0 0.584268
0.500298 0 0.610834
0.522057 0 0.637385
0.543801 0 0.663951
0.56556 0 0.690517
0.587304 0 0.717067
0.609064 0 0.743633
0.630808 0 0.770184
0.652567 0 0.79675
0.674311 0 0.823301
0.696071 0 0.849867
0.0347295 0.0216068 0
0.0564736 0.0210422 0.0203555
0.0782177 0.0204776 0.0469215
0.0999771 0.019913 0.0734722
0.121721 0.0193484 0.100038
0.143481 0.0187839 0.126589
0.165225 0.0182193 0.153155
0.186984 0.0176547 0.179706
0.208728 0.0170901 0.206271
0.230488 0.0165255 0.232822
0.252247 0.0159609 0.259388
0.273991 0.0153964 0.285939
0.29575 0.0148318 0.312505
0.317494 0.0142672 0.339055
0.339254 0.0137026 0.365621
0.360998 0.013138 0.392172
0.382757 0.0125734 0.418738
0.404501 0.0120089 0.445289
0.426261 0.0114443 0.471855
0.44802 0.0108797 0.498405
0.469764 0.0102998 0.524971
0.491524 0.00973526 0.551522
0.513268 0.00917067 0.578088
0.535027 0.00860609 0.604639
0.556771 0.0080415 0.631205
0.578531 0.00747692 0.657771
0.600275 0.00691234 0.684321
0.622034 0.00634775 0.710887
0.643793 0.00578317 0.737438
0.665537 0.00521859 0.764004
0.687297 0.004654 0.790555
0.709041 0.00408942 0.817121
0.7308 0.00352483 0.843671
0.0694743 0.0432288 0
0.0912032 0.0426642 0.0141604
0.112963 0.0420996 0.0407263
0.134722 0.0415351 0.067277
0.156466 0.0409705 0.093843
0.178225 0.0404059 0.120409
0.199969 0.0398413 0.14696
0.221729 0.0392767 0.173526
0.243473 0.0387121 0.200076
0.265232 0.0381476 0.226642
0.286976 0.037583 0.253193
0.308736 0.0370184 0.279759
0.330495 0.0364538 0.30631
0.352239 0.0358892 0.332876
0.373999 0.0353246 0.359426
0.395743 0.0347601 0.385992
0.417502 0.0341955 0.412543
0.439246 0.0336309 0.439109
0.461006 0.0330663 0.46566
0.48275 0.0325017 0.492226
0.504509 0.0319371 0.518776
0.526268 0.0313726 0.545342
0.548012 0.0307927 0.571893
0.569772 0.0302281 0.598459
0.591516 0.0296635 0.62501
0.613275 0.029099 0.651576
0.635019 0.0285344 0.678126
0.656779 0.0279698 0.704692
0.678523 0.0274052 0.731243
0.700282 0.0268406 0.757809
0.722042 0.026276 0.78436
0.743786 0.0257115 0.810925
0.765545 0.0251469 0.837476
0.104204 0.0648661 0
0.125948 0.0643015 0.00798047
0.147707 0.0637369 0.0345312
0.169451 0.0631571 0.0610971
0.191211 0.0625925 0.0876478
0.21297 0.0620279 0.114214
0.234714 0.0614633 0.140764
0.256474 0.0608988 0.16733
0.278218 0.0603342 0.193881
0.299977 0.0597696 0.220447
0.321721 0.059205 0.246998
0.343481 0.0586404 0.273564
0.365225 0.0580758 0.300114
0.386984 0.0575113 0.32668
0.408743 0.0569467 0.353231
0.430488 0.0563821 0.379797
0.452247 0.0558175 0.406348
0.473991 0.0552529 0.432914
0.49575 0.0546883 0.45948
0.517494 0.0541238 0.48603
0.539254 0.0535592 0.512596
0.560998 0.0529946 0.539147
0.582757 0.05243 0.565713
0.604517 0.0518654 0.592264
0.626261 0.0512856 0.61883
0.64802 0.050721 0.64538
0.669764 0.0501564 0.671946
0.691524 0.0495918 0.698497
0.713268 0.0490272 0.725063
0.735027 0.0484627 0.751614
0.756771 0.0478981 0.77818
0.778531 0.0473335 0.80473
0.80029 0.0467689 0.831296
0.138949 0.0864881 0
0.160693 0.0859236 0.00178531
0.182452 0.085359 0.0283513
0.204196 0.0847944 0.054902
0.225956 0.0842298 0.0814679
0.2477 0.08365 0.108019
0.269459 0.0830854 0.134585
0.291218 0.0825208 0.161135
0.312963 0.0819562 0.187701
0.334722 0.0813916 0.214252
0.356466 0.080827 0.240818
0.378225 0.0802625 0.267369
0.399969 0.0796979 0.293935
0.421729 0.0791333 0.320485
0.443473 0.0785687 0.347051
0.465232 0.0780041 0.373602
0.486992 0.0774395 0.400168
0.508736 0.0768749 0.426719
0.530495 0.0763104 0.453285
0.552239 0.0757458 0.479835
0.573999 0.0751812 0.506401
0.595743 0.0746166 0.532952
0.617502 0.074052 0.559518
0.639246 0.0734875 0.586069
0.661006 0.0729229 0.612634
0.682765 0.0723583 0.639185
0.704509 0.0717784 0.665751
0.726268 0.0712139 0.692302
0.748012 0.0706493 0.718868
0.769772 0.0700847 0.745418
0.791516 0.0695201 0.771984
0.813275 0.0689555 0.798535
0.835019 0.0683909 0.825101
0.173693 0.10811 0
0.195438 0.107546 0
0.217197 0.106981 0.0221561
0.238941 0.106416 0.0487068
0.2607 0.105852 0.0752728
0.282445 0.105287 0.101823
0.304204 0.104723 0.128389
0.325948 0.104143 0.15494
0.347707 0.103578 0.181506
0.369467 0.103014 0.208057
0.391211 0.102449 0.234623
0.41297 0.101884 0.261189
0.434714 0.10132 0.287739
0.456474 0.100755 0.314305
0.478218 0.100191 0.340856
0.499977 0.0996262 0.367422
0.521721 0.0990616 0.393973
0.543481 0.098497 0.420539
0.56524 0.0979324 0.447089
0.586984 0.0973678 0.473655
0.608743 0.0968032 0.500206
0.630488 0.0962387 0.526772
0.652247 0.0956741 0.553323
0.673991 0.0951095 0.579889
0.69575 0.0945449 0.606439
0.717494 0.0939803 0.633005
0.739254 0.0934157 0.659556
0.760998 0.0928511 0.686122
0.782757 0.0922713 0.712673
0.804517 0.0917067 0.739239
0.826261 0.0911421 0.765789
0.84802 0.0905776 0.792355
0.869764 0.090013 0.818906
0.208438 0.129732 0
0.230182 0.129168 0
0.251942 0.128603 0.0159609
0.273686 0.128038 0.0425269
0.295445 0.127474 0.0690776
0.317189 0.126909 0.0956436
0.338949 0.126345 0.122194
0.360693 0.12578 0.14876
0.382452 0.125216 0.175311
0.404196 0.124636 0.201877
0.425956 0.124071 0.228428
0.447715 0.123507 0.254994
0.469459 0.122942 0.281544
0.491218 0.122377 0.30811
0.512963 0.121813 0.334661
0.534722 0.121248 0.361227
0.556466 0.120684 0.387778
0.578225 0.120119 0.414343
0.59997 0.119554 0.440894
0.621729 0.11899 0.46746
0.643473 0.118425 0.494011
0.665232 0.117861 0.520577
0.686992 0.117296 0.547127
0.708736 0.116732 0.573693
0.730495 0.116167 0.600244
0.752239 0.115602 0.62681
0.773999 0.115038 0.653376
0.795743 0.114473 0.679927
0.817502 0.113909 0.706493
0.839246 0.113344 0.733043
0.861006 0.112764 0.759609
0.882765 0.1122 0.78616
0.904509 0.111635 0.812726
0.243183 0.151354 0
0.264927 0.15079 0
0.286671 0.150225 0.00976577
0.308431 0.14966 0.0363317
0.330175 0.149096 0.0628977
0.351934 0.148531 0.0894484
0.373693 0.147967 0.116014
0.395438 0.147402 0.142565
0.417197 0.146838 0.169131
0.438941 0.146273 0.195682
0.4607 0.145693 0.222248
0.482444 0.145129 0.248798
0.504204 0.144564 0.275364
0.525948 0.143999 0.301915
0.547707 0.143435 0.328481
0.569467 0.14287 0.355032
0.591211 0.142306 0.381598
0.61297 0.141741 0.408148
0.634714 0.141176 0.434714
0.656474 0.140612 0.461265
0.678218 0.140047 0.487831
0.699977 0.139483 0.514382
0.721721 0.138918 0.540948
0.743481 0.138354 0.567498
0.76524 0.137789 0.594064
0.786984 0.137224 0.620615
0.808743 0.13666 0.647181
0.830488 0.136095 0.673732
0.852247 0.135531 0.700298
0.873991 0.134966 0.726848
0.89575 0.134401 0.753414
0.917494 0.133837 0.779965
0.939254 0.133257 0.806531
0.277928 0.172976 0
0.299672 0.172412 0
0.321416 0.171847 0.00358587
0.343175 0.171283 0.0301366
0.36492 0.170718 0.0567025
0.386679 0.170153 0.0832532
0.408423 0.169589 0.109819
0.430182 0.169024 0.13637
0.451942 0.16846 0.162936
0.473686 0.167895 0.189487
0.495445 0.16733 0.216052
0.517189 0.166766 0.242603
0.538949 0.166186 0.269169
0.560693 0.165621 0.29572
0.582452 0.165057 0.322286
0.604196 0.164492 0.348837
0.625956 0.163928 0.375402
0.647715 0.163363 0.401953
0.669459 0.162799 0.428519
0.691218 0.162234 0.455085
0.712963 0.161669 0.481636
0.734722 0.161105 0.508202
0.756466 0.16054 0.534752
0.778225 0.159976 0.561318
0.799969 0.159411 0.587869
0.821729 0.158846 0.614435
0.843488 0.158282 0.640986
0.865232 0.157717 0.667552
0.886992 0.157153 0.694102
0.908736 0.156588 0.720668
0.930495 0.156024 0.747219
0.952239 0.155459 0.773785
0.973999 0.154894 0.800336
0.312673 0.194598 0
0.334417 0.194034 0
0.356161 0.193469 0
0.37792 0.192905 0.0239567
0.399664 0.19234 0.0505074
0.421424 0.191775 0.0770733
0.443168 0.191211 0.103624
0.464927 0.190646 0.13019
0.486671 0.190082 0.156741
0.508431 0.189517 0.183307
0.53019 0.188952 0.209857
0.551934 0.188388 0.236423
0.573693 0.187823 0.262974
0.595438 0.187259 0.28954
0.617197 0.186679 0.316091
0.638941 0.186114 0.342657
0.6607 0.18555 0.369207
0.682445 0.184985 0.395773
0.704204 0.184421 0.422324
0.725963 0.183856 0.44889
0.747707 0.183291 0.475441
0.769467 0.182727 0.502007
0.791211 0.182162 0.528557
0.81297 0.181598 0.555123
0.834714 0.181033 0.581674
0.856474 0.180468 0.60824
0.878218 0.179904 0.634791
0.899977 0.179339 0.661357
0.921736 0.178775 0.687907
0.943481 0.17821 0.714473
0.96524 0.177646 0.741024
0.986984 0.177081 0.76759
1 0.176516 0.794156
0.347417 0.21622 0
0.369146 0.215656 0
0.390906 0.215091 0
0.412665 0.214527 0.0177615
0.434409 0.213962 0.0443122
0.456168 0.213397 0.0708782
0.477913 0.212833 0.0974289
0.499672 0.212268 0.123995
0.521416 0.211704 0.150546
0.543175 0.211139 0.177111
0.56492 0.210575 0.203662
0.586679 0.21001 0.230228
0.608438 0.209445 0.256794
0.630182 0.208881 0.283345
0.651942 0.208316 0.309911
0.673686 0.207752 0.336461
0.695445 0.207172 0.363027
0.717189 0.206607 0.389578
0.738949 0.206043 0.416144
0.760693 0.205478 0.442695
0.782452 0.204913 0.469261
0.804211 0.204349 0.495811
0.825956 0.203784 0.522377
0.847715 0.20322 0.548928
0.869459 0.202655 0.575494
0.891218 0.20209 0.602045
0.912963 0.201526 0.628611
0.934722 0.200961 0.655161
0.956466 0.200397 0.681727
0.978225 0.199832 0.708278
0.999985 0.199268 0.734844
1 0.198703 0.761395
1 0.198138 0.787961
0.382147 0.237842 0
0.403891 0.237278 0
0.42565 0.236713 0
0.447395 0.236149 0.0115663
0.469154 0.235584 0.0381323
0.490913 0.235019 0.064683
0.512657 0.234455 0.091249
0.534417 0.23389 0.1178
0.556161 0.233326 0.144366
0.57792 0.232761 0.170916
0.599664 0.232197 0.197482
0.621424 0.231632 0.224033
0.643168 0.231067 0.250599
0.664927 0.230503 0.27715
0.686687 0.229938 0.303716
0.708431 0.229374 0.330266
0.73019 0.228809 0.356832
0.751934 0.228244 0.383383
0.773693 0.227665 0.409949
0.795438 0.2271 0.4365
0.817197 0.226535 0.463066
0.838941 0.225971 0.489616
0.8607 0.225406 0.516182
0.882445 0.224842 0.542733
0.904204 0.224277 0.569299
0.925963 0.223713 0.595865
0.947707 0.223148 0.622415
0.969467 0.222583 0.648981
0.991211 0.222019 0.675532
1 0.221454 0.702098
1 0.22089 0.728649
1 0.220325 0.755215
1 0.21976 0.781765
0.416892 0.259464 0
0.438636 0.2589 0
0.460395 0.258335 0
0.482139 0.257771 0.00537118
0.503899 0.257206 0.0319371
0.525643 0.256641 0.0585031
0.547402 0.256077 0.0850538
0.569146 0.255512 0.11162
0.590906 0.254948 0.13817
0.612665 0.254383 0.164736
0.634409 0.253819 0.191287
0.656168 0.253254 0.217853
0.677913 0.252689 0.244404
0.699672 0.252125 0.27097
0.721416 0.25156 0.29752
0.743175 0.250996 0.324086
0.76492 0.250431 0.350637
0.786679 0.249866 0.377203
0.808438 0.249302 0.403754
0.830182 0.248737 0.43032
0.851942 0.248157 0.45687
0.873686 0.247593 0.483436
0.895445 0.247028 0.509987
0.917189 0.246464 0.536553
0.938949 0.245899 0.563104
0.960693 0.245335 0.58967
0.982452 0.24477 0.61622
1 0.244205 0.642786
1 0.243641 0.669337
1 0.243076 0.695903
1 0.242512 0.722454
1 0.241947 0.74902
1 0.241382 0.77557
0.451637 0.281086 0
0.473381 0.280522 0
0.49514 0.279957 0
0.516884 0.279393 0
0.538643 0.278828 0.025742
0.560388 0.278264 0.0523079
0.582147 0.277699 0.0788586
0.603891 0.277134 0.105425
0.62565 0.27657 0.131975
0.647395 0.276005 0.158541
0.669154 0.275441 0.185092
0.690913 0.274876 0.211658
0.712657 0.274311 0.238209
0.734417 0.273747 0.264775
0.756161 0.273182 0.291325
0.77792 0.272618 0.317891
0.799664 0.272053 0.344442
0.821424 0.271489 0.371008
0.843168 0.270924 0.397574
0.864927 0.270359 0.424125
0.886687 0.269795 0.45069
0.908431 0.26923 0.477241
0.93019 0.26865 0.503807
0.951934 0.268086 0.530358
0.973693 0.267521 0.556924
0.995438 0.266957 0.583474
1 0.266392 0.61004
1 0.265827 0.636591
1 0.265263 0.663157
1 0.264698 0.689708
1 0.264134 0.716274
1 0.263569 0.742824
1 0.263005 0.76939
0.486381 0.302724 0
0.508125 0.302159 0
0.52987 0.301579 0
0.551629 0.301015 0
0.573388 0.30045 0.0195621
0.595132 0.299886 0.0461128
0.616892 0.299321 0.0726787
0.638636 0.298756 0.0992294
0.660395 0.298192 0.125795
0.682139 0.297627 0.152346
0.703899 0.297063 0.178912
0.725643 0.296498 0.205463
0.747402 0.295933 0.232029
0.769162 0.295369 0.258579
0.790906 0.294804 0.285145
0.812665 0.29424 0.311696
0.834409 0.293675 0.338262
0.856168 0.293111 0.364813
0.877913 0.292546 0.391379
0.899672 0.291981 0.417929
0.921416 0.291417 0.444495
0.943175 0.290852 0.471046
0.964935 0.290288 0.497612
0.986679 0.289723 0.524163
1 0.289143 0.550729
1 0.288579 0.577279
1 0.288014 0.603845
1 0.287449 0.630396
1 0.286885 0.656962
1 0.28632 0.683513
1 0.285756 0.710079
1 0.285191 0.736629
1 0.284627 0.763195
0.521126 0.324346 0
0.54287 0.323781 0
0.564614 0.323217 0
0.586374 0.322652 0
0.608118 0.322072 0.0133669
0.629877 0.321508 0.0399176
0.651637 0.320943 0.0664836
0.673381 0.320378 0.0930343
0.69514 0.319814 0.1196
0.716884 0.319249 0.146151
0.738643 0.318685 0.172717
0.760388 0.31812 0.199283
0.782147 0.317556 0.225834
0.803891 0.316991 0.252399
0.82565 0.316426 0.27895
0.84741 0.315862 0.305516
0.869154 0.315297 0.332067
0.890913 0.314733 0.358633
0.912657 0.314168 0.385183
0.934417 0.313603 0.411749
0.956161 0.313039 0.4383
0.97792 0.312474 0.464866
0.999664 0.31191 0.491417
1 0.311345 0.517983
1 0.31078 0.544533
1 0.310216 0.571099
1 0.309636 0.59765
1 0.309071 0.624216
1 0.308507 0.650767
1 0.307942 0.677333
1 0.307378 0.703883
1 0.306813 0.730449
1 0.306249 0.757
0.555871 0.345968 0
0.577615 0.345403 0
0.599359 0.344839 0
0.621118 0.344274 0
0.642863 0.343709 0.00717174
0.664622 0.343145 0.0337377
0.686366 0.342565 0.0602884
0.708125 0.342 0.0868544
0.729885 0.341436 0.113405
0.751629 0.340871 0.139971
0.773388 0.340307 0.166522
0.795132 0.339742 0.193088
0.816892 0.339178 0.219638
0.838636 0.338613 0.246204
0.860395 0.338048 0.272755
0.882139 0.337484 0.299321
0.903899 0.336919 0.325872
0.925658 0.336355 0.352438
0.947402 0.33579 0.378988
0.969162 0.335225 0.405554
0.990906 0.334661 0.432105
1 0.334096 0.458671
1 0.333532 0.485222
1 0.332967 0.511788
1 0.332403 0.538338
1 0.331838 0.564904
1 0.331273 0.59147
1 0.330709 0.618021
1 0.330129 0.644587
1 0.329564 0.671138
1 0.329 0.697704
1 0.328435 0.724254
1 0.327871 0.75082
0.590616 0.36759 0
0.61236 0.367025 0
0.634104 0.366461 0
0.655863 0.365896 0
0.677607 0.365332 0.000991836
0.699367 0.364767 0.0275425
0.721111 0.364202 0.0541085
0.74287 0.363638 0.0806592
0.764614 0.363058 0.107225
0.786374 0.362493 0.133776
0.808118 0.361929 0.160342
0.829877 0.361364 0.186892
0.851637 0.3608 0.213458
0.873381 0.360235 0.240009
0.89514 0.35967 0.266575
0.916884 0.359106 0.293126
0.938643 0.358541 0.319692
0.960388 0.357977 0.346242
0.982147 0.357412 0.372808
1 0.356847 0.399359
1 0.356283 0.425925
1 0.355718 0.452476
1 0.355154 0.479042
1 0.354589 0.505592
1 0.354025 0.532158
1 0.35346 0.558709
1 0.352895 0.585275
1 0.352331 0.611826
1 0.351766 0.638392
1 0.351202 0.664942
1 0.350622 0.691508
1 0.350057 0.718059
1 0.349493 0.744625
0.62536 0.389212 0
0.647089 0.388647 0
0.668849 0.388083 0
0.690593 0.387518 0
0.712352 0.386954 0
0.734112 0.386389 0.0213474
0.755856 0.385824 0.0479133
0.777615 0.38526 0.074464
0.799359 0.384695 0.10103
0.821118 0.384131 0.127581
0.842863 0.383551 0.154147
0.864622 0.382986 0.180697
0.886366 0.382422 0.207263
0.908125 0.381857 0.233814
0.929885 0.381292 0.26038
0.951629 0.380728 0.286931
0.973388 0.380163 0.313497
0.995132 0.379599 0.340063
1 0.379034 0.366613
1 0.37847 0.393179
1 0.377905 0.41973
1 0.37734 0.446296
1 0.376776 0.472847
1 0.376211 0.499413
1 0.375647 0.525963
1 0.375082 0.552529
1 0.374517 0.57908
1 0.373953 0.605646
1 0.373388 0.632197
1 0.372824 0.658763
1 0.372259 0.685313
1 0.371695 0.711879
1 0.371115 0.73843
0.66009 0.410834 0
0.681834 0.410269 0
0.703593 0.409705 0
0.725338 0.40914 0
0.747097 0.408576 0
0.768841 0.408011 0.0151675
0.7906 0.407446 0.0417182
0.81236 0.406882 0.0682841
0.834104 0.406317 0.0948348
0.855863 0.405753 0.121401
0.877607 0.405188 0.147951
0.899367 0.404623 0.174517
0.921111 0.404044 0.201068
0.94287 0.403479 0.227634
0.964614 0.402914 0.254185
0.986374 0.40235 0.280751
1 0.401785 0.307301
1 0.401221 0.333867
1 0.400656 0.360418
1 0.400092 0.386984
1 0.399527 0.413535
1 0.398962 0.440101
1 0.398398 0.466651
1 0.397833 0.493217
1 0.397269 0.519768
1 0.396704 0.546334
1 0.396139 0.572885
1 0.395575 0.599451
1 0.39501 0.626001
1 0.394446 0.652567
1 0.393881 0.679118
1 0.393317 0.705684
1 0.392752 0.73225
0.694835 0.432456 0
0.716579 0.431891 0
0.738338 0.431327 0
0.760082 0.430762 0
0.781842 0.430198 0
0.803586 0.429633 0.0089723
0.825345 0.429068 0.035523
0.847089 0.428504 0.062089
0.868849 0.427939 0.0886397
0.890608 0.427375 0.115206
0.912352 0.42681 0.141772
0.934112 0.426246 0.168322
0.955856 0.425681 0.194888
0.977615 0.425116 0.221439
0.999359 0.424536 0.248005
1 0.423972 0.274556
1 0.423407 0.301122
1 0.422843 0.327672
1 0.422278 0.354238
1 0.421714 0.380789
1 0.421149 0.407355
1 0.420584 0.433906
1 0.42002 0.460472
1 0.419455 0.487022
1 0.418891 0.513588
1 0.418326 0.540139
1 0.417762 0.566705
1 0.417197 0.593256
1 0.416632 0.619821
1 0.416068 0.646372
1 0.415503 0.672938
1 0.414939 0.699489
1 0.414374 0.726055
0.72958 0.454078 0
0.751324 0.453513 0
0.773083 0.452949 0
0.794827 0.452384 0
0.816587 0.45182 0
0.838331 0.451255 0.00277714
0.86009 0.45069 0.0293431
0.881834 0.450126 0.0558938
0.903593 0.449561 0.0824598
0.925338 0.448997 0.10901
0.947097 0.448432 0.135576
0.968856 0.447868 0.162127
0.9906 0.447303 0.188693
1 0.446738 0.215244
1 0.446174 0.24181
1 0.445609 0.26836
1 0.445029 0.294926
1 0.444465 0.321477
1 0.4439 0.348043
1 0.443336 0.374594
1 0.442771 0.40116
1 0.442206 0.42771
1 0.441642 0.454276
1 0.441077 0.480827
1 0.440513 0.507393
1 0.439948 0.533959
1 0.439384 0.56051
1 0.438819 0.587076
1 0.438254 0.613626
1 0.43769 0.640192
1 0.437125 0.666743
1 0.436561 0.693309
1 0.435996 0.71986
0.764324 0.4757 0
0.786068 0.475135 0
0.807813 0.474571 0
0.829572 0.474006 0
0.851331 0.473442 0
0.873075 0.472877 0
0.894835 0.472313 0.0231479
0.916579 0.471748 0.0497139
0.938338 0.471183 0.0762646
0.960082 0.470619 0.102831
0.981842 0.470054 0.129381
1 0.46949 0.155947
1 0.468925 0.182498
1 0.46836 0.209064
1 0.467796 0.235615
1 0.467231 0.262181
1 0.466667 0.288731
1 0.466102 0.315297
1 0.465522 0.341848
1 0.464958 0.368414
1 0.464393 0.394965
1 0.463828 0.42153
1 0.463264 0.448081
1 0.462699 0.474647
1 0.462135 0.501198
1 0.46157 0.527764
1 0.461006 0.554314
1 0.460441 0.58088
1 0.459876 0.607431
1 0.459312 0.633997
1 0.458747 0.660548
1 0.458183 0.687114
1 0.457618 0.713664
0.799069 0.497322 0
0.820813 0.496757 0
0.842557 0.496193 0
0.864317 0.495628 0
0.886061 0.495064 0
0.90782 0.494499 0
0.929564 0.493935 0.0169528
0.951324 0.49337 0.0435187
0.973083 0.492805 0.0700694
0.994827 0.492241 0.0966354
1 0.491676 0.123186
1 0.491112 0.149752
1 0.490547 0.176303
1 0.489982 0.202869
1 0.489418 0.229419
1 0.488853 0.255985
1 0.488289 0.282536
1 0.487724 0.309102
1 0.48716 0.335668
1 0.486595 0.362219
1 0.486015 0.388785
1 0.485451 0.415335
1 0.484886 0.441901
1 0.484321 0.468452
1 0.483757 0.495018
1 0.483192 0.521569
1 0.482628 0.548135
1 0.482063 0.574685
1 0.481498 0.601251
1 0.480934 0.627802
1 0.480369 0.654368
1 0.479805 0.680919
1 0.47924 0.707485
0.833814 0.518944 0
0.855558 0.51838 0
0.877302 0.517815 0
0.899062 0.51725 0
0.920806 0.516686 0
0.942565 0.516121 0
0.964309 0.515557 0.0107729
0.986068 0.514992 0.0373236
1 0.514427 0.0638895
1 0.513863 0.0904402
1 0.513298 0.117006
1 0.512734 0.143557
1 0.512169 0.170123
1 0.511604 0.196674
1 0.51104 0.223239
1 0.510475 0.24979
1 0.509911 0.276356
1 0.509346 0.302907
1 0.508782 0.329473
1 0.508217 0.356023
1 0.507652 0.382589
1 0.507088 0.40914
1 0.506508 0.435706
1 0.505943 0.462257
1 0.505379 0.488823
1 0.504814 0.515373
1 0.50425 0.541939
1 0.503685 0.56849
1 0.50312 0.595056
1 0.502556 0.621607
1 0.501991 0.648173
1 0.501427 0.674723
1 0.500862 0.701289
0.868559 0.540581 0
0.890288 0.540017 0
0.912047 0.539437 0
0.933806 0.538872 0
0.95555 0.538308 0
0.97731 0.537743 0
0.999054 0.537179 0.00457771
1 0.536614 0.0311284
1 0.536049 0.0576944
1 0.535485 0.0842451
1 0.53492 0.110811
1 0.534356 0.137377
1 0.533791 0.163928
1 0.533227 0.190494
1 0.532662 0.217044
1 0.532097 0.24361
1 0.531533 0.270161
1 0.530968 0.296727
1 0.530404 0.323278
1 0.529839 0.349844
1 0.529274 0.376394
1 0.52871 0.40296
1 0.528145 0.429511
1 0.527581 0.456077
1 0.527001 0.482628
1 0.526436 0.509194
1 0.525872 0.535744
1 0.525307 0.56231
1 0.524742 0.588861
1 0.524178 0.615427
1 0.523613 0.641978
1 0.523049 0.668544
1 0.522484 0.695094
0.903288 0.562203 0
0.925032 0.561639 0
0.946792 0.561074 0
0.968536 0.56051 0
0.990295 0.55993 0
1 0.559365 0
1 0.558801 0
1 0.558236 0.0249485
1 0.557671 0.0514992
1 0.557107 0.0780652
1 0.556542 0.104616
1 0.555978 0.131182
1 0.555413 0.157733
1 0.554849 0.184298
1 0.554284 0.210849
1 0.553719 0.237415
1 0.553155 0.263966
1 0.55259 0.290532
1 0.552026 0.317082
1 0.551461 0.343648
1 0.550896 0.370199
1 0.550332 0.396765
1 0.549767 0.423316
1 0.549203 0.449882
1 0.548638 0.476432
1 0.548074 0.502998
1 0.547494 0.529564
1 0.546929 0.556115
1 0.546365 0.582681
1 0.5458 0.609232
1 0.545235 0.635798
1 0.544671 0.662348
1 0.544106 0.688914
0.938033 0.583825 0
0.959777 0.583261 0
0.981537 0.582696 0
1 0.582132 0
1 0.581567 0
1 0.581003 0
1 0.580423 0
1 0.579858 0.0187533
1 0.579293 0.0453193
