public/LUTS/Color Shift/ColorShift_05.cube
TITLE "Generated by Resolve"
LUT_3D_SIZE 9
0 0 0
0 0.059266 0
0 0.118547 0
0 0.177829 0
0 0.237095 0
0 0.296376 0
0 0.355657 0
0 0.414923 0
0 0.474205 0
0.113146 0.0643626 0.207492
0.0419623 0.123644 0.204242
0 0.18291 0.200992
0 0.242191 0.197742
0 0.301472 0.194491
0 0.360739 0.191241
0 0.42002 0.187991
0 0.479301 0.184741
0 0.538567 0.181506
0.226291 0.12874 0.415
0.155108 0.188006 0.411749
0.0839246 0.247288 0.408515
0.012726 0.306569 0.405264
0 0.365835 0.402014
0 0.425116 0.398764
0 0.484398 0.395514
0 0.543679 0.392264
0 0.602945 0.389013
0.339452 0.193118 0.622522
0.268269 0.252384 0.619272
0.19707 0.311666 0.616022
0.125887 0.370947 0.612772
0.0546883 0.430213 0.609522
0 0.489494 0.606271
0 0.548775 0.603021
0 0.608042 0.599771
0 0.667323 0.596536
0.452613 0.257496 0.83003
0.38143 0.316762 0.82678
0.310231 0.376043 0.823545
0.239033 0.435309 0.820294
0.167849 0.494591 0.817044
0.0966506 0.553872 0.813794
0.025452 0.613138 0.810544
0 0.672419 0.807294
0 0.731701 0.804044
0.565759 0.321874 1
0.494575 0.38114 1
0.423392 0.440406 1
0.352193 0.499687 1
0.280995 0.558968 1
0.209812 0.61825 1
0.138613 0.677516 1
0.0674144 0.736797 1
0 0.796078 1
0.67892 0.386236 1
0.607736 0.445518 1
0.536538 0.504784 1
0.465354 0.564065 1
0.394156 0.623346 1
0.322957 0.682612 1
0.251774 0.741894 1
0.180575 0.801175 1
0.109377 0.860456 1
0.792081 0.450614 1
0.720897 0.50988 1
0.649699 0.569162 1
0.5785 0.628443 1
0.507317 0.687724 1
0.436118 0.74699 1
0.36492 0.806271 1
0.293736 0.865553 1
0.222538 0.924819 1
0.905241 0.514992 1
0.834043 0.574258 1
0.76286 0.633539 1
0.691661 0.692821 1
0.620462 0.752087 1
0.549279 0.811368 1
0.47808 0.870649 1
0.406882 0.929915 1
0.335698 0.989197 1
0.0830243 0.00134279 0
0.011841 0.0606241 0
0 0.11989 0
0 0.179171 0
0 0.238453 0
0 0.297734 0
0 0.357 0
0 0.416281 0
0 0.475563 0
0.19617 0.0657206 0.128237
0.124987 0.124987 0.124987
0.0537881 0.184268 0.121736
0 0.243534 0.118486
0 0.302815 0.115236
0 0.362097 0.111986
0 0.421378 0.108736
0 0.480644 0.105486
0 0.539925 0.102251
0.309331 0.130098 0.335744
0.238148 0.189364 0.332509
0.166949 0.248646 0.329259
0.0957504 0.307912 0.326009
0.024567 0.367193 0.322759
0 0.426474 0.319509
0 0.48574 0.316258
0 0.545022 0.313008
0 0.604303 0.309758
0.422477 0.194461 0.543267
0.351293 0.253742 0.540017
0.28011 0.313008 0.536767
0.208911 0.37229 0.533516
0.137713 0.431571 0.530266
0.0665293 0.490837 0.527016
0 0.550118 0.523766
0 0.6094 0.520531
0 0.668681 0.517281
0.535637 0.258839 0.750774
0.464454 0.318105 0.747539
0.393256 0.377386 0.744289
0.322072 0.436667 0.741039
0.250874 0.495949 0.737789
0.179675 0.555215 0.734539
0.108492 0.614496 0.731289
0.0372931 0.673777 0.728038
0 0.733043 0.724788
0.648798 0.323217 0.958297
0.577615 0.382483 0.955047
0.506416 0.441764 0.951797
0.435218 0.501045 0.948547
0.364034 0.560311 0.945296
0.292836 0.619593 0.942046
0.221637 0.678874 0.938796
0.150454 0.73814 0.935561
0.0792554 0.797421 0.932311
0.761959 0.387594 1
0.690761 0.44686 1
0.619577 0.506142 1
0.548379 0.565408 1
0.47718 0.624689 1
0.405997 0.68397 1
0.334798 0.743252 1
0.2636 0.802518 1
0.192416 0.861799 1
0.875105 0.451972 1
0.803922 0.511238 1
0.732723 0.57052 1
0.66154 0.629786 1
0.590341 0.689067 1
0.519142 0.748348 1
0.447959 0.807614 1
0.376761 0.866896 1
0.305562 0.926177 1
0.988266 0.516335 1
0.917082 0.575616 1
0.845884 0.634882 1
0.774685 0.694163 1
0.703502 0.753445 1
0.632303 0.812726 1
0.561105 0.871992 1
0.489921 0.931273 1
0.418723 0.990555 1
0.166064 0.00270085 0
0.0948806 0.0619669 0
0.0236973 0.121248 0
0 0.180529 0
0 0.239796 0
0 0.299077 0
0 0.358358 0
0 0.417624 0
0 0.476905 0
0.27921 0.0670634 0.0489662
0.208026 0.126329 0.045716
0.136828 0.185611 0.0424659
0.0656443 0.244892 0.0392309
0 0.304173 0.0359808
0 0.363439 0.0327306
0 0.422721 0.0294804
0 0.482002 0.0262303
0 0.541268 0.0229801
0.39237 0.131441 0.256489
0.321187 0.190707 0.253239
0.249989 0.249989 0.249989
0.17879 0.30927 0.246738
0.107607 0.368536 0.243488
0.036408 0.427817 0.240238
0 0.487098 0.236988
0 0.54638 0.233738
0 0.605646 0.230488
0.505531 0.195819 0.463996
0.434333 0.255085 0.460746
0.363149 0.314366 0.457511
0.291951 0.373648 0.454261
0.220752 0.432914 0.451011
0.149569 0.492195 0.447761
0.0783703 0.551476 0.444511
0.00717174 0.610742 0.44126
0 0.670024 0.43801
0.618677 0.260197 0.671519
0.547494 0.319463 0.668269
0.476295 0.378744 0.665019
0.405112 0.43801 0.661768
0.333913 0.497292 0.658518
0.262715 0.556573 0.655268
0.191531 0.615839 0.652018
0.120333 0.67512 0.648768
0.049134 0.734401 0.645533
0.731838 0.324575 0.879026
0.660655 0.383841 0.875776
0.589456 0.443107 0.872541
0.518257 0.502388 0.869291
0.447074 0.561669 0.866041
0.375875 0.620951 0.862791
0.304677 0.680217 0.859541
0.233494 0.739498 0.856291
0.162295 0.798779 0.85304
0.844999 0.388937 1
0.7738 0.448218 1
0.702617 0.507485 1
0.631418 0.566766 1
0.56022 0.626047 1
0.489036 0.685313 1
0.417838 0.744595 1
0.346639 0.803876 1
0.275456 0.863142 1
0.958144 0.453315 1
0.886961 0.512581 1
0.815763 0.571862 1
0.744579 0.631144 1
0.673381 0.69041 1
0.602182 0.749691 1
0.530999 0.808972 1
0.4598 0.868254 1
0.388602 0.92752 1
1 0.517693 1
1 0.576959 1
0.928923 0.63624 1
0.857725 0.695521 1
0.786542 0.754788 1
0.715343 0.814069 1
0.644144 0.87335 1
0.572961 0.932616 1
0.501762 0.991897 1
0.249104 0.00404364 0
0.17792 0.0633249 0
0.106737 0.122591 0
0.0355383 0.181872 0
0 0.241154 0
0 0.30042 0
0 0.359701 0
0 0.418982 0
0 0.478264 0
0.362249 0.0684215 0
0.291066 0.127687 0
0.219867 0.186969 0
0.148684 0.246235 0
0.0774853 0.305516 0
0.00628672 0.364797 0
0 0.424063 0
0 0.483345 0
0 0.542626 0
0.47541 0.132799 0.177218
0.404227 0.192065 0.173968
0.333028 0.251331 0.170718
0.26183 0.310613 0.167468
0.190646 0.369894 0.164233
0.119448 0.429175 0.160983
0.048249 0.488441 0.157733
0 0.547723 0.154482
0 0.607004 0.151232
0.588571 0.197162 0.384741
0.517372 0.256443 0.381491
0.446189 0.315709 0.378241
0.37499 0.37499 0.37499
0.303792 0.434272 0.37174
0.232609 0.493538 0.36849
0.16141 0.552819 0.36524
0.0902113 0.6121 0.36199
0.019028 0.671382 0.35874
0.701717 0.26154 0.592248
0.630533 0.320806 0.588998
0.559335 0.380087 0.585748
0.488151 0.439368 0.582513
0.416953 0.49865 0.579263
0.345754 0.557916 0.576013
0.274571 0.617197 0.572763
0.203372 0.676478 0.569512
0.132174 0.735744 0.566262
0.814878 0.325917 0.799771
0.743694 0.385183 0.796521
0.672496 0.444465 0.793271
0.601297 0.503746 0.790021
0.530114 0.563012 0.78677
0.458915 0.622293 0.78352
0.387717 0.681575 0.78027
0.316533 0.740841 0.77702
0.245335 0.800122 0.77377
0.928038 0.390295 1
0.85684 0.449561 1
0.785657 0.508843 1
0.714458 0.568109 0.997543
0.643259 0.62739 0.994293
0.572076 0.686671 0.991043
0.500877 0.745953 0.987793
0.429679 0.805219 0.984543
0.358495 0.8645 0.981292
1 0.454673 1
0.970001 0.513939 1
0.898802 0.57322 1
0.827619 0.632486 1
0.75642 0.691768 1
0.685222 0.751049 1
0.614038 0.810315 1
0.54284 0.869596 1
0.471641 0.928878 1
1 0.519036 1
1 0.578317 1
1 0.637583 1
0.940764 0.696864 1
0.869581 0.756146 1
0.798383 0.815412 1
0.727184 0.874693 1
0.656001 0.933974 1
0.584802 0.993255 1
0.332143 0.00540169 0
0.26096 0.0646677 0
0.189776 0.123949 0
0.118578 0.18323 0
0.0473793 0.242496 0
0 0.301778 0
0 0.361059 0
0 0.420325 0
0 0.479606 0
0.445289 0.0697642 0
0.374105 0.12903 0
0.302907 0.188312 0
0.231724 0.247593 0
0.160525 0.306874 0
0.0893263 0.36614 0
0.018143 0.425422 0
0 0.484703 0
0 0.543969 0
0.55845 0.134142 0.0979629
0.487266 0.193408 0.0947127
0.416068 0.252689 0.0914626
0.344869 0.311971 0.0882124
0.273686 0.371237 0.0849622
0.202487 0.430518 0.0817121
0.131289 0.489799 0.0784619
0.0601053 0.549065 0.0752117
0 0.608347 0.0719615
0.671611 0.19852 0.30547
0.600412 0.257786 0.30222
0.529229 0.317067 0.29897
0.45803 0.376333 0.29572
0.386831 0.435615 0.29247
0.315648 0.494896 0.289235
0.24445 0.554177 0.285985
0.173251 0.613443 0.282734
0.102068 0.672724 0.279484
0.784756 0.262898 0.512993
0.713573 0.322164 0.509743
0.642374 0.381445 0.506493
0.571191 0.440711 0.503243
0.499992 0.499992 0.499992
0.428794 0.559274 0.496742
0.35761 0.61854 0.493492
0.286412 0.677821 0.490242
0.215213 0.737102 0.486992
0.897917 0.32726 0.7205
0.826734 0.386542 0.71725
0.755535 0.445808 0.714
0.684337 0.505089 0.71075
0.613153 0.56437 0.707515
0.541955 0.623652 0.704265
0.470756 0.682918 0.701015
0.399573 0.742199 0.697765
0.328374 0.80148 0.694514
1 0.391638 0.928023
0.939879 0.450919 0.924773
0.868696 0.510185 0.921523
0.797498 0.569467 0.918273
0.726299 0.628748 0.915022
0.655116 0.688014 0.911772
0.583917 0.747295 0.908522
0.512718 0.806577 0.905272
0.441535 0.865843 0.902022
1 0.456016 1
1 0.515282 1
0.981842 0.574563 1
0.910658 0.633844 1
0.83946 0.693111 1
0.768261 0.752392 1
0.697078 0.811673 1
0.625879 0.870954 1
0.554681 0.93022 1
1 0.520394 1
1 0.57966 1
1 0.638941 1
1 0.698222 1
0.952621 0.757488 1
0.881422 0.81677 1
0.810224 0.876051 1
0.73904 0.935317 1
0.667842 0.994598 1
0.415183 0.00674449 0
0.343999 0.0660258 0
0.272816 0.125292 0
0.201617 0.184573 0
0.130419 0.243854 0
0.0592355 0.30312 0
0 0.362402 0
0 0.421683 0
0 0.480964 0
0.528328 0.0711223 0
0.457145 0.130388 0
0.385946 0.18967 0
0.314763 0.248936 0
0.243565 0.308217 0
0.172366 0.367498 0
0.101183 0.426764 0
0.029984 0.486046 0
0 0.545327 0
0.641489 0.1355 0.0186923
0.570306 0.194766 0.0154421
0.499107 0.254032 0.012192
0.427909 0.313313 0.00894179
0.356725 0.372595 0.00569162
0.285527 0.431876 0.00244144
0.214328 0.491142 0
0.143145 0.550423 0
0.0719463 0.609705 0
0.75465 0.199863 0.226215
0.683452 0.259144 0.222965
0.612268 0.31841 0.219715
0.54107 0.377691 0.216464
0.469871 0.436973 0.213214
0.398688 0.496239 0.209964
0.327489 0.55552 0.206714
0.256291 0.614801 0.203464
0.185107 0.674067 0.200214
0.867796 0.26424 0.433722
0.796613 0.323507 0.430472
0.725414 0.382788 0.427222
0.654231 0.442069 0.423972
0.583032 0.501335 0.420722
0.511833 0.560616 0.417487
0.44065 0.619898 0.414237
0.369451 0.679179 0.410986
0.298253 0.738445 0.407736
0.980957 0.328618 0.641245
0.909773 0.387884 0.637995
0.838575 0.447166 0.634745
0.767376 0.506447 0.631495
0.696193 0.565713 0.628244
0.624994 0.624994 0.624994
0.553796 0.684276 0.621744
0.482612 0.743542 0.618494
0.411414 0.802823 0.615244
1 0.392996 0.848753
1 0.452262 0.845502
0.951736 0.511543 0.842252
0.880537 0.570809 0.839002
0.809339 0.630091 0.835752
0.738155 0.689372 0.832517
0.666957 0.748653 0.829267
0.595758 0.807919 0.826017
0.524575 0.867201 0.822766
1 0.457374 1
1 0.51664 1
1 0.575921 1
0.993698 0.635187 1
0.922499 0.694469 1
0.851301 0.75375 1
0.780118 0.813016 1
0.708919 0.872297 1
0.63772 0.931579 1
1 0.521737 1
1 0.581018 1
1 0.640284 1
1 0.699565 1
1 0.758846 1
0.964462 0.818112 1
0.893263 0.877394 1
0.82208 0.936675 1
0.750881 0.995956 1
0.498222 0.00810254 0
0.427039 0.0673686 0
0.355856 0.12665 0
0.284657 0.185931 0
0.213458 0.245197 0
0.142275 0.304479 0
0.0710765 0.36376 0
0 0.423026 0
0 0.482307 0
0.611368 0.0724651 0
0.540185 0.131731 0
0.468986 0.191012 0
0.397803 0.250294 0
0.326604 0.309575 0
0.255406 0.368841 0
0.184222 0.428122 0
0.113024 0.487404 0
0.041825 0.54667 0
0.724529 0.136843 0
0.653346 0.196109 0
0.582147 0.25539 0
0.510948 0.314672 0
0.439765 0.373938 0
0.368566 0.433219 0
0.297368 0.4925 0
0.226184 0.551766 0
0.154986 0.611048 0
0.83769 0.201221 0.146944
0.766491 0.260487 0.143694
0.695308 0.319768 0.140444
0.624109 0.379034 0.137194
0.552911 0.438315 0.133944
0.481727 0.497597 0.130694
0.410529 0.556878 0.127443
0.33933 0.616144 0.124208
0.268147 0.675425 0.120958
0.950835 0.265599 0.354452
0.879652 0.324865 0.351217
0.808454 0.384146 0.347967
0.73727 0.443412 0.344717
0.666072 0.502693 0.341466
0.594873 0.561975 0.338216
0.52369 0.621241 0.334966
0.452491 0.680522 0.331716
0.381292 0.739803 0.328466
1 0.329961 0.561975
0.992813 0.389242 0.558724
0.921614 0.448508 0.555474
0.850416 0.50779 0.552224
0.779232 0.567071 0.548974
0.708034 0.626337 0.545724
0.636835 0.685618 0.542489
0.565652 0.7449 0.539239
0.494453 0.804181 0.535988
1 0.394339 0.769482
1 0.453605 0.766247
1 0.512886 0.762997
0.963577 0.572168 0.759747
0.892378 0.631449 0.756497
0.821195 0.690715 0.753246
0.749996 0.749996 0.749996
0.678798 0.809277 0.746746
0.607614 0.868544 0.743496
1 0.458717 0.977005
1 0.517983 0.973754
1 0.577264 0.970504
1 0.636545 0.967254
1 0.695811 0.964004
0.93434 0.755093 0.960754
0.863157 0.814374 0.957519
0.791959 0.873655 0.954269
0.72076 0.932921 0.951019
1 0.523095 1
1 0.582361 1
1 0.641642 1
1 0.700923 1
1 0.760189 1
1 0.819471 1
0.976303 0.878752 1
0.905119 0.938018 1
0.833921 0.997299 1
0.581262 0.00944533 0
0.510079 0.0687266 0
0.438895 0.127993 0
0.367697 0.187274 0
0.296498 0.246555 0
0.225315 0.305821 0
0.154116 0.365103 0
0.0829175 0.424384 0
0.0117189 0.483665 0
0.694408 0.0738231 0
0.623224 0.133089 0
0.552026 0.19237 0
0.480842 0.251637 0
0.409644 0.310918 0
0.338445 0.370199 0
0.267262 0.429465 0
0.196063 0.488746 0
0.124865 0.548028 0
0.807568 0.138186 0
0.736385 0.197467 0
0.665187 0.256733 0
0.593988 0.316014 0
0.522805 0.375296 0
0.451606 0.434577 0
0.380407 0.493843 0
0.309224 0.553124 0
0.238025 0.612406 0
0.920729 0.202564 0.0676738
0.849531 0.261845 0.0644236
0.778347 0.321111 0.0611887
0.707149 0.380392 0.0579385
0.63595 0.439673 0.0546883
0.564767 0.498939 0.0514382
0.493568 0.558221 0.048188
0.42237 0.617502 0.0449378
0.351186 0.676768 0.0416876
1 0.266941 0.275196
0.962692 0.326207 0.271946
0.891493 0.385489 0.268696
0.82031 0.44477 0.265446
0.749111 0.504036 0.262196
0.677913 0.563317 0.258946
0.606729 0.622599 0.255695
0.535531 0.68188 0.252445
0.464332 0.741146 0.24921
1 0.331319 0.482704
1 0.390585 0.479469
1 0.449866 0.476219
0.933455 0.509148 0.472969
0.862272 0.568414 0.469718
0.791074 0.627695 0.466468
0.719875 0.686976 0.463218
0.648692 0.746242 0.459968
0.577493 0.805524 0.456718
1 0.395697 0.690227
1 0.454963 0.686976
1 0.514244 0.683726
1 0.57351 0.680476
0.975418 0.632792 0.677226
0.904234 0.692073 0.673976
0.833036 0.751339 0.670726
0.761837 0.81062 0.667491
0.690654 0.869902 0.66424
1 0.460075 0.897734
1 0.519341 0.894499
1 0.578607 0.891249
1 0.637888 0.887999
1 0.697169 0.884749
1 0.756451 0.881498
0.946197 0.815717 0.878248
0.874998 0.874998 0.874998
0.8038 0.934279 0.871748
1 0.524437 1
1 0.583719 1
1 0.642985 1
1 0.702266 1
1 0.761547 1
1 0.820813 1
1 0.880095 1
0.988159 0.939376 1
0.91696 0.998657 1
0.664302 0.0108034 0
0.593118 0.0700694 0
0.521935 0.129351 0
0.450736 0.188632 0
0.379538 0.247898 0
0.308354 0.307179 0
0.237156 0.366461 0
0.165957 0.425727 0
0.0947585 0.485008 0
0.777447 0.0751659 0
0.706264 0.134432 0
0.635065 0.193713 0
0.563882 0.252995 0
0.492683 0.312276 0
0.421485 0.371542 0
0.350301 0.430823 0
0.279103 0.490105 0
0.207904 0.549371 0
0.890608 0.139544 0
0.819425 0.19881 0
0.748226 0.258091 0
0.677028 0.317372 0
0.605844 0.376638 0
0.534646 0.43592 0
0.463447 0.495201 0
0.392264 0.554467 0
0.321065 0.613748 0
1 0.203922 0
0.93257 0.263188 0
0.861387 0.322469 0
0.790188 0.381735 0
0.71899 0.441016 0
0.647807 0.500298 0
0.576608 0.559579 0
0.505409 0.618845 0
0.434226 0.678126 0
1 0.268299 0.195926
1 0.327565 0.192676
0.974533 0.386847 0.189425
0.903349 0.446113 0.186191
0.832151 0.505394 0.18294
0.760952 0.564675 0.17969
0.689769 0.623941 0.17644
0.61857 0.683223 0.17319
0.547372 0.742504 0.16994
1 0.332662 0.403449
1 0.391943 0.400198
1 0.451209 0.396948
1 0.510491 0.393698
0.945312 0.569772 0.390448
0.874113 0.629038 0.387198
0.802915 0.688319 0.383948
0.731731 0.7476 0.380697
0.660533 0.806882 0.377447
1 0.39704 0.610956
1 0.456306 0.607706
1 0.515587 0.604471
1 0.574868 0.601221
1 0.63415 0.597971
0.987274 0.693416 0.59472
0.916075 0.752697 0.59147
0.844877 0.811978 0.58822
0.773693 0.871244 0.58497
1 0.461418 0.818479
1 0.520684 0.815229
1 0.579965 0.811978
1 0.639246 0.808728
1 0.698512 0.805478
1 0.757794 0.802228
1 0.817075 0.798978
0.958038 0.876341 0.795727
0.886839 0.935622 0.792493
1 0.525795 1
1 0.585061 1
1 0.644343 1
1 0.703609 1
1 0.76289 1
1 0.822171 1
1 0.881453 1
1 0.940719 1
1 1 1
