public/LUTS/Color Shift/ColorShift_56.cube
TITLE "Generated by Resolve"
LUT_3D_SIZE 9
0 0 0
0 0.080354 0
0 0.160708 0
0 0.241077 0
0 0.321431 0
0 0.401801 0
0 0.482155 0
0 0.562524 0
0 0.642878 0
0.0511482 0.071931 0.293309
0 0.152285 0.213199
0 0.232639 0.133074
0 0.313008 0.0529488
0 0.393362 0
0 0.473732 0
0 0.554086 0
0 0.634455 0
0 0.714809 0
0.102296 0.143877 0.586664
0 0.224216 0.506554
0 0.304585 0.426429
0 0.384939 0.346288
0 0.465309 0.266163
0 0.545663 0.186038
0 0.626032 0.105913
0 0.706386 0.0257877
0 0.786755 0
0.15346 0.215808 0.880018
0.0449378 0.296162 0.799893
0 0.376532 0.719768
0 0.456886 0.639643
0 0.53724 0.559518
0 0.617609 0.479393
0 0.697963 0.399268
0 0.778332 0.319142
0 0.858686 0.239017
0.204608 0.287755 1
0.0961013 0.368109 1
0 0.448463 1
0 0.528832 0.932998
0 0.609186 0.852872
0 0.689555 0.772747
0 0.769909 0.692622
0 0.850263 0.612497
0 0.930632 0.532372
0.255772 0.359686 1
0.14725 0.44004 1
0.0387274 0.520409 1
0 0.600763 1
0 0.681132 1
0 0.761486 1
0 0.841856 0.985962
0 0.92221 0.905837
0 1 0.825711
0.30692 0.431632 1
0.198398 0.511986 1
0.0898756 0.59234 1
0 0.672709 1
0 0.753063 1
0 0.833432 1
0 0.913787 1
0 0.994156 1
0 1 1
0.358068 0.503578 1
0.249561 0.583917 1
0.141024 0.664286 1
0.0325017 0.74464 1
0 0.82501 1
0 0.905364 1
0 0.985733 1
0 1 1
0 1 1
0.409232 0.575509 1
0.30071 0.655863 1
0.192187 0.736233 1
0.08365 0.816587 1
0 0.896941 1
0 0.97731 1
0 1 1
0 1 1
0 1 1
0.182361 0 0
0.0738384 0.0530556 0
0 0.13341 0
0 0.213779 0
0 0.294133 0
0 0.374502 0
0 0.454856 0
0 0.535225 0
0 0.615579 0
0.233509 0.0446326 0.205097
0.124987 0.124987 0.124987
0.0164645 0.205341 0.0448615
0 0.28571 0
0 0.366064 0
0 0.446433 0
0 0.526787 0
0 0.607156 0
0 0.68751 0
0.284657 0.116579 0.498451
0.176135 0.196933 0.418341
0.0676127 0.277287 0.338216
0 0.357656 0.258091
0 0.43801 0.177966
0 0.518364 0.0978408
0 0.598733 0.0177005
0 0.679088 0
0 0.759457 0
0.335805 0.18851 0.791806
0.227298 0.268864 0.711681
0.118761 0.349233 0.631556
0.0102388 0.429587 0.551431
0 0.509957 0.471305
0 0.590311 0.39118
0 0.67068 0.311055
0 0.751034 0.23093
0 0.831388 0.150805
0.386969 0.260456 1
0.278447 0.34081 1
0.169924 0.421164 0.92491
0.061387 0.501534 0.844785
0 0.581888 0.76466
0 0.662257 0.684535
0 0.742611 0.60441
0 0.82298 0.524285
0 0.903334 0.44416
0.438117 0.332403 1
0.32961 0.412741 1
0.221073 0.493111 1
0.112551 0.573465 1
0.00401312 0.653834 1
0 0.734188 0.977874
0 0.814557 0.897749
0 0.894911 0.817624
0 0.97528 0.737499
0.489281 0.404334 1
0.380758 0.484688 1
0.272236 0.565042 1
0.163699 0.645411 1
0.0551766 0.725765 1
0 0.806134 1
0 0.886488 1
0 0.966857 1
0 1 1
0.540429 0.47628 1
0.431907 0.556634 1
0.323384 0.636988 1
0.214862 0.717357 1
0.106325 0.797711 1
0 0.87808 1
0 0.958434 1
0 1 1
0 1 1
0.591577 0.548211 1
0.48307 0.628565 1
0.374533 0.708934 1
0.266011 0.789288 1
0.157488 0.869657 1
0.0489509 0.950011 1
0 1 1
0 1 1
0 1 1
0.364736 0 0
0.256214 0.0257572 0
0.147692 0.106111 0
0.0391546 0.186481 0
0 0.266835 0
0 0.347204 0
0 0.427558 0
0 0.507927 0
0 0.588281 0
0.415885 0.0173342 0.116884
0.307362 0.0976883 0.036759
0.19884 0.178042 0
0.0903029 0.258412 0
0 0.338766 0
0 0.419135 0
0 0.499489 0
0 0.579858 0
0 0.660212 0
0.467033 0.0892805 0.410224
0.358511 0.169635 0.330114
0.249989 0.249989 0.249989
0.141466 0.330343 0.169863
0.032929 0.410712 0.0897383
0 0.491066 0.00961318
0 0.571435 0
0 0.651789 0
0 0.732158 0
0.518181 0.161212 0.703578
0.409674 0.241566 0.623468
0.301137 0.321935 0.543343
0.192615 0.402289 0.463218
0.0840925 0.482658 0.383093
0 0.563012 0.302968
0 0.643366 0.222843
0 0.723735 0.142702
0 0.804089 0.0625772
0.569345 0.233158 0.996933
0.460822 0.313512 0.916808
0.3523 0.393866 0.836683
0.243763 0.474235 0.756558
0.135241 0.554589 0.676432
0.0267185 0.634958 0.596307
0 0.715312 0.516182
0 0.795682 0.436057
0 0.876036 0.355932
0.620493 0.305104 1
0.511986 0.385443 1
0.403449 0.465812 1
0.294926 0.546166 1
0.186389 0.626535 0.969787
0.0778668 0.706889 0.889662
0 0.787259 0.809537
0 0.867613 0.729412
0 0.947982 0.649287
0.671656 0.377035 1
0.563134 0.457389 1
0.454612 0.537743 1
0.346075 0.618112 1
0.237552 0.698466 1
0.129015 0.778836 1
0.0204929 0.85919 1
0 0.939559 1
0 1 0.942626
0.722805 0.448981 1
0.614282 0.529335 1
0.50576 0.609689 1
0.397238 0.690044 1
0.288701 0.770413 1
0.180179 0.850767 1
0.0716411 0.931136 1
0 1 1
0 1 1
0.773953 0.520912 1
0.665446 0.601267 1
0.556909 0.681636 1
0.448386 0.76199 1
0.339864 0.842359 1
0.231327 0.922713 1
0.122805 1 1
0.0142672 1 1
0 1 1
0.547112 0 0
0.43859 0 0
0.330068 0.0788128 0
0.22153 0.159182 0
0.113008 0.239536 0
0.00447089 0.319905 0
0 0.400259 0
0 0.480629 0
0 0.560983 0
0.59826 0 0.0286564
0.489738 0.0703899 0
0.381216 0.150744 0
0.272679 0.231113 0
0.164157 0.311467 0
0.0556191 0.391836 0
0 0.47219 0
0 0.55256 0
0 0.632914 0
0.649409 0.0619821 0.322011
0.540887 0.142321 0.241886
0.432364 0.22269 0.161761
0.323842 0.303044 0.0816358
0.215305 0.383413 0.00151064
0.106783 0.463767 0
0 0.544137 0
0 0.624491 0
0 0.70486 0
0.700557 0.133913 0.615351
0.59205 0.214267 0.535241
0.483513 0.294636 0.455116
0.37499 0.37499 0.37499
0.266468 0.455344 0.294865
0.157931 0.535714 0.21474
0.0494087 0.616068 0.134615
0 0.696437 0.05449
0 0.776791 0
0.75172 0.205859 0.908705
0.643198 0.286213 0.828595
0.534676 0.366567 0.74847
0.426139 0.446937 0.668345
0.317617 0.527291 0.58822
0.209094 0.60766 0.508095
0.100557 0.688014 0.42797
0 0.768368 0.347845
0 0.848737 0.267704
0.802869 0.27779 1
0.694362 0.358144 1
0.585824 0.438514 1
0.477302 0.518868 0.961685
0.368765 0.599237 0.881559
0.260243 0.679591 0.801434
0.15172 0.75996 0.721309
0.043183 0.840314 0.641184
0 0.920684 0.561059
0.854032 0.349737 1
0.74551 0.430091 1
0.636988 0.510445 1
0.52845 0.590814 1
0.419928 0.671168 1
0.311391 0.751537 1
0.202869 0.831891 1
0.0943465 0.912261 0.934539
0 0.992615 0.854414
0.90518 0.421683 1
0.796658 0.502022 1
0.688136 0.582391 1
0.579614 0.662745 1
0.471077 0.743114 1
0.362554 0.823468 1
0.254017 0.903838 1
0.145495 0.984192 1
0.0369726 1 1
0.956329 0.493614 1
0.847822 0.573968 1
0.739284 0.654337 1
0.630762 0.734691 1
0.52224 0.815045 1
0.413703 0.895415 1
0.30518 0.975769 1
0.196643 1 1
0.0881208 1 1
0.729488 0 0
0.620966 0 0
0.512444 0.0515145 0
0.403906 0.131884 0
0.295384 0.212238 0
0.186847 0.292607 0
0.0783246 0.372961 0
0 0.45333 0
0 0.533684 0
0.780636 0 0
0.672114 0.0430915 0
0.563592 0.123445 0
0.455055 0.203815 0
0.346532 0.284169 0
0.237995 0.364538 0
0.129473 0.444892 0
0.0209506 0.525261 0
0 0.605615 0
0.831785 0.0346838 0.233783
0.723262 0.115023 0.153674
0.61474 0.195392 0.0735485
0.506218 0.275746 0
0.397681 0.356115 0
0.289158 0.436469 0
0.180621 0.516838 0
0.0720989 0.597192 0
0 0.677562 0
0.882933 0.106615 0.527138
0.774426 0.186969 0.447013
0.665888 0.267323 0.366888
0.557366 0.347692 0.286763
0.448844 0.428046 0.206638
0.340307 0.508415 0.126513
0.231785 0.588769 0.0463874
0.123247 0.669139 0
0.014725 0.749493 0
0.934096 0.178561 0.820493
0.825574 0.258915 0.740368
0.717052 0.339269 0.660243
0.608515 0.419638 0.580118
0.499992 0.499992 0.499992
0.39147 0.580346 0.419867
0.282933 0.660716 0.339742
0.174411 0.74107 0.259617
0.0658732 0.821439 0.179492
0.985245 0.250492 1
0.876738 0.330846 1
0.7682 0.411215 0.953597
0.659678 0.491569 0.873472
0.551141 0.571939 0.793347
0.442618 0.652293 0.713222
0.334096 0.732662 0.633097
0.225559 0.813016 0.552972
0.117037 0.89337 0.472831
1 0.322438 1
0.927886 0.402792 1
0.819364 0.483146 1
0.710826 0.563516 1
0.602304 0.64387 1
0.493767 0.724239 1
0.385245 0.804593 0.926436
0.276722 0.884962 0.846311
0.168185 0.965316 0.766186
1 0.394385 1
0.979034 0.474723 1
0.870512 0.555093 1
0.76199 0.635447 1
0.653452 0.715816 1
0.54493 0.79617 1
0.436393 0.876539 1
0.327871 0.956893 1
0.219348 1 1
1 0.466316 1
1 0.54667 1
0.92166 0.627024 1
0.813138 0.707393 1
0.704616 0.787747 1
0.596078 0.868116 1
0.487556 0.94847 1
0.379019 1 1
0.270497 1 1
0.911864 0 0
0.803342 0 0
0.69482 0.0242161 0
0.586282 0.104585 0
0.47776 0.184939 0
0.369223 0.265309 0
0.2607 0.345663 0
0.152178 0.426017 0
0.0436408 0.506386 0
0.963012 0 0
0.85449 0.0157931 0
0.745968 0.0961471 0
0.63743 0.176516 0
0.528908 0.25687 0
0.420371 0.33724 0
0.311849 0.417594 0
0.203326 0.497963 0
0.094789 0.578317 0
1 0.00737011 0.145571
0.905638 0.0877241 0.0654459
0.797116 0.168093 0
0.688594 0.248447 0
0.580056 0.328817 0
0.471534 0.409171 0
0.362997 0.48954 0
0.254475 0.569894 0
0.145953 0.650263 0
1 0.0793164 0.438911
0.956802 0.15967 0.358801
0.848264 0.240024 0.278676
0.739742 0.320394 0.19855
0.63122 0.400748 0.118425
0.522683 0.481117 0.0383001
0.41416 0.561471 0
0.305623 0.64184 0
0.197101 0.722194 0
1 0.151263 0.732265
1 0.231617 0.652155
0.899428 0.311971 0.572015
0.79089 0.392325 0.49189
0.682368 0.472694 0.411765
0.573846 0.553048 0.33164
0.465309 0.633417 0.251514
0.356786 0.713771 0.171389
0.248249 0.794141 0.0912642
1 0.223194 1
1 0.303548 0.945495
0.950576 0.383917 0.86537
0.842054 0.464271 0.785245
0.733516 0.54464 0.705119
0.624994 0.624994 0.624994
0.516472 0.705348 0.544869
0.407935 0.785718 0.464744
0.299413 0.866072 0.384619
1 0.29514 1
1 0.375494 1
1 0.455848 1
0.893202 0.536217 1
0.78468 0.616571 0.998474
0.676143 0.696941 0.918349
0.56762 0.777295 0.838224
0.459098 0.857664 0.758099
0.350561 0.938018 0.677974
1 0.367086 1
1 0.447425 1
1 0.527794 1
0.944366 0.608148 1
0.835828 0.688518 1
0.727306 0.768872 1
0.618769 0.849241 1
0.510246 0.929595 1
0.401724 1 0.971313
1 0.439017 1
1 0.519371 1
1 0.599725 1
0.995514 0.680095 1
0.886992 0.760449 1
0.778454 0.840818 1
0.669932 0.921172 1
0.561395 1 1
0.452873 1 1
1 0 0
0.985718 0 0
0.877195 0 0
0.768658 0.0772869 0
0.660136 0.157641 0
0.551598 0.237995 0
0.443076 0.318364 0
0.334554 0.398718 0
0.226017 0.479088 0
1 0 0
1 0 0
0.928344 0.0688487 0
0.819806 0.149218 0
0.711284 0.229572 0
0.602747 0.309941 0
0.494224 0.390295 0
0.385702 0.470649 0
0.277165 0.551019 0
1 0 0.0573434
1 0.0604257 0
0.979492 0.140795 0
0.87097 0.221149 0
0.762432 0.301518 0
0.65391 0.381872 0
0.545373 0.462242 0
0.436851 0.542596 0
0.328328 0.622965 0
1 0.052018 0.350698
1 0.132372 0.270573
1 0.212726 0.190448
0.922118 0.293095 0.110323
0.813596 0.373449 0.0301976
0.705058 0.453819 0
0.596536 0.534173 0
0.487999 0.614542 0
0.379477 0.694896 0
1 0.123964 0.644038
1 0.204303 0.563928
1 0.284672 0.483803
0.973266 0.365026 0.403677
0.864744 0.445396 0.323552
0.756222 0.52575 0.243427
0.647684 0.606119 0.163302
0.539162 0.686473 0.0831769
0.430625 0.766842 0.0030518
1 0.195895 0.937392
1 0.276249 0.857282
1 0.356619 0.777142
1 0.436973 0.697017
0.915892 0.517327 0.616892
0.80737 0.597696 0.536767
0.698848 0.67805 0.456641
0.590311 0.758419 0.376516
0.481788 0.838773 0.296391
1 0.267842 1
1 0.348196 1
1 0.42855 1
1 0.508919 0.990372
0.967056 0.589273 0.910246
0.858518 0.669642 0.830121
0.749996 0.749996 0.749996
0.641474 0.83035 0.669871
0.532937 0.910719 0.589746
1 0.339773 1
1 0.420127 1
1 0.500496 1
1 0.58085 1
1 0.661219 1
0.909682 0.741573 1
0.801144 0.821942 1
0.692622 0.902296 0.963226
0.5841 0.982666 0.883101
1 0.411719 1
1 0.492073 1
1 0.572427 1
1 0.652796 1
1 0.73315 1
0.96083 0.813519 1
0.852308 0.893874 1
0.74377 0.974243 1
0.635248 1 1
1 0 0
1 0 0
1 0 0
0.951034 0.0499733 0
0.842512 0.130343 0
0.733974 0.210697 0
0.625452 0.291066 0
0.51693 0.37142 0
0.408392 0.451789 0
1 0 0
1 0 0
1 0.0415503 0
1 0.121904 0
0.89366 0.202274 0
0.785122 0.282628 0
0.6766 0.362997 0
0.568078 0.443351 0
0.459541 0.52372 0
1 0 0
1 0.0331273 0
1 0.113497 0
1 0.193851 0
0.944808 0.27422 0
0.836286 0.354574 0
0.727749 0.434943 0
0.619226 0.515297 0
0.510704 0.595651 0
1 0.0247196 0.26247
1 0.105074 0.182361
1 0.185428 0.102235
1 0.265797 0.0221103
0.995972 0.346151 0
0.887434 0.42652 0
0.778912 0.506874 0
0.670375 0.587243 0
0.561852 0.667597 0
1 0.0966659 0.555825
1 0.177005 0.4757
1 0.257374 0.395575
1 0.337728 0.31545
1 0.418097 0.235325
0.938598 0.498451 0.1552
0.83006 0.57882 0.0750744
0.721538 0.659175 0
0.613001 0.739544 0
1 0.168597 0.849165
1 0.248951 0.769055
1 0.329305 0.68893
1 0.409674 0.608804
1 0.490028 0.528679
0.989746 0.570397 0.448554
0.881224 0.650752 0.368429
0.772686 0.731121 0.288304
0.664164 0.811475 0.208179
1 0.240543 1
1 0.320897 1
1 0.401251 0.982284
1 0.481621 0.902144
1 0.561975 0.822019
1 0.642329 0.741894
0.932372 0.722698 0.661768
0.82385 0.803052 0.581643
0.715312 0.883421 0.501518
1 0.312474 1
1 0.392828 1
1 0.473198 1
1 0.553552 1
1 0.633921 1
1 0.714275 1
0.98352 0.794644 0.955123
0.874998 0.874998 0.874998
0.766476 0.955352 0.794873
1 0.384421 1
1 0.464775 1
1 0.545129 1
1 0.625498 1
1 0.705852 1
1 0.786221 1
1 0.866575 1
0.926146 0.946944 1
0.817624 1 1
1 0 0
1 0 0
1 0 0
1 0.0226749 0
1 0.103044 0
0.916365 0.183398 0
0.807828 0.263767 0
0.699306 0.344121 0
0.590768 0.424491 0
1 0 0
1 0 0
1 0.0142519 0
1 0.0946059 0
1 0.174975 0
0.967498 0.255329 0
0.858976 0.335698 0
0.750454 0.416052 0
0.641917 0.496422 0
1 0 0
1 0.00582895 0
1 0.0861982 0
1 0.166552 0
1 0.246921 0
1 0.327276 0
0.910124 0.40763 0
0.801602 0.487999 0
0.69308 0.568353 0
1 0 0.174243
1 0.0777752 0.0941329
1 0.158129 0.0140078
1 0.238499 0
1 0.318853 0
1 0.399222 0
0.961288 0.479576 0
0.85275 0.559945 0
0.744228 0.640299 0
1 0.0693523 0.467597
1 0.149706 0.387488
1 0.230076 0.307362
1 0.31043 0.227237
1 0.390799 0.147112
1 0.471153 0.0669718
1 0.551522 0
0.903914 0.631876 0
0.795377 0.712245 0
1 0.141299 0.760952
1 0.221653 0.680827
1 0.302007 0.600702
1 0.382376 0.520577
1 0.46273 0.440452
1 0.543099 0.360327
1 0.623453 0.280201
0.955062 0.703822 0.200076
0.84654 0.784176 0.119951
1 0.213245 1
1 0.293599 0.974182
1 0.373953 0.894057
1 0.454307 0.813931
1 0.534676 0.733806
1 0.61503 0.653681
1 0.695399 0.573556
1 0.775753 0.493431
0.897688 0.856123 0.413306
1 0.285176 1
1 0.36553 1
1 0.445899 1
1 0.526253 1
1 0.606622 1
1 0.686976 0.947021
1 0.76733 0.866896
1 0.8477 0.78677
0.948852 0.928054 0.706645
1 0.357122 1
1 0.437476 1
1 0.51783 1
1 0.598199 1
1 0.678553 1
1 0.758923 1
1 0.839277 1
1 0.919646 1
1 1 1
