public/LUTS/Color Shift/ColorShift_17.cube
TITLE "Generated by Resolve"
LUT_3D_SIZE 5
0 0 0
0.10164 0.0627298 0
0.203281 0.125475 0
0.304921 0.188205 0
0.406561 0.250935 0
0 0.239048 0.241581
0.0345922 0.301778 0.0998093
0.136233 0.364508 0
0.237873 0.427253 0
0.339529 0.489982 0
0 0.478096 0.483162
0 0.540825 0.341405
0.0691997 0.603571 0.199619
0.17084 0.6663 0.057847
0.27248 0.72903 0
0 0.717159 0.724758
0 0.779889 0.582986
0.00215152 0.842618 0.441215
0.103792 0.905364 0.299443
0.205432 0.968093 0.157671
0 0.956207 0.966354
0 1 0.824582
0 1 0.682811
0.0367437 1 0.541039
0.138399 1 0.399252
0.215396 0 0.150179
0.317021 0.0109407 0.00840772
0.418677 0.0736858 0
0.520317 0.136416 0
0.621958 0.199161 0
0.148348 0.187259 0.39176
0.249989 0.249989 0.249989
0.351629 0.312718 0.108217
0.453269 0.375463 0
0.55491 0.438193 0
0.0813153 0.426307 0.633341
0.18294 0.489052 0.491585
0.284581 0.551781 0.349798
0.386236 0.614511 0.208026
0.487877 0.677256 0.0662547
0.0142672 0.66537 0.874937
0.115908 0.728099 0.733166
0.217548 0.790845 0.591394
0.319188 0.853574 0.449622
0.420829 0.916304 0.307851
0 0.904433 1
0.0488594 0.967163 0.974762
0.1505 1 0.83299
0.25214 1 0.691218
0.35378 1 0.549432
0.430793 0 0.300374
0.532433 0 0.158602
0.634073 0.0218967 0.0168307
0.735714 0.0846265 0
0.837354 0.147372 0
0.36376 0.13547 0.541939
0.4654 0.198199 0.400183
0.567041 0.260929 0.258396
0.668681 0.323674 0.116625
0.770321 0.386404 0
0.296712 0.374517 0.783536
0.398352 0.437263 0.641764
0.499992 0.499992 0.499992
0.601633 0.562722 0.358221
0.703273 0.625467 0.216449
0.229679 0.613581 1
0.331304 0.67631 0.88336
0.432944 0.739055 0.741588
0.534585 0.801785 0.599802
0.63624 0.864515 0.45803
0.162631 0.852644 1
0.264271 0.915373 1
0.365911 0.978103 0.983169
0.467552 1 0.841398
0.569192 1 0.699626
0.646204 0 0.450553
0.747845 0 0.308782
0.849485 0 0.16701
0.951125 0.0328374 0.0252384
1 0.0955825 0
0.579156 0.0836805 0.692134
0.680797 0.14641 0.550362
0.782437 0.20914 0.408591
0.884077 0.271885 0.266819
0.985718 0.334615 0.125032
0.512123 0.322744 0.933715
0.613748 0.385473 0.791959
0.715404 0.448203 0.650187
0.817044 0.510933 0.5084
0.918685 0.573678 0.366629
0.445075 0.561791 1
0.546715 0.624521 1
0.648356 0.687266 0.891768
0.749996 0.749996 0.749996
0.851637 0.812726 0.608225
0.378027 0.800855 1
0.479667 0.863584 1
0.581308 0.926314 1
0.682948 0.989059 0.991592
0.784588 1 0.849805
0.861601 0 0.600748
0.963241 0 0.458976
1 0 0.317205
1 0 0.175418
1 0.0437934 0.0336461
0.794568 0.0318914 0.842313
0.896208 0.0946212 0.700557
0.997848 0.157366 0.55877
1 0.220096 0.416999
1 0.282826 0.275227
0.72752 0.270954 1
0.82916 0.333684 0.942138
0.9308 0.396414 0.800366
1 0.459144 0.658595
1 0.521889 0.516823
0.660487 0.510002 1
0.762112 0.572732 1
0.863752 0.635477 1
0.965408 0.698207 0.900191
1 0.760937 0.758404
0.593439 0.749065 1
0.695079 0.811795 1
0.796719 0.874525 1
0.89836 0.93727 1
1 1 1
