public/LUTS/Color Shift/ColorShift_68.cube
TITLE "Generated by Resolve"
LUT_3D_SIZE 33
0 0 0
0.0317693 0.0034638 0
0.0635691 0.00691234 0
0.0953536 0.0103761 0
0.127138 0.0138247 0
0.158938 0.0172885 0
0.190723 0.0207523 0
0.222507 0.0242008 0
0.254292 0.0276646 0
0.286091 0.0311131 0
0.317876 0.0345769 0
0.34966 0.0380407 0
0.38146 0.0414893 0
0.413245 0.0449531 0
0.445029 0.0484016 0
0.476829 0.0518654 0
0.508614 0.0553292 0
0.540398 0.0587778 0
0.572183 0.0622416 0
0.603983 0.0657054 0
0.635767 0.0691539 0
0.667552 0.0726177 0
0.699351 0.0760662 0
0.731136 0.07953 0
0.762921 0.0829938 0
0.79472 0.0864424 0
0.826505 0.0899062 0
0.858289 0.0933547 0
0.890089 0.0968185 0
0.921874 0.100282 0
0.953658 0.103731 0
0.985443 0.107195 0
1 0.110658 0
0 0.0384527 0.0165408
0.00062562 0.0419165 0
0.0324102 0.0453651 0
0.06421 0.0488289 0
0.0959945 0.0522774 0
0.127779 0.0557412 0
0.159579 0.059205 0
0.191363 0.0626535 0
0.223148 0.0661173 0
0.254948 0.0695659 0
0.286732 0.0730297 0
0.318517 0.0764935 0
0.350317 0.079942 0
0.382101 0.0834058 0
0.413886 0.0868544 0
0.44567 0.0903182 0
0.47747 0.0937819 0
0.509255 0.0972305 0
0.541039 0.100694 0
0.572839 0.104158 0
0.604623 0.107607 0
0.636408 0.11107 0
0.668208 0.114519 0
0.699992 0.117983 0
0.731777 0.121447 0
0.763577 0.124895 0
0.795361 0.128359 0
0.827146 0.131807 0
0.85893 0.135271 0
0.89073 0.138735 0
0.922515 0.142184 0
0.954299 0.145647 0
0.986099 0.149111 0
0 0.0769207 0.0330816
0 0.0803845 0.00494392
0.00125124 0.0838331 0
0.033051 0.0872969 0
0.0648356 0.0907607 0
0.0966201 0.0942092 0
0.12842 0.097673 0
0.160204 0.101122 0
0.191989 0.104585 0
0.223789 0.108049 0
0.255573 0.111498 0
0.287358 0.114961 0
0.319142 0.11841 0
0.350942 0.121874 0
0.382727 0.125338 0
0.414511 0.128786 0
0.446311 0.13225 0
0.478096 0.135714 0
0.50988 0.139162 0
0.54168 0.142626 0
0.573465 0.146075 0
0.605249 0.149538 0
0.637049 0.153002 0
0.668833 0.156451 0
0.700618 0.159915 0
0.732403 0.163363 0
0.764202 0.166827 0
0.795987 0.170291 0
0.827771 0.173739 0
0.859571 0.177203 0
0.891356 0.180667 0
0.92314 0.184115 0
0.95494 0.187579 0
0 0.115389 0.0496223
0 0.118853 0.0214847
0 0.122316 0
0.00189212 0.125765 0
0.0336767 0.129229 0
0.0654612 0.132677 0
0.097261 0.136141 0
0.129046 0.139605 0
0.16083 0.143053 0
0.192615 0.146517 0
0.224414 0.149966 0
0.256199 0.153429 0
0.287984 0.156893 0
0.319783 0.160342 0
0.351568 0.163806 0
0.383352 0.167269 0
0.415152 0.170718 0
0.446937 0.174182 0
0.478721 0.17763 0
0.510506 0.181094 0
0.542306 0.184558 0
0.57409 0.188006 0
0.605875 0.19147 0
0.637675 0.194919 0
0.669459 0.198383 0
0.701244 0.201846 0
0.733043 0.205295 0
0.764828 0.208759 0
0.796613 0.212222 0
0.828412 0.215671 0
0.860197 0.219135 0
0.891981 0.222583 0
0.923766 0.226047 0
0 0.153872 0.0661784
0 0.157321 0.0380407
0 0.160784 0.00988785
0 0.164233 0
0.00251774 0.167697 0
0.0343023 0.17116 0
0.0660868 0.174609 0
0.0978866 0.178073 0
0.129671 0.181521 0
0.161456 0.184985 0
0.193256 0.188449 0
0.22504 0.191897 0
0.256825 0.195361 0
0.288624 0.198825 0
0.320409 0.202274 0
0.352193 0.205737 0
0.383978 0.209186 0
0.415778 0.21265 0
0.447562 0.216114 0
0.479347 0.219562 0
0.511147 0.223026 0
0.542931 0.226474 0
0.574716 0.229938 0
0.606516 0.233402 0
0.6383 0.236851 0
0.670085 0.240314 0
0.701885 0.243778 0
0.733669 0.247227 0
0.765454 0.25069 0
0.797238 0.254139 0
0.829038 0.257603 0
0.860822 0.261067 0
0.892607 0.264515 0
0 0.19234 0.0827192
0 0.195789 0.0545815
0 0.199252 0.0264286
0 0.202716 0
0 0.206165 0
0.00314336 0.209628 0
0.0349279 0.213077 0
0.0667277 0.216541 0
0.0985122 0.220005 0
0.130297 0.223453 0
0.162097 0.226917 0
0.193881 0.230381 0
0.225666 0.233829 0
0.25745 0.237293 0
0.28925 0.240742 0
0.321035 0.244205 0
0.352819 0.247669 0
0.384619 0.251118 0
0.416403 0.254582 0
0.448188 0.25803 0
0.479988 0.261494 0
0.511772 0.264958 0
0.543557 0.268406 0
0.575357 0.27187 0
0.607141 0.275334 0
0.638926 0.278782 0
0.67071 0.282246 0
0.70251 0.285695 0
0.734295 0.289158 0
0.766079 0.292622 0
0.797879 0.296071 0
0.829664 0.299535 0
0.861448 0.302983 0
0 0.230808 0.0992599
0 0.234272 0.0711223
0 0.23772 0.0429694
0 0.241184 0.0148165
0 0.244633 0
0 0.248096 0
0.00376898 0.25156 0
0.0355688 0.255009 0
0.0673533 0.258473 0
0.0991379 0.261936 0
0.130922 0.265385 0
0.162722 0.268849 0
0.194507 0.272297 0
0.226291 0.275761 0
0.258091 0.279225 0
0.289876 0.282673 0
0.32166 0.286137 0
0.35346 0.289586 0
0.385245 0.29305 0
0.417029 0.296513 0
0.448829 0.299962 0
0.480613 0.303426 0
0.512398 0.306889 0
0.544182 0.310338 0
0.575982 0.313802 0
0.607767 0.31725 0
0.639551 0.320714 0
0.671351 0.324178 0
0.703136 0.327626 0
0.73492 0.33109 0
0.76672 0.334539 0
0.798505 0.338003 0
0.830289 0.341466 0
0 0.269276 0.115816
0 0.27274 0.0876783
0 0.276188 0.0595254
0 0.279652 0.0313726
0 0.283116 0.00320439
0 0.286564 0
0 0.290028 0
0.0043946 0.293492 0
0.0361944 0.296941 0
0.0679789 0.300404 0
0.0997635 0.303853 0
0.131563 0.307317 0
0.163348 0.31078 0
0.195132 0.314229 0
0.226932 0.317693 0
0.258717 0.321141 0
0.290501 0.324605 0
0.322286 0.328069 0
0.354086 0.331518 0
0.38587 0.334981 0
0.417655 0.338445 0
0.449454 0.341894 0
0.481239 0.345357 0
0.513024 0.348806 0
0.544823 0.35227 0
0.576608 0.355734 0
0.608392 0.359182 0
0.640192 0.362646 0
0.671977 0.366094 0
0.703761 0.369558 0
0.735546 0.373022 0
0.767346 0.376471 0
0.79913 0.379934 0
0 0.307759 0.132357
0 0.311208 0.104219
0 0.314672 0.0760662
0 0.31812 0.0479133
0 0.321584 0.0197604
0 0.325048 0
0 0.328496 0
0 0.33196 0
0.00503548 0.335409 0
0.03682 0.338872 0
0.0686046 0.342336 0
0.100404 0.345785 0
0.132189 0.349248 0
0.163973 0.352697 0
0.195758 0.356161 0
0.227558 0.359625 0
0.259342 0.363073 0
0.291127 0.366537 0
0.322927 0.370001 0
0.354711 0.373449 0
0.386496 0.376913 0
0.418296 0.380362 0
0.45008 0.383825 0
0.481865 0.387289 0
0.513664 0.390738 0
0.545449 0.394202 0
0.577234 0.39765 0
0.609018 0.401114 0
0.640818 0.404578 0
0.672602 0.408026 0
0.704387 0.41149 0
0.736187 0.414954 0
0.767971 0.418402 0
0 0.346227 0.148898
0 0.349676 0.12076
0 0.35314 0.092607
0 0.356603 0.0644541
0 0.360052 0.0363012
0 0.363516 0.00814832
0 0.366964 0
0 0.370428 0
0 0.373892 0
0.0056611 0.37734 0
0.0374456 0.380804 0
0.0692302 0.384253 0
0.10103 0.387717 0
0.132815 0.39118 0
0.164599 0.394629 0
0.196399 0.398093 0
0.228183 0.401556 0
0.259968 0.405005 0
0.291768 0.408469 0
0.323552 0.411917 0
0.355337 0.415381 0
0.387137 0.418845 0
0.418921 0.422293 0
0.450706 0.425757 0
0.48249 0.429206 0
0.51429 0.43267 0
0.546075 0.436133 0
0.577859 0.439582 0
0.609659 0.443046 0
0.641443 0.44651 0
0.673228 0.449958 0
0.705028 0.453422 0
0.736812 0.45687 0
0 0.384695 0.165454
0 0.388159 0.137316
0 0.391608 0.109163
0 0.395071 0.0809949
0 0.39852 0.052842
0 0.401984 0.0246891
0 0.405447 0
0 0.408896 0
0 0.41236 0
0 0.415808 0
0.00628672 0.419272 0
0.0380713 0.422736 0
0.0698711 0.426184 0
0.101656 0.429648 0
0.13344 0.433112 0
0.16524 0.436561 0
0.197024 0.440024 0
0.228809 0.443473 0
0.260609 0.446937 0
0.292393 0.450401 0
0.324178 0.453849 0
0.355962 0.457313 0
0.387762 0.460761 0
0.419547 0.464225 0
0.451331 0.467689 0
0.483131 0.471138 0
0.514916 0.474601 0
0.5467 0.478065 0
0.5785 0.481514 0
0.610285 0.484977 0
0.642069 0.488426 0
0.673854 0.49189 0
0.705653 0.495354 0
0 0.423163 0.181994
0 0.426627 0.153857
0 0.430076 0.125704
0 0.433539 0.0975509
0 0.437003 0.069398
0 0.440452 0.0412451
0 0.443915 0.0130922
0 0.447364 0
0 0.450828 0
0 0.454292 0
0 0.45774 0
0.00691234 0.461204 0
0.0387121 0.464668 0
0.0704967 0.468116 0
0.102281 0.47158 0
0.134066 0.475029 0
0.165866 0.478492 0
0.19765 0.481956 0
0.229435 0.485405 0
0.261234 0.488869 0
0.293019 0.492317 0
0.324804 0.495781 0
0.356603 0.499245 0
0.388388 0.502693 0
0.420172 0.506157 0
0.451972 0.509621 0
0.483757 0.513069 0
0.515541 0.516533 0
0.547326 0.519982 0
0.579126 0.523445 0
0.61091 0.526909 0
0.642695 0.530358 0
0.674495 0.533822 0
0 0.461646 0.198535
0 0.465095 0.170397
0 0.468559 0.142245
0 0.472007 0.114092
0 0.475471 0.0859388
0 0.47892 0.0577859
0 0.482383 0.029633
0 0.485847 0.00148013
0 0.489296 0
0 0.49276 0
0 0.496223 0
0 0.499672 0
0.00753796 0.503136 0
0.0393378 0.506584 0
0.0711223 0.510048 0
0.102907 0.513512 0
0.134707 0.51696 0
0.166491 0.520424 0
0.198276 0.523873 0
0.230076 0.527337 0
0.26186 0.5308 0
0.293645 0.534249 0
0.325444 0.537713 0
0.357229 0.541176 0
0.389013 0.544625 0
0.420798 0.548089 0
0.452598 0.551537 0
0.484382 0.555001 0
0.516167 0.558465 0
0.547967 0.561913 0
0.579751 0.565377 0
0.611536 0.568826 0
0.643336 0.57229 0
0 0.500114 0.215091
0 0.503563 0.186954
0 0.507027 0.158801
0 0.510475 0.130632
0 0.513939 0.10248
0 0.517403 0.0743267
0 0.520851 0.0461738
0 0.524315 0.0180209
0 0.527779 0
0 0.531228 0
0 0.534691 0
0 0.53814 0
0 0.541604 0
0.00817884 0.545068 0
0.0399634 0.548516 0
0.0717479 0.55198 0
0.103548 0.555428 0
0.135332 0.558892 0
0.167117 0.562356 0
0.198917 0.565805 0
0.230701 0.569268 0
0.262486 0.572732 0
0.29427 0.576181 0
0.32607 0.579644 0
0.357855 0.583093 0
0.389639 0.586557 0
0.421439 0.590021 0
0.453223 0.593469 0
0.485008 0.596933 0
0.516808 0.600381 0
0.548592 0.603845 0
0.580377 0.607309 0
0.612161 0.610758 0
0 0.538582 0.231632
0 0.542031 0.203494
0 0.545495 0.175341
0 0.548959 0.147189
0 0.552407 0.119036
0 0.555871 0.0908827
0 0.559335 0.0627298
0 0.562783 0.0345769
0 0.566247 0.00642405
0 0.569696 0
0 0.573159 0
0 0.576623 0
0 0.580072 0
0 0.583535 0
0.00880446 0.586984 0
0.040589 0.590448 0
0.0723888 0.593912 0
0.104173 0.59736 0
0.135958 0.600824 0
0.167742 0.604288 0
0.199542 0.607736 0
0.231327 0.6112 0
0.263111 0.614649 0
0.294911 0.618112 0
0.326696 0.621576 0
0.35848 0.625025 0
0.39028 0.628489 0
0.422065 0.631937 0
0.453849 0.635401 0
0.485634 0.638865 0
0.517433 0.642313 0
0.549218 0.645777 0
0.581003 0.649241 0
0 0.57705 0.248173
0 0.580514 0.220035
0 0.583963 0.191882
0 0.587427 0.163729
0 0.59089 0.135576
0 0.594339 0.107424
0 0.597803 0.0792706
0 0.601251 0.0511177
0 0.604715 0.0229648
0 0.608179 0
0 0.611627 0
0 0.615091 0
0 0.61854 0
0 0.622003 0
0 0.625467 0
0.00943008 0.628916 0
0.0412146 0.63238 0
0.0730144 0.635843 0
0.104799 0.639292 0
0.136584 0.642756 0
0.168383 0.646204 0
0.200168 0.649668 0
0.231952 0.653132 0
0.263752 0.65658 0
0.295537 0.660044 0
0.327321 0.663493 0
0.359106 0.666957 0
0.390906 0.67042 0
0.42269 0.673869 0
0.454475 0.677333 0
0.486275 0.680797 0
0.518059 0.684245 0
0.549844 0.687709 0
0 0.615518 0.264729
0 0.618982 0.236591
0 0.622446 0.208438
0 0.625895 0.18027
0 0.629358 0.152117
0 0.632807 0.123964
0 0.636271 0.0958114
0 0.639735 0.0676585
0 0.643183 0.0395056
0 0.646647 0.0113527
0 0.650095 0
0 0.653559 0
0 0.657023 0
0 0.660471 0
0 0.663935 0
0 0.667399 0
0.0100557 0.670848 0
0.0418555 0.674311 0
0.07364 0.67776 0
0.105425 0.681224 0
0.137224 0.684688 0
0.169009 0.688136 0
0.200793 0.6916 0
0.232578 0.695048 0
0.264378 0.698512 0
0.296162 0.701976 0
0.327947 0.705425 0
0.359747 0.708888 0
0.391531 0.712352 0
0.423316 0.715801 0
0.455116 0.719265 0
0.4869 0.722713 0
0.518685 0.726177 0
0 0.654002 0.28127
0 0.65745 0.253132
0 0.660914 0.224979
0 0.664363 0.196826
0 0.667826 0.168673
0 0.67129 0.14052
0 0.674739 0.112367
0 0.678203 0.0842145
0 0.681651 0.0560616
0 0.685115 0.0278935
0 0.688579 0
0 0.692027 0
0 0.695491 0
0 0.698955 0
0 0.702403 0
0 0.705867 0
0 0.709316 0
0.0106966 0.712779 0
0.0424811 0.716243 0
0.0742657 0.719692 0
0.10605 0.723156 0
0.13785 0.726604 0
0.169635 0.730068 0
0.201419 0.733532 0
0.233219 0.73698 0
0.265003 0.740444 0
0.296788 0.743908 0
0.328588 0.747356 0
0.360372 0.75082 0
0.392157 0.754269 0
0.423941 0.757733 0
0.455741 0.761196 0
0.487526 0.764645 0
0 0.69247 0.29781
0 0.695918 0.269673
0 0.699382 0.24152
0 0.702846 0.213367
0 0.706294 0.185214
0 0.709758 0.157061
0 0.713207 0.128908
0 0.71667 0.100755
0 0.720134 0.0726024
0 0.723583 0.0444495
0 0.727047 0.0162966
0 0.73051 0
0 0.733959 0
0 0.737423 0
0 0.740871 0
0 0.744335 0
0 0.747799 0
0 0.751247 0
0.0113222 0.754711 0
0.0431067 0.75816 0
0.0748913 0.761624 0
0.106691 0.765087 0
0.138476 0.768536 0
0.17026 0.772 0
0.20206 0.775464 0
0.233845 0.778912 0
0.265629 0.782376 0
0.297414 0.785824 0
0.329213 0.789288 0
0.360998 0.792752 0
0.392782 0.796201 0
0.424582 0.799664 0
0.456367 0.803113 0
0 0.730938 0.314366
0 0.734401 0.286229
0 0.73785 0.258076
0 0.741314 0.229908
0 0.744762 0.201755
0 0.748226 0.173602
0 0.75169 0.145449
0 0.755138 0.117296
0 0.758602 0.0891432
0 0.762066 0.0609903
0 0.765515 0.0328374
0 0.768978 0.00468452
0 0.772427 0
0 0.775891 0
0 0.779355 0
0 0.782803 0
0 0.786267 0
0 0.789715 0
0 0.793179 0
0.0119478 0.796643 0
0.0437324 0.800092 0
0.0755322 0.803555 0
0.107317 0.807019 0
0.139101 0.810468 0
0.170886 0.813931 0
0.202686 0.81738 0
0.23447 0.820844 0
0.266255 0.824308 0
0.298054 0.827756 0
0.329839 0.83122 0
0.361624 0.834669 0
0.393423 0.838132 0
0.425208 0.841596 0
0 0.769406 0.330907
0 0.772869 0.30277
0 0.776318 0.274617
0 0.779782 0.246464
0 0.783246 0.218311
0 0.786694 0.190158
0 0.790158 0.162005
0 0.793622 0.133852
0 0.79707 0.105699
0 0.800534 0.0775311
0 0.803983 0.0493782
0 0.807446 0.0212253
0 0.81091 0
0 0.814359 0
0 0.817823 0
0 0.821271 0
0 0.824735 0
0 0.828199 0
0 0.831647 0
0 0.835111 0
0.0125734 0.838575 0
0.044358 0.842023 0
0.0761578 0.845487 0
0.107942 0.848936 0
0.139727 0.852399 0
0.171527 0.855863 0
0.203311 0.859312 0
0.235096 0.862776 0
0.266896 0.866224 0
0.29868 0.869688 0
0.330465 0.873152 0
0.362264 0.8766 0
0.394049 0.880064 0
0 0.807889 0.347448
0 0.811337 0.31931
0 0.814801 0.291157
0 0.81825 0.263005
0 0.821714 0.234852
0 0.825177 0.206699
0 0.828626 0.178546
0 0.83209 0.150393
0 0.835538 0.12224
0 0.839002 0.0940871
0 0.842466 0.0659342
0 0.845914 0.0377813
0 0.849378 0.00962844
0 0.852827 0
0 0.856291 0
0 0.859754 0
0 0.863203 0
0 0.866667 0
0 0.87013 0
0 0.873579 0
0 0.877043 0
0.0131991 0.880491 0
0.0449989 0.883955 0
0.0767834 0.887419 0
0.108568 0.890867 0
0.140368 0.894331 0
0.172152 0.89778 0
0.203937 0.901244 0
0.235721 0.904707 0
0.267521 0.908156 0
0.299306 0.91162 0
0.33109 0.915068 0
0.36289 0.918532 0
0 0.846357 0.364004
0 0.849805 0.335866
0 0.853269 0.307713
0 0.856733 0.279545
0 0.860182 0.251392
0 0.863645 0.223239
0 0.867094 0.195087
0 0.870558 0.166934
0 0.874022 0.138781
0 0.87747 0.110628
0 0.880934 0.082475
0 0.884382 0.0543221
0 0.887846 0.0261692
0 0.89131 0
0 0.894759 0
0 0.898222 0
0 0.901686 0
0 0.905135 0
0 0.908598 0
0 0.912047 0
0 0.915511 0
0 0.918975 0
0.0138399 0.922423 0
0.0456245 0.925887 0
0.077409 0.929335 0
0.109194 0.932799 0
0.140993 0.936263 0
0.172778 0.939712 0
0.204562 0.943175 0
0.236362 0.946624 0
0.268147 0.950088 0
0.299931 0.953552 0
0.331731 0.957 0
0 0.884825 0.380545
0 0.888289 0.352407
0 0.891737 0.324254
0 0.895201 0.296101
0 0.89865 0.267948
0 0.902113 0.239796
0 0.905577 0.211643
0 0.909026 0.18349
0 0.91249 0.155337
0 0.915938 0.127169
0 0.919402 0.0990158
0 0.922866 0.0708629
0 0.926314 0.04271
0 0.929778 0.0145571
0 0.933242 0
0 0.93669 0
0 0.940154 0
0 0.943603 0
0 0.947066 0
0 0.95053 0
0 0.953979 0
0 0.957443 0
0 0.960891 0
0.0144656 0.964355 0
0.0462501 0.967819 0
0.0780346 0.971267 0
0.109834 0.974731 0
0.141619 0.978195 0
0.173404 0.981643 0
0.205203 0.985107 0
0.236988 0.988556 0
0.268772 0.99202 0
0.300572 0.995483 0
0 0.923293 0.397086
0 0.926757 0.368948
0 0.930205 0.340795
0 0.933669 0.312642
0 0.937133 0.284489
0 0.940581 0.256336
0 0.944045 0.228183
0 0.947494 0.200031
0 0.950957 0.171878
0 0.954421 0.143725
0 0.95787 0.115572
0 0.961334 0.0874189
0 0.964797 0.059266
0 0.968246 0.0311131
0 0.97171 0.00296025
0 0.975158 0
0 0.978622 0
0 0.982086 0
0 0.985534 0
0 0.988998 0
0 0.992447 0
0 0.995911 0
0 0.999374 0
0 1 0
0.0150912 1 0
0.0468757 1 0
0.0786755 1 0
0.11046 1 0
0.142245 1 0
0.174044 1 0
0.205829 1 0
0.237613 1 0
0.269398 1 0
0 0.961761 0.413642
0 0.965225 0.385504
0 0.968688 0.357336
0 0.972137 0.329183
0 0.975601 0.30103
0 0.979049 0.272877
0 0.982513 0.244724
0 0.985977 0.216571
0 0.989425 0.188418
0 0.992889 0.160266
0 0.996353 0.132113
0 0.999802 0.10396
0 1 0.0758068
0 1 0.0476539
0 1 0.019501
0 1 0
0 1 0
0 1 0
0 1 0
0 1 0
0 1 0
0 1 0
0 1 0
0 1 0
0 1 0
0.0157168 1 0
0.0475013 1 0
0.0793011 1 0
0.111086 1 0
0.14287 1 0
0.17467 1 0
0.206455 1 0
0.238239 1 0
0 1 0.430182
0 1 0.402045
0 1 0.373892
0 1 0.345739
0 1 0.317586
0 1 0.289433
0 1 0.26128
0 1 0.233127
0 1 0.204959
0 1 0.176806
0 1 0.148653
0 1 0.1205
0 1 0.0923476
0 1 0.0641947
0 1 0.0360418
0 1 0.00788891
0 1 0
0 1 0
0 1 0
0 1 0
0 1 0
0 1 0
0 1 0
0 1 0
0 1 0
0 1 0
0.0163424 1 0
0.0481422 1 0
0.0799268 1 0
0.111711 1 0
0.143511 1 0
0.175296 1 0
0.20708 1 0
0 1 0.446723
0 1 0.418585
0 1 0.390433
0 1 0.36228
0 1 0.334127
0 1 0.305974
0 1 0.277821
0 1 0.249668
0 1 0.221515
