public/LUTS/Color Shift/ColorShift_40.cube
TITLE "Generated by Resolve"
LUT_3D_SIZE 5
0 0 0
0.00335698 0.0422675 0.246769
0.00671397 0.084535 0.493538
0.0100862 0.126787 0.740322
0.0134432 0.169055 0.987091
0.417029 0.110948 0.1084
0.420386 0.153201 0.355169
0.423743 0.195468 0.601953
0.4271 0.237736 0.848722
0.430457 0.280003 1
0.834073 0.221897 0.216815
0.83743 0.264149 0.463584
0.840787 0.306416 0.710353
0.844144 0.348684 0.957137
0.847517 0.390951 1
1 0.332845 0.325231
1 0.375097 0.572
1 0.417365 0.818769
1 0.459632 1
1 0.5019 1
1 0.443793 0.433646
1 0.486046 0.680415
1 0.528313 0.927184
1 0.570581 1
1 0.612848 1
0 0.096788 0
0 0.13904 0.141588
0 0.181308 0.388357
0 0.223575 0.635142
0 0.265843 0.88191
0.246632 0.207721 0.00321965
0.249989 0.249989 0.249989
0.253346 0.292256 0.496773
0.256703 0.334524 0.743542
0.260075 0.376791 0.990326
0.663676 0.318669 0.111635
0.667033 0.360937 0.358404
0.67039 0.403204 0.605173
0.673762 0.445472 0.851957
0.677119 0.487739 1
1 0.429618 0.22005
1 0.471885 0.466819
1 0.514153 0.713588
1 0.55642 0.960372
1 0.598688 1
1 0.540566 0.328466
1 0.582834 0.575235
1 0.625101 0.822003
1 0.667369 1
1 0.709636 1
0 0.193576 0
0 0.235828 0.0363928
0 0.278096 0.283177
0 0.320363 0.529946
0 0.362631 0.77673
0.0762188 0.304509 0
0.0795911 0.346777 0.144808
0.082948 0.389044 0.391577
0.086305 0.431312 0.638361
0.089662 0.473579 0.88513
0.493278 0.415457 0.00645457
0.496635 0.457725 0.253208
0.499992 0.499992 0.499992
0.503349 0.54226 0.746777
0.506706 0.584527 0.993545
0.910323 0.526406 0.11487
0.91368 0.568673 0.361624
0.917037 0.610941 0.608408
0.920394 0.653208 0.855177
0.923766 0.695476 1
1 0.637354 0.223285
1 0.679622 0.470039
1 0.721889 0.716823
1 0.764157 0.963592
1 0.806424 1
0 0.290364 0
0 0.332631 0
0 0.374884 0.177981
0 0.417151 0.424765
0 0.459419 0.671534
0 0.401297 0
0 0.443565 0.0396124
0 0.485832 0.286397
0 0.528099 0.533165
0 0.570367 0.77995
0.322866 0.512245 0
0.326223 0.554513 0.148028
0.329595 0.59678 0.394812
0.332952 0.639048 0.641581
0.336309 0.681315 0.888365
0.73991 0.623209 0.00967422
0.743282 0.665461 0.256443
0.746639 0.707729 0.503212
0.749996 0.749996 0.749996
0.753353 0.792264 0.99678
1 0.734157 0.11809
1 0.77641 0.364858
1 0.818677 0.611627
1 0.860945 0.858412
1 0.903212 1
0 0.387152 0
0 0.429419 0
0 0.471687 0.0728008
0 0.513939 0.31957
0 0.556207 0.566354
0 0.4981 0
0 0.540352 0
0 0.58262 0.181201
0 0.624887 0.427985
0 0.667155 0.674754
0.152468 0.609049 0
0.155825 0.651301 0.0428473
0.159182 0.693568 0.289616
0.162539 0.735836 0.5364
0.165896 0.778103 0.783169
0.569512 0.719997 0
0.572869 0.762249 0.151263
0.576226 0.804517 0.398032
0.579599 0.846784 0.644816
0.582956 0.889052 0.891585
0.986557 0.830945 0.0129091
0.989914 0.873198 0.259663
0.993286 0.915465 0.506447
0.996643 0.957732 0.753216
1 1 1
