public/LUTS/Color Shift/ColorShift_35.cube
TITLE "Generated by Resolve"
LUT_3D_SIZE 9
0 0 0
0.0646677 0.00285344 0.118608
0.129335 0.00569162 0.237217
0.194003 0.00854505 0.35584
0.258671 0.0113985 0.474464
0.323339 0.0142367 0.593072
0.388022 0.0170901 0.711696
0.452689 0.0199435 0.83032
0.517357 0.0227817 0.948928
0.165805 0.0763867 0
0.230472 0.0792401 0.109712
0.29514 0.0820783 0.228336
0.359808 0.0849317 0.34696
0.424475 0.0877852 0.465568
0.489158 0.0906233 0.584192
0.553826 0.0934768 0.702815
0.618494 0.0963302 0.821424
0.683162 0.0991684 0.940047
0.33164 0.152789 0
0.396292 0.155627 0.100832
0.46096 0.15848 0.219455
0.525643 0.161334 0.338064
0.590311 0.164172 0.456687
0.654978 0.167025 0.575311
0.719646 0.169879 0.693919
0.784314 0.172717 0.812543
0.848997 0.17557 0.931167
0.497459 0.229175 0
0.562127 0.232029 0.0919509
0.626795 0.234882 0.210575
0.691463 0.23772 0.329183
0.75613 0.240574 0.447807
0.820798 0.243427 0.566415
0.885481 0.246265 0.685039
0.950149 0.249119 0.803662
1 0.251972 0.922271
0.663279 0.305577 0
0.727947 0.308415 0.0830701
0.792615 0.311269 0.201678
0.857282 0.314122 0.320302
0.921965 0.31696 0.438926
0.986633 0.319814 0.557534
1 0.322667 0.676158
1 0.325521 0.794781
1 0.328359 0.91339
0.829114 0.381964 0
0.893767 0.384817 0.0741741
0.95845 0.387671 0.192798
1 0.390509 0.311421
1 0.393362 0.43003
1 0.396216 0.548653
1 0.399054 0.667277
1 0.401907 0.785885
1 0.404761 0.904509
0.994934 0.458366 0
1 0.461219 0.0652934
1 0.464057 0.183917
1 0.466911 0.302525
1 0.469764 0.421149
1 0.472602 0.539773
1 0.475456 0.658381
1 0.478309 0.777005
1 0.481147 0.895628
1 0.534768 0
1 0.537606 0.0564126
1 0.540459 0.175021
1 0.543313 0.293645
1 0.546151 0.412268
1 0.549004 0.530877
1 0.551858 0.6495
1 0.554696 0.768124
1 0.557549 0.886732
1 0.611154 0
1 0.614008 0.0475319
1 0.616846 0.16614
1 0.619699 0.284764
1 0.622553 0.403372
1 0.625406 0.521996
1 0.628244 0.64062
1 0.631098 0.759228
1 0.633951 0.877852
0 0.0457465 0.0152743
0 0.0486 0.133867
0.0238499 0.0514534 0.252491
0.0885176 0.0542916 0.371099
0.153185 0.057145 0.489723
0.217868 0.0599985 0.608347
0.282536 0.0628367 0.726955
0.347204 0.0656901 0.845579
0.411872 0.0685435 0.964202
0.0603189 0.122133 0.00637827
0.124987 0.124987 0.124987
0.189654 0.12784 0.24361
0.254322 0.130678 0.362219
0.319005 0.133532 0.480842
0.383673 0.136385 0.599466
0.448341 0.139223 0.718074
0.513008 0.142077 0.836698
0.577676 0.14493 0.955306
0.226154 0.198535 0
0.290806 0.201389 0.116106
0.355489 0.204227 0.234714
0.420157 0.20708 0.353338
0.484825 0.209934 0.471962
0.549493 0.212772 0.59057
0.61416 0.215625 0.709194
0.678843 0.218479 0.827817
0.743511 0.221317 0.946426
0.391974 0.274937 0
0.456641 0.277775 0.10721
0.521309 0.280629 0.225834
0.585977 0.283482 0.344457
0.650645 0.28632 0.463066
0.715328 0.289174 0.581689
0.779995 0.292027 0.700313
0.844663 0.294865 0.818921
0.909331 0.297719 0.937545
0.557809 0.351324 0
0.622461 0.354177 0.0983291
0.687129 0.357015 0.216953
0.751812 0.359869 0.335561
0.81648 0.362722 0.454185
0.881148 0.365576 0.572808
0.945815 0.368414 0.691417
1 0.371267 0.81004
1 0.374121 0.928664
0.723629 0.427726 0
0.788296 0.430564 0.0894484
0.852964 0.433417 0.208072
0.917632 0.436271 0.32668
0.9823 0.439109 0.445304
1 0.441962 0.563912
1 0.444816 0.682536
1 0.447654 0.80116
1 0.450507 0.919768
0.889448 0.504112 0
0.954116 0.506966 0.0805676
1 0.509819 0.199176
1 0.512657 0.3178
1 0.515511 0.436423
1 0.518364 0.555032
1 0.521202 0.673655
1 0.524056 0.792264
1 0.526909 0.910887
1 0.580514 0
1 0.583368 0.0716716
1 0.586206 0.190295
1 0.589059 0.308919
1 0.591913 0.427527
1 0.594751 0.546151
1 0.597604 0.664775
1 0.600458 0.783383
1 0.603296 0.902007
1 0.656901 0
1 0.659754 0.0627909
1 0.662608 0.181415
1 0.665461 0.300023
1 0.668299 0.418647
1 0.671153 0.53727
1 0.674006 0.655879
1 0.676844 0.774502
1 0.679698 0.893126
0 0.0915084 0.0305333
0 0.0943618 0.149142
0 0.0972 0.26775
0 0.100053 0.386374
0.0476997 0.102907 0.504997
0.112367 0.105745 0.623606
0.177035 0.108598 0.742229
0.241703 0.111452 0.860853
0.306386 0.114305 0.979461
0 0.167895 0.0216526
0.0194858 0.170748 0.140261
0.0841688 0.173587 0.258869
0.148836 0.17644 0.377493
0.213504 0.179294 0.496117
0.278172 0.182132 0.614725
0.34284 0.184985 0.733349
0.407523 0.187839 0.851957
0.47219 0.190692 0.970581
0.120653 0.244297 0.0127718
0.185321 0.247135 0.131365
0.249989 0.249989 0.249989
0.314656 0.252842 0.368612
0.379324 0.25568 0.487221
0.444007 0.258534 0.605844
0.508675 0.261387 0.724468
0.573343 0.264225 0.843076
0.63801 0.267079 0.9617
0.286488 0.320684 0.00387579
0.351141 0.323537 0.122484
0.415808 0.32639 0.241108
0.480491 0.329229 0.359716
0.545159 0.332082 0.47834
0.609827 0.334936 0.596963
0.674495 0.337774 0.715572
0.739162 0.340627 0.834195
0.803845 0.343481 0.952819
0.452308 0.397086 0
0.516976 0.399924 0.113603
0.581643 0.402777 0.232212
0.646311 0.405631 0.350835
0.710979 0.408484 0.469459
0.775647 0.411322 0.588067
0.84033 0.414176 0.706691
0.904997 0.417029 0.825315
0.969665 0.419867 0.943923
0.618128 0.473472 0
0.682795 0.476326 0.104723
0.747463 0.479179 0.223331
0.812131 0.482017 0.341955
0.876814 0.484871 0.460563
0.941482 0.487724 0.579187
1 0.490578 0.69781
1 0.493416 0.816419
1 0.496269 0.935042
0.783963 0.549874 0
0.848615 0.552728 0.0958267
0.913298 0.555566 0.21445
0.977966 0.558419 0.333074
1 0.561273 0.451682
1 0.564111 0.570306
1 0.566964 0.688914
1 0.569818 0.807538
1 0.572656 0.926162
0.949783 0.626276 0
1 0.629114 0.0869459
1 0.631968 0.20557
1 0.634821 0.324178
1 0.637659 0.442802
1 0.640513 0.561425
1 0.643366 0.680034
1 0.646204 0.798657
1 0.649058 0.917266
1 0.702663 0
1 0.705516 0.0780652
1 0.70837 0.196674
1 0.711208 0.315297
1 0.714061 0.433921
1 0.716915 0.552529
1 0.719753 0.671153
1 0.722606 0.789776
1 0.72546 0.908385
0 0.13727 0.0458076
0 0.140108 0.164401
0 0.142962 0.283024
0 0.145815 0.401648
0 0.148669 0.520256
0.00686656 0.151507 0.63888
0.0715496 0.15436 0.757504
0.136217 0.157214 0.876112
0.200885 0.160052 0.994736
0 0.213657 0.0369268
0 0.216495 0.15552
0 0.219348 0.274144
0.0433356 0.222202 0.392767
0.108003 0.225055 0.511376
0.172686 0.227893 0.629999
0.237354 0.230747 0.748608
0.302022 0.2336 0.867231
0.36669 0.236439 0.985855
0.0151675 0.290044 0.0280308
0.0798199 0.292897 0.146639
0.144488 0.29575 0.265263
0.209171 0.298589 0.383871
0.273838 0.301442 0.502495
0.338506 0.304295 0.621118
0.403174 0.307134 0.739727
0.467842 0.309987 0.858351
0.532525 0.31284 0.976959
0.180987 0.366445 0.0191501
0.245655 0.369299 0.137758
0.310323 0.372137 0.256367
0.37499 0.37499 0.37499
0.439658 0.377844 0.493614
0.504326 0.380682 0.612222
0.569009 0.383536 0.730846
0.633677 0.386389 0.84947
0.698344 0.389227 0.968078
0.346807 0.442847 0.0102693
0.411475 0.445686 0.128862
0.476143 0.448539 0.247486
0.54081 0.451392 0.36611
0.605493 0.454231 0.484718
0.670161 0.457084 0.603342
0.734829 0.459937 0.721965
0.799496 0.462776 0.840574
0.864164 0.465629 0.959197
0.512642 0.519234 0.00137331
0.577295 0.522087 0.119982
0.641978 0.524941 0.238605
0.706645 0.527779 0.357214
0.771313 0.530632 0.475837
0.835981 0.533486 0.594461
0.900649 0.536324 0.713069
0.965331 0.539178 0.831693
1 0.542031 0.950317
0.678462 0.595636 0
0.74313 0.598474 0.111101
0.807797 0.601328 0.229725
0.872465 0.604181 0.348333
0.937133 0.607019 0.466957
1 0.609873 0.585565
1 0.612726 0.704189
1 0.615579 0.822812
1 0.618418 0.941421
0.844297 0.672023 0
0.908949 0.674876 0.10222
0.973617 0.677729 0.220829
1 0.680568 0.339452
1 0.683421 0.458076
1 0.686275 0.576684
1 0.689113 0.695308
1 0.691966 0.813916
1 0.69482 0.93254
1 0.748425 0
1 0.751278 0.0933242
1 0.754116 0.211948
1 0.75697 0.330571
1 0.759823 0.44918
1 0.762661 0.567803
1 0.765515 0.686427
1 0.768368 0.805035
1 0.771206 0.923659
0 0.183032 0.0610666
0 0.18587 0.179675
0 0.188724 0.298299
0 0.191577 0.416907
0 0.194415 0.535531
0 0.197269 0.654154
0 0.200122 0.772763
0.0307164 0.20296 0.891386
0.0953841 0.205814 1
0 0.259419 0.0521859
0 0.262257 0.170794
0 0.26511 0.289418
0 0.267964 0.408026
0.00251774 0.270802 0.52665
0.0671855 0.273655 0.645258
0.131853 0.276509 0.763882
0.196521 0.279347 0.882506
0.261204 0.2822 1
0 0.335805 0.0433051
0 0.338659 0.161913
0.0390021 0.341497 0.280522
0.10367 0.34435 0.399145
0.168338 0.347204 0.517769
0.233005 0.350057 0.636378
0.297688 0.352895 0.755001
0.362356 0.355749 0.87361
0.427024 0.358602 0.992233
0.0754864 0.412207 0.0344244
0.140154 0.415045 0.153017
0.204822 0.417899 0.271641
0.26949 0.420752 0.390265
0.334173 0.42359 0.508873
0.39884 0.426444 0.627497
0.463508 0.429297 0.74612
0.528176 0.432135 0.864729
0.592844 0.434989 0.983352
0.241321 0.488594 0.0255283
0.305974 0.491447 0.144137
0.370657 0.494301 0.26276
0.435325 0.497139 0.381369
0.499992 0.499992 0.499992
0.56466 0.502846 0.618616
0.629328 0.505684 0.737224
0.694011 0.508537 0.855848
0.758679 0.511391 0.974472
0.407141 0.564996 0.0166476
0.471809 0.567849 0.135256
0.536477 0.570687 0.253864
0.601144 0.573541 0.372488
0.665812 0.576394 0.491112
0.730495 0.579232 0.60972
0.795163 0.582086 0.728344
0.859831 0.584939 0.846967
0.924498 0.587777 0.965576
0.572976 0.641382 0.00776684
0.637629 0.644236 0.126375
0.702296 0.647089 0.244984
0.766979 0.649927 0.363607
0.831647 0.652781 0.482216
0.896315 0.655634 0.600839
0.960983 0.658488 0.719463
1 0.661326 0.838071
1 0.664179 0.956695
0.738796 0.717784 0
0.803464 0.720638 0.117479
0.868132 0.723476 0.236103
0.932799 0.726329 0.354726
0.997467 0.729183 0.473335
1 0.732021 0.591959
1 0.734874 0.710567
1 0.737728 0.82919
1 0.740581 0.947814
0.904616 0.794186 0
0.969284 0.797024 0.108598
1 0.799878 0.227222
1 0.802731 0.34583
1 0.80557 0.464454
1 0.808423 0.583078
1 0.811276 0.701686
1 0.814115 0.82031
1 0.816968 0.938918
0 0.228779 0.0763409
0 0.231632 0.194949
0 0.234485 0.313558
0 0.237324 0.432181
0 0.240177 0.550805
0 0.24303 0.669413
0 0.245869 0.788037
0 0.248722 0.906661
0 0.251575 1
0 0.305165 0.0674601
0 0.308019 0.186069
0 0.310872 0.304677
0 0.31371 0.423301
0 0.316564 0.541909
0 0.319417 0.660533
0.0263676 0.322255 0.779156
0.0910353 0.325109 0.897765
0.155703 0.327962 1
0 0.381567 0.0585794
0 0.384405 0.177172
0 0.387259 0.295796
0 0.390112 0.41442
0.0628519 0.392966 0.533028
0.12752 0.395804 0.651652
0.192187 0.398657 0.77026
0.256855 0.401511 0.888884
0.321523 0.404349 1
0 0.457954 0.0496834
0.0346532 0.460807 0.168292
0.0993362 0.463661 0.286915
0.164004 0.466499 0.405524
0.228672 0.469352 0.524147
0.293339 0.472206 0.642771
0.358007 0.475059 0.761379
0.42269 0.477897 0.880003
0.487358 0.480751 0.998611
0.135821 0.534356 0.0408026
0.200488 0.537209 0.159411
0.265156 0.540047 0.278019
0.329824 0.542901 0.396643
0.394491 0.545754 0.515267
0.459174 0.548592 0.633875
0.523842 0.551446 0.752499
0.58851 0.554299 0.871122
0.653178 0.557137 0.989731
0.301656 0.610758 0.0319219
0.366308 0.613596 0.150515
0.430976 0.616449 0.269139
0.495659 0.619303 0.387762
0.560327 0.622141 0.506371
0.624994 0.624994 0.624994
0.689662 0.627848 0.743618
0.75433 0.630686 0.862226
0.819013 0.633539 0.98085
0.467475 0.687144 0.0230259
0.532143 0.689998 0.141634
0.596811 0.692851 0.260258
0.661479 0.695689 0.378866
0.726146 0.698543 0.49749
0.790814 0.701396 0.616114
0.855497 0.704234 0.734722
0.920165 0.707088 0.853346
0.984833 0.709941 0.971969
0.633295 0.763546 0.0141451
0.697963 0.766384 0.132753
0.762631 0.769238 0.251377
0.827298 0.772091 0.369985
0.891981 0.774929 0.488609
0.956649 0.777783 0.607217
1 0.780636 0.725841
1 0.78349 0.844465
1 0.786328 0.963073
0.79913 0.839933 0.00526436
0.863783 0.842786 0.123873
0.928466 0.84564 0.242481
0.993133 0.848478 0.361105
1 0.851331 0.479728
1 0.854185 0.598337
1 0.857023 0.71696
1 0.859876 0.835569
1 0.86273 0.954192
0 0.27454 0.0916152
0 0.277394 0.210208
0 0.280232 0.328832
0 0.283085 0.447456
0 0.285939 0.566064
0 0.288777 0.684688
0 0.29163 0.803311
0 0.294484 0.92192
0 0.297322 1
0 0.350927 0.0827192
0 0.35378 0.201328
0 0.356619 0.319951
0 0.359472 0.43856
0 0.362325 0.557183
0 0.365164 0.675807
0 0.368017 0.794415
0 0.370871 0.913039
0.0502022 0.373709 1
0 0.427329 0.0738384
0 0.430167 0.192447
0 0.433021 0.31107
0 0.435874 0.429679
0 0.438712 0.548302
0.0220188 0.441566 0.666911
0.0866865 0.444419 0.785534
0.151369 0.447257 0.904158
0.216037 0.450111 1
0 0.503716 0.0649577
0 0.506569 0.183566
0 0.509407 0.302174
0.0585031 0.512261 0.420798
0.123171 0.515114 0.539422
0.187854 0.517968 0.65803
0.252522 0.520806 0.776654
0.317189 0.523659 0.895262
0.381857 0.526513 1
0.0303349 0.580118 0.0560769
0.0949874 0.582956 0.17467
0.159655 0.585809 0.293294
0.224338 0.588663 0.411917
0.289006 0.591501 0.530526
0.353674 0.594354 0.649149
0.418341 0.597208 0.767773
0.483009 0.600061 0.886381
0.547692 0.602899 1
0.196155 0.656504 0.0471809
0.260822 0.659358 0.165789
0.32549 0.662211 0.284413
0.390158 0.665049 0.403021
0.454826 0.667903 0.521645
0.519493 0.670756 0.640269
0.584176 0.673594 0.758877
0.648844 0.676448 0.877501
0.713512 0.679301 0.996124
0.361975 0.732906 0.0383001
0.426642 0.735759 0.156909
0.49131 0.738598 0.275517
0.555978 0.741451 0.394141
0.620661 0.744305 0.512764
0.685328 0.747143 0.631373
0.749996 0.749996 0.749996
0.814664 0.75285 0.86862
0.879332 0.755688 0.987228
0.52781 0.809293 0.0294194
0.592462 0.812146 0.148028
0.657145 0.815 0.266636
0.721813 0.817853 0.38526
0.78648 0.820691 0.503868
0.851148 0.823545 0.622492
0.915816 0.826398 0.741115
0.980499 0.829236 0.859724
1 0.83209 0.978347
0.693629 0.885695 0.0205386
0.758297 0.888548 0.139132
0.822965 0.891386 0.257755
0.887633 0.89424 0.376379
0.9523 0.897093 0.494987
1 0.899931 0.613611
1 0.902785 0.732219
1 0.905638 0.850843
1 0.908492 0.969467
0 0.320302 0.106874
0 0.32314 0.225483
0 0.325994 0.344106
0 0.328847 0.462715
0 0.331685 0.581338
0 0.334539 0.699962
0 0.337392 0.81857
0 0.34023 0.937194
0 0.343084 1
0 0.396689 0.0979934
0 0.399527 0.216602
0 0.40238 0.33521
0 0.405234 0.453834
0 0.408072 0.572457
0 0.410925 0.691066
0 0.413779 0.809689
0 0.416617 0.928313
0 0.419471 1
0 0.473075 0.0891127
0 0.475929 0.207721
0 0.478782 0.326329
0 0.481621 0.444953
0 0.484474 0.563561
0 0.487327 0.682185
0 0.490166 0.800809
0.0458686 0.493019 0.919417
0.110536 0.495872 1
0 0.549477 0.0802319
0 0.552331 0.198825
0 0.555169 0.317449
0 0.558022 0.436072
0.0176852 0.560876 0.554681
0.0823529 0.563714 0.673304
0.147021 0.566567 0.791913
0.211688 0.569421 0.910536
0.276371 0.572259 1
0 0.625864 0.0713359
0 0.628717 0.189944
0.0541695 0.631571 0.308568
0.118837 0.634409 0.427176
0.183505 0.637263 0.5458
0.248173 0.640116 0.664424
0.312856 0.642969 0.783032
0.377523 0.645808 0.901656
0.442191 0.648661 1
0.0906539 0.702266 0.0624552
0.155322 0.705119 0.181064
0.219989 0.707958 0.299672
0.284657 0.710811 0.418296
0.34934 0.713664 0.536919
0.414008 0.716503 0.655528
0.478676 0.719356 0.774151
0.543343 0.72221 0.892775
0.608011 0.725063 1
0.256489 0.778668 0.0535744
0.321141 0.781506 0.172168
0.385824 0.78436 0.290791
0.450492 0.787213 0.409415
0.51516 0.790051 0.528023
0.579828 0.792905 0.646647
0.644495 0.795758 0.76527
0.709178 0.798596 0.883879
0.773846 0.80145 1
0.422309 0.855055 0.0446784
0.486976 0.857908 0.163287
0.551644 0.860761 0.28191
0.616312 0.8636 0.400519
0.68098 0.866453 0.519142
0.745663 0.869307 0.637766
0.81033 0.872145 0.756374
0.874998 0.874998 0.874998
0.939666 0.877852 0.993622
0.588144 0.931456 0.0357977
0.652796 0.934295 0.154406
0.717464 0.937148 0.27303
0.782147 0.940002 0.391638
0.846815 0.942855 0.510262
0.911482 0.945693 0.62887
0.97615 0.948547 0.747494
1 0.9514 0.866117
1 0.954238 0.984726
0 0.366049 0.122148
0 0.368902 0.240757
0 0.371756 0.359365
0 0.374594 0.477989
0 0.377447 0.596613
0 0.380301 0.715221
0 0.383154 0.833844
0 0.385992 0.952453
0 0.388846 1
0 0.442435 0.113268
0 0.445289 0.231861
0 0.448142 0.350484
0 0.45098 0.469108
0 0.453834 0.587716
0 0.456687 0.70634
0 0.459525 0.824964
0 0.462379 0.943572
0 0.465232 1
0 0.518837 0.104372
0 0.521691 0.22298
0 0.524529 0.341604
0 0.527382 0.460212
0 0.530236 0.578836
0 0.533074 0.697459
0 0.535927 0.816068
0 0.538781 0.934691
0.00503548 0.541619 1
0 0.595239 0.095491
0 0.598077 0.214099
0 0.600931 0.332723
0 0.603784 0.451331
0 0.606622 0.569955
0 0.609476 0.688563
0.0415351 0.612329 0.807187
0.106203 0.615167 0.925811
0.170871 0.618021 1
0 0.671626 0.0866102
0 0.674479 0.205219
0 0.677333 0.323827
0.0133364 0.680171 0.442451
0.0780194 0.683024 0.561074
0.142687 0.685878 0.679683
0.207355 0.688716 0.798306
0.272023 0.691569 0.916915
0.33669 0.694423 1
0 0.748028 0.0777295
0.0498207 0.750866 0.196323
0.114504 0.753719 0.314946
0.179171 0.756573 0.43357
0.243839 0.759411 0.552178
0.308507 0.762264 0.670802
0.373175 0.765118 0.789425
0.437858 0.767971 0.908034
0.502525 0.770809 1
0.150988 0.824414 0.0688334
0.215656 0.827268 0.187442
0.280324 0.830121 0.306065
0.344991 0.832959 0.424674
0.409659 0.835813 0.543297
0.474342 0.838666 0.661921
0.53901 0.841505 0.780529
0.603677 0.844358 0.899153
0.668345 0.847211 1
0.316823 0.900816 0.0599527
0.381476 0.90367 0.178561
0.446143 0.906508 0.297169
0.510826 0.909361 0.415793
0.575494 0.912215 0.534417
0.640162 0.915053 0.653025
0.704829 0.917906 0.771649
0.769497 0.92076 0.890272
0.83418 0.923598 1
0.482643 0.977218 0.0510719
0.547311 0.980056 0.16968
0.611978 0.98291 0.288289
0.676646 0.985763 0.406912
0.741314 0.988602 0.525521
0.805982 0.991455 0.644144
0.870665 0.994308 0.762768
0.935332 0.997147 0.881376
1 1 1
