public/LUTS/Color Shift/ColorShift_80.cube
TITLE "Generated by Resolve"
LUT_3D_SIZE 9
0 0 0
0.173678 0 0.115175
0.347387 0 0.230365
0.52108 0 0.345556
0.694789 0 0.460731
0.868482 0 0.575921
1 0 0.691112
1 0 0.806302
1 0 0.921492
0.0972 0.111391 0
0.270878 0.0819715 0
0.444572 0.0525521 0.109346
0.61828 0.0231327 0.224537
0.791974 0 0.339727
0.965682 0 0.454917
1 0 0.570108
1 0 0.685298
1 0 0.800473
0.1944 0.222782 0
0.368078 0.193362 0
0.541787 0.163943 0
0.71548 0.134524 0.103517
0.889189 0.105104 0.218708
1 0.0756847 0.333898
1 0.0462654 0.449073
1 0.016846 0.564263
1 0 0.679454
0.291615 0.334188 0
0.465293 0.304768 0
0.638987 0.275349 0
0.812696 0.24593 0
0.986389 0.21651 0.097673
1 0.187091 0.212863
1 0.157671 0.328054
1 0.128252 0.443244
1 0.0988327 0.558434
0.388815 0.445579 0
0.562493 0.416159 0
0.736202 0.38674 0
0.909895 0.357321 0
1 0.327901 0
1 0.298482 0.0918441
1 0.269062 0.207034
1 0.239643 0.322225
1 0.210224 0.4374
0.48603 0.556985 0
0.659709 0.527565 0
0.833402 0.498146 0
1 0.468727 0
1 0.439307 0
1 0.409888 0
1 0.380468 0.0859998
1 0.351049 0.20119
1 0.32163 0.316381
0.58323 0.668376 0
0.756909 0.638972 0
0.930617 0.609552 0
1 0.580118 0
1 0.550698 0
1 0.521279 0
1 0.491859 0
1 0.46244 0.0801709
1 0.433021 0.195361
0.680446 0.779782 0
0.854124 0.750362 0
1 0.720943 0
1 0.691524 0
1 0.662104 0
1 0.632685 0
1 0.603265 0
1 0.573846 0
1 0.544427 0.074342
0.777646 0.891173 0
0.951324 0.861769 0
1 0.832349 0
1 0.80293 0
1 0.77351 0
1 0.744076 0
1 0.714656 0
1 0.685237 0
1 0.655818 0
0 0.0430152 0.130816
0.0277867 0.0135958 0.245991
0.201495 0 0.361181
0.375189 0 0.476371
0.548898 0 0.591562
0.722591 0 0.706752
0.8963 0 0.821927
1 0 0.937118
1 0 1
0 0.154406 0.00981155
0.124987 0.124987 0.124987
0.298695 0.0955673 0.240177
0.472389 0.0661479 0.355367
0.646097 0.0367285 0.470542
0.819791 0.00730907 0.585733
0.9935 0 0.700923
1 0 0.816114
1 0 0.931304
0.0485084 0.265797 0
0.222187 0.236393 0.00396735
0.395895 0.206973 0.119158
0.569604 0.177539 0.234333
0.743297 0.148119 0.349523
0.917006 0.1187 0.464714
1 0.0892805 0.579904
1 0.0598611 0.695094
1 0.0304417 0.810269
0.145724 0.377203 0
0.319402 0.347784 0
0.493095 0.318364 0
0.666804 0.288945 0.113313
0.840497 0.259525 0.228504
1 0.230106 0.343694
1 0.200687 0.458885
1 0.171267 0.57406
1 0.141848 0.68925
0.242924 0.488594 0
0.416602 0.45919 0
0.590311 0.42977 0
0.764004 0.400351 0
0.937713 0.370932 0.107485
1 0.341497 0.22266
1 0.312078 0.33785
1 0.282658 0.45304
1 0.253239 0.568231
0.340139 0.6 0
0.513817 0.570581 0
0.68751 0.541161 0
0.861219 0.511742 0
1 0.482322 0
1 0.452903 0.10164
1 0.423484 0.216831
1 0.394064 0.332021
1 0.364645 0.447211
0.437339 0.711391 0
0.611017 0.681987 0
0.784726 0.652567 0
0.958419 0.623148 0
1 0.593729 0
1 0.564309 0
1 0.53489 0.0958114
1 0.505455 0.210986
1 0.476036 0.326177
0.534554 0.822797 0
0.708232 0.793378 0
0.881926 0.763958 0
1 0.734539 0
1 0.705119 0
1 0.6757 0
1 0.646281 0
1 0.616861 0.0899672
1 0.587442 0.205158
0.631754 0.934203 0
0.805432 0.904784 0
0.979141 0.875364 0
1 0.845945 0
1 0.816526 0
1 0.787106 0
1 0.757687 0
1 0.728267 0
1 0.698848 0.0841382
0 0.0860456 0.261662
0 0.0566262 0.376837
0.0555886 0.0272068 0.492027
0.229282 0 0.607202
0.402991 0 0.722393
0.576684 0 0.837583
0.750393 0 0.952773
0.924086 0 1
1 0 1
0 0.197421 0.140658
0 0.168017 0.255818
0.152789 0.138582 0.371008
0.326482 0.109163 0.486198
0.500191 0.0797436 0.601389
0.673884 0.0503243 0.716579
0.847593 0.0209049 0.831769
1 0 0.946944
1 0 1
0 0.308827 0.0196231
0.0762798 0.279408 0.134798
0.249989 0.249989 0.249989
0.423697 0.220569 0.365179
0.597391 0.19115 0.480369
0.771099 0.16173 0.595544
0.944793 0.132311 0.710735
1 0.102892 0.825925
1 0.0734722 0.941115
0 0.420218 0
0.173495 0.390814 0.0137789
0.347189 0.361395 0.128969
0.520897 0.331975 0.24416
0.694606 0.302541 0.359335
0.868299 0.273121 0.474525
1 0.243702 0.589715
1 0.214282 0.704906
1 0.184863 0.820096
0.0970169 0.531624 0
0.270695 0.502205 0
0.444404 0.472786 0.00793469
0.618097 0.443366 0.123125
0.791806 0.413947 0.238315
0.965499 0.384527 0.353506
1 0.355108 0.468696
1 0.325689 0.583886
1 0.296269 0.699062
0.194232 0.643015 0
0.36791 0.613611 0
0.541604 0.584192 0
0.715312 0.554772 0.00210575
0.889006 0.525353 0.117296
1 0.495933 0.232486
1 0.466499 0.347662
1 0.437079 0.462852
1 0.40766 0.578042
0.291432 0.754421 0
0.46511 0.725002 0
0.638819 0.695583 0
0.812512 0.666163 0
0.986221 0.636744 0
1 0.607324 0.111452
1 0.577905 0.226642
1 0.548486 0.341833
1 0.519066 0.457023
0.388647 0.865827 0
0.562325 0.836408 0
0.736019 0.806989 0
0.909728 0.777569 0
1 0.74815 0
1 0.71873 0
1 0.689311 0.105623
1 0.659892 0.220813
1 0.630457 0.335988
0.485847 0.977218 0
0.659525 0.947799 0
0.833234 0.918379 0
1 0.88896 0
1 0.859541 0
1 0.830121 0
1 0.800702 0
1 0.771282 0.0997787
1 0.741863 0.214969
0 0.129061 0.392493
0 0.0996414 0.507668
0 0.070222 0.622858
0.0833753 0.0408026 0.738048
0.257084 0.0113832 0.853239
0.430777 0 0.968429
0.604486 0 1
0.77818 0 1
0.951888 0 1
0 0.240452 0.271489
0 0.211032 0.386664
0.00688182 0.181613 0.501854
0.180575 0.152193 0.617044
0.354284 0.122774 0.732219
0.527977 0.0933547 0.84741
0.701686 0.0639353 0.9626
0.87538 0.0345159 1
1 0.00509651 1
0 0.351843 0.150469
0 0.322438 0.265644
0.104082 0.293004 0.380819
0.27779 0.263584 0.49601
0.451484 0.234165 0.6112
0.625193 0.204746 0.72639
0.798886 0.175326 0.841581
0.972595 0.145907 0.956771
1 0.116487 1
0 0.463249 0.0294347
0.0275883 0.433829 0.14461
0.201282 0.40441 0.2598
0.37499 0.37499 0.37499
0.548699 0.345571 0.490181
0.722393 0.316152 0.605371
0.896101 0.286732 0.720546
1 0.257313 0.835737
1 0.227893 0.950927
0 0.574639 0
0.124788 0.545235 0.0235904
0.298497 0.515816 0.138781
0.47219 0.486397 0.253971
0.645899 0.456977 0.369162
0.819608 0.427543 0.484337
0.993301 0.398123 0.599527
1 0.368704 0.714717
1 0.339284 0.829908
0.0483253 0.686046 0
0.222004 0.656626 0
0.395697 0.627207 0.0177615
0.569406 0.597787 0.132937
0.743099 0.568368 0.248127
0.916808 0.538949 0.363317
1 0.509529 0.478508
1 0.48011 0.593698
1 0.45069 0.708888
0.145525 0.797436 0
0.319203 0.768032 0
0.492912 0.738613 0
0.666606 0.709194 0.0119173
0.840314 0.679774 0.127108
1 0.650355 0.242298
1 0.620935 0.357488
1 0.591501 0.472663
1 0.562081 0.587854
0.242741 0.908843 0
0.416419 0.879423 0
0.590112 0.850004 0
0.763821 0.820584 0
0.937514 0.791165 0.00608835
1 0.761746 0.121263
1 0.732326 0.236454
1 0.702907 0.351644
1 0.673487 0.466835
0.33994 1 0
0.513619 0.990829 0
0.687327 0.96141 0
0.861021 0.931991 0
1 0.902571 0
1 0.873152 0.000244144
1 0.843732 0.115434
1 0.814313 0.230625
1 0.784894 0.345815
0 0.172091 0.523339
0 0.142672 0.638514
0 0.113252 0.753704
0 0.0838331 0.868879
0.111177 0.0544137 0.98407
0.284871 0.0249943 1
0.458579 0 1
0.632273 0 1
0.805982 0 1
0 0.283467 0.402335
0 0.254047 0.517494
0 0.224628 0.632685
0.0346685 0.195209 0.747875
0.208377 0.165789 0.863066
0.382071 0.13637 0.978256
0.555779 0.10695 1
0.729473 0.0775311 1
0.903181 0.0481117 1
0 0.394873 0.2813
0 0.365454 0.396475
0 0.336034 0.511666
0.131884 0.306615 0.626856
0.305577 0.277195 0.742046
0.479286 0.247776 0.857221
0.652979 0.218357 0.972412
0.826688 0.188937 1
1 0.159518 1
0 0.506264 0.160281
0 0.47686 0.275456
0.0553902 0.44744 0.390646
0.229084 0.418006 0.505821
0.402792 0.388586 0.621012
0.576486 0.359167 0.736202
0.750195 0.329747 0.851392
0.923888 0.300328 0.966583
1 0.270909 1
0 0.61767 0.0392615
0 0.588251 0.154437
0.15259 0.558831 0.269612
0.326284 0.529412 0.384802
0.499992 0.499992 0.499992
0.673701 0.470573 0.615183
0.847395 0.441154 0.730373
1 0.411734 0.845548
1 0.382315 0.960739
0 0.729061 0
0.0760967 0.699657 0.033402
0.24979 0.670237 0.148592
0.423499 0.640818 0.263783
0.597192 0.611399 0.378973
0.770901 0.581979 0.494163
0.94461 0.552544 0.609339
1 0.523125 0.724529
1 0.493706 0.839719
0 0.840467 0
0.173297 0.811048 0
0.347005 0.781628 0.0275731
0.520699 0.752209 0.142763
0.694408 0.722789 0.257939
0.868101 0.69337 0.373129
1 0.663951 0.488319
1 0.634531 0.60351
1 0.605112 0.7187
0.0968338 0.951873 0
0.270512 0.922454 0
0.444205 0.893034 0
0.617914 0.863615 0.0217288
0.791608 0.834195 0.136919
0.965316 0.804776 0.25211
1 0.775357 0.3673
1 0.745937 0.48249
1 0.716503 0.597665
0.194034 1 0
0.367712 1 0
0.541421 1 0
0.715114 0.975006 0
0.888823 0.945586 0.0158999
1 0.916167 0.13109
1 0.886748 0.246265
1 0.857328 0.361456
1 0.827909 0.476646
0 0.215106 0.654169
0 0.185687 0.769345
0 0.156268 0.884535
0 0.126848 0.999725
0 0.0974289 1
0.138964 0.0680095 1
0.312673 0.0385901 1
0.486366 0.00917067 1
0.660075 0 1
0 0.326497 0.533165
0 0.297078 0.648341
0 0.267659 0.763531
0 0.238239 0.878721
0.0624704 0.20882 0.993896
0.236164 0.1794 1
0.409873 0.149981 1
0.583566 0.120562 1
0.757275 0.0911421 1
0 0.437888 0.412146
0 0.408484 0.527321
0 0.379049 0.642496
0 0.34963 0.757687
0.15967 0.320211 0.872877
0.333379 0.290791 0.988067
0.507073 0.261372 1
0.680781 0.231952 1
0.854475 0.202533 1
0 0.549294 0.291112
0 0.519875 0.406287
0 0.490455 0.521477
0.0831769 0.461036 0.636667
0.256886 0.431617 0.751858
0.430579 0.402197 0.867048
0.604288 0.372778 0.982223
0.777981 0.343359 1
0.95169 0.313939 1
0 0.660685 0.170092
0 0.631281 0.285267
0.00668345 0.601862 0.400458
0.180392 0.572442 0.515648
0.354086 0.543008 0.630823
0.527794 0.513588 0.746014
0.701488 0.484169 0.861204
0.875196 0.454749 0.976394
1 0.42533 1
0 0.772091 0.049073
0 0.742672 0.164248
0.103883 0.713252 0.279438
0.277592 0.683833 0.394614
0.451286 0.654414 0.509804
0.624994 0.624994 0.624994
0.798703 0.595575 0.740185
0.972396 0.566155 0.855375
1 0.536736 0.97055
0 0.883482 0
0.0273899 0.854078 0.0432136
0.201099 0.824659 0.158404
0.374792 0.795239 0.273594
0.548501 0.76582 0.388785
0.722194 0.7364 0.503975
0.895903 0.706981 0.619165
1 0.677546 0.73434
1 0.648127 0.849531
0 0.994888 0
0.124605 0.965469 0
0.298299 0.936049 0.0373846
0.472007 0.90663 0.152575
0.645701 0.877211 0.267765
0.819409 0.847791 0.38294
0.993103 0.818372 0.498131
1 0.788952 0.613321
1 0.759533 0.728511
0.048127 1 0
0.221805 1 0
0.395514 1 0
0.569207 1 0.0315404
0.742916 0.988617 0.146731
0.916609 0.959197 0.261921
1 0.929778 0.377111
1 0.900359 0.492302
1 0.870939 0.607492
0 0.258137 0.785016
0 0.228717 0.900191
0 0.199298 1
0 0.169879 1
0 0.140459 1
0 0.11104 1
0.166766 0.0816205 1
0.340459 0.0522011 1
0.514168 0.0227817 1
0 0.369512 0.664012
0 0.340093 0.779171
0 0.310674 0.894362
0 0.281254 1
0 0.251835 1
0.0902571 0.222416 1
0.263966 0.192996 1
0.437659 0.163577 1
0.611368 0.134157 1
0 0.480919 0.542977
0 0.451499 0.658152
0 0.42208 0.773342
0 0.39266 0.888533
0.0137636 0.363241 1
0.187472 0.333822 1
0.361166 0.304402 1
0.534874 0.274983 1
0.708568 0.245563 1
0 0.592309 0.421958
0 0.562905 0.537133
0 0.533486 0.652323
0 0.504051 0.767498
0.110979 0.474632 0.882689
0.284672 0.445212 0.997879
0.458381 0.415793 1
0.632074 0.386374 1
0.805783 0.356954 1
0 0.703716 0.300938
0 0.674296 0.416098
0 0.644877 0.531289
0.0344854 0.615457 0.646479
0.208179 0.586038 0.761669
0.381888 0.556619 0.87686
0.555581 0.527199 0.99205
0.72929 0.49778 1
0.902983 0.46836 1
0 0.815106 0.179904
0 0.785702 0.295079
0 0.756283 0.410269
0.131685 0.726864 0.52546
0.305394 0.697444 0.64065
0.479088 0.668009 0.755825
0.652796 0.63859 0.871015
0.82649 0.609171 0.986206
1 0.579751 1
0 0.926513 0.0588846
0 0.897093 0.17406
0.0551919 0.867674 0.28925
0.228885 0.838254 0.40444
0.402594 0.808835 0.519615
0.576288 0.779416 0.634806
0.749996 0.749996 0.749996
0.923705 0.720577 0.865187
1 0.691157 0.980377
0 1 0
0 1 0.0530404
0.152392 0.97908 0.168215
0.326101 0.94966 0.283406
0.499794 0.920241 0.398596
0.673503 0.890822 0.513787
0.847196 0.861402 0.628977
1 0.831983 0.744167
1 0.802548 0.859342
0 1 0
0.0758984 1 0
0.249607 1 0.0471962
0.423301 1 0.162387
0.597009 1 0.277577
0.770703 1 0.392767
0.944411 0.972793 0.507942
1 0.943374 0.623133
1 0.913954 0.738323
0 0.301152 0.915846
0 0.271733 1
0 0.242313 1
0 0.212894 1
0 0.183474 1
0 0.154055 1
0.0208591 0.124636 1
0.194553 0.0952163 1
0.368261 0.0657969 1
0 0.412543 0.794842
0 0.383124 0.910018
0 0.353704 1
0 0.324285 1
0 0.294865 1
0 0.265446 1
0.118059 0.236027 1
0.291752 0.206607 1
0.465461 0.177188 1
0 0.523934 0.673823
0 0.49453 0.788998
0 0.465095 0.904173
0 0.435676 1
0 0.406256 1
0.0415656 0.376837 1
0.215259 0.347417 1
0.388968 0.317998 1
0.562661 0.288579 1
0 0.63534 0.552789
0 0.60592 0.667964
0 0.576501 0.783154
0 0.547082 0.898344
0 0.517662 1
0.138766 0.488243 1
0.312474 0.458824 1
0.486168 0.429404 1
0.659876 0.399985 1
0 0.746731 0.431769
0 0.717327 0.546944
0 0.687907 0.662135
0 0.658488 0.777325
0.0622721 0.629053 0.8925
0.235981 0.599634 1
0.409674 0.570214 1
0.583383 0.540795 1
0.757076 0.511376 1
0 0.858137 0.31075
0 0.828717 0.425925
0 0.799298 0.541115
0 0.769879 0.656291
0.159487 0.740459 0.771481
0.333181 0.71104 0.886671
0.506889 0.68162 1
0.680583 0.652201 1
0.854292 0.622782 1
0 0.969528 0.189715
0 0.940124 0.304891
0 0.910704 0.420081
0.0829786 0.881285 0.535271
0.256687 0.851865 0.650462
0.430396 0.822446 0.765652
0.604089 0.793011 0.880827
0.777798 0.763592 0.996017
0.951492 0.734173 1
0 1 0.0686961
0 1 0.183871
0.00648508 1 0.299062
0.180194 0.992676 0.414252
0.353887 0.963256 0.529442
0.527596 0.933837 0.644617
0.701305 0.904418 0.759808
0.874998 0.874998 0.874998
1 0.845579 0.990188
0 1 0
0 1 0.0628519
0.1037 1 0.178042
0.277394 1 0.293217
0.451102 1 0.408408
0.624796 1 0.523598
0.798505 1 0.638788
0.972198 0.986404 0.753979
1 0.956985 0.869169
0 0.344182 1
0 0.314763 1
0 0.285344 1
0 0.255924 1
0 0.226505 1
0 0.197086 1
0 0.167666 1
0.0486458 0.138247 1
0.222354 0.108827 1
0 0.455558 0.925673
0 0.426139 1
0 0.396719 1
0 0.3673 1
0 0.337881 1
0 0.308461 1
0 0.279042 1
0.145846 0.249622 1
0.319554 0.220203 1
0 0.566964 0.804654
0 0.537545 0.919829
0 0.508125 1
0 0.478706 1
0 0.449287 1
0 0.419867 1
0.0693523 0.390448 1
0.243061 0.361028 1
0.416754 0.331609 1
0 0.678355 0.683635
0 0.648951 0.79881
0 0.619532 0.914
0 0.590097 1
0 0.560678 1
0 0.531258 1
0.166567 0.501839 1
0.340261 0.472419 1
0.51397 0.443 1
0 0.789761 0.562615
0 0.760342 0.677775
0 0.730922 0.792966
0 0.701503 0.908156
0 0.672084 1
0.090074 0.642664 1
0.263767 0.613245 1
0.437476 0.583825 1
0.61117 0.554406 1
0 0.901152 0.441581
0 0.871748 0.556756
0 0.842329 0.671946
0 0.812909 0.787137
0.0135805 0.78349 0.902327
0.187274 0.754055 1
0.360983 0.724636 1
0.534676 0.695216 1
0.708385 0.665797 1
0 1 0.320562
0 0.983139 0.435737
0 0.953719 0.550927
0 0.9243 0.666102
0.11078 0.894881 0.781292
0.284489 0.865461 0.896483
0.458183 0.836042 1
0.631891 0.806622 1
0.805585 0.777203 1
0 1 0.199542
0 1 0.314717
0 1 0.429892
0.034287 1 0.545083
0.20798 1 0.660273
0.381689 0.976867 0.775464
0.555398 0.947448 0.890654
0.729091 0.918029 1
0.9028 0.888594 1
0 1 0.0785077
0 1 0.193683
0 1 0.308873
0.131487 1 0.424063
0.305196 1 0.539254
0.478889 1 0.654444
0.652598 1 0.769619
0.826307 1 0.88481
1 1 1
