public/LUTS/Color Shift/ColorShift_26.cube
TITLE "Generated by Resolve"
LUT_3D_SIZE 5
0 0 0
0.25655 0 0.06215
0.5131 0 0.124315
0.769665 0 0.186481
1 0 0.248631
0.0641794 0.236469 0
0.320729 0.22652 0.0175174
0.577295 0.216556 0.0796674
0.83386 0.206592 0.141833
1 0.196628 0.203983
0.128374 0.472953 0
0.384924 0.463004 0
0.641474 0.45304 0.0350195
0.898039 0.443076 0.0971847
1 0.433127 0.159335
0.192569 0.709453 0
0.449104 0.699489 0
0.705669 0.689525 0
0.962234 0.679561 0.0525368
1 0.669612 0.114687
0.256748 0.945937 0
0.513298 0.935973 0
0.769863 0.926009 0
1 0.91606 0.00788891
1 0.906096 0.0700542
0 0.0234684 0.232471
0.185809 0.0135195 0.294636
0.442359 0.00355535 0.356786
0.698924 0 0.418952
0.955489 0 0.481117
0 0.259953 0.187839
0.249989 0.249989 0.249989
0.506554 0.240024 0.312154
0.763104 0.230076 0.374304
1 0.220111 0.436469
0.0576333 0.496437 0.143191
0.314183 0.486473 0.205341
0.570733 0.476509 0.267506
0.827298 0.46656 0.329656
1 0.456596 0.391821
0.121828 0.732921 0.0985428
0.378363 0.722957 0.160693
0.634928 0.713008 0.222858
0.891493 0.703044 0.285008
1 0.69308 0.347173
0.186007 0.969406 0.0538949
0.442557 0.959457 0.116045
0.699123 0.949493 0.17821
0.955673 0.939529 0.24036
1 0.929564 0.302525
0 0.046952 0.464973
0.115053 0.0369879 0.527123
0.371618 0.027039 0.589288
0.628183 0.0170748 0.651438
0.884733 0.0071107 0.713603
0 0.283421 0.420325
0.179248 0.273472 0.482475
0.435798 0.263508 0.54464
0.692363 0.253544 0.606806
0.948928 0.24358 0.668956
0 0.519905 0.375677
0.243427 0.509957 0.437827
0.499992 0.499992 0.499992
0.756558 0.490028 0.562158
1 0.480079 0.624308
0.0510719 0.756405 0.331029
0.307622 0.746441 0.393179
0.564187 0.736477 0.455344
0.820737 0.726513 0.51751
1 0.716564 0.57966
0.115267 0.992889 0.286381
0.371817 0.982925 0.348547
0.628367 0.972961 0.410697
0.884932 0.963012 0.472862
1 0.953048 0.535012
0 0.0704356 0.697459
0.0443122 0.0604715 0.759609
0.300877 0.0505074 0.821775
0.557427 0.0405432 0.88394
0.813993 0.0305943 0.94609
0 0.306905 0.652811
0.108492 0.296941 0.714977
0.365057 0.286976 0.777127
0.621622 0.277028 0.839292
0.878172 0.267063 0.901442
0 0.543389 0.608164
0.172686 0.533425 0.670329
0.429252 0.523476 0.732479
0.685802 0.513512 0.794644
0.942367 0.503548 0.856809
0 0.779873 0.563516
0.236881 0.769909 0.625681
0.493431 0.75996 0.687831
0.749996 0.749996 0.749996
1 0.740032 0.812161
0.0445106 1 0.518883
0.30106 1 0.581033
0.557626 0.996445 0.643183
0.814191 0.986481 0.705348
1 0.976516 0.767514
0 0.093904 0.929946
0 0.0839399 0.992111
0.230121 0.073991 1
0.486686 0.0640269 1
0.743252 0.0540627 1
0 0.330373 0.885313
0.0377508 0.320424 0.947463
0.294316 0.31046 1
0.550866 0.300496 1
0.807431 0.290532 1
0 0.566857 0.840665
0.101946 0.556909 0.902815
0.358495 0.546944 0.964981
0.615061 0.53698 1
0.871626 0.527031 1
0 0.803357 0.796017
0.166125 0.793393 0.858167
0.42269 0.783429 0.920333
0.679255 0.77348 0.982483
0.935805 0.763516 1
0 1 0.751369
0.23032 1 0.813519
0.486885 1 0.875685
0.743435 1 0.937835
1 1 1
