public/LUTS/Color Shift/ColorShift_10.cube
TITLE "Generated by Resolve"
LUT_3D_SIZE 33
0 0 0
0 0.0136873 0
0 0.0273747 0
0 0.041062 0
0 0.0547494 0
0 0.068452 0
0 0.0821393 0
0 0.0958267 0
0 0.109514 0
0 0.123201 0
0 0.136904 0
0 0.150591 0
0 0.164279 0
0 0.177966 0
0 0.191653 0
0 0.205356 0
0 0.219043 0
0 0.232731 0
0 0.246418 0
0 0.260105 0
0 0.273808 0
0 0.287495 0
0 0.301183 0
0 0.31487 0
0 0.328573 0
0 0.34226 0
0 0.355947 0
0 0.369635 0
0 0.383322 0
0 0.397024 0
0 0.410712 0
0 0.424399 0
0 0.438087 0
0.00900282 0.0221103 0.0499123
0.000381476 0.0357977 0.0364843
0 0.049485 0.0230564
0 0.0631876 0.00962844
0 0.0768749 0
0 0.0905623 0
0 0.10425 0
0 0.117937 0
0 0.13164 0
0 0.145327 0
0 0.159014 0
0 0.172702 0
0 0.186389 0
0 0.200092 0
0 0.213779 0
0 0.227466 0
0 0.241154 0
0 0.254841 0
0 0.268544 0
0 0.282231 0
0 0.295918 0
0 0.309606 0
0 0.323293 0
0 0.336996 0
0 0.350683 0
0 0.36437 0
0 0.378058 0
0 0.39176 0
0 0.405447 0
0 0.419135 0
0 0.432822 0
0 0.44651 0
0 0.460212 0
0.0180056 0.0442512 0.099855
0.0093843 0.0579232 0.0864271
0.000762951 0.0716106 0.0729992
0 0.0853132 0.0595712
0 0.0990005 0.046128
0 0.112688 0.0327001
0 0.126375 0.0192721
0 0.140078 0.00582895
0 0.153765 0
0 0.167452 0
0 0.18114 0
0 0.194827 0
0 0.20853 0
0 0.222217 0
0 0.235904 0
0 0.249592 0
0 0.263279 0
0 0.276982 0
0 0.290669 0
0 0.304356 0
0 0.318044 0
0 0.331731 0
0 0.345434 0
0 0.359121 0
0 0.372808 0
0 0.386496 0
0 0.400183 0
0 0.413886 0
0 0.427573 0
0 0.44126 0
0 0.454948 0
0 0.468635 0
0 0.482338 0
0.0270237 0.0663767 0.149798
0.0184024 0.0800488 0.13637
0.00976577 0.0937514 0.122942
0.00114443 0.107439 0.109499
0 0.121126 0.0960708
0 0.134813 0.0826429
0 0.148501 0.0691997
0 0.162203 0.0557717
0 0.175891 0.0423438
0 0.189578 0.0289006
0 0.203265 0.0154726
0 0.216953 0.00204471
0 0.230655 0
0 0.244343 0
0 0.25803 0
0 0.271717 0
0 0.285405 0
0 0.299107 0
0 0.312795 0
0 0.326482 0
0 0.340169 0
0 0.353872 0
0 0.367559 0
0 0.381247 0
0 0.394934 0
0 0.408621 0
0 0.422324 0
0 0.436011 0
0 0.449699 0
0 0.463386 0
0 0.477073 0
0 0.490776 0
0 0.504463 0
0.0360266 0.0885023 0.199741
0.0274052 0.102174 0.186313
0.0187839 0.115877 0.172885
0.0101472 0.129564 0.159442
0.0015259 0.143252 0.146014
0 0.156939 0.132586
0 0.170642 0.119142
0 0.184329 0.105715
0 0.198016 0.0922866
0 0.211704 0.0788434
0 0.225391 0.0654154
0 0.239094 0.0519875
0 0.252781 0.0385443
0 0.266468 0.0251164
0 0.280156 0.0116732
0 0.293843 0
0 0.307546 0
0 0.321233 0
0 0.33492 0
0 0.348608 0
0 0.362295 0
0 0.375998 0
0 0.389685 0
0 0.403372 0
0 0.41706 0
0 0.430747 0
0 0.44445 0
0 0.458137 0
0 0.471824 0
0 0.485512 0
0 0.499199 0
0 0.512901 0
0 0.526589 0
0.0450294 0.110628 0.249683
0.036408 0.124315 0.236255
0.0277867 0.138003 0.222827
0.0191501 0.15169 0.209384
0.0105287 0.165377 0.195956
0.00190738 0.179065 0.182528
0 0.192767 0.169085
0 0.206455 0.155657
0 0.220142 0.142214
0 0.233829 0.128786
0 0.247517 0.115358
0 0.261219 0.101915
0 0.274907 0.0884871
0 0.288594 0.0750591
0 0.302281 0.0616159
0 0.315969 0.048188
0 0.329671 0.0347601
0 0.343359 0.0213169
0 0.357046 0.00788891
0 0.370733 0
0 0.384436 0
0 0.398123 0
0 0.41181 0
0 0.425498 0
0 0.439185 0
0 0.452888 0
0 0.466575 0
0 0.480262 0
0 0.49395 0
0 0.507637 0
0 0.52134 0
0 0.535027 0
0 0.548714 0
0.0540475 0.132753 0.299626
0.0454261 0.146441 0.286198
0.0367895 0.160128 0.27277
0.0281682 0.173816 0.259327
0.0195315 0.187503 0.245899
0.0109102 0.201205 0.232456
0.00228885 0.214893 0.219028
0 0.22858 0.2056
0 0.242267 0.192157
0 0.255955 0.178729
0 0.269657 0.165301
0 0.283345 0.151858
0 0.297032 0.13843
0 0.310719 0.125002
0 0.324407 0.111559
0 0.338109 0.0981308
0 0.351797 0.0847028
0 0.365484 0.0712596
0 0.379171 0.0578317
0 0.392859 0.0444038
0 0.406561 0.0309606
0 0.420249 0.0175326
0 0.433936 0.00408942
0 0.447623 0
0 0.461311 0
0 0.475013 0
0 0.488701 0
0 0.502388 0
0 0.516075 0
0 0.529763 0
0 0.543465 0
0 0.557153 0
0 0.57084 0
0.0630503 0.154879 0.349569
0.0544289 0.168566 0.336141
0.0458076 0.182254 0.322698
0.037171 0.195941 0.30927
0.0285496 0.209628 0.295842
0.019913 0.223331 0.282399
0.0112917 0.237018 0.268971
0.00267033 0.250706 0.255543
0 0.264393 0.2421
0 0.27808 0.228672
0 0.291783 0.215244
0 0.30547 0.201801
0 0.319158 0.188373
0 0.332845 0.174945
0 0.346548 0.161501
0 0.360235 0.148074
0 0.373922 0.13463
0 0.38761 0.121202
0 0.401297 0.107774
0 0.415 0.0943313
0 0.428687 0.0809033
0 0.442374 0.0674754
0 0.456062 0.0540322
0 0.469749 0.0406043
0 0.483452 0.0271763
0 0.497139 0.0137331
0 0.510826 0.00030518
0 0.524514 0
0 0.538201 0
0 0.551904 0
0 0.565591 0
0 0.579278 0
0 0.592966 0
0.0720531 0.177005 0.399512
0.0634318 0.190692 0.386084
0.0548104 0.204379 0.372641
0.0461738 0.218067 0.359213
0.0375525 0.231769 0.345785
0.0289311 0.245457 0.332341
0.0202945 0.259144 0.318914
0.0116732 0.272831 0.305486
0.00303655 0.286519 0.292042
0 0.300221 0.278614
0 0.313909 0.265171
0 0.327596 0.251743
0 0.341283 0.238315
0 0.354971 0.224872
0 0.368673 0.211444
0 0.382361 0.198016
0 0.396048 0.184573
0 0.409735 0.171145
0 0.423423 0.157717
0 0.437125 0.144274
0 0.450813 0.130846
0 0.4645 0.117418
0 0.478187 0.103975
0 0.491875 0.090547
0 0.505577 0.0771191
0 0.519265 0.0636759
0 0.532952 0.050248
0 0.546639 0.0368048
0 0.560327 0.0233768
0 0.574029 0.00994888
0 0.587716 0
0 0.601404 0
0 0.615091 0
0.0810712 0.19913 0.449439
0.0724498 0.212818 0.436027
0.0638132 0.226505 0.422583
0.0551919 0.240192 0.409155
0.0465553 0.253895 0.395727
0.0379339 0.267582 0.382284
0.0293126 0.28127 0.368856
0.020676 0.294957 0.355413
0.0120546 0.308644 0.341985
0.00341802 0.322347 0.328557
0 0.336034 0.315114
0 0.349722 0.301686
0 0.363409 0.288258
0 0.377111 0.274815
0 0.390799 0.261387
0 0.404486 0.247959
0 0.418173 0.234516
0 0.431861 0.221088
0 0.445563 0.20766
0 0.459251 0.194217
0 0.472938 0.180789
0 0.486625 0.167346
0 0.500313 0.153918
0 0.514015 0.14049
0 0.527703 0.127047
0 0.54139 0.113619
0 0.555077 0.100191
0 0.568765 0.0867475
0 0.582467 0.0733196
0 0.596155 0.0598917
0 0.609842 0.0464485
0 0.623529 0.0330205
0 0.637217 0.0195926
0.090074 0.221256 0.499382
0.0814527 0.234943 0.485954
0.0728313 0.248631 0.472526
0.0641947 0.262333 0.459098
0.0555734 0.27602 0.445655
0.0469368 0.289708 0.432227
0.0383154 0.303395 0.418799
0.0296941 0.317082 0.405356
0.0210575 0.330785 0.391928
0.0124361 0.344472 0.3785
0.0037995 0.35816 0.365057
0 0.371847 0.351629
0 0.385534 0.338201
0 0.399237 0.324758
0 0.412924 0.31133
0 0.426612 0.297902
0 0.440299 0.284459
0 0.453986 0.271031
0 0.467689 0.257588
0 0.481376 0.24416
0 0.495064 0.230732
0 0.508751 0.217288
0 0.522438 0.203861
0 0.536141 0.190433
0 0.549828 0.176989
0 0.563516 0.163561
0 0.577203 0.150134
0 0.590906 0.13669
0 0.604593 0.123262
0 0.61828 0.109834
0 0.631968 0.0963912
0 0.645655 0.0829633
0 0.659358 0.0695201
0.0990768 0.243397 0.549325
0.0904555 0.257069 0.535897
0.0818341 0.270756 0.522469
0.0731975 0.284459 0.509041
0.0645762 0.298146 0.495598
0.0559548 0.311833 0.48217
0.0473182 0.325521 0.468742
0.0386969 0.339223 0.455299
0.0300603 0.352911 0.441871
0.0214389 0.366598 0.428443
0.0128176 0.380285 0.415
0.00418097 0.393973 0.401572
0 0.407675 0.388128
0 0.421363 0.374701
0 0.43505 0.361273
0 0.448737 0.347829
0 0.462425 0.334401
0 0.476127 0.320974
0 0.489815 0.30753
0 0.503502 0.294102
0 0.517189 0.280674
0 0.530877 0.267231
0 0.544579 0.253803
0 0.558267 0.240375
0 0.571954 0.226932
0 0.585641 0.213504
0 0.599329 0.200076
0 0.613031 0.186633
0 0.626719 0.173205
0 0.640406 0.159762
0 0.654093 0.146334
0 0.667781 0.132906
0 0.681483 0.119463
0.108095 0.265522 0.599268
0.0994736 0.279194 0.58584
0.090837 0.292897 0.572412
0.0822156 0.306584 0.558984
0.073579 0.320272 0.545541
0.0649577 0.333959 0.532113
0.0563363 0.347646 0.518685
0.0476997 0.361349 0.505241
0.0390784 0.375036 0.491814
0.0304417 0.388724 0.47837
0.0218204 0.402411 0.464942
0.0131991 0.416098 0.451514
0.00456245 0.429801 0.438071
0 0.443488 0.424643
0 0.457176 0.411215
0 0.470863 0.397772
0 0.48455 0.384344
0 0.498253 0.370916
0 0.51194 0.357473
0 0.525628 0.344045
0 0.539315 0.330617
0 0.553002 0.317174
0 0.566705 0.303746
0 0.580392 0.290303
0 0.594079 0.276875
0 0.607767 0.263447
0 0.621469 0.250004
0 0.635157 0.236576
0 0.648844 0.223148
0 0.662531 0.209705
0 0.676219 0.196277
0 0.689921 0.182849
0 0.703609 0.169406
0.117098 0.287648 0.64921
0.108476 0.30132 0.635782
0.099855 0.315022 0.622354
0.0912184 0.32871 0.608911
0.0825971 0.342397 0.595483
0.0739605 0.356085 0.582055
0.0653391 0.369787 0.568612
0.0567178 0.383474 0.555184
0.0480812 0.397162 0.541756
0.0394598 0.410849 0.528313
0.0308232 0.424536 0.514885
0.0222019 0.438239 0.501457
0.0135805 0.451926 0.488014
0.00494392 0.465614 0.474586
0 0.479301 0.461158
0 0.492988 0.447715
0 0.506691 0.434287
0 0.520378 0.420859
0 0.534066 0.407416
0 0.547753 0.393988
0 0.56144 0.380545
0 0.575143 0.367117
0 0.58883 0.353689
0 0.602518 0.340246
0 0.616205 0.326818
0 0.629892 0.31339
0 0.643595 0.299947
0 0.657282 0.286519
0 0.67097 0.273091
0 0.684657 0.259648
0 0.698344 0.24622
0 0.712047 0.232792
0 0.725734 0.219348
0.126101 0.309773 0.699153
0.117479 0.323461 0.685725
0.108858 0.337148 0.672297
0.100221 0.350835 0.658854
0.0915999 0.364523 0.645426
0.0829786 0.37821 0.631998
0.074342 0.391913 0.618555
0.0657206 0.4056 0.605127
0.057084 0.419287 0.591699
0.0484627 0.432975 0.578256
0.0398413 0.446662 0.564828
0.0312047 0.460365 0.5514
0.0225834 0.474052 0.537957
0.013962 0.487739 0.524529
0.0053254 0.501427 0.511086
0 0.515114 0.497658
0 0.528817 0.48423
0 0.542504 0.470787
0 0.556191 0.457359
0 0.569879 0.443931
0 0.583581 0.430488
0 0.597269 0.41706
0 0.610956 0.403632
0 0.624643 0.390188
0 0.638331 0.376761
0 0.652033 0.363333
0 0.665721 0.349889
0 0.679408 0.336461
0 0.693095 0.323033
0 0.706783 0.30959
0 0.720485 0.296162
0 0.734173 0.282719
0 0.74786 0.269291
0.135119 0.331899 0.749096
0.126497 0.345586 0.735668
0.117861 0.359274 0.72224
0.109239 0.372961 0.708797
0.100603 0.386648 0.695369
0.0919814 0.400351 0.681941
0.08336 0.414038 0.668498
0.0747234 0.427726 0.65507
0.0661021 0.441413 0.641627
0.0574655 0.4551 0.628199
0.0488441 0.468803 0.614771
0.0402228 0.48249 0.601328
0.0315862 0.496178 0.5879
0.0229648 0.509865 0.574472
0.0143282 0.523552 0.561028
0.00570687 0.537255 0.547601
0 0.550942 0.534173
0 0.56463 0.520729
0 0.578317 0.507301
0 0.592004 0.493874
0 0.605707 0.48043
0 0.619394 0.467002
0 0.633082 0.453574
0 0.646769 0.440131
0 0.660456 0.426703
0 0.674159 0.41326
0 0.687846 0.399832
0 0.701534 0.386404
0 0.715221 0.372961
0 0.728908 0.359533
0 0.742611 0.346105
0 0.756298 0.332662
0 0.769985 0.319234
0.144121 0.354025 0.799039
0.1355 0.367712 0.785611
0.126879 0.381399 0.772183
0.118242 0.395087 0.75874
0.109621 0.408774 0.745312
0.100984 0.422477 0.731868
0.0923629 0.436164 0.718441
0.0837415 0.449851 0.705013
0.0751049 0.463539 0.691569
0.0664836 0.477226 0.678141
0.057847 0.490929 0.664714
0.0492256 0.504616 0.65127
0.0406043 0.518303 0.637842
0.0319677 0.531991 0.624414
0.0233463 0.545678 0.610971
0.0147097 0.55938 0.597543
0.00608835 0.573068 0.584115
0 0.586755 0.570672
0 0.600443 0.557244
0 0.614145 0.543801
0 0.627832 0.530373
0 0.64152 0.516945
0 0.655207 0.503502
0 0.668894 0.490074
0 0.682597 0.476646
0 0.696284 0.463203
0 0.709972 0.449775
0 0.723659 0.436347
0 0.737346 0.422904
0 0.751049 0.409476
0 0.764736 0.396048
0 0.778424 0.382605
0 0.792111 0.369177
0.153124 0.37615 0.848981
0.144503 0.389838 0.835554
0.135882 0.403525 0.82211
0.127245 0.417212 0.808682
0.118624 0.430915 0.795254
0.110002 0.444602 0.781811
0.101366 0.458289 0.768383
0.0927443 0.471977 0.754955
0.0841077 0.485664 0.741512
0.0754864 0.499367 0.728084
0.066865 0.513054 0.714656
0.0582284 0.526741 0.701213
0.0496071 0.540429 0.687785
0.0409857 0.554116 0.674357
0.0323491 0.567819 0.660914
0.0237278 0.581506 0.647486
0.0150912 0.595193 0.634043
0.00646983 0.608881 0.620615
0 0.622568 0.607187
0 0.636271 0.593744
0 0.649958 0.580316
0 0.663645 0.566888
0 0.677333 0.553445
0 0.69102 0.540017
0 0.704723 0.526589
0 0.71841 0.513146
0 0.732097 0.499718
0 0.745785 0.48629
0 0.759472 0.472847
0 0.773175 0.459419
0 0.786862 0.445975
0 0.800549 0.432547
0 0.814237 0.41912
0.162142 0.398276 0.898924
0.153521 0.411963 0.885496
0.144884 0.42565 0.872053
0.136263 0.439338 0.858625
0.127626 0.45304 0.845197
0.119005 0.466728 0.831754
0.110384 0.480415 0.818326
0.101747 0.494102 0.804898
0.0931258 0.50779 0.791455
0.0844892 0.521492 0.778027
0.0758679 0.53518 0.764584
0.0672465 0.548867 0.751156
0.0586099 0.562554 0.737728
0.0499886 0.576257 0.724285
0.0413519 0.589944 0.710857
0.0327306 0.603632 0.697429
0.0241093 0.617319 0.683986
0.0154726 0.631006 0.670558
0.0068513 0.644709 0.65713
0 0.658396 0.643687
0 0.672084 0.630259
0 0.685771 0.616831
0 0.699458 0.603387
0 0.713161 0.58996
0 0.726848 0.576532
0 0.740536 0.563088
0 0.754223 0.549661
0 0.76791 0.536217
0 0.781613 0.522789
0 0.7953 0.509361
0 0.808988 0.495918
0 0.822675 0.48249
0 0.836362 0.469062
0.171145 0.420401 0.948852
0.162524 0.434089 0.935439
0.153903 0.447776 0.921996
0.145266 0.461479 0.908568
0.136645 0.475166 0.89514
0.128008 0.488853 0.881697
0.119387 0.502541 0.868269
0.110765 0.516228 0.854826
0.102129 0.529931 0.841398
0.0935073 0.543618 0.82797
0.0848707 0.557305 0.814527
0.0762493 0.570993 0.801099
0.067628 0.58468 0.787671
0.0589914 0.598383 0.774227
0.05037 0.61207 0.7608
0.0417334 0.625757 0.747372
0.0331121 0.639445 0.733928
0.0244907 0.653132 0.7205
0.0158541 0.666835 0.707073
0.00723278 0.680522 0.693629
0 0.694209 0.680201
0 0.707897 0.666758
0 0.721584 0.65333
0 0.735286 0.639902
0 0.748974 0.626459
0 0.762661 0.613031
0 0.776349 0.599603
0 0.790051 0.58616
0 0.803738 0.572732
0 0.817426 0.559304
0 0.831113 0.545861
0 0.8448 0.532433
0 0.858503 0.519005
0.180148 0.442527 0.998795
0.171527 0.456214 0.985367
0.162905 0.469902 0.971939
0.154269 0.483604 0.958511
0.145647 0.497292 0.945068
0.137026 0.510979 0.93164
0.128389 0.524666 0.918212
0.119768 0.538354 0.904768
0.111131 0.552056 0.89134
0.10251 0.565744 0.877913
0.0938888 0.579431 0.864469
0.0852522 0.593118 0.851041
0.0766308 0.606821 0.837613
0.0680095 0.620508 0.82417
0.0593729 0.634195 0.810742
0.0507515 0.647883 0.797314
0.0421149 0.66157 0.783871
0.0334936 0.675273 0.770443
0.0248722 0.68896 0.757
0.0162356 0.702647 0.743572
0.00761425 0.716335 0.730144
0 0.730022 0.716701
0 0.743725 0.703273
0 0.757412 0.689845
0 0.771099 0.676402
0 0.784787 0.662974
0 0.798474 0.649546
0 0.812177 0.636103
0 0.825864 0.622675
0 0.839551 0.609247
0 0.853239 0.595804
0 0.866926 0.582376
0 0.880629 0.568933
0.189166 0.464668 1
0.180545 0.47834 1
0.171908 0.492042 1
0.163287 0.50573 1
0.15465 0.519417 0.99501
0.146029 0.533104 0.981582
0.137407 0.546792 0.968154
0.128771 0.560494 0.954711
0.12015 0.574182 0.941283
0.111513 0.587869 0.927855
0.102892 0.601556 0.914412
0.0942702 0.615244 0.900984
0.0856336 0.628946 0.887541
0.0770123 0.642634 0.874113
0.0683757 0.656321 0.860685
0.0597543 0.670008 0.847242
0.051133 0.683696 0.833814
0.0424964 0.697398 0.820386
0.033875 0.711086 0.806943
0.0252384 0.724773 0.793515
0.0166171 0.73846 0.780087
0.00799573 0.752148 0.766644
0 0.76585 0.753216
0 0.779538 0.739788
0 0.793225 0.726345
0 0.806912 0.712917
0 0.820615 0.699489
0 0.834302 0.686046
0 0.84799 0.672618
0 0.861677 0.659175
0 0.875364 0.645747
0 0.889067 0.632319
0 0.902754 0.618875
0.198169 0.486793 1
0.189548 0.500465 1
0.180926 0.514168 1
0.17229 0.527855 1
0.163668 0.541543 1
0.155032 0.55523 1
0.14641 0.568933 1
0.137789 0.58262 1
0.129152 0.596307 0.991226
0.120531 0.609995 0.977783
0.111894 0.623682 0.964355
0.103273 0.637385 0.950927
0.0946517 0.651072 0.937484
0.0860151 0.664759 0.924056
0.0773938 0.678447 0.910628
0.0687572 0.692134 0.897185
0.0601358 0.705837 0.883757
0.0515145 0.719524 0.870329
0.0428779 0.733211 0.856886
0.0342565 0.746899 0.843458
0.0256199 0.760586 0.83003
0.0169985 0.774289 0.816587
0.0083772 0.787976 0.803159
0 0.801663 0.789715
0 0.815351 0.776287
0 0.829038 0.76286
0 0.842741 0.749416
0 0.856428 0.735988
0 0.870115 0.72256
0 0.883803 0.709117
0 0.89749 0.695689
0 0.911192 0.682261
0 0.92488 0.668818
0.207172 0.508919 1
0.19855 0.522606 1
0.189929 0.536294 1
0.181292 0.549981 1
0.172671 0.563668 1
0.16405 0.577356 1
0.155413 0.591058 1
0.146792 0.604746 1
0.138155 0.618433 1
0.129534 0.63212 1
0.120912 0.645808 1
0.112276 0.65951 1
0.103655 0.673198 0.987427
0.0950179 0.686885 0.973999
0.0863966 0.700572 0.960571
0.0777752 0.71426 0.947127
0.0691386 0.727962 0.9337
0.0605173 0.74165 0.920256
0.0518959 0.755337 0.906828
0.0432593 0.769024 0.8934
0.034638 0.782712 0.879957
0.0260014 0.796414 0.866529
0.01738 0.810101 0.853101
0.00875868 0.823789 0.839658
0.000122072 0.837476 0.82623
0 0.851179 0.812802
0 0.864866 0.799359
0 0.878553 0.785931
0 0.892241 0.772503
0 0.905928 0.75906
0 0.919631 0.745632
0 0.933318 0.732204
0 0.947005 0.718761
0.21619 0.531044 1
0.207568 0.544732 1
0.198932 0.558419 1
0.190311 0.572106 1
0.181674 0.585794 1
0.173053 0.599496 1
0.164431 0.613184 1
0.155795 0.626871 1
0.147173 0.640558 1
0.138537 0.654246 1
0.129915 0.667948 1
0.121294 0.681636 1
0.112657 0.695323 1
0.104036 0.70901 1
0.0953994 0.722698 1
0.0867781 0.7364 0.99707
0.0781567 0.750088 0.983642
0.0695201 0.763775 0.970199
0.0608988 0.777462 0.956771
0.0522621 0.79115 0.943343
0.0436408 0.804852 0.9299
0.0350195 0.81854 0.916472
0.0263828 0.832227 0.903044
0.0177615 0.845914 0.889601
0.0091249 0.859602 0.876173
0.000503548 0.873304 0.862745
0 0.886992 0.849302
0 0.900679 0.835874
0 0.914366 0.822446
0 0.928054 0.809003
0 0.941756 0.795575
0 0.955444 0.782132
0 0.969131 0.768704
0.225193 0.55317 1
0.216571 0.566857 1
0.207935 0.580545 1
0.199313 0.594232 1
0.190692 0.607919 1
0.182055 0.621622 1
0.173434 0.635309 1
0.164813 0.648997 1
0.156176 0.662684 1
0.147555 0.676371 1
0.138918 0.690074 1
0.130297 0.703761 1
0.121675 0.717449 1
0.113039 0.731136 1
0.104417 0.744823 1
0.0957809 0.758526 1
0.0871595 0.772213 1
0.0785382 0.785901 1
0.0699016 0.799588 1
0.0612802 0.813291 0.993286
0.0526436 0.826978 0.979843
0.0440223 0.840665 0.966415
0.0354009 0.854353 0.952987
0.0267643 0.86804 0.939544
0.018143 0.881743 0.926116
0.00950637 0.89543 0.912673
0.000885023 0.909117 0.899245
0 0.922805 0.885817
0 0.936492 0.872374
0 0.950195 0.858946
0 0.963882 0.845518
0 0.977569 0.832074
0 0.991257 0.818647
0.234195 0.575296 1
0.225574 0.588983 1
0.216953 0.60267 1
0.208316 0.616358 1
0.199695 0.63006 1
0.191073 0.643748 1
0.182437 0.657435 1
0.173816 0.671122 1
0.165179 0.68481 1
0.156558 0.698512 1
0.147936 0.7122 1
0.1393 0.725887 1
0.130678 0.739574 1
0.122042 0.753262 1
0.11342 0.766964 1
0.104799 0.780652 1
0.0961624 0.794339 1
0.087541 0.808026 1
0.0789197 0.821714 1
0.0702831 0.835416 1
0.0616617 0.849104 1
0.0530251 0.862791 1
0.0444038 0.876478 1
0.0357824 0.890166 0.989487
0.0271458 0.903868 0.976059
0.0185245 0.917556 0.962615
0.00988785 0.931243 0.949187
0.0012665 0.94493 0.93576
0 0.958618 0.922316
0 0.97232 0.908888
0 0.986007 0.89546
0 0.999695 0.882017
0 1 0.868589
0.243214 0.597421 1
0.234592 0.611109 1
0.225956 0.624796 1
0.217334 0.638483 1
0.208698 0.652186 1
0.200076 0.665873 1
0.191455 0.679561 1
0.182818 0.693248 1
0.174197 0.706935 1
