public/LUTS/Color Shift/ColorShift_23.cube
TITLE "Generated by Resolve"
LUT_3D_SIZE 5
0 0 0
0.224094 0.0150912 0
0.448218 0.0301976 0
0.672328 0.0452888 0
0.896437 0.0603799 0
0 0.256168 0.0617685
0.17705 0.27126 0.00476081
0.40116 0.286351 0
0.625269 0.301457 0
0.849378 0.316548 0
0 0.512337 0.123552
0.129992 0.527443 0.0665293
0.354101 0.542535 0.00950637
0.57821 0.557626 0
0.802319 0.572732 0
0 0.768521 0.185321
0.0829328 0.783612 0.128313
0.307042 0.798718 0.0712902
0.531151 0.813809 0.0142672
0.755261 0.828916 0
0 1 0.247105
0.035874 1 0.190082
0.259983 1 0.133059
0.484092 1 0.076051
0.708202 1 0.019028
0.0729381 0 0.245228
0.297047 0 0.18822
0.521157 0.00892653 0.131197
0.745266 0.0240177 0.0741741
0.96939 0.0391089 0.0171511
0.0258946 0.234897 0.307012
0.249989 0.249989 0.249989
0.474098 0.26508 0.192966
0.698222 0.280186 0.135943
0.922332 0.295277 0.0789349
0 0.491066 0.36878
0.20293 0.506172 0.311772
0.427039 0.521263 0.254749
0.651164 0.536355 0.197726
0.875273 0.551461 0.140703
0 0.74725 0.430564
0.155871 0.762341 0.373541
0.37998 0.777447 0.316518
0.604105 0.792538 0.259495
0.828214 0.807645 0.202487
0 1 0.492332
0.108812 1 0.435325
0.332921 1 0.378302
0.557046 1 0.321279
0.781155 1 0.264256
0.145892 0 0.490486
0.370001 0 0.433463
0.59411 0 0.37644
0.818219 0.00274662 0.319417
1 0.0178378 0.262409
0.0988327 0.213626 0.552254
0.322942 0.228717 0.495232
0.547051 0.243809 0.438209
0.77116 0.258915 0.381201
0.995285 0.274006 0.324178
0.0517739 0.469795 0.614023
0.275883 0.484901 0.557015
0.499992 0.499992 0.499992
0.724102 0.515084 0.442969
0.948226 0.53019 0.385946
0.00471504 0.725978 0.675807
0.228824 0.74107 0.618784
0.452934 0.756176 0.561776
0.677043 0.771267 0.504753
0.901167 0.786358 0.44773
0 0.982162 0.737575
0.181765 0.997253 0.680568
0.405875 1 0.623545
0.629984 1 0.566522
0.854109 1 0.509499
0.218845 0 0.735729
0.442939 0 0.678706
0.667048 0 0.621698
0.891173 0 0.564675
1 0 0.507652
0.171786 0.19234 0.797498
0.39588 0.207446 0.74049
0.620005 0.222538 0.683467
0.844114 0.237644 0.626444
1 0.252735 0.569421
0.124727 0.448524 0.859281
0.348821 0.46363 0.802258
0.572946 0.478721 0.745235
0.797055 0.493812 0.688212
1 0.508919 0.631205
0.0776684 0.704707 0.92105
0.301762 0.719799 0.864042
0.525887 0.734905 0.807019
0.749996 0.749996 0.749996
0.974105 0.765087 0.692973
0.0306096 0.960891 0.982834
0.254704 0.975982 0.925811
0.478828 0.991073 0.868788
0.702937 1 0.81178
0.927047 1 0.754757
0.291798 0 0.980972
0.515892 0 0.923964
0.740001 0 0.866941
0.964111 0 0.809918
1 0 0.752895
0.244739 0.171069 1
0.468833 0.186175 0.985733
0.692943 0.201266 0.92871
0.917067 0.216358 0.871687
1 0.231464 0.814664
0.197681 0.427253 1
0.421775 0.442344 1
0.645884 0.45745 0.990494
0.870008 0.472541 0.933471
1 0.487648 0.876448
0.150622 0.683436 1
0.374716 0.698528 1
0.598825 0.713634 1
0.82295 0.728725 0.995239
1 0.743816 0.938216
0.103563 0.93962 1
0.327657 0.954711 1
0.551766 0.969802 1
0.775891 0.984909 1
1 1 1
