public/LUTS/Color Shift/ColorShift_41.cube
TITLE "Generated by Resolve"
LUT_3D_SIZE 9
0 0 0
0 0.0252842 0.119677
0 0.0505531 0.239353
0 0.0758373 0.35903
0 0.101122 0.478721
0 0.126406 0.598398
0 0.151675 0.71809
0 0.176959 0.837766
0 0.202243 0.957458
0.211719 0.0525673 0.069276
0.20116 0.0778363 0.188937
0.1906 0.10312 0.308629
0.180056 0.128405 0.428305
0.169497 0.153689 0.547997
0.158938 0.178958 0.667674
0.148379 0.204242 0.787366
0.137819 0.229526 0.907042
0.12726 0.25481 1
0.423468 0.105135 0.138552
0.412909 0.130419 0.258213
0.40235 0.155688 0.377905
0.391791 0.180972 0.497581
0.381231 0.206256 0.617273
0.370687 0.231525 0.73695
0.360128 0.256809 0.856641
0.349569 0.282094 0.976318
0.33901 0.307378 1
0.635218 0.157702 0.207828
0.624659 0.182986 0.327489
0.614099 0.208255 0.447181
0.60354 0.233539 0.566857
0.592981 0.258824 0.686549
0.582422 0.284108 0.806226
0.571862 0.309377 0.925917
0.561318 0.334661 1
0.550759 0.359945 1
0.846952 0.210269 0.277104
0.836408 0.235554 0.39678
0.825849 0.260838 0.516457
0.81529 0.286107 0.636149
0.80473 0.311391 0.755825
0.794171 0.336675 0.875517
0.783612 0.361959 0.995193
0.773053 0.387228 1
0.762509 0.412512 1
1 0.262852 0.34638
1 0.288121 0.466056
1 0.313405 0.585733
1 0.338689 0.705425
1 0.363958 0.825101
1 0.389242 0.944793
0.995361 0.414527 1
0.984802 0.439811 1
0.974243 0.46508 1
1 0.315419 0.415656
1 0.340688 0.535332
1 0.365972 0.655009
1 0.391257 0.774701
1 0.416541 0.894377
1 0.44181 1
1 0.467094 1
1 0.492378 1
1 0.517662 1
1 0.367987 0.484947
1 0.393256 0.604608
1 0.41854 0.7243
1 0.443824 0.843976
1 0.469108 0.963668
1 0.494377 1
1 0.519661 1
1 0.544945 1
1 0.57023 1
1 0.420554 0.554223
1 0.445838 0.673884
1 0.471107 0.793576
1 0.496391 0.913252
1 0.521675 1
1 0.54696 1
1 0.572229 1
1 0.597513 1
1 0.622797 1
0 0.0471504 0
0 0.0724193 0.0557107
0 0.0977035 0.175402
0 0.122988 0.295079
0 0.148257 0.414771
0 0.173541 0.534447
0 0.198825 0.654139
0 0.224109 0.773816
0 0.249378 0.893507
0.135546 0.0997024 0.00531014
0.124987 0.124987 0.124987
0.114427 0.150271 0.244663
0.103868 0.17554 0.364355
0.0933089 0.200824 0.484031
0.0827649 0.226108 0.603723
0.0722057 0.251392 0.7234
0.0616465 0.276661 0.843091
0.0510872 0.301946 0.962768
0.347295 0.152285 0.0746014
0.336736 0.177554 0.194263
0.326177 0.202838 0.313954
0.315618 0.228122 0.433631
0.305058 0.253391 0.553323
0.294499 0.278676 0.672999
0.28394 0.30396 0.792691
0.273396 0.329244 0.912367
0.262837 0.354513 1
0.55903 0.204852 0.143877
0.548486 0.230121 0.263539
0.537926 0.255406 0.38323
0.527367 0.28069 0.502907
0.516808 0.305974 0.622599
0.506249 0.331243 0.742275
0.495689 0.356527 0.861967
0.48513 0.381811 0.981643
0.474571 0.407095 1
0.770779 0.25742 0.213153
0.76022 0.282704 0.33283
0.74966 0.307973 0.452506
0.739116 0.333257 0.572183
0.728557 0.358541 0.691875
0.717998 0.383825 0.811551
0.707439 0.409094 0.931243
0.69688 0.434379 1
0.68632 0.459663 1
0.982528 0.309987 0.282429
0.971969 0.335271 0.402106
0.96141 0.360555 0.521782
0.950851 0.385824 0.641474
0.940291 0.411109 0.761151
0.929747 0.436393 0.880842
0.919188 0.461677 1
0.908629 0.486946 1
0.89807 0.51223 1
1 0.362554 0.351705
1 0.387839 0.471382
1 0.413123 0.591058
1 0.438392 0.71075
1 0.463676 0.830427
1 0.48896 0.950118
1 0.514244 1
1 0.539513 1
1 0.564797 1
1 0.415137 0.420981
1 0.440406 0.540658
1 0.46569 0.660334
1 0.490974 0.780026
1 0.516243 0.899702
1 0.541527 1
1 0.566812 1
1 0.592096 1
1 0.617365 1
1 0.467704 0.490272
1 0.492973 0.609934
1 0.518257 0.729625
1 0.543542 0.849302
1 0.568826 0.968994
1 0.594095 1
1 0.619379 1
1 0.644663 1
1 0.669947 1
0 0.0943008 0
0 0.11957 0
0 0.144854 0.111437
0 0.170138 0.231128
0 0.195422 0.350805
0 0.220691 0.470497
0 0.245975 0.590173
0 0.27126 0.709865
0 0.296544 0.829541
0.0593576 0.146868 0
0.0487984 0.172137 0.0610208
0.0382391 0.197421 0.180713
0.0276799 0.222705 0.300389
0.0171206 0.247974 0.420081
0.00657664 0.273259 0.539757
0 0.298543 0.659449
0 0.323827 0.779126
0 0.349096 0.898817
0.271107 0.199435 0.0106355
0.260548 0.224704 0.130312
0.249989 0.249989 0.249989
0.239429 0.275273 0.369665
0.22887 0.300542 0.489357
0.218311 0.325826 0.609033
0.207767 0.35111 0.728725
0.197208 0.376394 0.848402
0.186648 0.401663 0.968093
0.482841 0.252003 0.0799115
0.472297 0.277272 0.199588
0.461738 0.302556 0.319265
0.451179 0.32784 0.438956
0.44062 0.353124 0.558633
0.43006 0.378393 0.678325
0.419501 0.403677 0.798001
0.408942 0.428962 0.917693
0.398398 0.454246 1
0.694591 0.30457 0.149187
0.684031 0.329854 0.268864
0.673487 0.355123 0.38854
0.662928 0.380407 0.508232
0.652369 0.405692 0.627909
0.64181 0.430976 0.7476
0.631251 0.456245 0.867277
0.620691 0.481529 0.986969
0.610132 0.506813 1
0.90634 0.357137 0.218463
0.895781 0.382422 0.33814
0.885222 0.407706 0.457832
0.874662 0.432975 0.577508
0.864118 0.458259 0.697185
0.853559 0.483543 0.816876
0.843 0.508827 0.936553
0.832441 0.534096 1
0.821881 0.55938 1
1 0.409705 0.287755
1 0.434989 0.407416
1 0.460273 0.527108
1 0.485557 0.646784
1 0.510826 0.766476
1 0.53611 0.886152
1 0.561395 1
1 0.586679 1
1 0.611948 1
1 0.462287 0.357031
1 0.487556 0.476692
1 0.51284 0.596384
1 0.538125 0.71606
1 0.563394 0.835752
1 0.588678 0.955428
1 0.613962 1
1 0.639246 1
1 0.664515 1
1 0.514855 0.426307
1 0.540124 0.545983
1 0.565408 0.66566
1 0.590692 0.785336
1 0.615976 0.905028
1 0.641245 1
1 0.666529 1
1 0.691814 1
1 0.717098 1
0 0.141451 0
0 0.16672 0
0 0.192004 0.0474861
0 0.217288 0.167163
0 0.242573 0.286854
0 0.267842 0.406531
0 0.293126 0.526223
0 0.31841 0.645899
0 0.343694 0.765576
0 0.194018 0
0 0.219287 0
0 0.244572 0.116747
0 0.269856 0.236439
0 0.295125 0.356115
0 0.320409 0.475807
0 0.345693 0.595483
0 0.370977 0.715175
0 0.396246 0.834852
0.194919 0.246586 0
0.18436 0.271855 0.0663462
0.1738 0.297139 0.186023
0.163241 0.322423 0.305715
0.152682 0.347707 0.425391
0.142123 0.372976 0.545083
0.131579 0.39826 0.664759
0.121019 0.423545 0.784451
0.11046 0.448829 0.904128
0.406668 0.299153 0.0159609
0.396109 0.324437 0.135622
0.38555 0.349706 0.255314
0.37499 0.37499 0.37499
0.364431 0.400275 0.494667
0.353872 0.425544 0.614359
0.343313 0.450828 0.734035
0.332769 0.476112 0.853727
0.32221 0.501396 0.973404
0.618402 0.35172 0.0852369
0.607858 0.377005 0.204898
0.597299 0.402274 0.32459
0.58674 0.427558 0.444266
0.576181 0.452842 0.563958
0.565621 0.478126 0.683635
0.555062 0.503395 0.803326
0.544503 0.528679 0.923003
0.533944 0.553964 1
0.830152 0.404288 0.154513
0.819593 0.429572 0.274174
0.809033 0.454856 0.393866
0.798489 0.480125 0.513542
0.78793 0.505409 0.633234
0.777371 0.530694 0.752911
0.766812 0.555978 0.872602
0.756252 0.581247 0.992279
0.745693 0.606531 1
1 0.45687 0.223789
1 0.482139 0.343465
1 0.507424 0.463142
1 0.532708 0.582834
0.999664 0.557977 0.70251
0.98912 0.583261 0.822187
0.978561 0.608545 0.941878
0.968002 0.633829 1
0.957443 0.659098 1
1 0.509438 0.293065
1 0.534707 0.412741
1 0.559991 0.532418
1 0.585275 0.65211
1 0.610559 0.771786
1 0.635828 0.891478
1 0.661112 1
1 0.686397 1
1 0.711681 1
1 0.562005 0.362341
1 0.587274 0.482017
1 0.612558 0.601694
1 0.637842 0.721386
1 0.663127 0.841062
1 0.688396 0.960754
1 0.71368 1
1 0.738964 1
1 0.764248 1
0 0.188602 0
0 0.21387 0
0 0.239155 0
0 0.264439 0.103197
0 0.289723 0.222889
0 0.314992 0.342565
0 0.340276 0.462257
0 0.36556 0.581933
0 0.390845 0.701625
0 0.241169 0
0 0.266438 0
0 0.291722 0.0527962
0 0.317006 0.172473
0 0.342275 0.292149
0 0.367559 0.411841
0 0.392844 0.531518
0 0.418128 0.651209
0 0.443397 0.770886
0.11873 0.293736 0
0.108171 0.319005 0.00238041
0.097612 0.344289 0.122072
0.0870527 0.369574 0.241749
0.0764935 0.394858 0.36144
0.0659495 0.420127 0.481117
0.0553902 0.445411 0.600809
0.044831 0.470695 0.720485
0.0342718 0.495979 0.840177
0.33048 0.346303 0
0.319921 0.371588 0.0716564
0.309361 0.396857 0.191348
0.298802 0.422141 0.311025
0.288243 0.447425 0.430716
0.277684 0.472709 0.550393
0.267124 0.497978 0.670085
0.25658 0.523262 0.789761
0.246021 0.548547 0.909453
0.542214 0.398871 0.0212711
0.53167 0.424155 0.140948
0.521111 0.449439 0.260624
0.510552 0.474708 0.380316
0.499992 0.499992 0.499992
0.489433 0.525277 0.619669
0.478874 0.550546 0.739361
0.468315 0.57583 0.859037
0.457771 0.601114 0.978729
0.753964 0.451438 0.090547
0.743404 0.476722 0.210224
0.73286 0.502007 0.3299
0.722301 0.527276 0.449592
0.711742 0.55256 0.569268
0.701183 0.577844 0.68896
0.690623 0.603128 0.808637
0.680064 0.628397 0.928328
0.669505 0.653681 1
0.965713 0.504021 0.159823
0.955154 0.52929 0.2795
0.944595 0.554574 0.399176
0.934035 0.579858 0.518868
0.923491 0.605127 0.638544
0.912932 0.630411 0.758236
0.902373 0.655695 0.877913
0.891814 0.68098 0.997604
0.881254 0.706249 1
1 0.556588 0.229114
1 0.581857 0.348775
1 0.607141 0.468467
1 0.632425 0.588144
1 0.65771 0.707835
1 0.682979 0.827512
1 0.708263 0.947188
1 0.733547 1
1 0.758831 1
1 0.609155 0.29839
1 0.63444 0.418051
1 0.659709 0.537743
1 0.684993 0.65742
1 0.710277 0.777111
1 0.735561 0.896788
1 0.76083 1
1 0.786114 1
1 0.811399 1
0 0.235752 0
0 0.261021 0
0 0.286305 0
0 0.311589 0.0392462
0 0.336873 0.158923
0 0.362142 0.278614
0 0.387427 0.398291
0 0.412711 0.517983
0 0.437995 0.637659
0 0.288319 0
0 0.313588 0
0 0.338872 0
0 0.364157 0.108507
0 0.389425 0.228199
0 0.41471 0.347875
0 0.439994 0.467567
0 0.465278 0.587243
0 0.490547 0.706935
0.0425422 0.340887 0
0.0319829 0.366155 0
0.0214237 0.39144 0.0581064
0.0108644 0.416724 0.177798
0.000320439 0.442008 0.297475
0 0.467277 0.417151
0 0.492561 0.536843
0 0.517845 0.656519
0 0.54313 0.776211
0.254292 0.393454 0
0.243732 0.418738 0.00770581
0.233173 0.444007 0.127382
0.222614 0.469291 0.247074
0.212055 0.494575 0.366751
0.201495 0.51986 0.486442
0.190951 0.545129 0.606119
0.180392 0.570413 0.725811
0.169833 0.595697 0.845487
0.466026 0.446021 0
0.455482 0.471305 0.0769818
0.444923 0.49659 0.196658
0.434363 0.521859 0.31635
0.423804 0.547143 0.436027
0.413245 0.572427 0.555718
0.402686 0.597711 0.675395
0.392126 0.62298 0.795087
0.381582 0.648264 0.914763
0.677775 0.498589 0.0265965
0.667216 0.523873 0.146258
0.656672 0.549157 0.265949
0.646113 0.574441 0.385626
0.635554 0.59971 0.505318
0.624994 0.624994 0.624994
0.614435 0.650278 0.744671
0.603876 0.675563 0.864363
0.593317 0.700832 0.984039
0.889525 0.551171 0.0958724
0.878965 0.57644 0.215534
0.868406 0.601724 0.335225
0.857862 0.627008 0.454902
0.847303 0.652277 0.574594
0.836744 0.677562 0.69427
0.826185 0.702846 0.813962
0.815625 0.72813 0.933639
0.805066 0.753399 1
1 0.603738 0.165148
1 0.629007 0.28481
1 0.654292 0.404501
1 0.679576 0.524178
1 0.70486 0.64387
1 0.730129 0.763546
1 0.755413 0.883238
1 0.780697 1
1 0.805982 1
1 0.656306 0.234424
1 0.68159 0.354101
1 0.706859 0.473777
1 0.732143 0.593469
1 0.757427 0.713146
1 0.782712 0.832837
1 0.80798 0.952514
1 0.833265 1
1 0.858549 1
0 0.282902 0
0 0.308186 0
0 0.333455 0
0 0.35874 0
0 0.384024 0.0949722
0 0.409308 0.214649
0 0.434577 0.33434
0 0.459861 0.454017
0 0.485145 0.573709
0 0.33547 0
0 0.360739 0
0 0.386023 0
0 0.411307 0.0445563
0 0.436591 0.164233
0 0.46186 0.283925
0 0.487144 0.403601
0 0.512428 0.523293
0 0.537713 0.642969
0 0.388037 0
0 0.413306 0
0 0.43859 0
0 0.463874 0.113832
0 0.489158 0.233509
0 0.514427 0.353201
0 0.539712 0.472877
0 0.564996 0.592569
0 0.59028 0.712245
0.178103 0.440604 0
0.167544 0.465888 0
0.156985 0.491157 0.0634318
0.146426 0.516442 0.183108
0.135866 0.541726 0.3028
0.125322 0.56701 0.422477
0.114763 0.592279 0.542168
0.104204 0.617563 0.661845
0.0936446 0.642847 0.781521
0.389853 0.493172 0
0.379294 0.518456 0.0130159
0.368734 0.54374 0.132708
0.358175 0.569009 0.252384
0.347616 0.594293 0.372076
0.337057 0.619577 0.491753
0.326497 0.644862 0.611444
0.315953 0.67013 0.731121
0.305394 0.695415 0.850813
0.601587 0.545754 0
0.591043 0.571023 0.0822919
0.580484 0.596307 0.201984
0.569924 0.621592 0.32166
0.559365 0.64686 0.441352
0.548806 0.672145 0.561028
0.538247 0.697429 0.68072
0.527687 0.722713 0.800397
0.517128 0.747982 0.920089
0.813336 0.598321 0.0319066
0.802777 0.62359 0.151583
0.792218 0.648875 0.27126
0.781674 0.674159 0.390951
0.771115 0.699443 0.510628
0.760555 0.724712 0.63032
0.749996 0.749996 0.749996
0.739437 0.77528 0.869673
0.728878 0.800549 0.989364
1 0.650889 0.101183
1 0.676158 0.220859
1 0.701442 0.340536
0.993408 0.726726 0.460227
0.982864 0.75201 0.579904
0.972305 0.777279 0.699596
0.961746 0.802563 0.819272
0.951186 0.827848 0.938964
0.940627 0.853132 1
1 0.703456 0.170459
1 0.72874 0.290135
1 0.754009 0.409812
1 0.779293 0.529503
1 0.804578 0.64918
1 0.829862 0.768872
1 0.855131 0.888548
1 0.880415 1
1 0.905699 1
0 0.330053 0
0 0.355337 0
0 0.380606 0
0 0.40589 0
0 0.431174 0.0310063
0 0.456458 0.150683
0 0.481727 0.270375
0 0.507012 0.390051
0 0.532296 0.509743
0 0.38262 0
0 0.407889 0
0 0.433173 0
0 0.458457 0
0 0.483742 0.100282
0 0.50901 0.219959
0 0.534295 0.339651
0 0.559579 0.459327
0 0.584863 0.579004
0 0.435187 0
0 0.460472 0
0 0.48574 0
0 0.511025 0.0498665
0 0.536309 0.169558
0 0.561593 0.289235
0 0.586862 0.408927
0 0.612146 0.528603
0 0.63743 0.648295
0.101915 0.487755 0
0.0913558 0.513039 0
0.0807965 0.538308 0
0.0702373 0.563592 0.119142
0.0596933 0.588876 0.238834
0.049134 0.61416 0.358511
0.0385748 0.639429 0.478202
0.0280156 0.664714 0.597879
0.0174563 0.689998 0.717571
0.313664 0.540322 0
0.303105 0.565606 0
0.292546 0.59089 0.0687419
0.281987 0.616159 0.188434
0.271427 0.641443 0.30811
0.260868 0.666728 0.427802
0.250324 0.692012 0.547478
0.239765 0.717281 0.66717
0.229206 0.742565 0.786847
0.525399 0.592905 0
0.514855 0.618173 0.0183413
0.504295 0.643458 0.138018
0.493736 0.668742 0.25771
0.483177 0.694011 0.377386
0.472618 0.719295 0.497078
0.462058 0.744579 0.616754
0.451499 0.769863 0.736446
0.440955 0.795132 0.856123
0.737148 0.645472 0
0.726589 0.670741 0.0876173
0.716045 0.696025 0.207294
0.705486 0.721309 0.326986
0.694926 0.746593 0.446662
0.684367 0.771862 0.566354
0.673808 0.797147 0.68603
0.663249 0.822431 0.805722
0.652689 0.847715 0.925399
0.948898 0.698039 0.037232
0.938338 0.723323 0.156893
0.927779 0.748592 0.276585
0.91722 0.773877 0.396262
0.906676 0.799161 0.515953
0.896117 0.824445 0.63563
0.885557 0.849714 0.755322
0.874998 0.874998 0.874998
0.864439 0.900282 0.994675
1 0.750607 0.106508
1 0.775891 0.226169
1 0.80116 0.345861
1 0.826444 0.465537
1 0.851728 0.585229
1 0.877012 0.704906
1 0.902281 0.824598
1 0.927565 0.944274
1 0.95285 1
0 0.377203 0
0 0.402487 0
0 0.427756 0
0 0.45304 0
0 0.478325 0
0 0.503609 0.0867323
0 0.528878 0.206409
0 0.554162 0.326101
0 0.579446 0.445777
0 0.42977 0
0 0.455039 0
0 0.480323 0
0 0.505608 0
0 0.530892 0.0363165
0 0.556161 0.155993
0 0.581445 0.275685
0 0.606729 0.395361
0 0.632013 0.515053
0 0.482338 0
0 0.507622 0
0 0.532891 0
0 0.558175 0
0 0.583459 0.105592
0 0.608743 0.225284
0 0.634012 0.344961
0 0.659297 0.464652
0 0.684581 0.584329
0.0257267 0.534905 0
0.0151675 0.560189 0
0.00460822 0.585473 0
0 0.610742 0.0551919
0 0.636027 0.174868
0 0.661311 0.29456
0 0.686595 0.414237
0 0.711864 0.533928
0 0.737148 0.653605
0.237476 0.587472 0
0.226917 0.612757 0
0.216358 0.638041 0.00477607
0.205798 0.66331 0.124468
0.195239 0.688594 0.244144
0.184695 0.713878 0.363836
0.174136 0.739162 0.483513
0.163577 0.764431 0.603204
0.153017 0.789715 0.722881
0.449226 0.640055 0
0.438666 0.665324 0
0.428107 0.690608 0.0740673
0.417548 0.715892 0.193744
0.406989 0.741161 0.313436
0.396429 0.766445 0.433112
0.38587 0.79173 0.552804
0.375326 0.817014 0.67248
0.364767 0.842283 0.792157
0.66096 0.692622 0
0.650416 0.717891 0.0236515
0.639857 0.743175 0.143343
0.629297 0.76846 0.26302
0.618738 0.793744 0.382712
0.608179 0.819013 0.502388
0.59762 0.844297 0.62208
0.58706 0.869581 0.741756
0.576501 0.894865 0.861448
0.872709 0.74519 0
0.86215 0.770474 0.0929274
0.851591 0.795743 0.212619
0.841047 0.821027 0.332296
0.830488 0.846311 0.451987
0.819928 0.871595 0.571664
0.809369 0.896864 0.691356
0.79881 0.922148 0.811032
0.788251 0.947433 0.930724
1 0.797757 0.0425422
1 0.823041 0.162219
1 0.848325 0.281895
1 0.873594 0.401587
1 0.898878 0.521263
1 0.924163 0.640955
1 0.949447 0.760632
1 0.974716 0.880323
1 1 1
