public/LUTS/Color Shift/ColorShift_83.cube
TITLE "Generated by Resolve"
LUT_3D_SIZE 33
0 0 0
0.0323644 0 0.0405432
0.0647593 0 0.0810864
0.0971389 0 0.121645
0.129534 0 0.162203
0.161913 0 0.202762
0.194293 0 0.24332
0.226688 0 0.283864
0.259068 0 0.324422
0.291447 0 0.364981
0.323842 0 0.405539
0.356222 0 0.446097
0.388617 0 0.486656
0.420996 0 0.527199
0.453376 0 0.567758
0.485771 0 0.608316
0.518151 0 0.648875
0.550546 0 0.689433
0.582925 0 0.729976
0.615305 0 0.770535
0.6477 0 0.811093
0.680079 0 0.851652
0.712459 0 0.89221
0.744854 0 0.932769
0.777234 0 0.973312
0.809628 0 1
0.842008 0 1
0.874388 0 1
0.906783 0 1
0.939162 0 1
0.971557 0 1
1 0 1
1 0 1
0.0437324 0.0214389 0
0.0760967 0.0158846 0.0147097
0.108476 0.0103304 0.0552682
0.140871 0.00477607 0.0958267
0.173251 0 0.136385
0.205646 0 0.176928
0.238025 0 0.217487
0.270405 0 0.258045
0.3028 0 0.298604
0.33518 0 0.339162
0.367575 0 0.379721
0.399954 0 0.420264
0.432334 0 0.460822
0.464729 0 0.501381
0.497108 0 0.541939
0.529503 0 0.582498
0.561883 0 0.623041
0.594263 0 0.6636
0.626657 0 0.704158
0.659037 0 0.744717
0.691417 0 0.785275
0.723812 0 0.825833
0.756191 0 0.866377
0.788586 0 0.906935
0.820966 0 0.947494
0.853346 0 0.988052
0.88574 0 1
0.91812 0 1
0.950515 0 1
0.982895 0 1
1 0 1
1 0 1
1 0 1
0.08748 0.0428779 0
0.119844 0.0373388 0
0.152239 0.0317693 0.0294347
0.184619 0.026215 0.0699931
0.216999 0.0206607 0.110536
0.249393 0.0151064 0.151095
0.281773 0.00955215 0.191653
0.314168 0.00399786 0.232212
0.346548 0 0.27277
0.378927 0 0.313313
0.411322 0 0.353872
0.443702 0 0.39443
0.476097 0 0.434989
0.508476 0 0.475547
0.540856 0 0.516106
0.573251 0 0.556649
0.605631 0 0.597208
0.63801 0 0.637766
0.670405 0 0.678325
0.702785 0 0.718883
0.73518 0 0.759426
0.767559 0 0.799985
0.799939 0 0.840543
0.832334 0 0.881102
0.864713 0 0.92166
0.897108 0 0.962219
0.929488 0 1
0.961868 0 1
0.994263 0 1
1 0 1
1 0 1
1 0 1
1 0 1
0.131228 0.064332 0
0.163592 0.0587778 0
0.195987 0.0532235 0.00360113
0.228367 0.0476692 0.0441444
0.260761 0.0421149 0.0847028
0.293141 0.0365606 0.125261
0.325521 0.0310063 0.16582
0.357916 0.025452 0.206378
0.390295 0.0198978 0.246921
0.42269 0.0143435 0.28748
0.45507 0.0087892 0.328038
0.487449 0.00323491 0.368597
0.519844 0 0.409155
0.552224 0 0.449714
0.584604 0 0.490257
0.616999 0 0.530816
0.649378 0 0.571374
0.681773 0 0.611933
0.714153 0 0.652491
0.746532 0 0.693034
0.778927 0 0.733593
0.811307 0 0.774151
0.843702 0 0.81471
0.876081 0 0.855268
0.908461 0 0.895827
0.940856 0 0.93637
0.973236 0 0.976928
1 0 1
1 0 1
1 0 1
1 0 1
1 0 1
1 0 1
0.174975 0.085771 0
0.207355 0.0802319 0
0.239734 0.0746777 0
0.272114 0.0691234 0.0183108
0.304509 0.0635538 0.0588693
0.336889 0.0579995 0.0994278
0.369284 0.0524453 0.139986
0.401663 0.046891 0.180529
0.434043 0.0413367 0.221088
0.466438 0.0357824 0.261646
0.498817 0.0302281 0.302205
0.531197 0.0246738 0.342763
0.563592 0.0191196 0.383322
0.595972 0.0135653 0.423865
0.628367 0.00801099 0.464424
0.660746 0.0024567 0.504982
0.693126 0 0.545541
0.725521 0 0.586099
0.7579 0 0.626642
0.790295 0 0.667201
0.822675 0 0.707759
0.855055 0 0.748318
0.887449 0 0.788876
0.919829 0 0.829435
0.952209 0 0.869978
0.984604 0 0.910536
1 0 0.951095
1 0 0.991653
1 0 1
1 0 1
1 0 1
1 0 1
1 0 1
0.218723 0.107225 0
0.251102 0.101671 0
0.283482 0.0961166 0
0.315877 0.0905623 0
0.348257 0.085008 0.0330358
0.380636 0.0794537 0.0735943
0.413031 0.0738994 0.114137
0.445411 0.0683452 0.154696
0.477791 0.0627909 0.195254
0.510185 0.0572366 0.235813
0.542565 0.0516823 0.276371
0.57496 0.046128 0.316915
0.60734 0.0405737 0.357473
0.639719 0.0350195 0.398032
0.672114 0.0294652 0.43859
0.704494 0.0239109 0.479149
0.736889 0.0183566 0.519707
0.769268 0.0128023 0.56025
0.801648 0.00724804 0.600809
0.834043 0.00169375 0.641367
0.866423 0 0.681926
0.898802 0 0.722484
0.931197 0 0.763027
0.963577 0 0.803586
0.995972 0 0.844144
1 0 0.884703
1 0 0.925261
1 0 0.96582
1 0 1
1 0 1
1 0 1
1 0 1
1 0 1
0.262486 0.128679 0
0.29485 0.123125 0
0.32723 0.117571 0
0.359625 0.112016 0
0.392004 0.106462 0.00720226
0.424384 0.100908 0.0477455
0.456779 0.0953384 0.088304
0.489158 0.0897841 0.128862
0.521553 0.0842298 0.169421
0.553933 0.0786755 0.209979
0.586313 0.0731212 0.250523
0.618708 0.0675669 0.291081
0.651087 0.0620127 0.33164
0.683482 0.0564584 0.372198
0.715862 0.0509041 0.412757
0.748241 0.0453498 0.453315
0.780636 0.0397955 0.493858
0.813016 0.0342412 0.534417
0.845396 0.028687 0.574975
0.877791 0.0231327 0.615534
0.91017 0.0175784 0.656092
0.942565 0.0120241 0.696635
0.974945 0.00646983 0.737194
1 0.000915541 0.777752
1 0 0.818311
1 0 0.858869
1 0 0.899428
1 0 0.939971
1 0 0.980529
1 0 1
1 0 1
1 0 1
1 0 1
0.306233 0.150118 0
0.338598 0.144564 0
0.370977 0.13901 0
0.403372 0.133455 0
0.435752 0.127901 0
0.468147 0.122347 0.021912
0.500526 0.116793 0.0624704
0.532906 0.111238 0.103029
0.565301 0.105684 0.143587
0.597681 0.10013 0.184131
0.630076 0.0945754 0.224689
0.662455 0.0890211 0.265248
0.694835 0.0834669 0.305806
0.72723 0.0779126 0.346365
0.759609 0.0723583 0.386923
0.791989 0.066804 0.427466
0.824384 0.0612497 0.468025
0.856764 0.0556954 0.508583
0.889158 0.0501411 0.549142
0.921538 0.0445869 0.5897
0.953918 0.0390326 0.630243
0.986313 0.0334783 0.670802
1 0.0279088 0.71136
1 0.0223545 0.751919
1 0.0168002 0.792477
1 0.0112459 0.833036
1 0.00569162 0.873579
1 0.000137331 0.914137
1 0 0.954696
1 0 0.995254
1 0 1
1 0 1
1 0 1
0.349981 0.171572 0
0.382345 0.166018 0
0.41474 0.160464 0
0.44712 0.15491 0
0.4795 0.149355 0
0.511894 0.143801 0
0.544274 0.138247 0.0366369
0.576669 0.132692 0.0771954
0.609049 0.127123 0.117739
0.641428 0.121569 0.158297
0.673823 0.116014 0.198856
0.706203 0.11046 0.239414
0.738582 0.104906 0.279973
0.770977 0.0993515 0.320516
0.803357 0.0937972 0.361074
0.835752 0.0882429 0.401633
0.868132 0.0826886 0.442191
0.900511 0.0771344 0.48275
0.932906 0.0715801 0.523308
0.965286 0.0660258 0.563851
0.997681 0.0604715 0.60441
1 0.0549172 0.644968
1 0.0493629 0.685527
1 0.0438087 0.726085
1 0.0382544 0.766629
1 0.0327001 0.807187
1 0.0271458 0.847745
1 0.0215915 0.888304
1 0.0160372 0.928862
1 0.0104829 0.969421
1 0.00492866 1
1 0 1
1 0 1
0.393729 0.193011 0
0.426093 0.187457 0
0.458488 0.181903 0
0.490867 0.176349 0
0.523262 0.170794 0
0.555642 0.16524 0
0.588022 0.159686 0.0108034
0.620417 0.154131 0.0513466
0.652796 0.148577 0.0919051
0.685176 0.143023 0.132464
0.717571 0.137469 0.173022
0.74995 0.131914 0.213581
0.782345 0.12636 0.254124
0.814725 0.120806 0.294682
0.847105 0.115251 0.335241
0.879499 0.109697 0.375799
0.911879 0.104143 0.416358
0.944274 0.0985885 0.456916
0.976654 0.0930343 0.497459
1 0.08748 0.538018
1 0.0819257 0.578576
1 0.0763714 0.619135
1 0.0708171 0.659693
1 0.0652628 0.700236
1 0.0596933 0.740795
1 0.054139 0.781353
1 0.0485847 0.821912
1 0.0430304 0.86247
1 0.0374762 0.903029
1 0.0319219 0.943572
1 0.0263676 0.984131
1 0.0208133 1
1 0.015259 1
0.437476 0.214466 0
0.469856 0.208911 0
0.502235 0.203357 0
0.534615 0.197803 0
0.56701 0.192248 0
0.59939 0.186694 0
0.631769 0.18114 0
0.664164 0.175586 0.0255131
0.696544 0.170031 0.0660716
0.728939 0.164477 0.10663
0.761318 0.158907 0.147189
0.793698 0.153353 0.187732
0.826093 0.147799 0.22829
0.858473 0.142245 0.268849
0.890867 0.13669 0.309407
0.923247 0.131136 0.349966
0.955627 0.125582 0.390524
0.988022 0.120027 0.431067
1 0.114473 0.471626
1 0.108919 0.512184
1 0.103365 0.552743
1 0.0978103 0.593301
1 0.092256 0.633844
1 0.0867018 0.674403
1 0.0811475 0.714961
1 0.0755932 0.75552
1 0.0700389 0.796078
1 0.0644846 0.836637
1 0.0589303 0.87718
1 0.0533761 0.917739
1 0.0478218 0.958297
1 0.0422675 0.998856
1 0.0367132 1
0.481224 0.235904 0
0.513603 0.23035 0
0.545983 0.224796 0
0.578363 0.219242 0
0.610758 0.213687 0
0.643137 0.208133 0
0.675532 0.202579 0
0.707912 0.197024 0
0.740291 0.19147 0.040238
0.772686 0.185916 0.0807965
0.805066 0.180362 0.12134
0.837461 0.174807 0.161898
0.869841 0.169253 0.202457
0.90222 0.163699 0.243015
0.934615 0.158145 0.283574
0.966995 0.15259 0.324132
0.999374 0.147036 0.364675
1 0.141482 0.405234
1 0.135927 0.445792
1 0.130373 0.486351
1 0.124819 0.526909
1 0.119265 0.567452
1 0.11371 0.608011
1 0.108156 0.648569
1 0.102602 0.689128
1 0.0970474 0.729686
1 0.0914778 0.770245
1 0.0859236 0.810788
1 0.0803693 0.851347
1 0.074815 0.891905
1 0.0692607 0.932464
1 0.0637064 0.973022
1 0.0581521 1
0.524971 0.257359 0
0.557351 0.251804 0
0.589731 0.24625 0
0.622126 0.240696 0
0.654505 0.235142 0
0.686885 0.229587 0
0.71928 0.224033 0
0.751659 0.218479 0
0.784054 0.212924 0.0144045
0.816434 0.20737 0.0549477
0.848814 0.201816 0.0955062
0.881209 0.196262 0.136065
0.913588 0.190692 0.176623
0.945968 0.185138 0.217182
0.978363 0.179583 0.257725
1 0.174029 0.298283
1 0.168475 0.338842
1 0.162921 0.3794
1 0.157366 0.419959
1 0.151812 0.460517
1 0.146258 0.50106
1 0.140703 0.541619
1 0.135149 0.582177
1 0.129595 0.622736
1 0.124041 0.663294
1 0.118486 0.703838
1 0.112932 0.744396
1 0.107378 0.784955
1 0.101823 0.825513
1 0.0962692 0.866072
1 0.0907149 0.90663
1 0.0851606 0.947173
1 0.0796063 0.987732
0.568734 0.278798 0
0.601099 0.273243 0
0.633478 0.267689 0
0.665873 0.262135 0
0.698253 0.25658 0
0.730648 0.251026 0
0.763027 0.245472 0
0.795407 0.239918 0
0.827802 0.234363 0
0.860182 0.228809 0.0291142
0.892561 0.223255 0.0696727
0.924956 0.2177 0.110231
0.957336 0.212146 0.15079
0.989731 0.206592 0.191333
1 0.201038 0.231891
1 0.195483 0.27245
1 0.189929 0.313008
1 0.184375 0.353567
1 0.17882 0.394125
1 0.173266 0.434669
1 0.167712 0.475227
1 0.162158 0.515785
1 0.156603 0.556344
1 0.151049 0.596902
1 0.145495 0.637446
1 0.13994 0.678004
1 0.134386 0.718563
1 0.128832 0.759121
1 0.123262 0.79968
1 0.117708 0.840238
1 0.112154 0.880781
1 0.1066 0.92134
1 0.101045 0.961898
0.612482 0.300252 0
0.644846 0.294697 0
0.677241 0.289143 0
0.709621 0.283589 0
0.742 0.278035 0
0.774395 0.27248 0
0.806775 0.266926 0
0.839155 0.261372 0
0.87155 0.255818 0
0.903929 0.250263 0.00328069
0.936324 0.244709 0.0438392
0.968704 0.239155 0.0843977
1 0.2336 0.124941
1 0.228046 0.165499
1 0.222477 0.206058
1 0.216922 0.246616
1 0.211368 0.287175
1 0.205814 0.327733
1 0.200259 0.368277
1 0.194705 0.408835
1 0.189151 0.449393
1 0.183597 0.489952
1 0.178042 0.53051
1 0.172488 0.571054
1 0.166934 0.611612
1 0.161379 0.652171
1 0.155825 0.692729
1 0.150271 0.733288
1 0.144717 0.773846
1 0.139162 0.814389
1 0.133608 0.854948
1 0.128054 0.895506
1 0.122499 0.936065
0.656229 0.321691 0
0.688594 0.316136 0
0.720989 0.310582 0
0.753368 0.305028 0
0.785748 0.299474 0
0.818143 0.293919 0
0.850523 0.288365 0
0.882918 0.282811 0
0.915297 0.277256 0
0.947677 0.271702 0
0.980072 0.266148 0.0180056
1 0.260594 0.0585489
1 0.255039 0.0991073
1 0.249485 0.139666
1 0.243931 0.180224
1 0.238376 0.220783
1 0.232822 0.261326
1 0.227268 0.301885
1 0.221714 0.342443
1 0.216159 0.383001
1 0.210605 0.42356
1 0.205051 0.464118
1 0.199496 0.504662
1 0.193942 0.54522
1 0.188388 0.585779
1 0.182834 0.626337
1 0.177279 0.666896
1 0.171725 0.707439
1 0.166171 0.747997
1 0.160616 0.788556
1 0.155047 0.829114
1 0.149493 0.869673
1 0.143938 0.910231
0.699977 0.343145 0
0.732341 0.337591 0
0.764736 0.332036 0
0.797116 0.326482 0
0.829511 0.320928 0
0.861891 0.315373 0
0.89427 0.309819 0
0.926665 0.304265 0
0.959045 0.298711 0
0.99144 0.293156 0
1 0.287602 0
1 0.282048 0.0327153
1 0.276493 0.0732738
1 0.270939 0.113832
1 0.265385 0.154391
1 0.259831 0.194934
1 0.254261 0.235492
1 0.248707 0.276051
1 0.243153 0.316609
1 0.237598 0.357168
1 0.232044 0.397726
1 0.22649 0.43827
1 0.220935 0.478828
1 0.215381 0.519387
1 0.209827 0.559945
1 0.204273 0.600504
1 0.198718 0.641047
1 0.193164 0.681605
1 0.18761 0.722164
1 0.182055 0.762722
1 0.176501 0.803281
1 0.170947 0.843839
1 0.165393 0.884382
0.743725 0.364584 0
0.776104 0.359045 0
0.808484 0.353475 0
0.840864 0.347921 0
0.873259 0.342367 0
0.905638 0.336812 0
0.938033 0.331258 0
0.970413 0.325704 0
1 0.32015 0
1 0.314595 0
1 0.309041 0
1 0.303487 0.00688182
1 0.297932 0.0474403
1 0.292378 0.0879988
1 0.286824 0.128542
1 0.28127 0.1691
1 0.275715 0.209659
1 0.270161 0.250217
1 0.264607 0.290776
1 0.259052 0.331334
1 0.253498 0.371878
1 0.247944 0.412436
1 0.24239 0.452995
1 0.236835 0.493553
1 0.231281 0.534112
1 0.225727 0.574655
1 0.220172 0.615213
1 0.214618 0.655772
1 0.209064 0.69633
1 0.20351 0.736889
1 0.197955 0.777447
1 0.192386 0.81799
1 0.186831 0.858549
0.787472 0.386038 0
0.819852 0.380484 0
0.852232 0.374929 0
0.884627 0.369375 0
0.917006 0.363821 0
0.949386 0.358267 0
0.981781 0.352712 0
1 0.347158 0
1 0.341604 0
1 0.336049 0
1 0.330495 0
1 0.324941 0
1 0.319387 0.0216068
1 0.313832 0.06215
1 0.308278 0.102708
1 0.302724 0.143267
1 0.297169 0.183825
1 0.291615 0.224384
1 0.286046 0.264927
1 0.280491 0.305486
1 0.274937 0.346044
1 0.269383 0.386603
1 0.263828 0.427161
1 0.258274 0.46772
1 0.25272 0.508263
1 0.247166 0.548821
1 0.241611 0.58938
1 0.236057 0.629938
1 0.230503 0.670497
1 0.224948 0.71104
1 0.219394 0.751598
1 0.21384 0.792157
1 0.208286 0.832715
0.831235 0.407477 0
0.8636 0.401938 0
0.895979 0.396384 0
0.928374 0.390829 0
0.960754 0.38526 0
0.993133 0.379705 0
1 0.374151 0
1 0.368597 0
1 0.363043 0
1 0.357488 0
1 0.351934 0
1 0.34638 0
1 0.340826 0
1 0.335271 0.0363165
1 0.329717 0.0768749
1 0.324163 0.117433
1 0.318608 0.157992
1 0.313054 0.198535
1 0.3075 0.239094
1 0.301946 0.279652
1 0.296391 0.320211
1 0.290837 0.360769
1 0.285283 0.401328
1 0.279728 0.441871
1 0.274174 0.482429
1 0.26862 0.522988
1 0.263066 0.563546
1 0.257511 0.604105
1 0.251957 0.644648
1 0.246403 0.685206
1 0.240848 0.725765
1 0.235294 0.766323
1 0.22974 0.806882
0.874983 0.428931 0
0.907347 0.423377 0
0.939727 0.417823 0
0.972122 0.412268 0
1 0.406714 0
1 0.40116 0
1 0.395605 0
1 0.390051 0
1 0.384497 0
1 0.378943 0
1 0.373388 0
1 0.367834 0
1 0.36228 0
1 0.356725 0.0104829
1 0.351171 0.0510414
1 0.345617 0.0915999
1 0.340063 0.132143
1 0.334508 0.172702
1 0.328954 0.21326
1 0.3234 0.253819
1 0.31783 0.294377
1 0.312276 0.334936
1 0.306722 0.375479
1 0.301167 0.416037
1 0.295613 0.456596
1 0.290059 0.497154
1 0.284504 0.537713
1 0.27895 0.578256
1 0.273396 0.618814
1 0.267842 0.659373
1 0.262287 0.699931
1 0.256733 0.74049
1 0.251179 0.781048
0.91873 0.450385 0
0.951095 0.444831 0
0.98349 0.439277 0
1 0.433722 0
1 0.428168 0
1 0.422614 0
1 0.417044 0
1 0.41149 0
1 0.405936 0
1 0.400381 0
1 0.394827 0
1 0.389273 0
1 0.383719 0
1 0.378164 0
1 0.37261 0.0252079
1 0.367056 0.0657511
1 0.361501 0.10631
1 0.355947 0.146868
1 0.350393 0.187427
1 0.344839 0.227985
1 0.339284 0.268544
1 0.33373 0.309087
1 0.328176 0.349645
1 0.322621 0.390204
1 0.317067 0.430762
1 0.311513 0.471321
1 0.305959 0.511864
1 0.300404 0.552422
1 0.29485 0.592981
1 0.289296 0.633539
1 0.283742 0.674098
1 0.278187 0.714656
1 0.272633 0.755199
0.962478 0.471824 0
0.994842 0.46627 0
1 0.460716 0
1 0.455161 0
1 0.449607 0
1 0.444053 0
1 0.438499 0
1 0.432944 0
1 0.42739 0
1 0.421836 0
1 0.416281 0
1 0.410727 0
1 0.405173 0
1 0.399619 0
1 0.394064 0
1 0.38851 0.0399176
1 0.382956 0.0804761
1 0.377401 0.121035
1 0.371847 0.161593
1 0.366293 0.202136
1 0.360739 0.242695
1 0.355169 0.283253
1 0.349615 0.323812
1 0.34406 0.36437
1 0.338506 0.404929
1 0.332952 0.445472
1 0.327398 0.48603
1 0.321843 0.526589
1 0.316289 0.567147
1 0.310735 0.607706
1 0.30518 0.648249
1 0.299626 0.688807
1 0.294072 0.729366
1 0.493278 0
1 0.487724 0
1 0.48217 0
1 0.476616 0
1 0.471061 0
1 0.465507 0
1 0.459953 0
1 0.454398 0
1 0.448829 0
1 0.443275 0
1 0.43772 0
1 0.432166 0
1 0.426612 0
1 0.421057 0
1 0.415503 0
1 0.409949 0.0140841
1 0.404395 0.0546426
1 0.39884 0.095201
1 0.393286 0.135744
1 0.387732 0.176303
1 0.382177 0.216861
1 0.376623 0.25742
1 0.371069 0.297978
1 0.365515 0.338537
1 0.35996 0.37908
1 0.354406 0.419638
1 0.348852 0.460197
1 0.343297 0.500755
1 0.337743 0.541314
1 0.332189 0.581857
1 0.326635 0.622415
1 0.32108 0.662974
1 0.315526 0.703532
1 0.514717 0
1 0.509163 0
1 0.503609 0
1 0.498054 0
1 0.4925 0
1 0.486946 0
1 0.481392 0
1 0.475837 0
1 0.470283 0
1 0.464729 0
1 0.459174 0
1 0.45362 0
1 0.448066 0
1 0.442512 0
1 0.436957 0
1 0.431403 0
1 0.425849 0.028809
1 0.420294 0.0693523
1 0.41474 0.109911
1 0.409186 0.150469
1 0.403632 0.191028
1 0.398077 0.231586
1 0.392523 0.272129
1 0.386969 0.312688
1 0.381399 0.353246
1 0.375845 0.393805
1 0.370291 0.434363
1 0.364736 0.474922
1 0.359182 0.515465
1 0.353628 0.556023
1 0.348074 0.596582
1 0.342519 0.63714
1 0.336965 0.677699
1 0.536171 0
1 0.530617 0
1 0.525063 0
1 0.519509 0
1 0.513954 0
1 0.5084 0
1 0.502846 0
1 0.497292 0
1 0.491737 0
1 0.486183 0
1 0.480613 0
1 0.475059 0
1 0.469505 0
1 0.463951 0
1 0.458396 0
1 0.452842 0
1 0.447288 0.00296025
1 0.441733 0.0435187
1 0.436179 0.0840772
1 0.430625 0.124636
1 0.425071 0.165194
1 0.419516 0.205737
1 0.413962 0.246296
1 0.408408 0.286854
1 0.402853 0.327413
1 0.397299 0.367971
1 0.391745 0.40853
1 0.386191 0.449073
1 0.380636 0.489632
1 0.375082 0.53019
1 0.369528 0.570748
1 0.363973 0.611307
1 0.358419 0.65185
1 0.55761 0
1 0.552056 0
1 0.546502 0
1 0.540948 0
1 0.535393 0
1 0.529839 0
1 0.524285 0
1 0.51873 0
1 0.513176 0
1 0.507622 0
1 0.502068 0
1 0.496513 0
1 0.490959 0
1 0.485405 0
1 0.47985 0
1 0.474296 0
1 0.468742 0
1 0.463188 0.0176852
1 0.457633 0.0582437
1 0.452079 0.0988022
1 0.446525 0.139345
1 0.44097 0.179904
1 0.435416 0.220462
1 0.429862 0.261021
1 0.424308 0.301579
1 0.418738 0.342138
1 0.413184 0.382681
1 0.40763 0.423239
1 0.402075 0.463798
1 0.396521 0.504356
1 0.390967 0.544915
1 0.385412 0.585458
1 0.379858 0.626017
1 0.579065 0
1 0.57351 0
1 0.567956 0
1 0.562402 0
1 0.556848 0
1 0.551293 0
1 0.545739 0
1 0.540185 0
1 0.53463 0
