public/LUTS/Color Shift/ColorShift_20.cube
TITLE "Generated by Resolve"
LUT_3D_SIZE 9
0 0 0
0.0856031 0.0189364 0
0.171206 0.0378882 0
0.256809 0.0568399 0
0.342412 0.0757763 0
0.428031 0.094728 0
0.513634 0.113664 0
0.599237 0.132616 0
0.68484 0.151553 0
0 0.126543 0.0749523
0.0483101 0.14548 0.0195163
0.133913 0.164431 0
0.219532 0.183368 0
0.305135 0.202319 0
0.390738 0.221256 0
0.476341 0.240208 0
0.561959 0.259144 0
0.647562 0.278096 0
0 0.253086 0.14992
0.011017 0.272023 0.0944839
0.0966354 0.290974 0.0390478
0.182239 0.309926 0
0.267842 0.328862 0
0.353445 0.347814 0
0.439063 0.366751 0
0.524666 0.385702 0
0.610269 0.404639 0
0 0.379644 0.224872
0 0.398581 0.169451
0.0593423 0.417533 0.114015
0.144945 0.436469 0.0585794
0.230564 0.455421 0.00314336
0.316167 0.474357 0
0.40177 0.493309 0
0.487373 0.512245 0
0.572992 0.531197 0
0 0.506188 0.29984
0 0.525139 0.244404
0.0220493 0.544076 0.188968
0.107668 0.563027 0.133532
0.193271 0.581964 0.0780957
0.278874 0.600916 0.0226596
0.364477 0.619852 0
0.450095 0.638804 0
0.535698 0.657755 0
0 0.632746 0.374792
0 0.651682 0.319371
0 0.670634 0.263935
0.0703746 0.68957 0.208499
0.155978 0.708522 0.153063
0.241581 0.727459 0.0976272
0.327199 0.74641 0.0421912
0.412802 0.765362 0
0.498405 0.784298 0
0 0.759289 0.44976
0 0.778241 0.394324
0 0.797177 0.338888
0.0330816 0.816129 0.283467
0.118685 0.835065 0.228031
0.204303 0.854017 0.172595
0.289906 0.872953 0.117159
0.375509 0.891905 0.0617227
0.461112 0.910857 0.00628672
0 0.885847 0.524727
0 0.904784 0.469291
0 0.923735 0.413855
0 0.942672 0.358419
0.0814069 0.961624 0.302983
0.16701 0.98056 0.247547
0.252613 0.999512 0.192111
0.338216 1 0.136675
0.423835 1 0.081239
0 1 0.59968
0 1 0.544259
0 1 0.488823
0 1 0.433387
0.0441138 1 0.377951
0.129717 1 0.322515
0.21532 1 0.267079
0.300938 1 0.211643
0.386542 1 0.156207
0.0766766 0 0.10547
0.162264 0 0.0500343
0.247883 0.0173953 0
0.333486 0.036347 0
0.419089 0.0552834 0
0.504692 0.0742351 0
0.590311 0.0931716 0
0.675914 0.112123 0
0.761517 0.131075 0
0.0393835 0.10605 0.180407
0.124987 0.124987 0.124987
0.21059 0.143938 0.0695506
0.296208 0.162875 0.0141146
0.381811 0.181827 0
0.467414 0.200763 0
0.553017 0.219715 0
0.638636 0.238651 0
0.724239 0.257603 0
0.00210575 0.232593 0.255375
0.0876936 0.251545 0.199954
0.173312 0.270481 0.144518
0.258915 0.289433 0.0890822
0.344518 0.30837 0.0336461
0.430121 0.327321 0
0.51574 0.346258 0
0.601343 0.365209 0
0.686946 0.384161 0
0 0.359152 0.330343
0.0504158 0.378088 0.274907
0.136019 0.39704 0.219471
0.221622 0.415976 0.164034
0.307225 0.434928 0.108598
0.392844 0.453864 0.0531624
0.478447 0.472816 0
0.56405 0.491768 0
0.649653 0.510704 0
0 0.485695 0.405295
0.0131228 0.504646 0.349874
0.0987259 0.523583 0.294438
0.184329 0.542535 0.239002
0.269947 0.561471 0.183566
0.35555 0.580423 0.12813
0.441154 0.599359 0.072694
0.526757 0.618311 0.017258
0.612375 0.637263 0
0 0.612253 0.480262
0 0.631189 0.424826
0.0614328 0.650141 0.36939
0.147051 0.669078 0.313954
0.232654 0.688029 0.258534
0.318257 0.706966 0.203098
0.403861 0.725917 0.147662
0.489479 0.744869 0.0922255
0.575082 0.763806 0.0367895
0 0.738796 0.555215
0 0.757748 0.499794
0.024155 0.776684 0.444358
0.109758 0.795636 0.388922
0.195361 0.814572 0.333486
0.280964 0.833524 0.27805
0.366583 0.852476 0.222614
0.452186 0.871412 0.167178
0.537789 0.890364 0.111742
0 0.865354 0.630182
0 0.884291 0.574762
0 0.903243 0.519326
0.0724651 0.922179 0.46389
0.158083 0.941131 0.408453
0.243687 0.960067 0.353017
0.32929 0.979019 0.297581
0.414893 0.997971 0.242145
0.500511 1 0.186709
0 0.991897 0.70515
0 1 0.649714
0 1 0.594278
0.0351873 1 0.538842
0.12079 1 0.483406
0.206394 1 0.42797
0.291997 1 0.372534
0.377615 1 0.317098
0.463218 1 0.261677
0.153353 0 0.210941
0.238956 0 0.155505
0.324559 0 0.100069
0.410163 0.0158541 0.0446326
0.495781 0.0347906 0
0.581384 0.0537423 0
0.666987 0.0726787 0
0.75259 0.0916304 0
0.838209 0.110567 0
0.116075 0.0855421 0.285893
0.201663 0.104494 0.230457
0.287282 0.12343 0.175021
0.372885 0.142382 0.119585
0.458488 0.161334 0.0641642
0.544106 0.18027 0.00872816
0.629709 0.199222 0
0.715312 0.218158 0
0.800916 0.23711 0
0.0787823 0.2121 0.360845
0.164385 0.231037 0.305425
0.249989 0.249989 0.249989
0.335592 0.26894 0.194553
0.42121 0.287877 0.139116
0.506813 0.306828 0.0836805
0.592416 0.325765 0.0282444
0.678019 0.344717 0
0.763638 0.363653 0
0.0414893 0.338659 0.435813
0.127092 0.357595 0.380392
0.212696 0.376547 0.324956
0.298314 0.395483 0.26952
0.383917 0.414435 0.214084
0.46952 0.433371 0.158648
0.555123 0.452323 0.103212
0.640742 0.47126 0.047776
0.726345 0.490211 0
0.00421149 0.465202 0.510781
0.0897993 0.484138 0.455344
0.175418 0.50309 0.399908
0.261021 0.522042 0.344472
0.346624 0.540978 0.289036
0.432227 0.55993 0.2336
0.517845 0.578866 0.178164
0.603449 0.597818 0.122728
0.689052 0.61677 0.0673075
0 0.59176 0.585733
0.0525216 0.610697 0.530312
0.138125 0.629648 0.474876
0.223728 0.648585 0.41944
0.309331 0.667536 0.364004
0.394949 0.686473 0.308568
0.480552 0.705425 0.253132
0.566155 0.724361 0.197696
0.651759 0.743313 0.14226
0 0.718303 0.6607
0.0152285 0.737255 0.605264
0.100832 0.756191 0.549828
0.186435 0.775143 0.494392
0.272053 0.794079 0.438956
0.357656 0.813031 0.383536
0.443259 0.831968 0.328099
0.528862 0.850919 0.272663
0.614481 0.869871 0.217227
0 0.844862 0.735653
0 0.863798 0.680232
0.0635386 0.88275 0.624796
0.149157 0.901686 0.56936
0.23476 0.920638 0.513924
0.320363 0.939574 0.458488
0.405966 0.958526 0.403052
0.491585 0.977478 0.347616
0.577188 0.996414 0.29218
0 0.971405 0.81062
0 0.990356 0.755184
0.0262608 1 0.699763
0.111864 1 0.644327
0.197467 1 0.588891
0.283085 1 0.533455
0.368688 1 0.478019
0.454292 1 0.422583
0.539895 1 0.367147
0.230045 0 0.316411
0.315633 0 0.26099
0.401251 0 0.205554
0.486854 0 0.150118
0.572457 0.0142977 0.0946822
0.658061 0.0332494 0.0392462
0.743679 0.0521859 0
0.829282 0.0711376 0
0.914885 0.090074 0
0.192752 0.0650492 0.391363
0.278355 0.0840009 0.335943
0.363958 0.102937 0.280507
0.449561 0.121889 0.225071
0.53518 0.140841 0.169635
0.620783 0.159777 0.114199
0.706386 0.178729 0.0587625
0.791989 0.197665 0.00332647
0.877607 0.216617 0
0.155474 0.191608 0.466331
0.241062 0.210544 0.410895
0.326665 0.229496 0.355459
0.412284 0.248432 0.300023
0.497887 0.267384 0.244587
0.58349 0.286336 0.189166
0.669093 0.305272 0.13373
0.754711 0.324224 0.078294
0.840314 0.34316 0.022858
0.118181 0.318151 0.541283
0.203769 0.337102 0.485863
0.289387 0.356039 0.430426
0.37499 0.37499 0.37499
0.460594 0.393942 0.319554
0.546212 0.412879 0.264118
0.631815 0.43183 0.208682
0.717418 0.450767 0.153246
0.803021 0.469718 0.0978103
0.0808881 0.444709 0.616251
0.166491 0.463645 0.560815
0.252094 0.482597 0.505394
0.337697 0.501549 0.449958
0.423316 0.520485 0.394522
0.508919 0.539437 0.339086
0.594522 0.558373 0.28365
0.680125 0.577325 0.228214
0.765743 0.596262 0.172778
0.043595 0.571252 0.691218
0.129198 0.590204 0.635782
0.214801 0.60914 0.580346
0.30042 0.628092 0.52491
0.386023 0.647044 0.469474
0.471626 0.66598 0.414038
0.557229 0.684932 0.358602
0.642847 0.703868 0.303166
0.72845 0.72282 0.24773
0.00631724 0.69781 0.766171
0.0919051 0.716747 0.71075
0.177523 0.735698 0.655314
0.263127 0.75465 0.599878
0.34873 0.773587 0.544442
0.434333 0.792538 0.489006
0.519951 0.811475 0.43357
0.605554 0.830427 0.378134
0.691157 0.849363 0.322698
0 0.824369 0.841138
0.0546273 0.843305 0.785702
0.14023 0.862257 0.730266
0.225834 0.881193 0.67483
0.311437 0.900145 0.619394
0.397055 0.919081 0.563958
0.482658 0.938033 0.508537
0.568261 0.95697 0.453101
0.653864 0.975921 0.397665
0 0.950912 0.916091
0.0173342 0.969848 0.86067
0.102937 0.9888 0.805234
0.18854 1 0.749798
0.274159 1 0.694362
0.359762 1 0.638926
0.445365 1 0.58349
0.530968 1 0.528054
0.616587 1 0.472618
0.306722 0 0.421897
0.392325 0 0.366461
0.477928 0 0.311025
0.563531 0 0.255589
0.649149 0 0.200153
0.734752 0.0127413 0.144717
0.820356 0.031693 0.0892805
0.905959 0.0506447 0.0338445
0.991577 0.0695811 0
0.269444 0.0445563 0.496849
0.355032 0.063508 0.441413
0.44065 0.0824445 0.385977
0.526253 0.101396 0.330541
0.611856 0.120333 0.275105
0.697459 0.139284 0.219669
0.783078 0.158236 0.164233
0.868681 0.177172 0.108797
0.954284 0.196124 0.0533608
0.232151 0.171115 0.571801
0.317754 0.190051 0.516381
0.403357 0.209003 0.460945
0.48896 0.227939 0.405509
0.574563 0.246891 0.350072
0.660182 0.265843 0.294636
0.745785 0.284779 0.2392
0.831388 0.303731 0.183764
0.916991 0.322667 0.128328
0.194858 0.297658 0.646769
0.280461 0.316609 0.591333
0.366064 0.335546 0.535897
0.451667 0.354498 0.480461
0.537285 0.373434 0.425025
0.622889 0.392386 0.369589
0.708492 0.411337 0.314168
0.794095 0.430274 0.258732
0.879713 0.449226 0.203296
0.15758 0.424216 0.721721
0.243168 0.443153 0.6663
0.328771 0.462104 0.610864
0.414389 0.481041 0.555428
0.499992 0.499992 0.499992
0.585595 0.518944 0.444556
0.671214 0.537881 0.38912
0.756817 0.556832 0.333684
0.84242 0.575769 0.278248
0.120287 0.550759 0.796689
0.20589 0.569711 0.741253
0.291493 0.588647 0.685817
0.377096 0.607599 0.630396
0.462699 0.626551 0.57496
0.548318 0.645487 0.519524
0.633921 0.664439 0.464088
0.719524 0.683375 0.408652
0.805127 0.702327 0.353216
0.0829938 0.677317 0.871641
0.168597 0.696254 0.81622
0.2542 0.715206 0.760784
0.339803 0.734142 0.705348
0.425422 0.753094 0.649912
0.511025 0.772045 0.594476
0.596628 0.790982 0.53904
0.682231 0.809934 0.483604
0.767849 0.82887 0.428168
0.045716 0.803861 0.946609
0.131304 0.822812 0.891188
0.216907 0.841749 0.835752
0.302525 0.8607 0.780316
0.388128 0.879652 0.72488
0.473732 0.898589 0.669444
0.559335 0.91754 0.614008
0.644953 0.936477 0.558572
0.730556 0.955428 0.503136
0.00842298 0.930419 1
0.0940108 0.949355 0.96614
0.179629 0.968307 0.910704
0.265232 0.987259 0.855268
0.350835 1 0.799832
0.436439 1 0.744396
0.522057 1 0.68896
0.60766 1 0.633539
0.693263 1 0.578103
0.383413 0 0.527367
0.469001 0 0.471931
0.554604 0 0.416495
0.640223 0 0.361074
0.725826 0 0.305638
0.811429 0 0.250202
0.897047 0.0112001 0.194766
0.982651 0.0301518 0.13933
1 0.0490883 0.0838941
0.34612 0.0240635 0.602319
0.431724 0.0430152 0.546883
0.517327 0.0619516 0.491447
0.60293 0.0809033 0.436027
0.688548 0.0998398 0.380591
0.774151 0.118791 0.325154
0.859754 0.137728 0.269718
0.945357 0.15668 0.214282
1 0.175631 0.158846
0.308843 0.150622 0.677287
0.39443 0.169558 0.621851
0.480034 0.18851 0.566415
0.565652 0.207446 0.510979
0.651255 0.226398 0.455543
0.736858 0.245335 0.400107
0.822461 0.264286 0.344671
0.90808 0.283238 0.289235
0.993683 0.302174 0.233799
0.27155 0.277165 0.752239
0.357137 0.296117 0.696818
0.442756 0.315053 0.641382
0.528359 0.334005 0.585946
0.613962 0.352941 0.53051
0.699565 0.371893 0.475074
0.785183 0.390845 0.419638
0.870787 0.409781 0.364202
0.95639 0.428733 0.308766
0.234257 0.403723 0.827207
0.31986 0.42266 0.771771
0.405463 0.441611 0.716335
0.491066 0.460548 0.660899
0.576669 0.4795 0.605463
0.662287 0.498436 0.550027
0.74789 0.517388 0.494591
0.833494 0.536339 0.43917
0.919097 0.555276 0.383734
0.196963 0.530266 0.902159
0.282567 0.549218 0.846738
0.36817 0.568154 0.791302
0.453773 0.587106 0.735866
0.539391 0.606043 0.68043
0.624994 0.624994 0.624994
0.710597 0.643946 0.569558
0.796216 0.662882 0.514122
0.881819 0.681834 0.458686
0.159686 0.656825 0.977127
0.245274 0.675761 0.921691
0.330892 0.694713 0.866255
0.416495 0.713649 0.810819
0.502098 0.732601 0.755398
0.587701 0.751553 0.699962
0.67332 0.770489 0.644526
0.758923 0.789441 0.58909
0.844526 0.808377 0.533654
0.122393 0.783368 1
0.207996 0.802319 0.996658
0.293599 0.821256 0.941222
0.379202 0.840208 0.885786
0.464805 0.859144 0.83035
0.550423 0.878096 0.774914
0.636027 0.897047 0.719478
0.72163 0.915984 0.664042
0.807233 0.934936 0.608606
0.0850996 0.909926 1
0.170703 0.928862 1
0.256306 0.947814 1
0.341909 0.966751 0.960754
0.427527 0.985702 0.905318
0.51313 1 0.849882
0.598733 1 0.794446
0.684337 1 0.73901
0.769955 1 0.683574
0.46009 0 0.632837
0.545693 0 0.577417
0.631296 0 0.521981
0.716899 0 0.466545
0.802502 0 0.411109
0.888121 0 0.355673
0.973724 0 0.300237
1 0.0096437 0.2448
1 0.0285954 0.189364
0.422812 0.00357061 0.70779
0.5084 0.0225071 0.652369
0.594018 0.0414588 0.596933
0.679622 0.0604105 0.541497
0.765225 0.0793469 0.486061
0.850828 0.0982986 0.430625
0.936446 0.117235 0.375189
1 0.136187 0.319753
1 0.155138 0.264317
0.385519 0.130129 0.782757
0.471122 0.149065 0.727321
0.556725 0.168017 0.671885
0.642329 0.186954 0.616449
0.727932 0.205905 0.561028
0.81355 0.224842 0.505592
0.899153 0.243793 0.450156
0.984756 0.26273 0.39472
1 0.281682 0.339284
0.348226 0.256672 0.85771
0.433829 0.275624 0.802289
0.519432 0.29456 0.746853
0.605035 0.313512 0.691417
0.690654 0.332448 0.635981
0.776257 0.3514 0.580545
0.86186 0.370336 0.525109
0.947463 0.389288 0.469673
1 0.40824 0.414237
0.310948 0.38323 0.932677
0.396536 0.402167 0.877256
0.482139 0.421118 0.82182
0.567758 0.440055 0.766384
0.653361 0.459007 0.710948
0.738964 0.477943 0.655512
0.824567 0.496895 0.600076
0.910185 0.515846 0.54464
0.995789 0.534783 0.489204
0.273655 0.509773 1
0.359243 0.528725 0.952209
0.444862 0.547662 0.896773
0.530465 0.566613 0.841337
0.616068 0.58555 0.785901
0.701671 0.604501 0.730465
0.787289 0.623438 0.675029
0.872892 0.64239 0.619593
0.958495 0.661341 0.564172
0.236362 0.636332 1
0.321965 0.655268 1
0.407568 0.67422 0.97174
0.493172 0.693156 0.916304
0.578775 0.712108 0.860868
0.664393 0.731044 0.805432
0.749996 0.749996 0.749996
0.835599 0.768948 0.69456
0.921218 0.787884 0.639124
0.199069 0.762875 1
0.284672 0.781826 1
0.370275 0.800763 1
0.455894 0.819715 0.991257
0.541497 0.838651 0.935821
0.6271 0.857603 0.8804
0.712703 0.876554 0.824964
0.798321 0.895491 0.769528
0.883925 0.914443 0.714092
0.161791 0.889433 1
0.247379 0.90837 1
0.332998 0.927321 1
0.418601 0.946258 1
0.504204 0.965209 1
0.589807 0.984146 0.955352
0.675425 1 0.899916
0.761028 1 0.84448
0.846632 1 0.789044
0.536782 0 0.738323
0.62237 0 0.682887
0.707973 0 0.627451
0.793591 0 0.572015
0.879194 0 0.516579
0.964797 0 0.461143
1 0 0.405707
1 0 0.350271
1 0.00810254 0.29485
0.499489 0 0.813275
0.585092 0.00201419 0.757839
0.670695 0.0209659 0.702403
0.756298 0.0399176 0.646967
0.841901 0.058854 0.591531
0.92752 0.0778058 0.536095
1 0.0967422 0.480659
1 0.115694 0.425223
1 0.13463 0.369802
0.462196 0.109621 0.888228
0.547799 0.128573 0.832807
0.633402 0.147509 0.777371
0.71902 0.166461 0.721935
0.804623 0.185412 0.666499
0.890227 0.204349 0.611063
0.97583 0.223301 0.555627
1 0.242237 0.500191
1 0.261189 0.444755
0.424918 0.236179 0.963195
0.510506 0.255116 0.907759
0.596124 0.274067 0.852323
0.681727 0.293019 0.796887
0.76733 0.311955 0.741451
0.852934 0.330907 0.68603
0.938552 0.349844 0.630594
1 0.368795 0.575158
1 0.387732 0.519722
0.387625 0.362737 1
0.473228 0.381674 0.982727
0.558831 0.400626 0.927291
0.644434 0.419562 0.871855
0.730037 0.438514 0.816419
0.815656 0.45745 0.760983
0.901259 0.476402 0.705547
0.986862 0.495338 0.650111
1 0.51429 0.594675
0.350332 0.489281 1
0.435935 0.508217 1
0.521538 0.527169 1
0.607141 0.54612 0.946822
0.69276 0.565057 0.891386
0.778363 0.584009 0.83595
0.863966 0.602945 0.780514
0.949569 0.621897 0.725078
1 0.640848 0.669642
0.313054 0.615839 1
0.398642 0.634775 1
0.484245 0.653727 1
0.569863 0.672663 1
0.655467 0.691615 0.966339
0.74107 0.710552 0.910903
0.826673 0.729503 0.855467
0.912291 0.74844 0.800031
0.997894 0.767391 0.744595
0.275761 0.742382 1
0.361349 0.761334 1
0.446967 0.78027 1
0.53257 0.799222 1
0.618173 0.818158 1
0.703777 0.83711 0.98587
0.789395 0.856046 0.930434
0.874998 0.874998 0.874998
0.960601 0.89395 0.819562
0.238468 0.86894 1
0.324071 0.887877 1
0.409674 0.906828 1
0.495277 0.925765 1
0.580896 0.944717 1
0.666499 0.963653 1
0.752102 0.982605 1
0.837705 1 0.949966
0.923323 1 0.89453
0.613458 0 0.843793
0.699062 0 0.788357
0.784665 0 0.732937
0.870268 0 0.677501
0.955871 0 0.622065
1 0 0.566629
1 0 0.511193
1 0 0.455756
1 0 0.40032
0.576181 0 0.918746
0.661768 0 0.86331
0.747372 0.00047303 0.807889
0.83299 0.0194095 0.752453
0.918593 0.0383612 0.697017
1 0.0573129 0.641581
1 0.0762493 0.586145
1 0.095201 0.530709
1 0.114137 0.475273
0.538888 0.089128 0.993713
0.624475 0.10808 0.938277
0.710094 0.127016 0.882841
0.795697 0.145968 0.827405
0.8813 0.16492 0.771969
0.966903 0.183856 0.716533
1 0.202808 0.661097
1 0.221744 0.605661
1 0.240696 0.550225
0.501595 0.215686 1
0.587198 0.234623 1
0.672801 0.253574 0.957809
0.758404 0.272511 0.902373
0.844022 0.291463 0.846937
0.929625 0.310414 0.791501
1 0.329351 0.736065
1 0.348302 0.680629
1 0.367239 0.625193
0.464302 0.342229 1
0.549905 0.361181 1
0.635508 0.380118 1
0.721126 0.399069 0.977325
0.806729 0.418021 0.921889
0.892332 0.436957 0.866453
0.977935 0.455909 0.811032
1 0.474845 0.755596
1 0.493797 0.70016
0.427024 0.468788 1
0.512612 0.487724 1
0.59823 0.506676 1
0.683833 0.525628 1
0.769436 0.544564 0.996857
0.855039 0.563516 0.941421
0.940658 0.582452 0.885985
1 0.601404 0.830549
1 0.62034 0.775113
0.389731 0.595331 1
0.475334 0.614282 1
0.560937 0.633219 1
0.64654 0.652171 1
0.732143 0.671122 1
0.817761 0.690059 1
0.903365 0.70901 0.960952
0.988968 0.727947 0.905516
1 0.746899 0.85008
0.352438 0.721889 1
0.438041 0.740826 1
0.523644 0.759777 1
0.609247 0.778729 1
0.694865 0.797665 1
0.780468 0.816617 1
0.866072 0.835554 1
0.951675 0.854505 0.980468
1 0.873442 0.925032
0.31516 0.848447 1
0.400748 0.867384 1
0.486351 0.886336 1
0.571969 0.905272 1
0.657572 0.924224 1
0.743175 0.94316 1
0.828779 0.962112 1
0.914397 0.981048 1
1 1 1
