public/LUTS/Color Shift/ColorShift_16.cube
TITLE "Generated by Resolve"
LUT_3D_SIZE 5
0 0 0
0.0763867 0.0708629 0
0.152773 0.141741 0
0.229175 0.212604 0
0.305562 0.283467 0
0 0.232227 0.270665
0.0196078 0.30309 0.124559
0.0959945 0.373953 0
0.172396 0.444831 0
0.248783 0.515694 0
0 0.464454 0.541344
0 0.535332 0.395239
0.0392157 0.606195 0.249119
0.115618 0.677058 0.102998
0.192004 0.747936 0
0 0.696696 0.812039
0 0.767559 0.665919
0 0.838437 0.519799
0.0588235 0.9093 0.373678
0.135225 0.980179 0.227558
0 0.928939 1
0 0.999802 0.936614
0 1 0.790494
0.00204471 1 0.644373
0.0784466 1 0.498253
0.230381 0 0.125429
0.306767 0.0177615 0
0.383154 0.0886397 0
0.459556 0.159503 0
0.535943 0.230381 0
0.173602 0.179126 0.396094
0.249989 0.249989 0.249989
0.326375 0.320851 0.103868
0.402777 0.39173 0
0.479164 0.462593 0
0.116823 0.411368 0.666789
0.19321 0.482231 0.520668
0.269596 0.553094 0.374548
0.345998 0.623972 0.228428
0.422385 0.694835 0.0823072
0.060029 0.643595 0.937469
0.136431 0.714458 0.791363
0.212818 0.785336 0.645243
0.289204 0.856199 0.499123
0.365606 0.927077 0.353002
0.00325017 0.875837 1
0.0796368 0.9467 1
0.156039 1 0.915923
0.232425 1 0.769802
0.308812 1 0.623682
0.460777 0 0.250874
0.537163 0 0.104768
0.61355 0.0355383 0
0.689952 0.106401 0
0.766339 0.177264 0
0.403998 0.126024 0.521538
0.480385 0.196887 0.375433
0.556771 0.26775 0.229313
0.633173 0.338628 0.0831922
0.70956 0.409491 0
0.347219 0.358251 0.792218
0.423606 0.429129 0.646113
0.499992 0.499992 0.499992
0.576379 0.570855 0.353872
0.652781 0.641733 0.207752
0.290425 0.590494 1
0.366812 0.661357 0.916793
0.443214 0.732235 0.770672
0.5196 0.803098 0.624552
0.596002 0.873976 0.478431
0.233646 0.822736 1
0.310033 0.893599 1
0.386435 0.964462 1
0.462821 1 0.895247
0.539208 1 0.749126
0.691173 0 0.376318
0.767559 0 0.230198
0.843946 0 0.0840772
0.920333 0.0532998 0
0.996735 0.124163 0
0.634394 0.0729229 0.646983
0.710781 0.143786 0.500862
0.787167 0.214649 0.354742
0.863554 0.285527 0.208621
0.939956 0.35639 0.062501
0.5776 0.30515 0.917662
0.653986 0.376013 0.771557
0.730388 0.446891 0.625437
0.806775 0.517754 0.479316
0.883177 0.588632 0.333196
0.520821 0.537392 1
0.597208 0.608255 1
0.673609 0.679133 0.896117
0.749996 0.749996 0.749996
0.826383 0.820859 0.603876
0.464042 0.769635 1
0.540429 0.840497 1
0.616815 0.91136 1
0.693217 0.982238 1
0.769604 1 0.874556
0.921553 0 0.501747
0.997955 0 0.355642
1 0 0.209522
1 0.000198367 0.0634012
1 0.0710613 0
0.864775 0.0198062 0.772427
0.941176 0.0906844 0.626307
1 0.161547 0.480186
1 0.23241 0.334066
1 0.303288 0.187945
0.807996 0.252049 1
0.884382 0.322911 0.896986
0.960784 0.39379 0.750866
1 0.464652 0.604746
1 0.535531 0.458625
0.751217 0.484291 1
0.827604 0.555154 1
0.90399 0.626017 1
0.980392 0.696895 0.875441
1 0.767758 0.72932
0.694438 0.716533 1
0.770825 0.787396 1
0.847211 0.858259 1
0.923613 0.929137 1
1 1 1
