public/LUTS/Color Shift/ColorShift_65.cube
TITLE "Generated by Resolve"
LUT_3D_SIZE 5
0 0 0
0.136034 0.0699016 0
0.272068 0.139803 0
0.408118 0.209689 0
0.544152 0.279591 0
0 0.283879 0.288182
0 0.35378 0.0104372
0.0356146 0.423667 0
0.171649 0.493568 0
0.307698 0.56347 0
0 0.567773 0.576394
0 0.637659 0.298634
0 0.707561 0.0208743
0 0.777462 0
0.0712139 0.847364 0
0 0.851667 0.864591
0 0.921553 0.586847
0 0.991455 0.309071
0 1 0.0312963
0 1 0
0 1 1
0 1 0.875044
0 1 0.597269
0 1 0.319509
0 1 0.0417334
0.350423 0 0.239551
0.486442 0 0
0.622492 0.0360113 0
0.758526 0.105913 0
0.894575 0.175814 0
0.113954 0.180087 0.527733
0.249989 0.249989 0.249989
0.386023 0.31989 0
0.522072 0.389792 0
0.658106 0.459693 0
0 0.463981 0.815946
0.0135195 0.533883 0.538186
0.149554 0.603784 0.260426
0.285588 0.673686 0
0.421637 0.743587 0
0 0.747875 1
0 0.817777 0.826398
0 0.887678 0.548623
0.0491188 0.95758 0.270863
0.185153 1 0
0 1 1
0 1 1
0 1 0.836835
0 1 0.55906
0 1 0.281285
0.700862 0 0.479118
0.836881 0 0.201373
0.97293 0 0
1 0.002121 0
1 0.0720226 0
0.464393 0.0762951 0.767315
0.600427 0.146197 0.489555
0.736461 0.216098 0.211795
0.872511 0.286 0
1 0.355901 0
0.227924 0.360189 1
0.363958 0.430091 0.777768
0.499992 0.499992 0.499992
0.636027 0.569894 0.222217
0.772076 0.639796 0
0 0.644083 1
0.127474 0.713985 1
0.263523 0.783886 0.78819
0.399558 0.853788 0.51043
0.535592 0.92369 0.232654
0 0.927977 1
0 0.997879 1
0.027039 1 1
0.163088 1 0.798627
0.299123 1 0.520867
1 0 0.7187
1 0 0.44094
1 0 0.16318
1 0 0
1 0 0
0.814832 0 1
0.950866 0.0424048 0.729122
1 0.112306 0.451362
1 0.182208 0.173587
1 0.25211 0
0.578363 0.256413 1
0.714397 0.326299 1
0.850431 0.396201 0.739559
0.986465 0.466102 0.461799
1 0.536004 0.184024
0.341878 0.540307 1
0.477913 0.610193 1
0.613962 0.680095 1
0.749996 0.749996 0.749996
0.88603 0.819898 0.472221
0.105409 0.824186 1
0.241443 0.894087 1
0.377478 0.963989 1
0.513527 1 1
0.649561 1 0.760433
1 0 0.958267
1 0 0.680507
1 0 0.402747
1 0 0.124971
1 0 0
1 0 1
1 0 0.968704
1 0.00851453 0.690929
1 0.0784161 0.413153
1 0.148318 0.135393
0.928801 0.152621 1
1 0.222507 1
1 0.292409 0.979126
1 0.36231 0.701366
1 0.432212 0.42359
0.692317 0.436515 1
0.828351 0.506401 1
0.964401 0.576303 1
1 0.646204 0.989563
1 0.716106 0.711803
0.455848 0.720409 1
0.591882 0.790295 1
0.727916 0.860197 1
0.863966 0.930098 1
1 1 1
