public/LUTS/Color Shift/ColorShift_14.cube
TITLE "Generated by Resolve"
LUT_3D_SIZE 5
0 0 0
0.0251621 0.0861372 0
0.0503395 0.17229 0
0.0755016 0.258427 0
0.100664 0.344564 0
0 0.216007 0.323888
0 0.302144 0.1785
0.0248264 0.388281 0.0331121
0.0499886 0.474434 0
0.0751507 0.560571 0
0 0.432013 0.647791
0 0.518151 0.502403
0 0.604303 0.357015
0.0244755 0.69044 0.211627
0.0496376 0.776593 0.0662242
0 0.648035 0.97171
0 0.734173 0.826322
0 0.82031 0.680919
0 0.906462 0.535531
0.0241245 0.992599 0.390127
0 0.864042 1
0 0.950179 1
0 1 1
0 1 0.859434
0 1 0.714046
0.25034 0 0.0714885
0.275502 0.0339818 0
0.300664 0.120134 0
0.325841 0.206271 0
0.351003 0.292424 0
0.224826 0.163851 0.395377
0.249989 0.249989 0.249989
0.275151 0.336126 0.104601
0.300328 0.422278 0
0.32549 0.508415 0
0.199313 0.379858 0.71928
0.224475 0.466011 0.573892
0.249638 0.552148 0.428504
0.274815 0.638285 0.283101
0.299977 0.724437 0.137713
0.1738 0.59588 1
0.198962 0.682017 0.89781
0.224125 0.768154 0.752407
0.249302 0.854307 0.607019
0.274464 0.940444 0.461616
0.148272 0.811887 1
0.173449 0.898024 1
0.198611 0.984176 1
0.223774 1 0.930922
0.248951 1 0.785534
0.500679 0 0.142977
0.525856 0 0
0.551019 0.0679789 0
0.576181 0.154116 0
0.601358 0.240269 0
0.475166 0.111696 0.466865
0.500343 0.197833 0.321477
0.525505 0.283986 0.176089
0.550668 0.370123 0.0306859
0.575845 0.45626 0
0.449653 0.327703 0.790768
0.47483 0.413855 0.64538
0.499992 0.499992 0.499992
0.525154 0.58613 0.354604
0.550332 0.672282 0.209201
0.42414 0.543725 1
0.449317 0.629862 0.969299
0.474479 0.716014 0.823896
0.499641 0.802152 0.678508
0.524819 0.888289 0.533104
0.398627 0.759731 1
0.423789 0.845884 1
0.448966 0.932021 1
0.474128 1 1
0.499306 1 0.857023
0.751034 0 0.214466
0.776196 0 0.0690776
0.801373 0.0158236 0
0.826535 0.101961 0
0.851713 0.188113 0
0.725521 0.0595407 0.538354
0.750683 0.145678 0.392966
0.77586 0.23183 0.247578
0.801022 0.317968 0.102174
0.8262 0.404105 0
0.700008 0.275563 0.862257
0.72517 0.3617 0.716884
0.750347 0.447837 0.571481
0.775509 0.533974 0.426093
0.800671 0.620127 0.28069
0.674495 0.491569 1
0.699657 0.577707 1
0.724834 0.663859 0.895384
0.749996 0.749996 0.749996
0.775158 0.836133 0.604608
0.648981 0.707591 1
0.674144 0.793729 1
0.699321 0.879866 1
0.724483 0.966018 1
0.749645 1 0.928512
1 0 0.285954
1 0 0.140566
1 0 0
1 0.0498054 0
1 0.135958 0
0.975875 0.00738537 0.609842
1 0.0935225 0.464454
1 0.179675 0.319066
1 0.265812 0.173678
1 0.351965 0.028275
0.950362 0.223407 0.933761
0.975525 0.309545 0.788373
1 0.395682 0.642969
1 0.481834 0.497581
1 0.567971 0.352178
0.924849 0.439414 1
0.950011 0.525551 1
0.975174 0.611704 0.966888
1 0.697841 0.821485
1 0.783993 0.676097
0.899336 0.655436 1
0.924498 0.741573 1
0.94966 0.82771 1
0.974838 0.913863 1
1 1 1
