public/LUTS/Color Shift/ColorShift_23.cube
TITLE "Generated by Resolve"
LUT_3D_SIZE 9
0 0 0
0.112047 0.00755322 0
0.224094 0.0150912 0
0.336156 0.0226444 0
0.448218 0.0301976 0
0.560265 0.0377356 0
0.672328 0.0452888 0
0.78439 0.052842 0
0.896437 0.0603799 0
0 0.128069 0.0308843
0.0885176 0.135622 0.00238041
0.20058 0.143175 0
0.312627 0.150713 0
0.424689 0.158267 0
0.536751 0.16582 0
0.648798 0.173358 0
0.760861 0.180911 0
0.872908 0.188464 0
0 0.256168 0.0617685
0.0649882 0.263706 0.0332647
0.17705 0.27126 0.00476081
0.289097 0.278813 0
0.40116 0.286351 0
0.513222 0.293904 0
0.625269 0.301457 0
0.737331 0.308995 0
0.849378 0.316548 0
0 0.384253 0.092668
0.0414588 0.391806 0.0641489
0.153521 0.399344 0.0356451
0.265568 0.406897 0.00714122
0.37763 0.41445 0
0.489693 0.421988 0
0.60174 0.429541 0
0.713802 0.437095 0
0.825849 0.444648 0
0 0.512337 0.123552
0.0179294 0.51989 0.0950484
0.129992 0.527443 0.0665293
0.242039 0.534981 0.0380255
0.354101 0.542535 0.00950637
0.466163 0.550088 0
0.57821 0.557626 0
0.690272 0.565179 0
0.802319 0.572732 0
0 0.640436 0.154437
0 0.647974 0.125933
0.106462 0.655528 0.0974136
0.218509 0.663081 0.0689097
0.330571 0.670619 0.0404059
0.442634 0.678172 0.0118868
0.554681 0.685725 0
0.666743 0.693278 0
0.77879 0.700816 0
0 0.768521 0.185321
0 0.776074 0.156817
0.0829328 0.783612 0.128313
0.19498 0.791165 0.099794
0.307042 0.798718 0.0712902
0.419104 0.806271 0.042771
0.531151 0.813809 0.0142672
0.643214 0.821363 0
0.755261 0.828916 0
0 0.896605 0.21622
0 0.904158 0.187701
0.0594034 0.911711 0.159197
0.17145 0.919249 0.130694
0.283513 0.926802 0.102174
0.395575 0.934356 0.0736706
0.507622 0.941909 0.0451514
0.619684 0.949447 0.0166476
0.731731 0.957 0
0 1 0.247105
0 1 0.218601
0.035874 1 0.190082
0.147921 1 0.161578
0.259983 1 0.133059
0.372045 1 0.104555
0.484092 1 0.076051
0.596155 1 0.0475319
0.708202 1 0.019028
0.0364691 0 0.122606
0.148516 0 0.0941024
0.260563 0.00445563 0.0655985
0.372625 0.0120089 0.0370794
0.484688 0.0195621 0.00857557
0.596735 0.0271 0
0.708797 0.0346532 0
0.820859 0.0422065 0
0.932906 0.0497597 0
0.0129397 0.117433 0.15349
0.124987 0.124987 0.124987
0.237049 0.13254 0.0964828
0.349096 0.140078 0.0679637
0.461158 0.147631 0.0394598
0.57322 0.155184 0.0109407
0.685267 0.162722 0
0.79733 0.170275 0
0.909392 0.177829 0
0 0.245533 0.184375
0.101457 0.253071 0.155871
0.213519 0.260624 0.127367
0.325567 0.268177 0.0988479
0.437629 0.275715 0.0703441
0.549691 0.283268 0.0418402
0.661738 0.290822 0.0133211
0.7738 0.298375 0
0.885863 0.305913 0
0 0.373617 0.215274
0.0779278 0.38117 0.18677
0.18999 0.388708 0.158251
0.302037 0.396262 0.129747
0.414099 0.403815 0.101228
0.526162 0.411353 0.0727245
0.638209 0.418906 0.0442054
0.750271 0.426459 0.0157015
0.862333 0.434012 0
0 0.501701 0.246159
0.0543984 0.509255 0.217655
0.166461 0.516808 0.189136
0.278508 0.524346 0.160632
0.39057 0.531899 0.132128
0.502632 0.539452 0.103609
0.614679 0.547005 0.0751049
0.726741 0.554543 0.0465858
0.838804 0.562097 0.0180819
0 0.629801 0.277043
0.030869 0.637339 0.248539
0.142931 0.644892 0.220035
0.254978 0.652445 0.191516
0.367041 0.659983 0.163012
0.479103 0.667536 0.134493
0.59115 0.67509 0.105989
0.703212 0.682643 0.0774853
0.815274 0.690181 0.0489662
0 0.757885 0.307927
0.00733959 0.765438 0.279423
0.119402 0.772976 0.250919
0.231449 0.780529 0.2224
0.343511 0.788083 0.193896
0.455573 0.795636 0.165393
0.56762 0.803174 0.136873
0.679683 0.810727 0.10837
0.791745 0.81828 0.0798505
0 0.885969 0.338827
0 0.893523 0.310323
0.0958724 0.901076 0.281804
0.207919 0.908629 0.2533
0.319982 0.916167 0.224781
0.432044 0.92372 0.196277
0.544091 0.931273 0.167758
0.656153 0.938811 0.139254
0.768215 0.946365 0.11075
0 1 0.369711
0 1 0.341207
0.072343 1 0.312688
0.18439 1 0.284184
0.296452 1 0.25568
0.408515 1 0.227161
0.520562 1 0.198657
0.632624 1 0.170138
0.744686 1 0.141634
0.0729381 0 0.245228
0.184985 0 0.216724
0.297047 0 0.18822
0.409094 0.00137331 0.159701
0.521157 0.00892653 0.131197
0.633219 0.0164645 0.102693
0.745266 0.0240177 0.0741741
0.857328 0.0315709 0.0456703
0.96939 0.0391089 0.0171511
0.049424 0.106798 0.276112
0.161456 0.114351 0.247608
0.273518 0.121904 0.219104
0.38558 0.129442 0.190585
0.497627 0.136995 0.162081
0.609689 0.144549 0.133577
0.721752 0.152087 0.105058
0.833799 0.15964 0.0765545
0.945861 0.167193 0.0480354
0.0258946 0.234897 0.307012
0.137926 0.242435 0.278492
0.249989 0.249989 0.249989
0.362051 0.257542 0.221485
0.474098 0.26508 0.192966
0.58616 0.272633 0.164462
0.698222 0.280186 0.135943
0.810269 0.287724 0.107439
0.922332 0.295277 0.0789349
0.00236515 0.362982 0.337896
0.114397 0.370535 0.309392
0.226459 0.378073 0.280873
0.338521 0.385626 0.252369
0.450568 0.393179 0.22385
0.562631 0.400717 0.195346
0.674693 0.40827 0.166842
0.78674 0.415824 0.138323
0.898802 0.423377 0.109819
0 0.491066 0.36878
0.0908675 0.498619 0.340276
0.20293 0.506172 0.311772
0.314992 0.51371 0.283253
0.427039 0.521263 0.254749
0.539101 0.528817 0.22623
0.651164 0.536355 0.197726
0.76321 0.543908 0.169207
0.875273 0.551461 0.140703
0 0.619165 0.399664
0.0673381 0.626703 0.37116
0.1794 0.634256 0.342657
0.291463 0.64181 0.314137
0.40351 0.649348 0.285634
0.515572 0.656901 0.25713
0.627634 0.664454 0.228611
0.739681 0.672007 0.200107
0.851743 0.679545 0.171588
0 0.74725 0.430564
0.0438087 0.754803 0.402045
0.155871 0.762341 0.373541
0.267933 0.769894 0.345037
0.37998 0.777447 0.316518
0.492042 0.784985 0.288014
0.604105 0.792538 0.259495
0.716152 0.800092 0.230991
0.828214 0.807645 0.202487
0 0.875334 0.461448
0.0202792 0.882887 0.432944
0.132342 0.89044 0.404425
0.244404 0.897978 0.375921
0.356451 0.905531 0.347402
0.468513 0.913085 0.318898
0.580575 0.920638 0.290394
0.692622 0.928176 0.261875
0.804685 0.935729 0.233371
0 1 0.492332
0 1 0.463828
0.108812 1 0.435325
0.220874 1 0.406806
0.332921 1 0.378302
0.444984 1 0.349783
0.557046 1 0.321279
0.669093 1 0.29276
0.781155 1 0.264256
0.109422 0 0.367849
0.221469 0 0.339345
0.333516 0 0.310842
0.445579 0 0.282322
0.557626 0 0.253819
0.669688 0.00582895 0.225315
0.78175 0.0133822 0.196796
0.893797 0.0209354 0.168292
1 0.0284733 0.139773
0.085893 0.0961624 0.398733
0.19794 0.103716 0.37023
0.309987 0.111269 0.341726
0.422049 0.118807 0.313207
0.534112 0.12636 0.284703
0.646159 0.133913 0.256199
0.758221 0.141451 0.22768
0.870283 0.149004 0.199176
0.98233 0.156558 0.170657
0.0623636 0.224262 0.429633
0.174411 0.2318 0.401129
0.286458 0.239353 0.37261
0.39852 0.246906 0.344106
0.510582 0.254444 0.315587
0.622629 0.261997 0.287083
0.734691 0.269551 0.258579
0.846754 0.277089 0.23006
0.958801 0.284642 0.201556
0.0388342 0.352346 0.460517
0.150881 0.359899 0.432013
0.262928 0.367437 0.403494
0.37499 0.37499 0.37499
0.487053 0.382544 0.346487
0.5991 0.390082 0.317968
0.711162 0.397635 0.289464
0.823224 0.405188 0.260945
0.935271 0.412726 0.232441
0.0153048 0.48043 0.491402
0.127352 0.487984 0.462898
0.239399 0.495537 0.434394
0.351461 0.503075 0.405875
0.463523 0.510628 0.377371
0.57557 0.518181 0.348852
0.687633 0.525719 0.320348
0.799695 0.533272 0.291844
0.911742 0.540825 0.263325
0 0.60853 0.522301
0.103822 0.616068 0.493782
0.215869 0.623621 0.465278
0.327932 0.631174 0.436774
0.439994 0.638712 0.408255
0.552041 0.646265 0.379751
0.664103 0.653819 0.351232
0.776165 0.661357 0.322728
0.888212 0.66891 0.294209
0 0.736614 0.553185
0.080293 0.744167 0.524681
0.19234 0.751705 0.496162
0.304402 0.759258 0.467658
0.416464 0.766812 0.439139
0.528511 0.77435 0.410636
0.640574 0.781903 0.382132
0.752636 0.789456 0.353613
0.864683 0.797009 0.325109
0 0.864698 0.58407
0.0567636 0.872251 0.555566
0.168811 0.879805 0.527047
0.280873 0.887343 0.498543
0.392935 0.894896 0.470039
0.504982 0.902449 0.44152
0.617044 0.909987 0.413016
0.729107 0.91754 0.384497
0.841154 0.925093 0.355993
0 0.992798 0.614954
0.0332341 1 0.58645
0.145281 1 0.557946
0.257343 1 0.529427
0.369406 1 0.500923
0.481453 1 0.472404
0.593515 1 0.4439
0.705577 1 0.415396
0.817624 1 0.386877
0.145892 0 0.490486
0.257939 0 0.461967
0.370001 0 0.433463
0.482048 0 0.404959
0.59411 0 0.37644
0.706157 0 0.347936
0.818219 0.00274662 0.319417
0.930282 0.0102998 0.290913
1 0.0178378 0.262409
0.122362 0.0855268 0.52137
0.234409 0.09308 0.492851
0.346471 0.100633 0.464347
0.458518 0.108171 0.435843
0.570581 0.115724 0.407324
0.682643 0.123278 0.37882
0.79469 0.130816 0.350301
0.906752 0.138369 0.321798
1 0.145922 0.293294
0.0988327 0.213626 0.552254
0.21088 0.221164 0.523751
0.322942 0.228717 0.495232
0.434989 0.236271 0.466728
0.547051 0.243809 0.438209
0.659113 0.251362 0.409705
0.77116 0.258915 0.381201
0.883223 0.266453 0.352682
0.995285 0.274006 0.324178
0.0753033 0.341711 0.583139
0.18735 0.349264 0.554635
0.299413 0.356802 0.526131
0.41146 0.364355 0.497612
0.523522 0.371908 0.469108
0.635584 0.379446 0.440589
0.747631 0.386999 0.412085
0.859693 0.394553 0.383581
0.971756 0.40209 0.355062
0.0517739 0.469795 0.614023
0.163821 0.477348 0.585519
0.275883 0.484901 0.557015
0.38793 0.492439 0.528496
0.499992 0.499992 0.499992
0.612055 0.507546 0.471489
0.724102 0.515084 0.442969
0.836164 0.522637 0.414466
0.948226 0.53019 0.385946
0.0282444 0.597894 0.644923
0.140291 0.605432 0.616403
0.252354 0.612985 0.5879
0.364401 0.620539 0.559396
0.476463 0.628077 0.530877
0.588525 0.63563 0.502373
0.700572 0.643183 0.473854
0.812634 0.650721 0.44535
0.924697 0.658274 0.416846
0.00471504 0.725978 0.675807
0.116762 0.733532 0.647303
0.228824 0.74107 0.618784
0.340871 0.748623 0.59028
0.452934 0.756176 0.561776
0.564996 0.763714 0.533257
0.677043 0.771267 0.504753
0.789105 0.77882 0.476234
0.901167 0.786358 0.44773
0 0.854063 0.706691
0.0932326 0.861616 0.678187
0.205295 0.869169 0.649683
0.317342 0.876707 0.621164
0.429404 0.88426 0.59266
0.541466 0.891814 0.564141
0.653513 0.899351 0.535637
0.765576 0.906905 0.507134
0.877638 0.914458 0.478614
0 0.982162 0.737575
0.0697032 0.9897 0.709072
0.181765 0.997253 0.680568
0.293812 1 0.652049
0.405875 1 0.623545
0.517937 1 0.595041
0.629984 1 0.566522
0.742046 1 0.538018
0.854109 1 0.509499
0.182361 0 0.613108
0.294408 0 0.584604
0.40647 0 0.556085
0.518517 0 0.527581
0.630579 0 0.499062
0.742641 0 0.470558
0.854688 0 0.442054
0.966751 0 0.413535
1 0.00720226 0.385031
0.158846 0.0748913 0.643992
0.270878 0.0824445 0.615488
0.38294 0.0899977 0.586969
0.495003 0.0975357 0.558465
0.60705 0.105089 0.529946
0.719112 0.112642 0.501442
0.831174 0.12018 0.472938
0.943221 0.127733 0.444419
1 0.135286 0.415915
0.135317 0.202991 0.674876
0.247349 0.210529 0.646372
0.359411 0.218082 0.617853
0.471473 0.225635 0.589349
0.58352 0.233173 0.560845
0.695583 0.240726 0.532326
0.807645 0.24828 0.503822
0.919692 0.255818 0.475303
1 0.263371 0.446799
0.111788 0.331075 0.70576
0.223819 0.338628 0.677256
0.335882 0.346166 0.648753
0.447944 0.353719 0.620233
0.559991 0.361273 0.59173
0.672053 0.368811 0.56321
0.784115 0.376364 0.534707
0.896162 0.383917 0.506203
1 0.391455 0.477684
0.0882582 0.459159 0.73666
0.20029 0.466712 0.708141
0.312352 0.474266 0.679637
0.424414 0.481804 0.651133
0.536461 0.489357 0.622614
0.648524 0.49691 0.59411
0.760586 0.504448 0.565591
0.872633 0.512001 0.537087
0.984695 0.519554 0.508583
0.0647288 0.587259 0.767544
0.176761 0.594797 0.73904
0.288823 0.60235 0.710521
0.400885 0.609903 0.682017
0.512932 0.617441 0.653498
0.624994 0.624994 0.624994
0.737057 0.632547 0.59649
0.849104 0.640085 0.567971
0.961166 0.647639 0.539467
0.0411994 0.715343 0.798428
0.153231 0.722896 0.769924
0.265293 0.730434 0.741405
0.377356 0.737987 0.712902
0.489403 0.745541 0.684398
0.601465 0.753079 0.655879
0.713527 0.760632 0.627375
0.825574 0.768185 0.598856
0.937636 0.775723 0.570352
0.0176699 0.843427 0.829313
0.129702 0.85098 0.800809
0.241764 0.858534 0.772305
0.353826 0.866072 0.743786
0.465873 0.873625 0.715282
0.577935 0.881178 0.686778
0.689998 0.888716 0.658259
0.802045 0.896269 0.629755
0.914107 0.903822 0.601236
0 0.971527 0.860212
0.106172 0.979065 0.831693
0.218235 0.986618 0.803189
0.330297 0.994171 0.774685
0.442344 1 0.746166
0.554406 1 0.717662
0.666468 1 0.689143
0.778515 1 0.660639
0.890578 1 0.632136
0.218845 0 0.735729
0.330892 0 0.707225
0.442939 0 0.678706
0.555001 0 0.650202
0.667048 0 0.621698
0.77911 0 0.593179
0.891173 0 0.564675
1 0 0.536156
1 0 0.507652
0.195315 0.0642557 0.766613
0.307362 0.071809 0.738109
0.419409 0.0793469 0.70959
0.531472 0.0869001 0.681086
0.643534 0.0944533 0.652583
0.755581 0.102007 0.624063
0.867643 0.109545 0.59556
0.979706 0.117098 0.567041
1 0.124651 0.538537
0.171786 0.19234 0.797498
0.283833 0.199893 0.768994
0.39588 0.207446 0.74049
0.507942 0.215 0.711971
0.620005 0.222538 0.683467
0.732052 0.230091 0.654948
0.844114 0.237644 0.626444
0.956176 0.245182 0.59794
1 0.252735 0.569421
0.148257 0.320439 0.828382
0.260304 0.327977 0.799878
0.372351 0.335531 0.771374
0.484413 0.343084 0.742855
0.596475 0.350637 0.714351
0.708522 0.358175 0.685847
0.820584 0.365728 0.657328
0.932647 0.373281 0.628824
1 0.380819 0.600305
0.124727 0.448524 0.859281
0.236774 0.456077 0.830777
0.348821 0.46363 0.802258
0.460883 0.471168 0.773754
0.572946 0.478721 0.745235
0.684993 0.486275 0.716731
0.797055 0.493812 0.688212
0.909117 0.501366 0.659709
1 0.508919 0.631205
0.101198 0.576623 0.890166
0.213245 0.584161 0.861662
0.325292 0.591714 0.833143
0.437354 0.599268 0.804639
0.549416 0.606806 0.776135
0.661463 0.614359 0.747616
0.773526 0.621912 0.719112
0.885588 0.62945 0.690593
0.997635 0.637003 0.662089
0.0776684 0.704707 0.92105
0.189715 0.712261 0.892546
0.301762 0.719799 0.864042
0.413825 0.727352 0.835523
0.525887 0.734905 0.807019
0.637934 0.742443 0.7785
0.749996 0.749996 0.749996
0.862058 0.757549 0.721492
0.974105 0.765087 0.692973
0.054139 0.832792 0.951934
0.166186 0.840345 0.92343
0.278233 0.847898 0.894926
0.390295 0.855436 0.866407
0.502358 0.862989 0.837903
0.614404 0.870542 0.8094
0.726467 0.87808 0.78088
0.838529 0.885634 0.752377
0.950576 0.893187 0.723857
0.0306096 0.960891 0.982834
0.142657 0.968429 0.95433
0.254704 0.975982 0.925811
0.366766 0.983536 0.897307
0.478828 0.991073 0.868788
0.590875 0.998627 0.840284
0.702937 1 0.81178
0.815 1 0.783261
0.927047 1 0.754757
0.255314 0 0.858351
0.367361 0 0.829847
0.479423 0 0.801343
0.59147 0 0.772824
0.703532 0 0.74432
0.815579 0 0.715801
0.927642 0 0.687297
1 0 0.658778
1 0 0.630274
0.231785 0.0536202 0.889235
0.343832 0.0611734 0.860731
0.455894 0.0687114 0.832227
0.567941 0.0762646 0.803708
0.680003 0.0838178 0.775204
0.792065 0.0913558 0.746685
0.904112 0.098909 0.718181
1 0.106462 0.689662
1 0.114015 0.661158
0.208255 0.181704 0.920119
0.320302 0.189258 0.891615
0.432364 0.196811 0.863111
0.544411 0.204349 0.834592
0.656474 0.211902 0.806088
0.768536 0.219455 0.777584
0.880583 0.227008 0.749065
0.992645 0.234546 0.720562
1 0.2421 0.692042
0.184726 0.309804 0.951019
0.296773 0.317342 0.922499
0.408835 0.324895 0.893996
0.520882 0.332448 0.865492
0.632944 0.340002 0.836973
0.745007 0.347539 0.808469
0.857053 0.355093 0.77995
0.969116 0.362646 0.751446
1 0.370184 0.722942
0.161196 0.437888 0.981903
0.273243 0.445441 0.953399
0.385306 0.452979 0.92488
0.497353 0.460533 0.896376
0.609415 0.468086 0.867857
0.721477 0.475639 0.839353
0.833524 0.483177 0.810849
0.945586 0.49073 0.78233
1 0.498283 0.753826
0.137667 0.565988 1
0.249714 0.573526 0.984283
0.361776 0.581079 0.955779
0.473823 0.588632 0.92726
0.585885 0.59617 0.898756
0.697948 0.603723 0.870237
0.809995 0.611276 0.841733
0.922057 0.618814 0.813214
1 0.626368 0.78471
0.114137 0.694072 1
0.226184 0.70161 1
0.338247 0.709163 0.986664
0.450294 0.716716 0.958144
0.562356 0.724269 0.929641
0.674418 0.731807 0.901137
0.786465 0.739361 0.872618
0.898528 0.746914 0.844114
1 0.754452 0.815595
0.0906081 0.822156 1
0.202655 0.829709 1
0.314717 0.837263 1
0.426764 0.8448 0.989044
0.538827 0.852354 0.960525
0.650889 0.859907 0.932021
0.762936 0.867445 0.903502
0.874998 0.874998 0.874998
0.98706 0.882551 0.846494
0.0670787 0.950256 1
0.179126 0.957794 1
0.291188 0.965347 1
0.403235 0.9729 1
0.515297 0.980438 0.991409
0.627359 0.987991 0.962905
0.739406 0.995544 0.934401
0.851469 1 0.905882
0.963531 1 0.877379
0.291798 0 0.980972
0.40383 0 0.952468
0.515892 0 0.923964
0.627955 0 0.895445
0.740001 0 0.866941
0.852064 0 0.838422
0.964111 0 0.809918
1 0 0.781415
1 0 0.752895
0.268269 0.0429847 1
0.380301 0.0505379 0.983352
0.492363 0.0580758 0.954849
0.604425 0.0656291 0.926329
0.716472 0.0731823 0.897826
0.828534 0.0807202 0.869307
0.940597 0.0882734 0.840803
1 0.0958267 0.812299
1 0.10338 0.78378
0.244739 0.171069 1
0.356771 0.178622 1
0.468833 0.186175 0.985733
0.580896 0.193713 0.957229
0.692943 0.201266 0.92871
0.805005 0.20882 0.900206
0.917067 0.216358 0.871687
1 0.223911 0.843183
1 0.231464 0.814664
0.22121 0.299168 1
0.333242 0.306706 1
0.445304 0.31426 1
0.557366 0.321813 0.988113
0.669413 0.329351 0.959594
0.781476 0.336904 0.93109
0.893538 0.344457 0.902586
1 0.35201 0.874067
1 0.359548 0.845563
0.197681 0.427253 1
0.309712 0.434806 1
0.421775 0.442344 1
0.533837 0.449897 1
0.645884 0.45745 0.990494
0.757946 0.465003 0.961975
0.870008 0.472541 0.933471
0.982055 0.480095 0.904952
1 0.487648 0.876448
0.174151 0.555337 1
0.286183 0.56289 1
0.398245 0.570443 1
0.510307 0.577981 1
0.622354 0.585534 1
0.734417 0.593088 0.992859
0.846479 0.600641 0.964355
0.958526 0.608179 0.935851
1 0.615732 0.907332
0.150622 0.683436 1
0.262654 0.690974 1
0.374716 0.698528 1
0.486778 0.706081 1
0.598825 0.713634 1
0.710887 0.721172 1
0.82295 0.728725 0.995239
0.934997 0.736278 0.966735
1 0.743816 0.938216
0.127092 0.811521 1
0.239124 0.819074 1
0.351186 0.826612 1
0.463249 0.834165 1
0.575296 0.841718 1
0.687358 0.849271 1
0.79942 0.856809 1
0.911467 0.864363 0.99762
1 0.871916 0.969116
0.103563 0.93962 1
0.215595 0.947158 1
0.327657 0.954711 1
0.439719 0.962264 1
0.551766 0.969802 1
0.663828 0.977356 1
0.775891 0.984909 1
0.887938 0.992447 1
1 1 1
