public/LUTS/Color Shift/ColorShift_45.cube
TITLE "Generated by Resolve"
LUT_3D_SIZE 33
0 0 0
0 0.0103304 0.0227512
0 0.020676 0.0455177
0 0.0310216 0.0682841
0 0.0413672 0.0910506
0 0.0517128 0.113802
0 0.0620584 0.136568
0 0.0723888 0.159335
0 0.0827344 0.182101
0 0.09308 0.204868
0 0.103426 0.227634
0 0.113771 0.250385
0 0.124117 0.273152
0 0.134447 0.295918
0 0.144793 0.318685
0 0.155138 0.341451
0 0.165484 0.364218
0 0.17583 0.386969
0 0.186175 0.409735
0 0.196506 0.432502
0 0.206851 0.455268
0 0.217197 0.478035
0 0.227543 0.500786
0 0.237888 0.523552
0 0.248219 0.546319
0 0.258564 0.569085
0 0.26891 0.591852
0 0.279255 0.614618
0 0.289601 0.637369
0 0.299947 0.660136
0 0.310277 0.682902
0 0.320623 0.705669
0 0.330968 0.728435
0.0512245 0.0116884 0.0324865
0.0382544 0.022034 0.0552377
0.0252689 0.0323644 0.0780041
0.0122835 0.04271 0.100771
0 0.0530556 0.123537
0 0.0634012 0.146304
0 0.0737469 0.169055
0 0.0840925 0.191821
0 0.0944228 0.214588
0 0.104768 0.237354
0 0.115114 0.260121
0 0.12546 0.282872
0 0.135805 0.305638
0 0.146151 0.328405
0 0.156481 0.351171
0 0.166827 0.373938
0 0.177172 0.396704
0 0.187518 0.419455
0 0.197864 0.442222
0 0.208209 0.464988
0 0.21854 0.487755
0 0.228885 0.510521
0 0.239231 0.533288
0 0.249577 0.556039
0 0.259922 0.578805
0 0.270253 0.601572
0 0.280598 0.624338
0 0.290944 0.647105
0 0.301289 0.669871
0 0.311635 0.692622
0 0.321981 0.715389
0 0.332311 0.738155
0 0.342657 0.760922
0.10248 0.0233921 0.0649882
0.0894942 0.0337224 0.0877394
0.0765087 0.0440681 0.110506
0.0635386 0.0544137 0.133272
0.0505531 0.0647593 0.156039
0.0375677 0.0750896 0.178805
0.0245975 0.0854353 0.201572
0.0116121 0.0957809 0.224323
0 0.106126 0.247089
0 0.116472 0.269856
0 0.126818 0.292622
0 0.137148 0.315389
0 0.147494 0.33814
0 0.157839 0.360906
0 0.168185 0.383673
0 0.178531 0.406439
0 0.188876 0.429206
0 0.199207 0.451972
0 0.209552 0.474723
0 0.219898 0.49749
0 0.230243 0.520256
0 0.240589 0.543023
0 0.250935 0.565789
0 0.261265 0.588556
0 0.271611 0.611307
0 0.281956 0.634073
0 0.292302 0.65684
0 0.302647 0.679606
0 0.312978 0.702373
0 0.323323 0.725139
0 0.333669 0.74789
0 0.344015 0.770657
0 0.35436 0.793423
0.153719 0.0350805 0.0974899
0.140749 0.0454261 0.120256
0.127764 0.0557717 0.143008
0.114778 0.0661021 0.165774
0.101808 0.0764477 0.18854
0.0888228 0.0867933 0.211307
0.0758373 0.0971389 0.234073
0.0628519 0.107485 0.256825
0.0498817 0.11783 0.279591
0.0368963 0.128161 0.302358
0.0239109 0.138506 0.325124
0.0109255 0.148852 0.34789
0 0.159197 0.370657
0 0.169543 0.393408
0 0.179873 0.416175
0 0.190219 0.438941
0 0.200565 0.461707
0 0.21091 0.484474
0 0.221256 0.50724
0 0.231601 0.529992
0 0.241932 0.552758
0 0.252277 0.575525
0 0.262623 0.598291
0 0.272969 0.621057
0 0.283314 0.643824
0 0.29366 0.666575
0 0.30399 0.689342
0 0.314336 0.712108
0 0.324681 0.734874
0 0.335027 0.757641
0 0.345373 0.780407
0 0.355703 0.803159
0 0.366049 0.825925
0.204974 0.0467842 0.130007
0.191989 0.0571145 0.152758
0.179019 0.0674601 0.175525
0.166033 0.0778058 0.198276
0.153048 0.0881514 0.221042
0.140063 0.098497 0.243809
0.127092 0.108827 0.266575
0.114107 0.119173 0.289342
0.101122 0.129519 0.312093
0.0881514 0.139864 0.334859
0.0751659 0.15021 0.357626
0.0621805 0.160555 0.380392
0.0491951 0.170886 0.403159
0.0362249 0.181231 0.425925
0.0232395 0.191577 0.448676
0.0102541 0.201923 0.471443
0 0.212268 0.494209
0 0.222599 0.516976
0 0.232944 0.539742
0 0.24329 0.562509
0 0.253635 0.58526
0 0.263981 0.608026
0 0.274327 0.630793
0 0.284657 0.653559
0 0.295003 0.676326
0 0.305348 0.699092
0 0.315694 0.721843
0 0.32604 0.74461
0 0.336385 0.767376
0 0.346716 0.790143
0 0.357061 0.812909
0 0.367407 0.835676
0 0.377752 0.858427
0.256214 0.0584726 0.162509
0.243244 0.0688182 0.18526
0.230259 0.0791638 0.208026
0.217288 0.0894942 0.230777
0.204303 0.0998398 0.253544
0.191318 0.110185 0.27631
0.178332 0.120531 0.299077
0.165362 0.130877 0.321843
0.152377 0.141222 0.34461
0.139391 0.151553 0.367361
0.126406 0.161898 0.390127
0.113436 0.172244 0.412894
0.10045 0.182589 0.43566
0.0874647 0.192935 0.458427
0.0744793 0.203281 0.481193
0.0615091 0.213611 0.503944
0.0485237 0.223957 0.526711
0.0355383 0.234302 0.549477
0.0225528 0.244648 0.572244
0.00958267 0.254994 0.59501
0 0.265324 0.617777
0 0.275669 0.640528
0 0.286015 0.663294
0 0.296361 0.686061
0 0.306706 0.708827
0 0.317052 0.731594
0 0.327382 0.75436
0 0.337728 0.777111
0 0.348074 0.799878
0 0.358419 0.822644
0 0.368765 0.845411
0 0.37911 0.868177
0 0.389441 0.890944
0.307469 0.0701762 0.19501
0.294499 0.0805066 0.217762
0.281514 0.0908522 0.240528
0.268528 0.101198 0.263294
0.255543 0.111543 0.286046
0.242573 0.121889 0.308812
0.229587 0.132219 0.331579
0.216602 0.142565 0.354345
0.203616 0.152911 0.377111
0.190646 0.163256 0.399878
0.177661 0.173602 0.422629
0.164675 0.183948 0.445396
0.15169 0.194278 0.468162
0.13872 0.204623 0.490929
0.125734 0.214969 0.513695
0.112749 0.225315 0.536461
0.0997787 0.23566 0.559213
0.0867933 0.246006 0.581979
0.0738079 0.256336 0.604746
0.0608225 0.266682 0.627512
0.0478523 0.277028 0.650278
0.0348669 0.287373 0.673045
0.0218814 0.297719 0.695796
0.00889601 0.308049 0.718563
0 0.318395 0.741329
0 0.32874 0.764096
0 0.339086 0.786862
0 0.349432 0.809628
0 0.359777 0.83238
0 0.370108 0.855146
0 0.380453 0.877913
0 0.390799 0.900679
0 0.401144 0.923445
0.358724 0.0818647 0.227512
0.345739 0.0922103 0.250263
0.332753 0.102556 0.27303
0.319783 0.112902 0.295796
0.306798 0.123232 0.318563
0.293812 0.133577 0.341314
0.280842 0.143923 0.36408
0.267857 0.154269 0.386847
0.254871 0.164614 0.409613
0.241886 0.174945 0.43238
0.228916 0.18529 0.455146
0.21593 0.195636 0.477897
0.202945 0.205982 0.500664
0.18996 0.216327 0.52343
0.176989 0.226673 0.546197
0.164004 0.237003 0.568963
0.151019 0.247349 0.59173
0.138033 0.257694 0.614481
0.125063 0.26804 0.637247
0.112078 0.278386 0.660014
0.0990921 0.288731 0.68278
0.0861067 0.299062 0.705547
0.0731365 0.309407 0.728313
0.0601511 0.319753 0.751064
0.0471656 0.330098 0.773831
0.0341802 0.340444 0.796597
0.02121 0.35079 0.819364
0.00822461 0.36112 0.84213
0 0.371466 0.864897
0 0.381811 0.887648
0 0.392157 0.910414
0 0.402502 0.933181
0 0.412833 0.955947
0.409964 0.0935683 0.260014
0.396994 0.103899 0.282765
0.384009 0.114244 0.305531
0.371023 0.12459 0.328298
0.358053 0.134936 0.351064
0.345068 0.145281 0.373831
0.332082 0.155627 0.396582
0.319097 0.165957 0.419348
0.306127 0.176303 0.442115
0.293141 0.186648 0.464881
0.280156 0.196994 0.487648
0.26717 0.20734 0.510414
0.2542 0.21767 0.533165
0.241215 0.228016 0.555932
0.228229 0.238361 0.578698
0.215244 0.248707 0.601465
0.202274 0.259052 0.624231
0.189288 0.269398 0.646998
0.176303 0.279728 0.669749
0.163333 0.290074 0.692515
0.150347 0.30042 0.715282
0.137362 0.310765 0.738048
0.124376 0.321111 0.760815
0.111406 0.331456 0.783581
0.0984207 0.341787 0.806332
0.0854353 0.352132 0.829099
0.0724498 0.362478 0.851865
0.0594797 0.372824 0.874632
0.0464942 0.383169 0.897398
0.0335088 0.393515 0.92015
0.0205234 0.403845 0.942916
0.00755322 0.414191 0.965682
0 0.424536 0.988449
0.461219 0.105257 0.292515
0.448234 0.115602 0.315267
0.435264 0.125948 0.338033
0.422278 0.136294 0.3608
0.409293 0.146624 0.383566
0.396307 0.15697 0.406332
0.383337 0.167315 0.429099
0.370352 0.177661 0.45185
0.357366 0.188006 0.474617
0.344396 0.198352 0.497383
0.331411 0.208682 0.52015
0.318425 0.219028 0.542916
0.30544 0.229374 0.565682
0.29247 0.239719 0.588434
0.279484 0.250065 0.6112
0.266499 0.26041 0.633967
0.253513 0.270741 0.656733
0.240543 0.281086 0.6795
0.227558 0.291432 0.702266
0.214572 0.301778 0.725017
0.201587 0.312123 0.747784
0.188617 0.322454 0.77055
0.175631 0.332799 0.793317
0.162646 0.343145 0.816083
0.14966 0.353491 0.838834
0.13669 0.363836 0.861601
0.123705 0.374182 0.884367
0.110719 0.384512 0.907134
0.097734 0.394858 0.9299
0.0847639 0.405203 0.952667
0.0717784 0.415549 0.975418
0.058793 0.425895 0.998184
0.0458228 0.43624 1
0.512459 0.11696 0.325032
0.499489 0.127306 0.347784
0.486503 0.137636 0.370535
0.473533 0.147982 0.393301
0.460548 0.158328 0.416068
0.447562 0.168673 0.438834
0.434577 0.179019 0.461601
0.421607 0.189349 0.484367
0.408621 0.199695 0.507118
0.395636 0.21004 0.529885
0.38265 0.220386 0.552651
0.36968 0.230732 0.575418
0.356695 0.241077 0.598184
0.343709 0.251408 0.620951
0.330724 0.261753 0.643702
0.317754 0.272099 0.666468
0.304768 0.282445 0.689235
0.291783 0.29279 0.712001
0.278798 0.303136 0.734768
0.265827 0.313466 0.757534
0.252842 0.323812 0.780285
0.239857 0.334157 0.803052
0.226871 0.344503 0.825818
0.213901 0.354849 0.848585
0.200916 0.365179 0.871351
0.18793 0.375525 0.894102
0.17496 0.38587 0.916869
0.161975 0.396216 0.939635
0.148989 0.406561 0.962402
0.136004 0.416907 0.985168
0.123033 0.427237 1
0.110048 0.437583 1
0.0970626 0.447929 1
0.563714 0.128664 0.357534
0.550744 0.138994 0.380285
0.537758 0.14934 0.403052
0.524773 0.159686 0.425803
0.511788 0.170031 0.448569
0.498817 0.180362 0.471336
0.485832 0.190707 0.494102
0.472847 0.201053 0.516869
0.459861 0.211398 0.539635
0.446891 0.221744 0.562387
0.433906 0.232074 0.585153
0.42092 0.24242 0.607919
0.407935 0.252766 0.630686
0.394965 0.263111 0.653452
0.381979 0.273457 0.676219
0.368994 0.283803 0.69897
0.356023 0.294133 0.721736
0.343038 0.304479 0.744503
0.330053 0.314824 0.767269
0.317067 0.32517 0.790036
0.304097 0.335515 0.812787
0.291112 0.345861 0.835554
0.278126 0.356191 0.85832
0.265141 0.366537 0.881086
0.252171 0.376883 0.903853
0.239185 0.387228 0.926619
0.2262 0.397574 0.949371
0.213214 0.407904 0.972137
0.200244 0.41825 0.994904
0.187259 0.428595 1
0.174273 0.438941 1
0.161288 0.449287 1
0.148318 0.459632 1
0.614969 0.140352 0.390036
0.601984 0.150698 0.412787
0.588998 0.161028 0.435554
0.576028 0.171374 0.45832
0.563043 0.18172 0.481071
0.550057 0.192065 0.503838
0.537087 0.202411 0.526604
0.524102 0.212757 0.549371
0.511116 0.223087 0.572137
0.498131 0.233433 0.594903
0.485161 0.243778 0.617655
0.472175 0.254124 0.640421
0.45919 0.264469 0.663188
0.446204 0.2748 0.685954
0.433234 0.285145 0.708721
0.420249 0.295491 0.731487
0.407263 0.305837 0.754238
0.394278 0.316182 0.777005
0.381308 0.326528 0.799771
0.368322 0.336858 0.822538
0.355337 0.347204 0.845304
0.342351 0.357549 0.868055
0.329381 0.367895 0.890822
0.316396 0.378241 0.913588
0.30341 0.388586 0.936355
0.290425 0.398917 0.959121
0.277455 0.409262 0.981888
0.264469 0.419608 1
0.251484 0.429953 1
0.238514 0.440299 1
0.225528 0.450645 1
0.212543 0.460975 1
0.199557 0.471321 1
0.666209 0.152056 0.422538
0.653239 0.162387 0.445289
0.640253 0.172732 0.468055
0.627268 0.183078 0.490822
0.614298 0.193423 0.513588
0.601312 0.203754 0.536339
0.588327 0.214099 0.559106
0.575341 0.224445 0.581872
0.562371 0.234791 0.604639
0.549386 0.245136 0.627405
0.5364 0.255482 0.650172
0.523415 0.265812 0.672923
0.510445 0.276158 0.695689
0.497459 0.286503 0.718456
0.484474 0.296849 0.741222
0.471489 0.307195 0.763989
0.458518 0.317525 0.78674
0.445533 0.327871 0.809506
0.432547 0.338216 0.832273
0.419562 0.348562 0.855039
0.406592 0.358907 0.877806
0.393606 0.369253 0.900572
0.380621 0.379583 0.923323
0.367651 0.389929 0.94609
0.354665 0.400275 0.968856
0.34168 0.41062 0.991623
0.328695 0.420966 1
0.315724 0.431312 1
0.302739 0.441642 1
0.289754 0.451987 1
0.276768 0.462333 1
0.263798 0.472679 1
0.250813 0.483024 1
0.717464 0.163745 0.455039
0.704479 0.17409 0.477791
0.691508 0.184421 0.500557
0.678523 0.194766 0.523323
0.665537 0.205112 0.54609
0.652552 0.215457 0.568856
0.639582 0.225803 0.591608
0.626596 0.236149 0.614374
0.613611 0.246479 0.63714
0.600626 0.256825 0.659907
0.587655 0.26717 0.682673
0.57467 0.277516 0.70544
0.561685 0.287861 0.728191
0.548714 0.298207 0.750957
0.535729 0.308537 0.773724
0.522744 0.318883 0.79649
0.509758 0.329229 0.819257
0.496788 0.339574 0.842008
0.483803 0.34992 0.864775
0.470817 0.360265 0.887541
0.457832 0.370596 0.910307
0.444862 0.380941 0.933074
0.431876 0.391287 0.95584
0.418891 0.401633 0.978592
0.405905 0.411978 1
0.392935 0.422309 1
0.37995 0.432654 1
0.366964 0.443 1
0.353979 0.453346 1
0.341009 0.463691 1
0.328023 0.474037 1
0.315038 0.484367 1
0.302052 0.494713 1
0.768704 0.175448 0.487541
0.755734 0.185779 0.510292
0.742748 0.196124 0.533059
0.729778 0.20647 0.555825
0.716793 0.216815 0.578592
0.703807 0.227146 0.601358
0.690822 0.237491 0.624125
0.677852 0.247837 0.646876
0.664866 0.258183 0.669642
0.651881 0.268528 0.692409
0.638895 0.278874 0.715175
0.625925 0.289204 0.737942
0.61294 0.29955 0.760693
0.599954 0.309895 0.783459
0.586969 0.320241 0.806226
0.573999 0.330587 0.828992
0.561013 0.340932 0.851759
0.548028 0.351263 0.874525
0.535042 0.361608 0.897276
0.522072 0.371954 0.920043
0.509087 0.3823 0.942809
0.496101 0.392645 0.965576
0.483116 0.402991 0.988342
0.470146 0.413321 1
0.45716 0.423667 1
0.444175 0.434012 1
0.431205 0.444358 1
0.418219 0.454704 1
0.405234 0.465034 1
0.392248 0.47538 1
0.379278 0.485725 1
0.366293 0.496071 1
0.353307 0.506416 1
0.819959 0.187137 0.520043
0.806989 0.197482 0.542809
0.794003 0.207828 0.56556
0.781018 0.218158 0.588327
0.768032 0.228504 0.611093
0.755062 0.238849 0.63386
0.742077 0.249195 0.656626
0.729091 0.259541 0.679393
0.716106 0.269886 0.702144
0.703136 0.280217 0.72491
0.69015 0.290562 0.747677
0.677165 0.300908 0.770443
0.664179 0.311254 0.79321
0.651209 0.321599 0.815961
0.638224 0.33193 0.838727
0.625238 0.342275 0.861494
0.612268 0.352621 0.88426
0.599283 0.362966 0.907027
0.586297 0.373312 0.929793
0.573312 0.383658 0.952544
0.560342 0.393988 0.975311
0.547356 0.404334 0.998077
0.534371 0.414679 1
0.521385 0.425025 1
0.508415 0.43537 1
0.49543 0.445716 1
0.482444 0.456046 1
0.469459 0.466392 1
0.456489 0.476738 1
0.443503 0.487083 1
0.430518 0.497429 1
0.417533 0.507759 1
0.404562 0.518105 1
0.871214 0.19884 0.55256
0.858228 0.209171 0.575311
0.845243 0.219516 0.598077
0.832273 0.229862 0.620829
0.819287 0.240208 0.643595
0.806302 0.250553 0.666362
0.793317 0.260884 0.689128
0.780346 0.271229 0.711894
0.767361 0.281575 0.734646
0.754376 0.29192 0.757412
0.741405 0.302266 0.780179
0.72842 0.312612 0.802945
0.715434 0.322942 0.825711
0.702449 0.333288 0.848478
0.689479 0.343633 0.871229
0.676493 0.353979 0.893996
0.663508 0.364324 0.916762
0.650523 0.374655 0.939529
0.637552 0.385 0.962295
0.624567 0.395346 0.985061
0.611582 0.405692 1
0.598596 0.416037 1
0.585626 0.426383 1
0.572641 0.436713 1
0.559655 0.447059 1
0.54667 0.457404 1
0.5337 0.46775 1
0.520714 0.478096 1
0.507729 0.488441 1
0.494759 0.498772 1
0.481773 0.509117 1
0.468788 0.519463 1
0.455802 0.529809 1
0.922454 0.210529 0.585061
0.909483 0.220874 0.607813
0.896498 0.23122 0.630579
0.883513 0.24155 0.653346
0.870542 0.251896 0.676097
0.857557 0.262242 0.698863
0.844572 0.272587 0.72163
0.831586 0.282933 0.744396
0.818616 0.293278 0.767163
0.805631 0.303609 0.789914
0.792645 0.313954 0.81268
0.77966 0.3243 0.835447
0.76669 0.334646 0.858213
0.753704 0.344991 0.88098
0.740719 0.355337 0.903746
0.727733 0.365667 0.926497
0.714763 0.376013 0.949264
0.701778 0.386358 0.97203
0.688792 0.396704 0.994797
0.675807 0.40705 1
0.662837 0.41738 1
0.649851 0.427726 1
0.636866 0.438071 1
0.623896 0.448417 1
0.61091 0.458762 1
0.597925 0.469108 1
0.584939 0.479438 1
0.571969 0.489784 1
0.558984 0.50013 1
0.545998 0.510475 1
0.533013 0.520821 1
0.520043 0.531167 1
0.507057 0.541497 1
0.973709 0.222232 0.617563
0.960723 0.232563 0.640314
0.947753 0.242908 0.663081
0.934768 0.253254 0.685847
0.921782 0.2636 0.708598
0.908797 0.273945 0.731365
0.895827 0.284276 0.754131
0.882841 0.294621 0.776898
0.869856 0.304967 0.799664
0.85687 0.315312 0.822431
0.8439 0.325658 0.845182
0.830915 0.336004 0.867948
0.817929 0.346334 0.890715
0.804959 0.35668 0.913481
0.791974 0.367025 0.936248
0.778988 0.377371 0.959014
0.766003 0.387717 0.981765
0.753033 0.398062 1
0.740047 0.408392 1
0.727062 0.418738 1
0.714076 0.429084 1
0.701106 0.439429 1
0.688121 0.449775 1
0.675135 0.460105 1
0.66215 0.470451 1
0.64918 0.480797 1
0.636194 0.491142 1
0.623209 0.501488 1
0.610224 0.511833 1
0.597253 0.522164 1
0.584268 0.532509 1
0.571283 0.542855 1
0.558297 0.553201 1
1 0.233921 0.650065
1 0.244266 0.672816
0.998993 0.254612 0.695583
0.986023 0.264958 0.718349
0.973037 0.275288 0.741115
0.960052 0.285634 0.763867
0.947066 0.295979 0.786633
0.934096 0.306325 0.8094
0.921111 0.31667 0.832166
0.908125 0.327001 0.854932
0.89514 0.337346 0.877699
0.88217 0.347692 0.90045
0.869184 0.358038 0.923217
0.856199 0.368383 0.945983
0.843214 0.378729 0.96875
0.830243 0.389059 0.991516
0.817258 0.399405 1
0.804273 0.409751 1
0.791287 0.420096 1
0.778317 0.430442 1
0.765332 0.440787 1
0.752346 0.451118 1
0.739361 0.461463 1
0.72639 0.471809 1
0.713405 0.482155 1
0.70042 0.4925 1
0.687449 0.502846 1
0.674464 0.513176 1
0.661479 0.523522 1
0.648493 0.533867 1
0.635523 0.544213 1
0.622538 0.554559 1
0.609552 0.564889 1
1 0.245624 0.682567
1 0.255955 0.705318
1 0.2663 0.728084
1 0.276646 0.750851
1 0.286992 0.773617
1 0.297337 0.796384
0.998322 0.307683 0.819135
0.985336 0.318013 0.841901
0.972351 0.328359 0.864668
0.959381 0.338704 0.887434
0.946395 0.34905 0.910201
0.93341 0.359396 0.932967
0.920424 0.369726 0.955718
0.907454 0.380072 0.978485
0.894469 0.390417 1
0.881483 0.400763 1
0.868498 0.411109 1
0.855528 0.421454 1
0.842542 0.431785 1
0.829557 0.44213 1
0.816587 0.452476 1
0.803601 0.462821 1
0.790616 0.473167 1
0.77763 0.483513 1
0.76466 0.493843 1
0.751675 0.504189 1
0.738689 0.514534 1
0.725704 0.52488 1
0.712734 0.535225 1
0.699748 0.545571 1
0.686763 0.555901 1
0.673777 0.566247 1
0.660807 0.576593 1
1 0.257313 0.715068
1 0.267659 0.737819
1 0.278004 0.760586
1 0.28835 0.783352
1 0.29868 0.806119
1 0.309026 0.828885
1 0.319371 0.851652
1 0.329717 0.874403
1 0.340063 0.897169
1 0.350408 0.919936
0.99765 0.360739 0.942702
0.984665 0.371084 0.965469
0.971679 0.38143 0.988235
0.958694 0.391775 1
0.945724 0.402121 1
0.932738 0.412467 1
0.919753 0.422797 1
0.906767 0.433143 1
0.893797 0.443488 1
0.880812 0.453834 1
0.867826 0.464179 1
0.854841 0.47451 1
0.841871 0.484855 1
0.828885 0.495201 1
0.8159 0.505547 1
0.802915 0.515892 1
0.789944 0.526238 1
0.776959 0.536568 1
0.763973 0.546914 1
0.750988 0.55726 1
0.738018 0.567605 1
0.725032 0.577951 1
0.712047 0.588296 1
1 0.269017 0.747585
1 0.279347 0.770336
1 0.289693 0.793088
1 0.300038 0.815854
1 0.310384 0.838621
1 0.320729 0.861387
1 0.331075 0.884153
1 0.341405 0.90692
1 0.351751 0.929671
1 0.362097 0.952438
1 0.372442 0.975204
1 0.382788 0.997971
1 0.393133 1
1 0.403464 1
0.996963 0.413809 1
0.983978 0.424155 1
0.971008 0.434501 1
0.958022 0.444846 1
0.945037 0.455192 1
0.932052 0.465522 1
0.919081 0.475868 1
0.906096 0.486213 1
0.893111 0.496559 1
0.88014 0.506905 1
0.867155 0.517235 1
0.85417 0.527581 1
0.841184 0.537926 1
0.828214 0.548272 1
0.815229 0.558618 1
0.802243 0.568963 1
0.789258 0.579293 1
0.776287 0.589639 1
0.763302 0.599985 1
1 0.28072 0.780087
1 0.291051 0.802838
1 0.301396 0.825605
1 0.311742 0.848356
1 0.322087 0.871122
1 0.332418 0.893889
1 0.342763 0.916655
1 0.353109 0.939422
1 0.363455 0.962188
1 0.3738 0.984939
1 0.384131 1
1 0.394476 1
1 0.404822 1
1 0.415167 1
1 0.425513 1
1 0.435859 1
1 0.446189 1
1 0.456535 1
0.996292 0.46688 1
0.983307 0.477226 1
0.970321 0.487572 1
0.957351 0.497917 1
0.944366 0.508247 1
0.93138 0.518593 1
0.918395 0.528939 1
0.905425 0.539284 1
0.892439 0.54963 1
0.879454 0.55996 1
0.866468 0.570306 1
0.853498 0.580652 1
0.840513 0.590997 1
0.827527 0.601343 1
0.814542 0.611688 1
1 0.292409 0.812589
1 0.302754 0.83534
1 0.313085 0.858106
1 0.32343 0.880873
1 0.333776 0.903624
1 0.344121 0.92639
1 0.354467 0.949157
1 0.364813 0.971923
1 0.375143 0.99469
1 0.385489 1
1 0.395834 1
1 0.40618 1
1 0.416526 1
1 0.426856 1
1 0.437201 1
1 0.447547 1
1 0.457893 1
1 0.468238 1
1 0.478584 1
1 0.488914 1
1 0.49926 1
1 0.509606 1
0.995605 0.519951 1
0.982635 0.530297 1
0.96965 0.540642 1
0.956664 0.550973 1
0.943679 0.561318 1
0.930709 0.571664 1
0.917723 0.58201 1
0.904738 0.592355 1
0.891768 0.602686 1
0.878782 0.613031 1
0.865797 0.623377 1
1 0.304112 0.84509
1 0.314443 0.867842
1 0.324788 0.890608
1 0.335134 0.913375
1 0.34548 0.936141
1 0.35581 0.958892
1 0.366155 0.981659
1 0.376501 1
1 0.386847 1
1 0.397192 1
1 0.407538 1
1 0.417868 1
1 0.428214 1
1 0.43856 1
1 0.448905 1
1 0.459251 1
1 0.469581 1
1 0.479927 1
1 0.490272 1
1 0.500618 1
1 0.510964 1
1 0.521309 1
1 0.53164 1
1 0.541985 1
1 0.552331 1
1 0.562676 1
0.994934 0.573022 1
0.981949 0.583368 1
0.968978 0.593698 1
0.955993 0.604044 1
0.943008 0.614389 1
0.930022 0.624735 1
0.917052 0.635081 1
1 0.315801 0.877592
1 0.326146 0.900343
1 0.336477 0.92311
1 0.346822 0.945876
1 0.357168 0.968643
1 0.367514 0.991409
1 0.377859 1
1 0.388205 1
1 0.398535 1
