public/LUTS/Color Shift/ColorShift_31.cube
TITLE "Generated by Resolve"
LUT_3D_SIZE 5
0 0 0
0.211048 0 0.177646
0.42211 0 0.355291
0.633173 0 0.532937
0.844251 0 0.710582
0.217746 0.193301 0
0.428809 0.182147 0.110475
0.639872 0.170977 0.288121
0.850935 0.159823 0.465766
1 0.148669 0.643412
0.435508 0.386603 0
0.646571 0.375448 0.0433051
0.857633 0.364294 0.220951
1 0.353124 0.398596
1 0.34197 0.576242
0.653284 0.579919 0
0.864332 0.568765 0
1 0.557595 0.15378
1 0.546441 0.331426
1 0.535286 0.509071
0.871046 0.77322 0
1 0.762066 0
1 0.750912 0.0866102
1 0.739757 0.264256
1 0.728588 0.441901
0 0.0678416 0.139513
0.0322423 0.0566873 0.317159
0.243305 0.0455329 0.494804
0.454368 0.0343786 0.67245
0.665431 0.023209 0.850111
0.038941 0.261143 0.072343
0.249989 0.249989 0.249989
0.461051 0.238834 0.427634
0.672114 0.227665 0.60528
0.883177 0.21651 0.78294
0.256703 0.454459 0.00517281
0.46775 0.443305 0.182818
0.678813 0.432135 0.360464
0.889876 0.420981 0.538109
1 0.409827 0.71577
0.474464 0.647761 0
0.685512 0.636606 0.115648
0.896574 0.625452 0.293294
1 0.614298 0.470939
1 0.603128 0.6486
0.692226 0.841077 0
0.903273 0.829923 0.0484779
1 0.818753 0.226123
1 0.807599 0.403769
1 0.796445 0.581415
0 0.135698 0.279042
0 0.124544 0.456687
0.0644846 0.11339 0.634333
0.275547 0.10222 0.811978
0.48661 0.0910658 0.989624
0 0.329 0.211872
0.0711681 0.317845 0.389517
0.282231 0.306676 0.567163
0.493294 0.295521 0.744808
0.704356 0.284367 0.922469
0.0778821 0.522316 0.144701
0.28893 0.511147 0.322347
0.499992 0.499992 0.499992
0.711055 0.488838 0.677638
0.922118 0.477668 0.855283
0.295644 0.715618 0.0775311
0.506691 0.704463 0.255177
0.717754 0.693309 0.432822
0.928817 0.682139 0.610468
1 0.670985 0.788113
0.513405 0.908934 0.0103609
0.724453 0.897765 0.188006
0.935515 0.88661 0.365652
1 0.875456 0.543297
1 0.864302 0.720943
0 0.203555 0.41857
0 0.192401 0.596216
0 0.181231 0.773861
0.0967117 0.170077 0.951507
0.307774 0.158923 1
0 0.396857 0.3514
0 0.385687 0.529046
0.10341 0.374533 0.706691
0.314473 0.363378 0.884337
0.525536 0.352224 1
0 0.590158 0.28423
0.110109 0.579004 0.461875
0.321172 0.567849 0.639521
0.532235 0.55668 0.817166
0.743297 0.545525 0.994812
0.116823 0.783475 0.21706
0.327871 0.77232 0.394705
0.538933 0.761151 0.572351
0.749996 0.749996 0.749996
0.961059 0.738842 0.927642
0.334585 0.976776 0.149889
0.545632 0.965621 0.32752
0.756695 0.954467 0.50518
0.967758 0.943313 0.682826
1 0.932143 0.860471
0 0.271412 0.558099
0 0.260243 0.735729
0 0.249088 0.91339
0 0.237934 1
0.128954 0.22678 1
0 0.464698 0.490929
0 0.453544 0.668574
0 0.44239 0.84622
0.135637 0.431235 1
0.346716 0.420066 1
0 0.658015 0.423758
0 0.64686 0.601389
0.142336 0.635691 0.779049
0.353414 0.624537 0.956695
0.564477 0.613382 1
0 0.851331 0.356588
0.14905 0.840162 0.534218
0.360113 0.829007 0.711879
0.571176 0.817853 0.889525
0.782238 0.806683 1
0.155749 1 0.289418
0.366812 1 0.467048
0.577874 1 0.644709
0.788937 1 0.822354
1 1 1
