public/LUTS/Color Shift/ColorShift_80.cube
TITLE "Generated by Resolve"
LUT_3D_SIZE 33
0 0 0
0.0433967 0 0.0287785
0.0868238 0 0.0575723
0.130251 0 0.0863813
0.173678 0 0.115175
0.217105 0 0.143969
0.260533 0 0.172763
0.30396 0 0.201572
0.347387 0 0.230365
0.390814 0 0.259159
0.434226 0 0.287953
0.477653 0 0.316747
0.52108 0 0.345556
0.564508 0 0.37435
0.607935 0 0.403143
0.651362 0 0.431937
0.694789 0 0.460731
0.738216 0 0.48954
0.781628 0 0.518334
0.825055 0 0.547127
0.868482 0 0.575921
0.91191 0 0.604715
0.955337 0 0.633524
0.998764 0 0.662318
1 0 0.691112
1 0 0.719905
1 0 0.748699
1 0 0.777508
1 0 0.806302
1 0 0.835096
1 0 0.86389
1 0 0.892683
1 0 0.921492
0.0242924 0.0278325 0
0.067689 0.0204776 0
0.111116 0.0131228 0.0273442
0.154543 0.00576791 0.0561379
0.197971 0 0.0849317
0.241398 0 0.113725
0.284825 0 0.142519
0.328252 0 0.171328
0.371664 0 0.200122
0.415091 0 0.228916
0.458518 0 0.25771
0.501945 0 0.286503
0.545373 0 0.315312
0.5888 0 0.344106
0.632227 0 0.3729
0.675654 0 0.401694
0.719066 0 0.430503
0.762493 0 0.459297
0.80592 0 0.48809
0.849348 0 0.516884
0.892775 0 0.545678
0.936202 0 0.574487
0.979629 0 0.603281
1 0 0.632074
1 0 0.660868
1 0 0.689662
1 0 0.718471
1 0 0.747265
1 0 0.776059
1 0 0.804852
1 0 0.833646
1 0 0.862455
1 0 0.891249
0.0485847 0.0556802 0
0.0919966 0.0483406 0
0.135424 0.0409857 0
0.178851 0.0336309 0.0258793
0.222278 0.026276 0.0546731
0.26569 0.0189212 0.0834669
0.309117 0.0115663 0.112276
0.352544 0.00421149 0.14107
0.395972 0 0.169863
0.439399 0 0.198657
0.482826 0 0.227451
0.526253 0 0.25626
0.56968 0 0.285054
0.613092 0 0.313848
0.656519 0 0.342641
0.699947 0 0.371435
0.743374 0 0.400244
0.786801 0 0.429038
0.830228 0 0.457832
0.873655 0 0.486625
0.917082 0 0.515435
0.96051 0 0.544228
1 0 0.573022
1 0 0.601816
1 0 0.63061
1 0 0.659419
1 0 0.688212
1 0 0.717006
1 0 0.7458
1 0 0.774594
1 0 0.803403
1 0 0.832197
1 0 0.86099
0.0728923 0.0835431 0
0.116304 0.0761883 0
0.159716 0.0688334 0
0.203143 0.0614786 0
0.246571 0.0541238 0.0244144
0.289998 0.0467689 0.0532235
0.333425 0.0394141 0.0820172
0.376852 0.0320592 0.110811
0.420279 0.0247044 0.139605
0.463706 0.0173495 0.168399
0.507118 0.00999466 0.197208
0.550546 0.00263981 0.226001
0.593973 0 0.254795
0.6374 0 0.283589
0.680827 0 0.312383
0.724254 0 0.341192
0.767681 0 0.369985
0.811109 0 0.398779
0.85452 0 0.427573
0.897948 0 0.456367
0.941375 0 0.485176
0.984802 0 0.51397
1 0 0.542763
1 0 0.571557
1 0 0.600366
1 0 0.62916
1 0 0.657954
1 0 0.686748
1 0 0.715541
1 0 0.74435
1 0 0.773144
1 0 0.801938
1 0 0.830732
0.0972 0.111391 0
0.140597 0.104036 0
0.184024 0.0966812 0
0.227451 0.0893263 0
0.270878 0.0819715 0
0.314305 0.0746166 0.0229648
0.357733 0.0672618 0.0517586
0.401144 0.0599069 0.0805524
0.444572 0.0525521 0.109346
0.487999 0.0451972 0.138155
0.531426 0.0378424 0.166949
0.574853 0.0304875 0.195743
0.61828 0.0231327 0.224537
0.661707 0.0157778 0.25333
0.705135 0.00842298 0.282139
0.748547 0.00106813 0.310933
0.791974 0 0.339727
0.835401 0 0.368521
0.878828 0 0.397314
0.922255 0 0.426123
0.965682 0 0.454917
1 0 0.483711
1 0 0.512505
1 0 0.541299
1 0 0.570108
1 0 0.598901
1 0 0.627695
1 0 0.656489
1 0 0.685298
1 0 0.714092
1 0 0.742885
1 0 0.771679
1 0 0.800473
0.121492 0.139239 0
0.164904 0.131884 0
0.208331 0.124529 0
0.251759 0.117174 0
0.295171 0.109819 0
0.338598 0.102464 0
0.382025 0.0951095 0.0215
0.425452 0.0877546 0.0502937
0.468879 0.0803998 0.0791028
0.512306 0.0730449 0.107897
0.555734 0.0656901 0.13669
0.599161 0.0583352 0.165484
0.642573 0.0509804 0.194278
0.686 0.0436255 0.223087
0.729427 0.0362707 0.251881
0.772854 0.0289158 0.280674
0.816281 0.021561 0.309468
0.859709 0.0142061 0.338262
0.903136 0.0068513 0.367071
0.946563 0 0.395865
0.989975 0 0.424659
1 0 0.453452
1 0 0.482246
1 0 0.511055
1 0 0.539849
1 0 0.568643
1 0 0.597436
1 0 0.62623
1 0 0.655039
1 0 0.683833
1 0 0.712627
1 0 0.741421
1 0 0.77023
0.1458 0.167086 0
0.189197 0.159731 0
0.232624 0.152377 0
0.276051 0.145022 0
0.319478 0.137667 0
0.362905 0.130312 0
0.406332 0.122957 0
0.44976 0.115602 0.0200504
0.493187 0.108248 0.0488441
0.536599 0.100893 0.0776379
0.580026 0.0935378 0.106432
0.623453 0.086183 0.135225
0.66688 0.0788281 0.164034
0.710307 0.0714733 0.192828
0.753735 0.0641184 0.221622
0.797162 0.0567636 0.250416
0.840589 0.0494087 0.27921
0.884001 0.0420539 0.308019
0.927428 0.034699 0.336812
0.970855 0.0273442 0.365606
1 0.0199893 0.3944
1 0.0126345 0.423194
1 0.00527962 0.452003
1 0 0.480797
1 0 0.50959
1 0 0.538384
1 0 0.567178
1 0 0.595987
1 0 0.624781
1 0 0.653574
1 0 0.682368
1 0 0.711162
1 0 0.739971
0.170108 0.194934 0
0.213504 0.187579 0
0.256931 0.180224 0
0.300359 0.172869 0
0.343786 0.165515 0
0.387213 0.15816 0
0.430625 0.150805 0
0.474052 0.14345 0
0.517479 0.136095 0.0185855
0.560906 0.12874 0.0473793
0.604334 0.121386 0.076173
0.647761 0.114031 0.104982
0.691188 0.106676 0.133776
0.734615 0.099321 0.16257
0.778027 0.0919661 0.191363
0.821454 0.0846113 0.220157
0.864881 0.0772564 0.248966
0.908309 0.0699016 0.27776
0.951736 0.0625467 0.306554
0.995163 0.0551919 0.335348
1 0.047837 0.364141
1 0.0404822 0.39295
1 0.0331273 0.421744
1 0.0257725 0.450538
1 0.0184176 0.479332
1 0.0110628 0.508125
1 0.00370794 0.536934
1 0 0.565728
1 0 0.594522
1 0 0.623316
1 0 0.65211
1 0 0.680919
1 0 0.709712
0.1944 0.222782 0
0.237812 0.215427 0
0.281239 0.208072 0
0.324651 0.200717 0
0.368078 0.193362 0
0.411505 0.186007 0
0.454932 0.178653 0
0.49836 0.171298 0
0.541787 0.163943 0
0.585214 0.156588 0.0171206
0.628641 0.149233 0.0459144
0.672053 0.141878 0.0747234
0.71548 0.134524 0.103517
0.758907 0.127169 0.132311
0.802335 0.119814 0.161105
0.845762 0.112459 0.189914
0.889189 0.105104 0.218708
0.932616 0.0977493 0.247501
0.976043 0.0903944 0.276295
1 0.0830396 0.305089
1 0.0756847 0.333898
1 0.0683299 0.362692
1 0.0609751 0.391485
1 0.0536202 0.420279
1 0.0462654 0.449073
1 0.0389105 0.477882
1 0.0315557 0.506676
1 0.0242008 0.53547
1 0.016846 0.564263
1 0.00949111 0.593057
1 0.00213626 0.621866
1 0 0.65066
1 0 0.679454
0.218708 0.250629 0
0.262104 0.24329 0
0.305531 0.235935 0
0.348959 0.22858 0
0.392386 0.221225 0
0.435813 0.21387 0
0.47924 0.206516 0
0.522667 0.199145 0
0.566079 0.191791 0
0.609506 0.184436 0
0.652934 0.177081 0.015671
0.696361 0.169726 0.0444648
0.739788 0.162371 0.0732586
0.783215 0.155016 0.102052
0.826642 0.147662 0.130846
0.870069 0.140307 0.159655
0.913481 0.132952 0.188449
0.956909 0.125597 0.217243
1 0.118242 0.246036
1 0.110887 0.274846
1 0.103532 0.303639
1 0.0961776 0.332433
1 0.0888228 0.361227
1 0.0814679 0.390021
1 0.0741131 0.41883
1 0.0667582 0.447623
1 0.0594034 0.476417
1 0.0520485 0.505211
1 0.0446937 0.534005
1 0.0373388 0.562814
1 0.029984 0.591608
1 0.0226291 0.620401
1 0.0152743 0.649195
0.243 0.278477 0
0.286412 0.271138 0
0.329839 0.263783 0
0.373266 0.256428 0
0.416693 0.249073 0
0.460105 0.241718 0
0.503532 0.234363 0
0.54696 0.227008 0
0.590387 0.219654 0
0.633814 0.212299 0
0.677241 0.204944 0
0.720668 0.197589 0.0142061
0.764096 0.190234 0.0429999
0.807507 0.182879 0.0717937
0.850935 0.175525 0.100603
0.894362 0.16817 0.129397
0.937789 0.160815 0.15819
0.981216 0.15346 0.186984
1 0.146105 0.215778
1 0.13875 0.244587
1 0.131395 0.273381
1 0.124041 0.302174
1 0.11667 0.330968
1 0.109316 0.359777
1 0.101961 0.388571
1 0.0946059 0.417365
1 0.0872511 0.446159
1 0.0798962 0.474952
1 0.0725414 0.503761
1 0.0651865 0.532555
1 0.0578317 0.561349
1 0.0504768 0.590143
1 0.043122 0.618936
0.267308 0.30634 0
0.310719 0.298985 0
0.354131 0.29163 0
0.397559 0.284276 0
0.440986 0.276921 0
0.484413 0.269566 0
0.52784 0.262211 0
0.571267 0.254856 0
0.614694 0.247501 0
0.658122 0.240146 0
0.701534 0.232792 0
0.744961 0.225437 0
0.788388 0.218082 0.0127413
0.831815 0.210727 0.0415503
0.875242 0.203372 0.0703441
0.918669 0.196017 0.0991379
0.962097 0.188663 0.127932
1 0.181308 0.156725
1 0.173953 0.185534
1 0.166598 0.214328
1 0.159243 0.243122
1 0.151888 0.271916
1 0.144533 0.30071
1 0.137179 0.329519
1 0.129824 0.358312
1 0.122469 0.387106
1 0.115114 0.4159
1 0.107759 0.444709
1 0.100404 0.473503
1 0.0930495 0.502297
1 0.0856947 0.53109
1 0.0783398 0.559884
1 0.070985 0.588693
0.291615 0.334188 0
0.335012 0.326833 0
0.378439 0.319478 0
0.421866 0.312123 0
0.465293 0.304768 0
0.508721 0.297414 0
0.552148 0.290059 0
0.59556 0.282704 0
0.638987 0.275349 0
0.682414 0.267994 0
0.725841 0.260639 0
0.769268 0.253285 0
0.812696 0.24593 0
0.856123 0.238575 0.0112917
0.89955 0.23122 0.0400854
0.942962 0.223865 0.0688792
0.986389 0.21651 0.097673
1 0.209155 0.126482
1 0.201801 0.155276
1 0.194446 0.18407
1 0.187091 0.212863
1 0.179736 0.241657
1 0.172381 0.270466
1 0.165026 0.29926
1 0.157671 0.328054
1 0.150317 0.356847
1 0.142962 0.385641
1 0.135607 0.41445
1 0.128252 0.443244
1 0.120897 0.472038
1 0.113542 0.500832
1 0.106188 0.529641
1 0.0988327 0.558434
0.315908 0.362036 0
0.359319 0.354681 0
0.402747 0.347326 0
0.446174 0.339971 0
0.489586 0.332616 0
0.533013 0.325261 0
0.57644 0.317906 0
0.619867 0.310552 0
0.663294 0.303197 0
0.706722 0.295842 0
0.750149 0.288487 0
0.793576 0.281132 0
0.836988 0.273777 0
0.880415 0.266423 0
0.923842 0.259068 0.00982681
0.967269 0.251713 0.0386206
1 0.244358 0.0674296
1 0.237003 0.0962234
1 0.229648 0.125017
1 0.222293 0.153811
1 0.214939 0.182605
1 0.207584 0.211414
1 0.200229 0.240208
1 0.192874 0.269001
1 0.185519 0.297795
1 0.178164 0.326589
1 0.170809 0.355398
1 0.163455 0.384192
1 0.1561 0.412985
1 0.148745 0.441779
1 0.14139 0.470573
1 0.134035 0.499382
1 0.12668 0.528176
0.340215 0.389883 0
0.383612 0.382528 0
0.427039 0.375174 0
0.470466 0.367819 0
0.513893 0.360464 0
0.557321 0.353109 0
0.600748 0.345754 0
0.644175 0.338399 0
0.687602 0.331044 0
0.731014 0.32369 0
0.774441 0.316335 0
0.817868 0.30898 0
0.861295 0.301625 0
0.904723 0.29427 0
0.94815 0.286915 0
0.991577 0.279561 0.0083772
1 0.272206 0.037171
1 0.264851 0.0659648
1 0.257496 0.0947585
1 0.250141 0.123552
1 0.242786 0.152361
1 0.235431 0.181155
1 0.228077 0.209949
1 0.220722 0.238743
1 0.213367 0.267536
1 0.206012 0.296345
1 0.198657 0.325139
1 0.191302 0.353933
1 0.183948 0.382727
1 0.176593 0.411521
1 0.169238 0.44033
1 0.161883 0.469123
1 0.154528 0.497917
0.364523 0.417731 0
0.407919 0.410376 0
0.451347 0.403021 0
0.494774 0.395666 0
0.538201 0.388312 0
0.581628 0.380957 0
0.62504 0.373602 0
0.668467 0.366247 0
0.711894 0.358892 0
0.755322 0.351537 0
0.798749 0.344182 0
0.842176 0.336828 0
0.885603 0.329473 0
0.92903 0.322118 0
0.972442 0.314763 0
1 0.307408 0
1 0.300053 0.00691234
1 0.292699 0.0357061
1 0.285344 0.0644999
1 0.277989 0.0933089
1 0.270634 0.122103
1 0.263279 0.150896
1 0.255924 0.17969
1 0.248569 0.208484
1 0.241215 0.237293
1 0.23386 0.266087
1 0.226505 0.294881
1 0.21915 0.323674
1 0.211795 0.352468
1 0.20444 0.381277
1 0.197086 0.410071
1 0.189731 0.438865
1 0.182376 0.467658
0.388815 0.445579 0
0.432227 0.438224 0
0.475654 0.430869 0
0.519066 0.423514 0
0.562493 0.416159 0
0.60592 0.408804 0
0.649348 0.40145 0
0.692775 0.394095 0
0.736202 0.38674 0
0.779629 0.379385 0
0.823056 0.37203 0
0.866468 0.364675 0
0.909895 0.357321 0
0.953323 0.349966 0
0.99675 0.342611 0
1 0.335256 0
1 0.327901 0
1 0.320546 0.00544747
1 0.313191 0.0342565
1 0.305837 0.0630503
1 0.298482 0.0918441
1 0.291127 0.120638
1 0.283772 0.149432
1 0.276417 0.178241
1 0.269062 0.207034
1 0.261707 0.235828
1 0.254353 0.264622
1 0.246998 0.293416
1 0.239643 0.322225
1 0.232288 0.351019
1 0.224933 0.379812
1 0.217578 0.408606
1 0.210224 0.4374
0.413123 0.473426 0
0.456519 0.466087 0
0.499947 0.458732 0
0.543374 0.451377 0
0.586801 0.444022 0
0.630228 0.436667 0
0.673655 0.429313 0
0.717083 0.421958 0
0.760494 0.414603 0
0.803922 0.407248 0
0.847349 0.399893 0
0.890776 0.392538 0
0.934203 0.385183 0
0.97763 0.377829 0
1 0.370474 0
1 0.363104 0
1 0.355749 0
1 0.348394 0
1 0.341039 0.00399786
1 0.333684 0.0327916
1 0.326329 0.0615854
1 0.318975 0.0903792
1 0.31162 0.119188
1 0.304265 0.147982
1 0.29691 0.176776
1 0.289555 0.20557
1 0.2822 0.234363
1 0.274846 0.263172
1 0.267491 0.291966
1 0.260136 0.32076
1 0.252781 0.349554
1 0.245426 0.378347
1 0.238071 0.407156
0.437415 0.501289 0
0.480827 0.493935 0
0.524254 0.48658 0
0.567681 0.479225 0
0.611109 0.47187 0
0.654521 0.464515 0
0.697948 0.45716 0
0.741375 0.449805 0
0.784802 0.442451 0
0.828229 0.435096 0
0.871656 0.427741 0
0.915084 0.420386 0
0.958511 0.413031 0
1 0.405676 0
1 0.398322 0
1 0.390967 0
1 0.383612 0
1 0.376257 0
1 0.368902 0
1 0.361547 0.002533
1 0.354192 0.0313268
1 0.346838 0.0601358
1 0.339483 0.0889296
1 0.332128 0.117723
1 0.324773 0.146517
1 0.317418 0.175311
1 0.310063 0.20412
1 0.302708 0.232914
1 0.295354 0.261707
1 0.287999 0.290501
1 0.280644 0.319295
1 0.273274 0.348104
1 0.265919 0.376898
0.461723 0.529137 0
0.505135 0.521782 0
0.548547 0.514427 0
0.591974 0.507073 0
0.635401 0.499718 0
0.678828 0.492363 0
0.722255 0.485008 0
0.765682 0.477653 0
0.80911 0.470298 0
0.852537 0.462943 0
0.895949 0.455589 0
0.939376 0.448234 0
0.982803 0.440879 0
1 0.433524 0
1 0.426169 0
1 0.418814 0
1 0.41146 0
1 0.404105 0
1 0.39675 0
1 0.389395 0
1 0.38204 0.00106813
1 0.374685 0.0298772
1 0.36733 0.0586709
1 0.359976 0.0874647
1 0.352621 0.116258
1 0.345266 0.145052
1 0.337911 0.173861
1 0.330556 0.202655
1 0.323201 0.231449
1 0.315847 0.260243
1 0.308492 0.289052
1 0.301137 0.317845
1 0.293782 0.346639
0.48603 0.556985 0
0.529427 0.54963 0
0.572854 0.542275 0
0.616281 0.53492 0
0.659709 0.527565 0
0.703136 0.520211 0
0.746563 0.512856 0
0.789975 0.505501 0
0.833402 0.498146 0
0.876829 0.490791 0
0.920256 0.483436 0
0.963684 0.476081 0
1 0.468727 0
1 0.461372 0
1 0.454017 0
1 0.446662 0
1 0.439307 0
1 0.431952 0
1 0.424598 0
1 0.417243 0
1 0.409888 0
1 0.402533 0
1 0.395178 0.0284123
1 0.387823 0.0572061
1 0.380468 0.0859998
1 0.373114 0.114809
1 0.365759 0.143603
1 0.358404 0.172396
1 0.351049 0.20119
1 0.343694 0.229984
1 0.336339 0.258793
1 0.328984 0.287587
1 0.32163 0.316381
0.510323 0.584833 0
0.553735 0.577478 0
0.597162 0.570123 0
0.640574 0.562768 0
0.684001 0.555413 0
0.727428 0.548058 0
0.770855 0.540703 0
0.814282 0.533349 0
0.85771 0.525994 0
0.901137 0.518639 0
0.944564 0.511284 0
0.987991 0.503929 0
1 0.496574 0
1 0.489219 0
1 0.481865 0
1 0.47451 0
1 0.467155 0
1 0.4598 0
1 0.452445 0
1 0.44509 0
1 0.437736 0
1 0.430381 0
1 0.423026 0
1 0.415671 0.0269474
1 0.408316 0.0557565
1 0.400961 0.0845502
1 0.393606 0.113344
1 0.386252 0.142138
1 0.378897 0.170932
1 0.371542 0.199741
1 0.364187 0.228534
1 0.356832 0.257328
1 0.349477 0.286122
0.53463 0.61268 0
0.578027 0.605325 0
0.621454 0.597971 0
0.664881 0.590616 0
0.708309 0.583261 0
0.751736 0.575906 0
0.795163 0.568551 0
0.83859 0.561196 0
0.882017 0.553841 0
0.925429 0.546487 0
0.968856 0.539132 0
1 0.531777 0
1 0.524422 0
1 0.517067 0
1 0.509712 0
1 0.502358 0
1 0.495003 0
1 0.487648 0
1 0.480293 0
1 0.472938 0
1 0.465583 0
1 0.458228 0
1 0.450874 0
1 0.443519 0
1 0.436164 0.0254978
1 0.428809 0.0542916
1 0.421454 0.0830854
1 0.414099 0.111879
1 0.406744 0.140688
1 0.39939 0.169482
1 0.392035 0.198276
1 0.38468 0.22707
1 0.377325 0.255863
0.558923 0.640528 0
0.602335 0.633173 0
0.645762 0.625818 0
0.689189 0.618463 0
0.732616 0.611109 0
0.776028 0.603754 0
0.819455 0.596399 0
0.862882 0.589044 0
0.90631 0.581689 0
0.949737 0.574334 0
0.993164 0.566979 0
1 0.559625 0
1 0.55227 0
1 0.544915 0
1 0.53756 0
1 0.530205 0
1 0.52285 0
1 0.515496 0
1 0.508141 0
1 0.500786 0
1 0.493431 0
1 0.486076 0
1 0.478721 0
1 0.471366 0
1 0.464012 0
1 0.456657 0.024033
1 0.449302 0.0528267
1 0.441947 0.0816358
1 0.434592 0.11043
1 0.427237 0.139223
1 0.419883 0.168017
1 0.412528 0.196811
1 0.405173 0.22562
0.58323 0.668376 0
0.626642 0.661036 0
0.670054 0.653681 0
0.713481 0.646326 0
0.756909 0.638972 0
0.800336 0.631617 0
0.843763 0.624262 0
0.88719 0.616907 0
0.930617 0.609552 0
0.974044 0.602182 0
1 0.594827 0
1 0.587472 0
1 0.580118 0
1 0.572763 0
1 0.565408 0
1 0.558053 0
1 0.550698 0
1 0.543343 0
1 0.535988 0
1 0.528634 0
1 0.521279 0
1 0.513924 0
1 0.506569 0
1 0.499214 0
1 0.491859 0
1 0.484504 0
1 0.47715 0.0225834
1 0.469795 0.0513771
1 0.46244 0.0801709
1 0.455085 0.108965
1 0.44773 0.137758
1 0.440375 0.166567
1 0.433021 0.195361
0.607538 0.696223 0
0.650935 0.688884 0
0.694362 0.681529 0
0.737789 0.674174 0
0.781216 0.666819 0
0.824643 0.659464 0
0.86807 0.65211 0
0.911482 0.644755 0
0.95491 0.6374 0
0.998337 0.630045 0
1 0.62269 0
1 0.615335 0
1 0.60798 0
1 0.600626 0
1 0.593271 0
1 0.585916 0
1 0.578561 0
1 0.571206 0
1 0.563851 0
1 0.556497 0
1 0.549142 0
1 0.541787 0
1 0.534432 0
1 0.527077 0
1 0.519707 0
1 0.512352 0
1 0.504997 0
1 0.497642 0.0211185
1 0.490288 0.0499123
1 0.482933 0.078706
1 0.475578 0.107515
1 0.468223 0.136309
1 0.460868 0.165103
0.63183 0.724086 0
0.675242 0.716731 0
0.718669 0.709377 0
0.762097 0.702022 0
0.805508 0.694667 0
0.848936 0.687312 0
0.892363 0.679957 0
0.93579 0.672602 0
0.979217 0.665248 0
1 0.657893 0
1 0.650538 0
1 0.643183 0
1 0.635828 0
1 0.628473 0
1 0.621118 0
1 0.613764 0
1 0.606409 0
1 0.599054 0
1 0.591699 0
1 0.584344 0
1 0.576989 0
1 0.569635 0
1 0.56228 0
1 0.554925 0
1 0.54757 0
1 0.540215 0
1 0.53286 0
1 0.525505 0
1 0.518151 0.0196536
1 0.510796 0.0484627
1 0.503441 0.0772564
1 0.496086 0.10605
1 0.488731 0.134844
0.656138 0.751934 0
0.699535 0.744579 0
0.742962 0.737224 0
0.786389 0.72987 0
0.829816 0.722515 0
0.873243 0.71516 0
0.916671 0.707805 0
0.960098 0.70045 0
1 0.693095 0
