public/LUTS/Color Shift/ColorShift_43.cube
TITLE "Generated by Resolve"
LUT_3D_SIZE 5
0 0 0
0 0.0671092 0.215854
0 0.134218 0.431724
0 0.201328 0.647608
0 0.268437 0.863478
0.424552 0.0968948 0.200076
0.358343 0.164004 0.41593
0.292134 0.231113 0.6318
0.225925 0.298222 0.847669
0.159716 0.365332 1
0.849134 0.193805 0.400153
0.782925 0.260914 0.616007
0.716716 0.328023 0.831891
0.650507 0.395132 1
0.584298 0.462242 1
1 0.2907 0.600229
1 0.357809 0.816098
1 0.424918 1
1 0.492027 1
1 0.559136 1
1 0.38761 0.80032
1 0.454719 1
1 0.521828 1
1 0.588937 1
1 0.656046 1
0 0.0859846 0
0 0.153094 0.0499123
0 0.220203 0.265797
0 0.287312 0.481666
0 0.354421 0.697536
0.316197 0.182879 0.0341344
0.249989 0.249989 0.249989
0.18378 0.317098 0.465858
0.117571 0.384207 0.681727
0.0513466 0.451316 0.897597
0.74078 0.279789 0.234211
0.674571 0.346899 0.450065
0.608362 0.414008 0.665949
0.542153 0.481117 0.881819
0.475929 0.548226 1
1 0.376684 0.434302
1 0.443793 0.650156
1 0.510903 0.866026
0.966735 0.578012 1
0.900511 0.645121 1
1 0.473594 0.634379
1 0.540703 0.850233
1 0.607813 1
1 0.674922 1
1 0.742031 1
0 0.171969 0
0 0.239078 0
0 0.306188 0.0998398
0 0.373297 0.315709
0 0.440421 0.531579
0.207828 0.268864 0
0.141619 0.335973 0.0840314
0.0754101 0.403082 0.299916
0.00920119 0.470207 0.515785
0 0.537316 0.731655
0.63241 0.365774 0.0682689
0.566201 0.432883 0.284123
0.499992 0.499992 0.499992
0.433783 0.567102 0.715862
0.367575 0.634211 0.931731
1 0.462684 0.268345
0.990784 0.529778 0.484199
0.924575 0.596902 0.700069
0.858366 0.664012 0.915953
0.792157 0.731121 1
1 0.559579 0.468421
1 0.626688 0.684291
1 0.693797 0.90016
1 0.760906 1
1 0.828016 1
0 0.257969 0
0 0.325063 0
0 0.392187 0
0 0.459297 0.149767
0 0.526406 0.365637
0.0994583 0.354864 0
0.0332494 0.421973 0
0 0.489082 0.133959
0 0.556191 0.349828
0 0.623301 0.565698
0.524041 0.451759 0
0.457832 0.518868 0.118166
0.391623 0.585977 0.334035
0.325414 0.653086 0.54992
0.259205 0.720211 0.765789
0.948623 0.548669 0.102388
0.882414 0.615778 0.318257
0.816205 0.682887 0.534127
0.749996 0.749996 0.749996
0.683787 0.817105 0.965866
1 0.645563 0.30248
1 0.712673 0.518334
1 0.779782 0.734203
1 0.846906 0.950072
1 0.914015 1
0 0.343954 0
0 0.411063 0
0 0.478172 0
0 0.545281 0
0 0.61239 0.19968
0 0.440848 0
0 0.507958 0
0 0.575067 0
0 0.642176 0.183886
0 0.709285 0.399756
0.415686 0.537758 0
0.349477 0.604868 0
0.283253 0.671977 0.168093
0.217044 0.739086 0.383963
0.150835 0.806195 0.599832
0.840269 0.634653 0
0.77406 0.701762 0.1523
0.707835 0.768872 0.36817
0.641627 0.835981 0.584039
0.575418 0.90309 0.799924
1 0.731563 0.136522
1 0.798672 0.352392
1 0.865782 0.568261
1 0.932891 0.784131
1 1 1
