public/LUTS/Color Shift/ColorShift_31.cube
TITLE "Generated by Resolve"
LUT_3D_SIZE 33
0 0 0
0.0263676 0 0.0222019
0.0527504 0 0.0444038
0.0791333 0 0.0666056
0.105516 0 0.0888075
0.131899 0 0.111025
0.158282 0 0.133227
0.184665 0 0.155428
0.211048 0 0.177646
0.23743 0 0.199847
0.263813 0 0.222049
0.290196 0 0.244251
0.316579 0 0.266468
0.342962 0 0.28867
0.369345 0 0.310872
0.395727 0 0.333074
0.42211 0 0.355291
0.448493 0 0.377493
0.474876 0 0.399695
0.501259 0 0.421912
0.527642 0 0.444114
0.554025 0 0.466316
0.580407 0 0.488518
0.60679 0 0.510735
0.633173 0 0.532937
0.659556 0 0.555138
0.685939 0 0.577356
0.712322 0 0.599557
0.738705 0 0.621759
0.765087 0 0.643961
0.791485 0 0.666178
0.817868 0 0.68838
0.844251 0 0.710582
0.0272068 0.024155 0
0.0535744 0.0227512 0.0138094
0.0799573 0.0213626 0.0360113
0.10634 0.0199741 0.0582132
0.132723 0.0185702 0.080415
0.159106 0.0171817 0.102632
0.185489 0.0157778 0.124834
0.211872 0.0143893 0.147036
0.238254 0.0130007 0.169253
0.264637 0.0115969 0.191455
0.29102 0.0102083 0.213657
0.317403 0.00880446 0.235859
0.343786 0.00741588 0.258076
0.370169 0.00601205 0.280278
0.396551 0.00462348 0.30248
0.422934 0.00323491 0.324681
0.449317 0.00183108 0.346899
0.4757 0.000442512 0.3691
0.502083 0 0.391302
0.528466 0 0.41352
0.554849 0 0.435721
0.581231 0 0.457923
0.607614 0 0.480125
0.633997 0 0.502342
0.66038 0 0.524544
0.686763 0 0.546746
0.713146 0 0.568963
0.739528 0 0.591165
0.765927 0 0.613367
0.792309 0 0.635569
0.818692 0 0.657786
0.845075 0 0.679988
0.871458 0 0.70219
0.0544289 0.0483101 0
0.0807965 0.0469215 0.00540169
0.107179 0.0455329 0.0276188
0.133562 0.0441291 0.0498207
0.159945 0.0427405 0.0720226
0.186328 0.0413367 0.0942245
0.212711 0.0399481 0.116442
0.239094 0.0385595 0.138643
0.265476 0.0371557 0.160845
0.291859 0.0357671 0.183062
0.318242 0.0343633 0.205264
0.344625 0.0329747 0.227466
0.371008 0.0315709 0.249668
0.397391 0.0301823 0.271885
0.423774 0.0287938 0.294087
0.450156 0.0273899 0.316289
0.476539 0.0260014 0.338506
0.502922 0.0245975 0.360708
0.529305 0.023209 0.38291
0.555688 0.0218204 0.405112
0.582071 0.0204166 0.427329
0.608454 0.019028 0.449531
0.634836 0.0176242 0.471733
0.661219 0.0162356 0.493935
0.687602 0.014847 0.516152
0.713985 0.0134432 0.538354
0.740368 0.0120546 0.560555
0.766751 0.0106508 0.582773
0.793133 0.00926223 0.604974
0.819516 0.0078584 0.627176
0.845899 0.00646983 0.649378
0.872282 0.00508125 0.671595
0.898665 0.00367742 0.693797
0.081651 0.0724804 0
0.108019 0.0710918 0
0.134401 0.069688 0.0192111
0.160784 0.0682994 0.0414282
0.187167 0.0668956 0.0636301
0.21355 0.065507 0.085832
0.239933 0.0641184 0.108034
0.266316 0.0627146 0.130251
0.292699 0.061326 0.152453
0.319081 0.0599222 0.174655
0.345464 0.0585336 0.196872
0.371847 0.0571298 0.219074
0.39823 0.0557412 0.241276
0.424613 0.0543526 0.263478
0.450996 0.0529488 0.285695
0.477378 0.0515602 0.307897
0.503761 0.0501564 0.330098
0.530144 0.0487678 0.352316
0.556527 0.0473793 0.374517
0.58291 0.0459754 0.396719
0.609293 0.0445869 0.418921
0.635676 0.043183 0.441138
0.662058 0.0417945 0.46334
0.688441 0.0403906 0.485542
0.714824 0.0390021 0.507744
0.741207 0.0376135 0.529961
0.76759 0.0362097 0.552163
0.793973 0.0348211 0.574365
0.820356 0.0334173 0.596582
0.846738 0.0320287 0.618784
0.873121 0.0306401 0.640986
0.899504 0.0292363 0.663188
0.925887 0.0278477 0.685405
0.108873 0.0966506 0
0.135241 0.0952468 0
0.161624 0.0938582 0.0108186
0.188006 0.0924544 0.0330205
0.214389 0.0910658 0.0552377
0.240772 0.089662 0.0774395
0.267155 0.0882734 0.0996414
0.293538 0.0868849 0.121843
0.319921 0.085481 0.14406
0.346303 0.0840925 0.166262
0.372686 0.0826886 0.188464
0.399069 0.0813001 0.210681
0.425452 0.0799115 0.232883
0.451835 0.0785077 0.255085
0.478218 0.0771191 0.277287
0.504601 0.0757153 0.299504
0.530983 0.0743267 0.321706
0.557366 0.0729381 0.343908
0.583749 0.0715343 0.366125
0.610132 0.0701457 0.388327
0.636515 0.0687419 0.410529
0.662898 0.0673533 0.432731
0.689281 0.0659495 0.454948
0.715663 0.0645609 0.47715
0.742046 0.0631723 0.499352
0.768429 0.0617685 0.521569
0.794812 0.0603799 0.54377
0.821195 0.0589761 0.565972
0.847578 0.0575875 0.588174
0.87396 0.056199 0.610391
0.900343 0.0547951 0.632593
0.926726 0.0534066 0.654795
0.953109 0.0520027 0.676997
0.136095 0.120806 0
0.162463 0.119417 0
0.188846 0.118013 0.00242618
0.215228 0.116625 0.0246281
0.241611 0.115221 0.0468299
0.267994 0.113832 0.0690471
0.294377 0.112444 0.091249
0.32076 0.11104 0.113451
0.347143 0.109651 0.135653
0.373526 0.108248 0.15787
0.399908 0.106859 0.180072
0.426291 0.10547 0.202274
0.452674 0.104067 0.224491
0.479057 0.102678 0.246693
0.50544 0.101274 0.268894
0.531823 0.0998856 0.291096
0.558206 0.098497 0.313313
0.584588 0.0970932 0.335515
0.610971 0.0957046 0.357717
0.637354 0.0943008 0.379934
0.663737 0.0929122 0.402136
0.69012 0.0915084 0.424338
0.716503 0.0901198 0.44654
0.742885 0.0887312 0.468757
0.769268 0.0873274 0.490959
0.795651 0.0859388 0.513161
0.822034 0.084535 0.535378
0.848417 0.0831464 0.55758
0.8748 0.0817578 0.579782
0.901183 0.080354 0.601984
0.927565 0.0789654 0.624201
0.953948 0.0775616 0.646403
0.980331 0.076173 0.668605
0.163317 0.144976 0
0.189685 0.143572 0
0.216068 0.142184 0
0.242451 0.14078 0.0162356
0.268833 0.139391 0.0384375
0.295216 0.138003 0.0606394
0.321599 0.136599 0.0828565
0.347982 0.13521 0.105058
0.374365 0.133806 0.12726
0.400748 0.132418 0.149477
0.427131 0.131029 0.171679
0.453513 0.129625 0.193881
0.479896 0.128237 0.216083
0.506279 0.126833 0.2383
0.532662 0.125444 0.260502
0.559045 0.124056 0.282704
0.585428 0.122652 0.304906
0.611811 0.121263 0.327123
0.638193 0.11986 0.349325
0.664576 0.118471 0.371527
0.690959 0.117067 0.393744
0.717342 0.115679 0.415946
0.743725 0.11429 0.438148
0.770108 0.112886 0.460349
0.79649 0.111498 0.482567
0.822873 0.110094 0.504768
0.849256 0.108705 0.52697
0.875639 0.107317 0.549187
0.902022 0.105913 0.571389
0.928405 0.104524 0.593591
0.954787 0.10312 0.615793
0.98117 0.101732 0.63801
1 0.100328 0.660212
0.190524 0.169131 0
0.216907 0.167742 0
0.24329 0.166339 0
0.269673 0.16495 0.00784314
0.296056 0.163561 0.030045
0.322438 0.162158 0.0522469
0.348821 0.160769 0.0744488
0.375204 0.159365 0.0966659
0.401587 0.157977 0.118868
0.42797 0.156588 0.14107
0.454353 0.155184 0.163287
0.480735 0.153796 0.185489
0.507118 0.152392 0.207691
0.533501 0.151003 0.229892
0.559884 0.149599 0.25211
0.586267 0.148211 0.274311
0.61265 0.146822 0.296513
0.639033 0.145418 0.318715
0.665415 0.14403 0.340932
0.691798 0.142626 0.363134
0.718181 0.141238 0.385336
0.744564 0.139849 0.407553
0.770947 0.138445 0.429755
0.79733 0.137057 0.451957
0.823713 0.135653 0.474159
0.850095 0.134264 0.496376
0.876478 0.132876 0.518578
0.902861 0.131472 0.54078
0.929244 0.130083 0.562997
0.955627 0.128679 0.585199
0.98201 0.127291 0.607401
1 0.125887 0.629602
1 0.124498 0.65182
0.217746 0.193301 0
0.244114 0.191897 0
0.270497 0.190509 0
0.29688 0.18912 0
0.323262 0.187716 0.0216526
0.34966 0.186328 0.0438544
0.376043 0.184924 0.0660563
0.402426 0.183536 0.0882582
0.428809 0.182147 0.110475
0.455192 0.180743 0.132677
0.481575 0.179355 0.154879
0.507958 0.177951 0.177096
0.53434 0.176562 0.199298
0.560723 0.175158 0.2215
0.587106 0.17377 0.243702
0.613489 0.172381 0.265919
0.639872 0.170977 0.288121
0.666255 0.169589 0.310323
0.692638 0.168185 0.33254
0.71902 0.166796 0.354742
0.745403 0.165408 0.376944
0.771786 0.164004 0.399145
0.798169 0.162615 0.421363
0.824552 0.161212 0.443565
0.850935 0.159823 0.465766
0.877317 0.158434 0.487968
0.9037 0.157031 0.510185
0.930083 0.155642 0.532387
0.956466 0.154238 0.554589
0.982849 0.15285 0.576806
1 0.151446 0.599008
1 0.150057 0.62121
1 0.148669 0.643412
0.244968 0.217456 0
0.271336 0.216068 0
0.297719 0.214679 0
0.324102 0.213275 0
0.350484 0.211887 0.0132448
0.376867 0.210483 0.035462
0.40325 0.209094 0.0576638
0.429633 0.207706 0.0798657
0.456016 0.206302 0.102068
0.482399 0.204913 0.124285
0.508782 0.20351 0.146487
0.535164 0.202121 0.168688
0.561547 0.200717 0.190906
0.58793 0.199329 0.213107
0.614328 0.19794 0.235309
0.640711 0.196536 0.257511
0.667094 0.195148 0.279728
0.693477 0.193744 0.30193
0.71986 0.192355 0.324132
0.746242 0.190967 0.346349
0.772625 0.189563 0.368551
0.799008 0.188174 0.390753
0.825391 0.18677 0.412955
0.851774 0.185382 0.435172
0.878157 0.183993 0.457374
0.90454 0.182589 0.479576
0.930922 0.181201 0.501778
0.957305 0.179797 0.523995
0.983688 0.178408 0.546197
1 0.177005 0.568399
1 0.175616 0.590616
1 0.174228 0.612818
1 0.172824 0.635019
0.27219 0.241627 0
0.298558 0.240238 0
0.324941 0.238834 0
0.351324 0.237446 0
0.377707 0.236042 0.00485237
0.404089 0.234653 0.0270542
0.430472 0.233249 0.0492714
0.456855 0.231861 0.0714733
0.483238 0.230472 0.0936751
0.509621 0.229068 0.115877
0.536004 0.22768 0.138094
0.562387 0.226276 0.160296
0.588769 0.224887 0.182498
0.615152 0.223499 0.204715
0.641535 0.222095 0.226917
0.667918 0.220706 0.249119
0.694301 0.219303 0.271321
0.720684 0.217914 0.293538
0.747066 0.216526 0.31574
0.773449 0.215122 0.337942
0.799832 0.213733 0.360159
0.826215 0.212329 0.382361
0.852598 0.210941 0.404562
0.878996 0.209537 0.426764
0.905379 0.208148 0.448981
0.931762 0.20676 0.471183
0.958144 0.205356 0.493385
0.984527 0.203967 0.515587
1 0.202564 0.537804
1 0.201175 0.560006
1 0.199786 0.582208
1 0.198383 0.604425
1 0.196994 0.626627
0.299413 0.265782 0
0.32578 0.264393 0
0.352163 0.263005 0
0.378546 0.261601 0
0.404929 0.260212 0
0.431312 0.258808 0.0186618
0.457694 0.25742 0.0408637
0.484077 0.256031 0.0630808
0.51046 0.254627 0.0852827
0.536843 0.253239 0.107485
0.563226 0.251835 0.129686
0.589609 0.250446 0.151904
0.615991 0.249058 0.174105
0.642374 0.247654 0.196307
0.668757 0.246265 0.218524
0.69514 0.244862 0.240726
0.721523 0.243473 0.262928
0.747906 0.242084 0.28513
0.774289 0.240681 0.307347
0.800671 0.239292 0.329549
0.827054 0.237888 0.351751
0.853437 0.2365 0.373968
0.87982 0.235096 0.39617
0.906203 0.233707 0.418372
0.932586 0.232319 0.440574
0.958968 0.230915 0.462791
0.985351 0.229526 0.484993
1 0.228122 0.507195
1 0.226734 0.529412
1 0.225345 0.551614
1 0.223941 0.573816
1 0.222553 0.596017
1 0.221149 0.618235
0.326635 0.289952 0
0.353002 0.288563 0
0.379385 0.28716 0
0.405768 0.285771 0
0.432151 0.284367 0
0.458534 0.282979 0.0102693
0.484916 0.28159 0.0324712
0.511299 0.280186 0.0546731
0.537682 0.278798 0.0768902
0.564065 0.277394 0.0990921
0.590448 0.276005 0.121294
0.616831 0.274617 0.143496
0.643214 0.273213 0.165713
0.669596 0.271824 0.187915
0.695979 0.27042 0.210117
0.722362 0.269032 0.232334
0.748745 0.267643 0.254536
0.775128 0.266239 0.276738
0.801511 0.264851 0.298939
0.827893 0.263447 0.321157
0.854276 0.262058 0.343359
0.880659 0.260655 0.36556
0.907042 0.259266 0.387778
0.933425 0.257877 0.409979
0.959808 0.256474 0.432181
0.986191 0.255085 0.454383
1 0.253681 0.4766
1 0.252293 0.498802
1 0.250904 0.521004
1 0.2495 0.543221
1 0.248112 0.565423
1 0.246708 0.587625
1 0.245319 0.609827
0.353857 0.314122 0
0.380224 0.312718 0
0.406607 0.31133 0
0.43299 0.309926 0
0.459373 0.308537 0
0.485756 0.307149 0.00187686
0.512139 0.305745 0.0240787
0.538521 0.304356 0.0462806
0.564904 0.302953 0.0684825
0.591287 0.301564 0.0906996
0.61767 0.300175 0.112902
0.644053 0.298772 0.135103
0.670436 0.297383 0.157321
0.696818 0.295979 0.179522
0.723201 0.294591 0.201724
0.749584 0.293187 0.223926
0.775967 0.291798 0.246143
0.80235 0.29041 0.268345
0.828733 0.289006 0.290547
0.855116 0.287617 0.312749
0.881498 0.286213 0.334966
0.907881 0.284825 0.357168
0.934264 0.283436 0.37937
0.960647 0.282032 0.401587
0.98703 0.280644 0.423789
1 0.27924 0.445991
1 0.277852 0.468193
1 0.276463 0.49041
1 0.275059 0.512612
1 0.273671 0.534813
1 0.272267 0.557031
1 0.270878 0.579232
1 0.269474 0.601434
0.381079 0.338277 0
0.407446 0.336889 0
0.433829 0.335485 0
0.460212 0.334096 0
0.486595 0.332708 0
0.512978 0.331304 0
0.539361 0.329915 0.0156863
0.565744 0.328511 0.0378882
0.592126 0.327123 0.06009
0.618509 0.325734 0.0822919
0.644892 0.324331 0.104509
0.671275 0.322942 0.126711
0.697658 0.321538 0.148913
0.724041 0.32015 0.17113
0.750423 0.318746 0.193332
0.776806 0.317357 0.215534
0.803189 0.315969 0.237736
0.829572 0.314565 0.259953
0.855955 0.313176 0.282155
0.882338 0.311772 0.304356
0.908721 0.310384 0.326558
0.935103 0.308995 0.348775
0.961486 0.307591 0.370977
0.987869 0.306203 0.393179
1 0.304799 0.415396
1 0.30341 0.437598
1 0.302022 0.4598
1 0.300618 0.482002
1 0.299229 0.504219
1 0.297826 0.526421
1 0.296437 0.548623
1 0.295033 0.57084
1 0.293645 0.593042
0.408301 0.362448 0
0.434669 0.361044 0
0.461051 0.359655 0
0.487434 0.358267 0
0.513817 0.356863 0
0.5402 0.355474 0
0.566583 0.35407 0.00727855
0.592966 0.352682 0.0294957
0.619348 0.351293 0.0516976
0.645731 0.349889 0.0738994
0.672114 0.348501 0.0961013
0.698497 0.347097 0.118318
0.72488 0.345708 0.14052
0.751263 0.344305 0.162722
0.777646 0.342916 0.184939
0.804028 0.341527 0.207141
0.830411 0.340124 0.229343
0.856794 0.338735 0.251545
0.883177 0.337331 0.273762
0.90956 0.335943 0.295964
0.935943 0.334554 0.318166
0.962325 0.33315 0.340383
0.988708 0.331762 0.362585
1 0.330358 0.384787
1 0.328969 0.406989
1 0.327581 0.429206
1 0.326177 0.451408
1 0.324788 0.47361
1 0.323384 0.495811
1 0.321996 0.518029
1 0.320592 0.54023
1 0.319203 0.562432
1 0.317815 0.584649
0.435508 0.386603 0
0.461891 0.385214 0
0.488273 0.383825 0
0.514656 0.382422 0
0.541039 0.381033 0
0.567422 0.379629 0
0.593805 0.378241 0
0.620188 0.376852 0.021088
0.646571 0.375448 0.0433051
0.672953 0.37406 0.065507
0.699336 0.372656 0.0877089
0.725719 0.371267 0.109911
0.752102 0.369863 0.132128
0.778485 0.368475 0.15433
0.804868 0.367086 0.176532
0.83125 0.365682 0.198749
0.857633 0.364294 0.220951
0.884016 0.36289 0.243153
0.910399 0.361501 0.265354
0.936782 0.360113 0.287572
0.963165 0.358709 0.309773
0.989548 0.357321 0.331975
1 0.355917 0.354192
1 0.354528 0.376394
1 0.353124 0.398596
1 0.351736 0.420798
1 0.350347 0.443015
1 0.348943 0.465217
1 0.347555 0.487419
1 0.346151 0.509621
1 0.344762 0.531838
1 0.343374 0.55404
1 0.34197 0.576242
0.46273 0.410773 0
0.489113 0.409384 0
0.515496 0.40798 0
0.541878 0.406592 0
0.568261 0.405188 0
0.594644 0.4038 0
0.621027 0.402396 0
0.64741 0.401007 0.0126955
0.673793 0.399619 0.0348974
0.700175 0.398215 0.0571145
0.726558 0.396826 0.0793164
0.752941 0.395422 0.101518
0.779324 0.394034 0.12372
0.805707 0.392645 0.145937
0.83209 0.391241 0.168139
0.858473 0.389853 0.190341
0.884855 0.388449 0.212558
0.911238 0.38706 0.23476
0.937621 0.385672 0.256962
0.964004 0.384268 0.279164
0.990387 0.382879 0.301381
1 0.381476 0.323583
1 0.380087 0.345785
1 0.378683 0.368002
1 0.377295 0.390204
1 0.375906 0.412406
1 0.374502 0.434607
1 0.373114 0.456825
1 0.37171 0.479026
1 0.370321 0.501228
1 0.368933 0.523445
1 0.367529 0.545647
1 0.36614 0.567849
0.489952 0.434928 0
0.51632 0.433539 0
0.542702 0.432151 0
0.569085 0.430747 0
0.595468 0.429358 0
0.621851 0.427955 0
0.648234 0.426566 0
0.674617 0.425177 0.00430304
0.700999 0.423774 0.0265049
0.727398 0.422385 0.0487068
0.75378 0.420981 0.0709239
0.780163 0.419593 0.0931258
0.806546 0.418204 0.115328
0.832929 0.4168 0.13753
0.859312 0.415412 0.159747
0.885695 0.414008 0.181949
0.912077 0.412619 0.20415
0.93846 0.411231 0.226368
0.964843 0.409827 0.248569
0.991226 0.408438 0.270771
1 0.407034 0.292973
1 0.405646 0.31519
1 0.404242 0.337392
1 0.402853 0.359594
1 0.401465 0.381811
1 0.400061 0.404013
1 0.398672 0.426215
1 0.397269 0.448417
1 0.39588 0.470634
1 0.394491 0.492836
1 0.393088 0.515038
1 0.391699 0.537255
1 0.390295 0.559457
0.517174 0.459098 0
0.543542 0.45771 0
0.569924 0.456306 0
0.596307 0.454917 0
0.62269 0.453513 0
0.649073 0.452125 0
0.675456 0.450736 0
0.701839 0.449332 0
0.728222 0.447944 0.0181125
0.754604 0.44654 0.0403143
0.780987 0.445151 0.0625162
0.80737 0.443763 0.0847334
0.833753 0.442359 0.106935
0.860136 0.44097 0.129137
0.886519 0.439567 0.151354
0.912902 0.438178 0.173556
0.939284 0.43679 0.195758
0.965667 0.435386 0.21796
0.992065 0.433997 0.240177
1 0.432593 0.262379
1 0.431205 0.284581
1 0.429801 0.306783
1 0.428412 0.329
1 0.427024 0.351202
1 0.42562 0.373404
1 0.424231 0.395621
1 0.422827 0.417823
1 0.421439 0.440024
1 0.42005 0.462226
1 0.418647 0.484443
1 0.417258 0.506645
1 0.415854 0.528847
1 0.414466 0.551064
0.544396 0.483268 0
0.570764 0.481865 0
0.597147 0.480476 0
0.623529 0.479072 0
0.649912 0.477684 0
0.676295 0.476295 0
0.702678 0.474891 0
0.729061 0.473503 0
0.755444 0.472099 0.00972
0.781826 0.47071 0.0319219
0.808209 0.469322 0.0541238
0.834592 0.467918 0.0763256
0.860975 0.466529 0.0985428
0.887358 0.465126 0.120745
0.913741 0.463737 0.142947
0.940124 0.462333 0.165164
0.966506 0.460945 0.187366
0.992889 0.459556 0.209567
1 0.458152 0.231769
1 0.456764 0.253986
1 0.45536 0.276188
1 0.453971 0.29839
1 0.452583 0.320592
1 0.451179 0.342809
1 0.44979 0.365011
1 0.448386 0.387213
1 0.446998 0.40943
1 0.445609 0.431632
1 0.444205 0.453834
1 0.442817 0.476036
1 0.441413 0.498253
1 0.440024 0.520455
1 0.438621 0.542657
0.571618 0.507424 0
0.597986 0.506035 0
0.624369 0.504631 0
0.650752 0.503243 0
0.677134 0.501854 0
0.703517 0.50045 0
0.7299 0.499062 0
0.756283 0.497658 0
0.782666 0.496269 0.00131228
0.809049 0.494881 0.0235294
0.835431 0.493477 0.0457313
0.861814 0.492088 0.0679332
0.888197 0.490684 0.090135
0.91458 0.489296 0.112352
0.940963 0.487892 0.134554
0.967346 0.486503 0.156756
0.993729 0.485115 0.178973
1 0.483711 0.201175
1 0.482322 0.223377
1 0.480919 0.245579
1 0.47953 0.267796
1 0.478141 0.289998
1 0.476738 0.3122
1 0.475349 0.334417
1 0.473945 0.356619
1 0.472557 0.37882
1 0.471168 0.401022
1 0.469764 0.423239
1 0.468376 0.445441
1 0.466972 0.467643
1 0.465583 0.489845
1 0.464179 0.512062
1 0.462791 0.534264
0.59884 0.531594 0
0.625208 0.53019 0
0.651591 0.528801 0
0.677974 0.527413 0
0.704356 0.526009 0
0.730739 0.52462 0
0.757122 0.523217 0
0.783505 0.521828 0
0.809888 0.520439 0
0.836271 0.519036 0.0151217
0.862654 0.517647 0.0373388
0.889036 0.516243 0.0595407
0.915419 0.514855 0.0817426
0.941802 0.513451 0.103944
0.968185 0.512062 0.126162
0.994568 0.510674 0.148363
1 0.50927 0.170565
1 0.507881 0.192782
1 0.506477 0.214984
1 0.505089 0.237186
1 0.5037 0.259388
1 0.502297 0.281605
1 0.500908 0.303807
1 0.499504 0.326009
1 0.498116 0.348226
1 0.496712 0.370428
1 0.495323 0.39263
1 0.493935 0.414832
1 0.492531 0.437049
1 0.491142 0.459251
1 0.489738 0.481453
1 0.48835 0.503655
1 0.486961 0.525872
0.626062 0.555749 0
0.65243 0.55436 0
0.678813 0.552972 0
0.705196 0.551568 0
0.731579 0.550179 0
0.757961 0.548775 0
0.784344 0.547387 0
0.810727 0.545983 0
0.83711 0.544594 0
0.863493 0.543206 0.00672923
0.889876 0.541802 0.0289311
0.916259 0.540413 0.0511482
0.942641 0.53901 0.0733501
0.969024 0.537621 0.095552
0.995407 0.536233 0.117754
1 0.534829 0.139971
1 0.53344 0.162173
1 0.532036 0.184375
1 0.530648 0.206592
1 0.529259 0.228794
1 0.527855 0.250996
1 0.526467 0.273198
1 0.525063 0.295415
1 0.523674 0.317617
1 0.522271 0.339818
1 0.520882 0.362036
1 0.519493 0.384237
1 0.51809 0.406439
1 0.516701 0.428641
1 0.515297 0.450858
1 0.513909 0.47306
1 0.51252 0.495262
1 0.511116 0.517479
0.653284 0.579919 0
0.679652 0.578531 0
0.706035 0.577127 0
0.732418 0.575738 0
0.758801 0.574334 0
0.785183 0.572946 0
0.811566 0.571542 0
0.837949 0.570153 0
0.864332 0.568765 0
0.890715 0.567361 0
0.917098 0.565972 0.0205386
0.943481 0.564569 0.0427405
0.969863 0.56318 0.0649577
0.996246 0.561791 0.0871595
1 0.560388 0.109361
1 0.558999 0.131563
1 0.557595 0.15378
1 0.556207 0.175982
1 0.554818 0.198184
1 0.553414 0.220401
1 0.552026 0.242603
1 0.550622 0.264805
1 0.549233 0.287007
1 0.547829 0.309224
1 0.546441 0.331426
1 0.545052 0.353628
1 0.543648 0.375845
1 0.54226 0.398047
1 0.540856 0.420249
1 0.539467 0.442451
1 0.538079 0.464668
1 0.536675 0.48687
1 0.535286 0.509071
0.680507 0.604074 0
0.706874 0.602686 0
0.733257 0.601297 0
0.75964 0.599893 0
0.786023 0.598505 0
0.812406 0.597101 0
0.838788 0.595712 0
0.865171 0.594324 0
0.891554 0.59292 0
0.917937 0.591531 0
0.94432 0.590127 0.0121462
0.970703 0.588739 0.0343481
0.997086 0.58735 0.0565499
1 0.585946 0.0787671
1 0.584558 0.100969
1 0.583154 0.123171
1 0.581765 0.145388
1 0.580377 0.16759
1 0.578973 0.189792
1 0.577585 0.211994
1 0.576181 0.234211
1 0.574792 0.256413
1 0.573388 0.278614
1 0.572 0.300816
1 0.570611 0.323033
1 0.569207 0.345235
1 0.567819 0.367437
1 0.566415 0.389654
1 0.565026 0.411856
1 0.563638 0.434058
1 0.562234 0.45626
1 0.560845 0.478477
1 0.559442 0.500679
0.707713 0.628244 0
0.734096 0.626856 0
0.760479 0.625452 0
0.786862 0.624063 0
0.813245 0.62266 0
0.839628 0.621271 0
0.866011 0.619883 0
0.892393 0.618479 0
0.918776 0.61709 0
0.945159 0.615686 0
0.971542 0.614298 0.00375372
0.997925 0.612909 0.0259556
1 0.611505 0.0481575
1 0.610117 0.0703593
1 0.608713 0.0925765
1 0.607324 0.114778
1 0.60592 0.13698
1 0.604532 0.159197
1 0.603143 0.181399
1 0.60174 0.203601
1 0.600351 0.225803
1 0.598947 0.24802
1 0.597559 0.270222
1 0.59617 0.292424
1 0.594766 0.314626
1 0.593378 0.336843
1 0.591974 0.359045
1 0.590585 0.381247
1 0.589197 0.403464
1 0.587793 0.425666
1 0.586404 0.447868
1 0.585 0.470069
1 0.583612 0.492287
0.734936 0.652415 0
0.761303 0.651011 0
0.787686 0.649622 0
0.814069 0.648219 0
0.840467 0.64683 0
0.86685 0.645441 0
0.893233 0.644038 0
0.919615 0.642649 0
0.945998 0.641245 0
