public/LUTS/Color Shift/ColorShift_22.cube
TITLE "Generated by Resolve"
LUT_3D_SIZE 9
0 0 0
0.104417 0.0111238 0
0.208835 0.0222629 0
0.313268 0.0333867 0
0.4177 0.0445106 0
0.522118 0.0556497 0
0.626551 0.0667735 0
0.730968 0.0778973 0
0.835401 0.0890364 0
0 0.128206 0.0449836
0.0744182 0.13933 0.00642405
0.178851 0.150454 0
0.283284 0.161593 0
0.387701 0.172717 0
0.492134 0.183841 0
0.596551 0.19498 0
0.700984 0.206104 0
0.805417 0.217227 0
0 0.256413 0.0899672
0.0444343 0.267552 0.0514229
0.148852 0.278676 0.0128634
0.253285 0.289799 0
0.357717 0.300938 0
0.462135 0.312062 0
0.566567 0.323186 0
0.670985 0.334325 0
0.775418 0.345449 0
0 0.384634 0.134951
0.014435 0.395758 0.0964065
0.118868 0.406897 0.057847
0.223285 0.418021 0.0192874
0.327718 0.429145 0
0.432151 0.440284 0
0.536568 0.451408 0
0.641001 0.462531 0
0.745418 0.473671 0
0 0.512856 0.179934
0 0.52398 0.14139
0.0888685 0.535103 0.102831
0.193301 0.546227 0.0642863
0.297719 0.557366 0.0257267
0.402152 0.56849 0
0.506584 0.579629 0
0.611002 0.590753 0
0.715434 0.601877 0
0 0.641062 0.224933
0 0.652186 0.186374
0.0588846 0.663325 0.147829
0.163302 0.674449 0.10927
0.267735 0.685573 0.0707103
0.372152 0.696712 0.0321508
0.476585 0.707835 0
0.581018 0.718975 0
0.685435 0.730098 0
0 0.769284 0.269917
0 0.780407 0.231357
0.0288853 0.791531 0.192813
0.133318 0.80267 0.154253
0.237736 0.813794 0.115694
0.342168 0.824918 0.0771496
0.446586 0.836057 0.0385901
0.551019 0.847181 3.0518e-05
0.655451 0.858305 0
0 0.897505 0.3149
0 0.908629 0.276356
0 0.919753 0.237797
0.103319 0.930877 0.199237
0.207752 0.942016 0.160693
0.312169 0.95314 0.122133
0.416602 0.964263 0.0835737
0.521019 0.975402 0.0450294
0.625452 0.986526 0.00646983
0 1 0.359884
0 1 0.32134
0 1 0.28278
0.0733196 1 0.244221
0.177752 1 0.205676
0.282185 1 0.167117
0.386603 1 0.128557
0.491035 1 0.090013
0.595453 1 0.0514534
0.0505684 0 0.118563
0.154971 0 0.0800031
0.259403 0.00791943 0.0414588
0.363836 0.0190433 0.00289921
0.468254 0.0301671 0
0.572686 0.0413062 0
0.677104 0.05243 0
0.781537 0.0635538 0
0.885969 0.0746929 0
0.0205692 0.113863 0.163531
0.124987 0.124987 0.124987
0.229419 0.13611 0.0864271
0.333837 0.14725 0.0478828
0.43827 0.158373 0.00932326
0.542687 0.169497 0
0.64712 0.180636 0
0.751553 0.19176 0
0.85597 0.202884 0
0 0.242069 0.20853
0.0949874 0.253208 0.16997
0.19942 0.264332 0.131426
0.303853 0.275456 0.0928664
0.40827 0.286595 0.0543069
0.512703 0.297719 0.0157473
0.617121 0.308843 0
0.721553 0.319982 0
0.825986 0.331106 0
0 0.370291 0.253513
0.0650034 0.381415 0.214954
0.169421 0.392554 0.17641
0.273854 0.403677 0.13785
0.378286 0.414801 0.0992905
0.482704 0.42594 0.0607462
0.587137 0.437064 0.0221866
0.691554 0.448188 0
0.795987 0.459327 0
0 0.498512 0.298497
0.0350042 0.509636 0.259953
0.139437 0.52076 0.221393
0.243854 0.531899 0.182834
0.348287 0.543023 0.144289
0.45272 0.554147 0.10573
0.557137 0.565286 0.0671702
0.66157 0.57641 0.0286259
0.765988 0.587533 0
0 0.626719 0.343481
0.00502022 0.637858 0.304936
0.109438 0.648981 0.266377
0.21387 0.660105 0.227817
0.318288 0.671244 0.189273
0.422721 0.682368 0.150713
0.527153 0.693492 0.112154
0.631571 0.704631 0.0736095
0.736004 0.715755 0.03505
0 0.75494 0.388464
0 0.766064 0.34992
0.0794537 0.777203 0.31136
0.183871 0.788327 0.272816
0.288304 0.799451 0.234257
0.392721 0.81059 0.195697
0.497154 0.821714 0.157153
0.601587 0.832837 0.118593
0.706004 0.843976 0.0800336
0 0.883162 0.433448
0 0.894286 0.394903
0.0494545 0.905409 0.356344
0.153887 0.916548 0.3178
0.258305 0.927672 0.27924
0.362737 0.938796 0.240681
0.467155 0.949935 0.202136
0.571588 0.961059 0.163577
0.67602 0.972183 0.125017
0 1 0.478447
0 1 0.439887
0.0194553 1 0.401343
0.123888 1 0.362783
0.228321 1 0.324224
0.332738 1 0.285679
0.437171 1 0.24712
0.541588 1 0.20856
0.646021 1 0.170016
0.101137 0 0.237125
0.205539 0 0.198581
0.309972 0 0.160021
0.414405 0.00469978 0.121462
0.518822 0.0158236 0.0829175
0.623255 0.0269627 0.044358
0.727672 0.0380865 0.00579843
0.832105 0.0492103 0
0.936538 0.0603494 0
0.0711376 0.0995193 0.282109
0.175555 0.110643 0.243549
0.279988 0.121767 0.205005
0.384405 0.132906 0.166445
0.488838 0.14403 0.127886
0.593256 0.155154 0.0893416
0.697688 0.166293 0.050782
0.802121 0.177417 0.0122225
0.906538 0.18854 0
0.0411536 0.227726 0.327092
0.145556 0.238865 0.288548
0.249989 0.249989 0.249989
0.354421 0.261112 0.211429
0.458839 0.272251 0.172885
0.563272 0.283375 0.134325
0.667689 0.294499 0.0957656
0.772122 0.305638 0.0572213
0.876554 0.316762 0.0186618
0.0111543 0.355947 0.372076
0.115572 0.367071 0.333532
0.219989 0.37821 0.294972
0.324422 0.389334 0.256428
0.428855 0.400458 0.217868
0.533272 0.411597 0.179309
0.637705 0.422721 0.140749
0.742123 0.433845 0.102205
0.846555 0.444984 0.0636454
0 0.484169 0.41706
0.0855726 0.495293 0.378515
0.190005 0.506416 0.339956
0.294423 0.517555 0.301411
0.398856 0.528679 0.262852
0.503288 0.539803 0.224292
0.607706 0.550942 0.185748
0.712139 0.562066 0.147189
0.816556 0.57319 0.108629
0 0.612375 0.462058
0.0555886 0.623514 0.423499
0.160006 0.634638 0.384955
0.264439 0.645762 0.346395
0.368856 0.656901 0.307836
0.473289 0.668025 0.269291
0.577722 0.679149 0.230732
0.682139 0.690288 0.192172
0.786572 0.701411 0.153628
0 0.740597 0.507042
0.0255894 0.75172 0.468482
0.130022 0.76286 0.429938
0.23444 0.773983 0.391379
0.338872 0.785107 0.352819
0.44329 0.796246 0.314275
0.547723 0.80737 0.275715
0.652155 0.818494 0.237156
0.756573 0.829633 0.198611
0 0.868818 0.552026
0 0.879942 0.513481
0.100023 0.891066 0.474922
0.204456 0.902205 0.436362
0.308873 0.913329 0.397818
0.413306 0.924453 0.359258
0.517723 0.935592 0.320699
0.622156 0.946715 0.282155
0.726589 0.957839 0.243595
0 0.997024 0.597009
0 1 0.558465
0.0700236 1 0.519905
0.174456 1 0.481346
0.278889 1 0.442802
0.383307 1 0.404242
0.487739 1 0.365682
0.592157 1 0.327138
0.69659 1 0.288579
0.151705 0 0.355703
0.256107 0 0.317143
0.36054 0 0.278584
0.464973 0 0.24004
0.56939 0.00148013 0.20148
0.673823 0.0126192 0.162921
0.778241 0.023743 0.124376
0.882673 0.0348669 0.0858167
0.987106 0.0460059 0.0472572
0.121706 0.0851759 0.400671
0.226123 0.0962997 0.362127
0.330556 0.107424 0.323568
0.434974 0.118563 0.285023
0.539406 0.129686 0.246464
0.643824 0.14081 0.207904
0.748257 0.151949 0.16936
0.852689 0.163073 0.1308
0.957107 0.174197 0.0922408
0.091722 0.213382 0.44567
0.196124 0.224521 0.407111
0.300557 0.235645 0.368551
0.40499 0.246769 0.330007
0.509407 0.257908 0.291447
0.61384 0.269032 0.252888
0.718257 0.280156 0.214343
0.82269 0.291295 0.175784
0.927123 0.302419 0.137224
0.0617227 0.341604 0.490654
0.16614 0.352728 0.452094
0.270558 0.363867 0.41355
0.37499 0.37499 0.37499
0.479423 0.386114 0.336431
0.583841 0.397253 0.297887
0.688273 0.408377 0.259327
0.792691 0.419501 0.220768
0.897124 0.43064 0.182223
0.0317235 0.469825 0.535637
0.136141 0.480949 0.497093
0.240574 0.492073 0.458534
0.344991 0.503212 0.419974
0.449424 0.514336 0.38143
0.553857 0.52546 0.34287
0.658274 0.536599 0.304311
0.762707 0.547723 0.265751
0.867124 0.558846 0.227207
0.00173953 0.598032 0.580621
0.106157 0.609171 0.542077
0.210575 0.620295 0.503517
0.315007 0.631418 0.464958
0.419425 0.642557 0.426413
0.523857 0.653681 0.387854
0.62829 0.664805 0.349294
0.732708 0.675944 0.31075
0.83714 0.687068 0.27219
0 0.726253 0.625605
0.0761578 0.737377 0.58706
0.180591 0.748516 0.548501
0.285008 0.75964 0.509957
0.389441 0.770764 0.471397
0.493858 0.781903 0.432837
0.598291 0.793027 0.394293
0.702724 0.80415 0.355734
0.807141 0.81529 0.317174
0 0.854475 0.670588
0.0461585 0.865599 0.632044
0.150591 0.876722 0.593484
0.255024 0.887861 0.55494
0.359442 0.898985 0.516381
0.463874 0.910109 0.477821
0.568292 0.921248 0.439277
0.672724 0.932372 0.400717
0.777157 0.943496 0.362158
0 0.982681 0.715587
0.0161746 0.99382 0.677028
0.120592 1 0.638483
0.225025 1 0.599924
0.329458 1 0.561364
0.433875 1 0.52282
0.538308 1 0.48426
0.642725 1 0.445701
0.747158 1 0.407156
0.202274 0 0.474266
0.306676 0 0.435721
0.411109 0 0.397162
0.515541 0 0.358602
0.619959 0 0.320058
0.724392 0 0.281498
0.828809 0.00939956 0.242939
0.933242 0.0205234 0.204395
1 0.0316625 0.165835
0.172274 0.0708324 0.519249
0.276692 0.0819562 0.48069
0.381125 0.09308 0.442145
0.485542 0.104219 0.403586
0.589975 0.115343 0.365026
0.694392 0.126467 0.326482
0.798825 0.137606 0.287922
0.903258 0.14873 0.249363
1 0.159854 0.210819
0.14229 0.199039 0.564233
0.246693 0.210178 0.525689
0.351125 0.221302 0.487129
0.455558 0.232425 0.448569
0.559976 0.243565 0.410025
0.664408 0.254688 0.371466
0.768826 0.265812 0.332906
0.873259 0.276951 0.294362
0.977691 0.288075 0.255802
0.112291 0.32726 0.609216
0.216709 0.338384 0.570672
0.321126 0.349523 0.532113
0.425559 0.360647 0.493553
0.529992 0.371771 0.455009
0.634409 0.38291 0.416449
0.738842 0.394034 0.37789
0.843259 0.405158 0.339345
0.947692 0.416297 0.300786
0.0822919 0.455482 0.6542
0.186709 0.466606 0.615656
0.291142 0.477729 0.577096
0.39556 0.488869 0.538552
0.499992 0.499992 0.499992
0.604425 0.511116 0.461433
0.708843 0.522255 0.422889
0.813275 0.533379 0.384329
0.917693 0.544503 0.345769
0.0523079 0.583688 0.699199
0.156725 0.594827 0.660639
0.261143 0.605951 0.622095
0.365576 0.617075 0.583535
0.469993 0.628214 0.544976
0.574426 0.639338 0.506432
0.678859 0.650462 0.467872
0.783276 0.661601 0.429313
0.887709 0.672724 0.390753
0.0223087 0.71191 0.744183
0.126726 0.723033 0.705623
0.231159 0.734173 0.667079
0.335576 0.745296 0.628519
0.440009 0.75642 0.58996
0.544427 0.767559 0.551415
0.648859 0.778683 0.512856
0.753292 0.789807 0.474296
0.85771 0.800946 0.435752
0 0.840131 0.789166
0.0967269 0.851255 0.750622
0.20116 0.862379 0.712062
0.305592 0.873518 0.673503
0.41001 0.884642 0.634958
0.514443 0.895766 0.596399
0.61886 0.906905 0.557839
0.723293 0.918029 0.519295
0.827726 0.929152 0.480735
0 0.968338 0.83415
0.066743 0.979477 0.795605
0.17116 0.9906 0.757046
0.275593 1 0.718486
0.380026 1 0.679942
0.484443 1 0.641382
0.588876 1 0.602823
0.693294 1 0.564279
0.797726 1 0.525719
0.252842 0 0.592844
0.357244 0 0.554284
0.461677 0 0.515724
0.56611 0 0.47718
0.670527 0 0.438621
0.77496 0 0.400061
0.879377 0 0.361517
0.98381 0.0061799 0.322957
1 0.017319 0.284398
0.222843 0.0564889 0.637812
0.32726 0.0676127 0.599268
0.431693 0.0787366 0.560708
0.53611 0.0898756 0.522164
0.640543 0.100999 0.483604
0.744961 0.112123 0.445045
0.849393 0.123262 0.4065
0.953826 0.134386 0.367941
1 0.14551 0.329381
0.192859 0.184695 0.682811
0.297261 0.195834 0.644251
0.401694 0.206958 0.605692
0.506127 0.218082 0.567147
0.610544 0.229221 0.528588
0.714977 0.240345 0.490028
0.819394 0.251469 0.451484
0.923827 0.262608 0.412924
1 0.273732 0.374365
0.16286 0.312917 0.727794
0.267277 0.324041 0.689235
0.371695 0.33518 0.65069
0.476127 0.346303 0.612131
0.58056 0.357427 0.573571
0.684977 0.368566 0.535027
0.78941 0.37969 0.496468
0.893828 0.390814 0.457908
0.99826 0.401953 0.419364
0.13286 0.441138 0.772778
0.237278 0.452262 0.734234
0.341711 0.463386 0.695674
0.446128 0.474525 0.657115
0.550561 0.485649 0.618555
0.654994 0.496773 0.580011
0.759411 0.507912 0.541451
0.863844 0.519036 0.502892
0.968261 0.530159 0.464347
0.102876 0.569345 0.817761
0.207294 0.580484 0.779217
0.311711 0.591608 0.740658
0.416144 0.602731 0.702098
0.520562 0.61387 0.663554
0.624994 0.624994 0.624994
0.729427 0.636118 0.586435
0.833844 0.647257 0.54789
0.938277 0.658381 0.509331
0.0728771 0.697566 0.862745
0.177295 0.70869 0.824201
0.281727 0.719829 0.785641
0.386145 0.730953 0.747097
0.490578 0.742077 0.708537
0.594995 0.753216 0.669978
0.699428 0.76434 0.631418
0.803861 0.775464 0.592874
0.908278 0.786603 0.554314
0.0428931 0.825788 0.907729
0.147295 0.836912 0.869184
0.251728 0.848035 0.830625
0.356161 0.859174 0.792081
0.460578 0.870298 0.753521
0.565011 0.881422 0.714961
0.669429 0.892561 0.676417
0.773861 0.903685 0.637858
0.878294 0.914809 0.599298
0.0128939 0.953994 0.952728
0.117311 0.965133 0.914168
0.221729 0.976257 0.875624
0.326162 0.987381 0.837064
0.430594 0.99852 0.798505
0.535012 1 0.75996
0.639445 1 0.721401
0.743862 1 0.682841
0.848295 1 0.644297
0.30341 0 0.711406
0.407813 0 0.672862
0.512245 0 0.634302
0.616678 0 0.595743
0.721096 0 0.557198
0.825528 0 0.518639
0.929946 0 0.480079
1 0 0.441535
1 0.00297551 0.402975
0.273411 0.0421454 0.75639
0.377829 0.0532692 0.71783
0.482261 0.0643931 0.679286
0.586679 0.0755322 0.640726
0.691112 0.086656 0.602167
0.795529 0.0977798 0.563622
0.899962 0.108919 0.525063
1 0.120043 0.486503
1 0.131167 0.447959
0.243427 0.170352 0.801373
0.347829 0.181491 0.762829
0.452262 0.192615 0.724269
0.556695 0.203738 0.68571
0.661112 0.214878 0.647166
0.765545 0.226001 0.608606
0.869963 0.237125 0.570047
0.974395 0.248264 0.531502
1 0.259388 0.492943
0.213428 0.298573 0.846357
0.317845 0.309697 0.807813
0.422263 0.320836 0.769253
0.526696 0.33196 0.730694
0.631128 0.343084 0.692149
0.735546 0.354223 0.65359
0.839979 0.365347 0.61503
0.944396 0.376471 0.576486
1 0.38761 0.537926
0.183429 0.426795 0.89134
0.287846 0.437919 0.852796
0.392279 0.449042 0.814237
0.496696 0.460182 0.775692
0.601129 0.471305 0.737133
0.705562 0.482429 0.698573
0.809979 0.493568 0.660029
0.914412 0.504692 0.621469
1 0.515816 0.58291
0.153445 0.555001 0.936339
0.257862 0.56614 0.89778
0.36228 0.577264 0.859236
0.466712 0.588388 0.820676
0.57113 0.599527 0.782116
0.675563 0.610651 0.743557
0.779995 0.621775 0.705013
0.884413 0.632914 0.666453
0.988846 0.644038 0.627894
0.123445 0.683223 0.981323
0.227863 0.694347 0.942763
0.332296 0.705486 0.904219
0.436713 0.716609 0.86566
0.541146 0.727733 0.8271
0.645563 0.738872 0.788556
0.749996 0.749996 0.749996
0.854429 0.76112 0.711437
0.958846 0.772259 0.672892
0.0934615 0.811444 1
0.197864 0.822568 0.987762
0.302296 0.833692 0.949203
0.406729 0.844831 0.910643
0.511147 0.855955 0.872099
0.615579 0.867079 0.833539
0.719997 0.878218 0.79498
0.82443 0.889342 0.756436
0.928862 0.900465 0.717876
0.0634623 0.939651 1
0.16788 0.95079 1
0.272297 0.961913 0.994186
0.37673 0.973037 0.955627
0.481163 0.984176 0.917082
0.58558 0.9953 0.878523
0.690013 1 0.839963
0.79443 1 0.801419
0.898863 1 0.76286
0.353979 0 0.829969
0.458381 0 0.791424
0.562814 0 0.752865
0.667247 0 0.714321
0.771664 0 0.675761
0.876097 0 0.637201
0.980514 0 0.598657
1 0 0.560098
1 0 0.521538
0.32398 0.0278019 0.874952
0.428397 0.0389258 0.836408
0.53283 0.0500496 0.797848
0.637247 0.0611887 0.759304
0.74168 0.0723125 0.720745
0.846098 0.0834363 0.682185
0.95053 0.0945754 0.643641
1 0.105699 0.605081
1 0.116823 0.566522
0.293996 0.156008 0.919936
0.398398 0.167147 0.881392
0.502831 0.178271 0.842832
0.607263 0.189395 0.804288
0.711681 0.200534 0.765728
0.816114 0.211658 0.727169
0.920531 0.222782 0.688624
1 0.233921 0.650065
1 0.245045 0.611505
0.263996 0.28423 0.964935
0.368414 0.295354 0.926375
0.472831 0.306493 0.887831
0.577264 0.317617 0.849271
0.681697 0.32874 0.810712
0.786114 0.339879 0.772168
0.890547 0.351003 0.733608
0.994965 0.362127 0.695048
1 0.373266 0.656504
0.233997 0.412451 1
0.338415 0.423575 0.971359
0.442847 0.434699 0.932815
0.547265 0.445838 0.894255
0.651698 0.456962 0.855695
0.75613 0.468086 0.817151
0.860548 0.479225 0.778592
0.964981 0.490349 0.740032
1 0.501472 0.701488
0.204013 0.540658 1
0.308431 0.551797 1
0.412848 0.562921 0.977798
0.517281 0.574044 0.939239
0.621698 0.585184 0.900694
0.726131 0.596307 0.862135
0.830564 0.607431 0.823575
0.934981 0.61857 0.785031
1 0.629694 0.746471
0.174014 0.668879 1
0.278431 0.680003 1
0.382864 0.691142 1
0.487282 0.702266 0.984237
0.591714 0.71339 0.945678
0.696132 0.724529 0.907118
0.800565 0.735653 0.868559
0.904997 0.746777 0.830014
1 0.757916 0.791455
0.14403 0.797101 1
0.248432 0.808225 1
0.352865 0.819348 1
0.457298 0.830488 1
0.561715 0.841611 0.990662
0.666148 0.852735 0.952102
0.770565 0.863874 0.913558
0.874998 0.874998 0.874998
0.979431 0.886122 0.836439
0.114031 0.925307 1
0.218448 0.936446 1
0.322866 0.94757 1
0.427298 0.958694 1
0.531731 0.969833 1
0.636149 0.980957 0.997101
0.740581 0.992081 0.958541
0.844999 1 0.919982
0.949432 1 0.881437
0.404547 0 0.948547
0.508949 0 0.910002
0.613382 0 0.871443
0.717815 0 0.832883
0.822232 0 0.794339
0.926665 0 0.755779
1 0 0.71722
1 0 0.678676
1 0 0.640116
0.374548 0.0134585 0.99353
0.478965 0.0245823 0.954971
0.583398 0.0357061 0.916426
0.687816 0.0468452 0.877867
0.792248 0.057969 0.839307
0.896666 0.0690929 0.800763
1 0.0802319 0.762203
1 0.0913558 0.723644
1 0.10248 0.6851
0.344564 0.141665 1
0.448966 0.152804 0.999969
0.553399 0.163928 0.96141
0.657832 0.175051 0.92285
0.762249 0.186191 0.884306
0.866682 0.197314 0.845747
0.971099 0.208438 0.807187
1 0.219577 0.768643
1 0.230701 0.730083
0.314565 0.269886 1
0.418982 0.28101 1
0.5234 0.292149 1
0.627832 0.303273 0.967834
0.732265 0.314397 0.92929
0.836683 0.325536 0.89073
0.941115 0.33666 0.852171
1 0.347784 0.813626
1 0.358923 0.775067
0.284566 0.398108 1
0.388983 0.409232 1
0.493416 0.420356 1
0.597833 0.431495 1
0.702266 0.442618 0.974273
0.806699 0.453742 0.935714
0.911116 0.464881 0.897169
1 0.476005 0.85861
1 0.487129 0.82005
0.254582 0.526314 1
0.358999 0.537453 1
0.463416 0.548577 1
0.567849 0.559701 1
0.672267 0.57084 1
0.776699 0.581964 0.980697
0.881132 0.593088 0.942153
0.98555 0.604227 0.903593
1 0.615351 0.865034
0.224582 0.654536 1
0.329 0.66566 1
0.433433 0.676799 1
0.53785 0.687922 1
0.642283 0.699046 1
0.7467 0.710185 1
0.851133 0.721309 0.987137
0.955566 0.732433 0.948577
1 0.743572 0.910033
0.194598 0.782757 1
0.299001 0.793881 1
0.403433 0.805005 1
0.507866 0.816144 1
0.612284 0.827268 1
0.716716 0.838392 1
0.821134 0.849531 1
0.925566 0.860655 0.993561
1 0.871778 0.955016
0.164599 0.910964 1
0.269017 0.922103 1
0.373434 0.933227 1
0.477867 0.94435 1
0.5823 0.955489 1
0.686717 0.966613 1
0.79115 0.977737 1
0.895567 0.988876 1
1 1 1
