public/LUTS/Color Shift/ColorShift_93.cube
TITLE "Generated by Resolve"
LUT_3D_SIZE 5
0 0 0
0 0.0773327 0.330205
0 0.154665 0.660441
0 0.232013 0.990677
0 0.309346 1
0.599252 0.042237 0.217624
0.449943 0.11957 0.547845
0.300633 0.196902 0.878065
0.151324 0.274235 1
0.00201419 0.351583 1
1 0.0844587 0.435264
1 0.161791 0.765469
0.899931 0.239139 1
0.750607 0.316472 1
0.601297 0.39382 1
1 0.126696 0.652903
1 0.204028 0.983108
1 0.281376 1
1 0.358709 1
1 0.436042 1
1 0.168933 0.870542
1 0.246265 1
1 0.323598 1
1 0.400946 1
1 0.478279 1
0 0.130419 0
0 0.207752 0.0323644
0 0.2851 0.3626
0 0.362432 0.692821
0 0.43978 1
0.399298 0.172656 0
0.249989 0.249989 0.249989
0.100679 0.327321 0.580224
0 0.404669 0.910445
0 0.482002 1
0.998581 0.214893 0.137423
0.849271 0.292226 0.467628
0.699962 0.369558 0.797864
0.550652 0.446906 1
0.401343 0.524239 1
1 0.257115 0.355062
1 0.334462 0.685267
1 0.411795 1
1 0.489128 1
1 0.566476 1
1 0.299351 0.572686
1 0.376684 0.902907
1 0.454032 1
1 0.531365 1
1 0.608698 1
0 0.260853 0
0 0.338186 0
0 0.415534 0.0647288
0 0.492866 0.394965
0 0.570199 0.725185
0.199313 0.30309 0
0.0500191 0.380423 0
0 0.457755 0.282353
0 0.535103 0.612589
0 0.612436 0.942809
0.798611 0.345327 0
0.649302 0.42266 0.169757
0.499992 0.499992 0.499992
0.350683 0.577325 0.830228
0.201373 0.654673 1
1 0.387549 0.0571908
1 0.464881 0.387396
1 0.542229 0.717632
0.949966 0.619562 1
0.800656 0.69691 1
1 0.429786 0.27483
1 0.507118 0.605035
1 0.584466 0.935271
1 0.661799 1
1 0.739132 1
0 0.391287 0
0 0.46862 0
0 0.545968 0
0 0.623301 0.0970932
0 0.700633 0.427329
0 0.433524 0
0 0.510857 0
0 0.58819 0
0 0.665522 0.314717
0 0.74287 0.644953
0.598642 0.475746 0
0.449332 0.553079 0
0.300023 0.630426 0.202121
0.150713 0.707759 0.532357
0.00138857 0.785107 0.862593
1 0.517983 0
1 0.595315 0.0895399
0.899306 0.672663 0.41976
0.749996 0.749996 0.749996
0.600687 0.827329 1
1 0.56022 0
1 0.637552 0.307179
1 0.714885 0.6374
1 0.792233 0.967636
1 0.869566 1
0 0.521721 0
0 0.599054 0
0 0.676387 0
0 0.753735 0
0 0.831067 0.129458
0 0.563958 0
0 0.641291 0
0 0.718624 0
0 0.795956 0.016846
0 0.873304 0.347082
0.398657 0.60618 0
0.249363 0.683513 0
0.100053 0.760861 0
0 0.838193 0.234485
0 0.915526 0.564721
0.997955 0.648417 0
0.848646 0.72575 0
0.699336 0.803082 0.121904
0.550027 0.88043 0.452125
0.400717 0.957763 0.782361
1 0.690654 0
1 0.767987 0.009308
1 0.845319 0.339544
1 0.922667 0.669764
1 1 1
