public/LUTS/Color Shift/ColorShift_64.cube
TITLE "Generated by Resolve"
LUT_3D_SIZE 33
0 0 0
0.0116274 0.0104677 0
0.02327 0.0209201 0
0.0349126 0.0313878 0
0.0465553 0.0418555 0
0.0581979 0.0523232 0
0.0698253 0.0627909 0
0.0814679 0.0732586 0
0.0931106 0.0837262 0
0.104753 0.0941939 0
0.116396 0.104662 0
0.128023 0.115114 0
0.139666 0.125582 0
0.151308 0.136049 0
0.162951 0.146517 0
0.174594 0.156985 0
0.186221 0.167452 0
0.197864 0.17792 0
0.209506 0.188388 0
0.221149 0.19884 0
0.232792 0.209308 0
0.244419 0.219776 0
0.256062 0.230243 0
0.267704 0.240711 0
0.279347 0.251179 0
0.29099 0.261646 0
0.302617 0.272114 0
0.31426 0.282582 0
0.325902 0.293034 0
0.337545 0.303502 0
0.349187 0.31397 0
0.360815 0.324437 0
0.372457 0.334905 0
0 0.0340276 0.0421912
0 0.04448 0.00656138
0 0.0549477 0
0.00755322 0.0654154 0
0.0191806 0.0758831 0
0.0308232 0.0863508 0
0.0424659 0.0968185 0
0.0541085 0.107271 0
0.0657511 0.117739 0
0.0773785 0.128206 0
0.0890211 0.138674 0
0.100664 0.149142 0
0.112306 0.159609 0
0.123949 0.170077 0
0.135576 0.180545 0
0.147219 0.191012 0
0.158862 0.201465 0
0.170504 0.211933 0
0.182147 0.2224 0
0.193774 0.232868 0
0.205417 0.243336 0
0.21706 0.253803 0
0.228702 0.264271 0
0.240345 0.274739 0
0.251972 0.285191 0
0.263615 0.295659 0
0.275257 0.306127 0
0.2869 0.316594 0
0.298543 0.327062 0
0.31017 0.33753 0
0.321813 0.347997 0
0.333455 0.358465 0
0.345098 0.368933 0
0 0.0680552 0.0843977
0 0.0785229 0.0487678
0 0.0889906 0.0131228
0 0.0994583 0
0 0.109911 0
0.00344854 0.120378 0
0.0150912 0.130846 0
0.0267338 0.141314 0
0.0383612 0.151781 0
0.0500038 0.162249 0
0.0616465 0.172717 0
0.0732891 0.183185 0
0.0849317 0.193652 0
0.0965591 0.204105 0
0.108202 0.214572 0
0.119844 0.22504 0
0.131487 0.235508 0
0.14313 0.245975 0
0.154757 0.256443 0
0.1664 0.266911 0
0.178042 0.277378 0
0.189685 0.287831 0
0.201328 0.298299 0
0.212955 0.308766 0
0.224598 0.319234 0
0.23624 0.329702 0
0.247883 0.340169 0
0.259525 0.350637 0
0.271153 0.361105 0
0.282795 0.371572 0
0.294438 0.382025 0
0.306081 0.392493 0
0.317723 0.40296 0
0 0.102098 0.126604
0 0.112551 0.0909743
0 0.123018 0.0553292
0 0.133486 0.0196841
0 0.143954 0
0 0.154421 0
0 0.164889 0
0 0.175357 0
0.0109865 0.185824 0
0.0226291 0.196292 0
0.0342718 0.206744 0
0.0458991 0.217212 0
0.0575418 0.22768 0
0.0691844 0.238148 0
0.080827 0.248615 0
0.0924697 0.259083 0
0.104097 0.269551 0
0.11574 0.280018 0
0.127382 0.290486 0
0.139025 0.300938 0
0.150668 0.311406 0
0.162295 0.321874 0
0.173938 0.332341 0
0.18558 0.342809 0
0.197223 0.353277 0
0.208865 0.363745 0
0.220493 0.374212 0
0.232136 0.384665 0
0.243778 0.395132 0
0.255421 0.4056 0
0.267063 0.416068 0
0.278691 0.426535 0
0.290333 0.437003 0
0 0.136141 0.168811
0 0.146593 0.133181
0 0.157061 0.0975357
0 0.167529 0.0618906
0 0.177996 0.0262455
0 0.188464 0
0 0.198932 0
0 0.209384 0
0 0.219852 0
0 0.23032 0
0.00688182 0.240787 0
0.0185245 0.251255 0
0.0301671 0.261723 0
0.0418097 0.27219 0
0.0534524 0.282658 0
0.0650797 0.293126 0
0.0767224 0.303578 0
0.088365 0.314046 0
0.100008 0.324514 0
0.11165 0.334981 0
0.123278 0.345449 0
0.13492 0.355917 0
0.146563 0.366384 0
0.158206 0.376852 0
0.169848 0.387304 0
0.181476 0.397772 0
0.193118 0.40824 0
0.204761 0.418708 0
0.216403 0.429175 0
0.228046 0.439643 0
0.239673 0.450111 0
0.251316 0.460578 0
0.262959 0.471046 0
0 0.170169 0.211017
0 0.180636 0.175387
0 0.191104 0.139742
0 0.201572 0.104097
0 0.212024 0.068452
0 0.222492 0.0328069
0 0.232959 0
0 0.243427 0
0 0.253895 0
0 0.264363 0
0 0.27483 0
0 0.285298 0
0.0027924 0.295766 0
0.0144198 0.306218 0
0.0260624 0.316686 0
0.037705 0.327153 0
0.0493477 0.337621 0
0.0609903 0.348089 0
0.0726177 0.358557 0
0.0842603 0.369024 0
0.0959029 0.379492 0
0.107546 0.389944 0
0.119188 0.400412 0
0.130816 0.41088 0
0.142458 0.421347 0
0.154101 0.431815 0
0.165743 0.442283 0
0.177386 0.45275 0
0.189014 0.463218 0
0.200656 0.473686 0
0.212299 0.484138 0
0.223941 0.494606 0
0.235584 0.505074 0
0 0.204211 0.253223
0 0.214664 0.217594
0 0.225132 0.181949
0 0.235599 0.146304
0 0.246067 0.110658
0 0.256535 0.0750134
0 0.267002 0.0393683
0 0.27747 0.00373846
0 0.287938 0
0 0.298405 0
0 0.308858 0
0 0.319326 0
0 0.329793 0
0 0.340261 0
0 0.350729 0
0.0103304 0.361196 0
0.021973 0.371664 0
0.0336004 0.382132 0
0.045243 0.392599 0
0.0568856 0.403052 0
0.0685283 0.41352 0
0.0801709 0.423987 0
0.0917983 0.434455 0
0.103441 0.444923 0
0.115084 0.45539 0
0.126726 0.465858 0
0.138369 0.476326 0
0.149996 0.486778 0
0.161639 0.497246 0
0.173281 0.507713 0
0.184924 0.518181 0
0.196567 0.528649 0
0.208194 0.539117 0
0 0.238254 0.29543
0 0.248707 0.2598
0 0.259174 0.224155
0 0.269642 0.18851
0 0.28011 0.152865
0 0.290578 0.117235
0 0.301045 0.08159
0 0.311498 0.0459449
0 0.321965 0.0102998
0 0.332433 0
0 0.342901 0
0 0.353368 0
0 0.363836 0
0 0.374304 0
0 0.384771 0
0 0.395239 0
0 0.405692 0
0.00622568 0.416159 0
0.0178683 0.426627 0
0.0295109 0.437095 0
0.0411536 0.447562 0
0.052781 0.45803 0
0.0644236 0.468498 0
0.0760662 0.478965 0
0.0877089 0.489418 0
0.0993515 0.499886 0
0.110979 0.510353 0
0.122621 0.520821 0
0.134264 0.531289 0
0.145907 0.541756 0
0.157549 0.552224 0
0.169177 0.562692 0
0.180819 0.573159 0
0 0.272282 0.337636
0 0.28275 0.302007
0 0.293217 0.266361
0 0.303685 0.230732
0 0.314137 0.195087
0 0.324605 0.159442
0 0.335073 0.123796
0 0.345541 0.0881514
0 0.356008 0.0525063
0 0.366476 0.0168612
0 0.376944 0
0 0.387411 0
0 0.397879 0
0 0.408331 0
0 0.418799 0
0 0.429267 0
0 0.439734 0
0 0.450202 0
0 0.46067 0
0.002121 0.471138 0
0.0137636 0.481605 0
0.0254063 0.492058 0
0.0370489 0.502525 0
0.0486915 0.512993 0
0.0603189 0.523461 0
0.0719615 0.533928 0
0.0836042 0.544396 0
0.0952468 0.554864 0
0.106889 0.565332 0
0.118517 0.575799 0
0.130159 0.586252 0
0.141802 0.596719 0
0.153445 0.607187 0
0 0.306325 0.379843
0 0.316777 0.344228
0 0.327245 0.308583
0 0.337713 0.272938
0 0.34818 0.237293
0 0.358648 0.201648
0 0.369116 0.166003
0 0.379583 0.130358
0 0.390051 0.0947127
0 0.400519 0.0590677
0 0.410971 0.0234226
0 0.421439 0
0 0.431907 0
0 0.442374 0
0 0.452842 0
0 0.46331 0
0 0.473777 0
0 0.484245 0
0 0.494713 0
0 0.505165 0
0 0.515633 0
0 0.526101 0
0.00967422 0.536568 0
0.0213016 0.547036 0
0.0329442 0.557504 0
0.0445869 0.567971 0
0.0562295 0.578439 0
0.0678721 0.588891 0
0.0794995 0.599359 0
0.0911421 0.609827 0
0.102785 0.620295 0
0.114427 0.630762 0
0.12607 0.64123 0
0 0.340368 0.422049
0 0.35082 0.386435
0 0.361288 0.35079
0 0.371756 0.315145
0 0.382223 0.2795
0 0.392691 0.243854
0 0.403159 0.208209
0 0.413611 0.172564
0 0.424079 0.136919
0 0.434546 0.101274
0 0.445014 0.0656291
0 0.455482 0.029984
0 0.46595 0
0 0.476417 0
0 0.486885 0
0 0.497353 0
0 0.507805 0
0 0.518273 0
0 0.52874 0
0 0.539208 0
0 0.549676 0
0 0.560143 0
0 0.570611 0
0 0.581079 0
0.00556954 0.591531 0
0.0172122 0.601999 0
0.0288396 0.612467 0
0.0404822 0.622934 0
0.0521248 0.633402 0
0.0637675 0.64387 0
0.0754101 0.654337 0
0.0870375 0.664805 0
0.0986801 0.675273 0
0 0.374395 0.464256
0 0.384863 0.428641
0 0.395331 0.392996
0 0.405798 0.357351
0 0.416251 0.321706
0 0.426719 0.286061
0 0.437186 0.250416
0 0.447654 0.214771
0 0.458122 0.179126
0 0.468589 0.143481
0 0.479057 0.107836
0 0.489525 0.0721904
0 0.499992 0.0365454
0 0.510445 0.000900282
0 0.520912 0
0 0.53138 0
0 0.541848 0
0 0.552316 0
0 0.562783 0
0 0.573251 0
0 0.583719 0
0 0.594171 0
0 0.604639 0
0 0.615106 0
0 0.625574 0
0 0.636042 0
0.00146487 0.64651 0
0.0131075 0.656977 0
0.0247501 0.667445 0
0.0363928 0.677913 0
0.0480201 0.688365 0
0.0596628 0.698833 0
0.0713054 0.7093 0
0 0.408438 0.506477
0 0.418891 0.470848
0 0.429358 0.435203
0 0.439826 0.399558
0 0.450294 0.363912
0 0.460761 0.328267
0 0.471229 0.292622
0 0.481697 0.256977
0 0.492164 0.221332
0 0.502632 0.185687
0 0.513085 0.150042
0 0.523552 0.114397
0 0.53402 0.0787518
0 0.544488 0.0431067
0 0.554955 0.00746166
0 0.565423 0
0 0.575891 0
0 0.586358 0
0 0.596811 0
0 0.607279 0
0 0.617746 0
0 0.628214 0
0 0.638682 0
0 0.649149 0
0 0.659617 0
0 0.670085 0
0 0.680552 0
0 0.691005 0
0 0.701473 0
0.00900282 0.71194 0
0.0206455 0.722408 0
0.0322881 0.732876 0
0.0439307 0.743343 0
0 0.442481 0.548684
0 0.452934 0.513054
0 0.463401 0.477409
0 0.473869 0.441764
0 0.484337 0.406119
0 0.494804 0.370474
0 0.505272 0.334829
0 0.515724 0.299184
0 0.526192 0.263539
0 0.53666 0.227893
0 0.547127 0.192248
0 0.557595 0.156603
0 0.568063 0.120958
0 0.578531 0.0853132
0 0.588998 0.0496681
0 0.599466 0.014023
0 0.609918 0
0 0.620386 0
0 0.630854 0
0 0.641321 0
0 0.651789 0
0 0.662257 0
0 0.672724 0
0 0.683192 0
0 0.693645 0
0 0.704112 0
0 0.71458 0
0 0.725048 0
0 0.735515 0
0 0.745983 0
0 0.756451 0
0.00491341 0.766918 0
0.0165408 0.777386 0
0 0.476509 0.59089
0 0.486976 0.555261
0 0.497444 0.519615
0 0.507912 0.48397
0 0.518364 0.448325
0 0.528832 0.41268
0 0.5393 0.377035
0 0.549767 0.34139
0 0.560235 0.305745
0 0.570703 0.2701
0 0.58117 0.234455
0 0.591638 0.19881
0 0.602106 0.163165
0 0.612558 0.12752
0 0.623026 0.0918746
0 0.633494 0.0562295
0 0.643961 0.0205997
0 0.654429 0
0 0.664897 0
0 0.675364 0
0 0.685832 0
0 0.696284 0
0 0.706752 0
0 0.71722 0
0 0.727687 0
0 0.738155 0
0 0.748623 0
0 0.759091 0
0 0.769558 0
0 0.780026 0
0 0.790478 0
0 0.800946 0
0 0.811414 0
0 0.510552 0.633097
0 0.521004 0.597467
0 0.531472 0.561822
0 0.541939 0.526177
0 0.552407 0.490532
0 0.562875 0.454887
0 0.573343 0.419242
0 0.58381 0.383597
0 0.594278 0.347951
0 0.604746 0.312306
0 0.615198 0.276661
0 0.625666 0.241016
0 0.636133 0.205371
0 0.646601 0.169726
0 0.657069 0.134096
0 0.667536 0.0984512
0 0.678004 0.0628061
0 0.688472 0.0271611
0 0.698924 0
0 0.709392 0
0 0.71986 0
0 0.730327 0
0 0.740795 0
0 0.751263 0
0 0.76173 0
0 0.772198 0
0 0.782666 0
0 0.793118 0
0 0.803586 0
0 0.814054 0
0 0.824521 0
0 0.834989 0
0 0.845457 0
0 0.544594 0.675303
0 0.555047 0.639673
0 0.565515 0.604028
0 0.575982 0.568383
0 0.58645 0.532738
0 0.596918 0.497093
0 0.607385 0.461448
0 0.617838 0.425803
0 0.628305 0.390158
0 0.638773 0.354513
0 0.649241 0.318868
0 0.659709 0.283223
0 0.670176 0.247578
0 0.680644 0.211948
0 0.691112 0.176303
0 0.701579 0.140658
0 0.712032 0.105013
0 0.722499 0.0693675
0 0.732967 0.0337224
0 0.743435 0
0 0.753902 0
0 0.76437 0
0 0.774838 0
0 0.785306 0
0 0.795758 0
0 0.806226 0
0 0.816693 0
0 0.827161 0
0 0.837629 0
0 0.848096 0
0 0.858564 0
0 0.869032 0
0 0.879499 0
0 0.578622 0.71751
0 0.58909 0.68188
0 0.599557 0.646235
0 0.610025 0.61059
0 0.620478 0.574945
0 0.630945 0.5393
0 0.641413 0.503655
0 0.651881 0.468009
0 0.662348 0.432364
0 0.672816 0.396719
0 0.683284 0.361074
0 0.693751 0.325444
0 0.704219 0.289799
0 0.714672 0.254154
0 0.725139 0.218509
0 0.735607 0.182864
0 0.746075 0.147219
0 0.756542 0.111574
0 0.76701 0.0759289
0 0.777478 0.0402838
0 0.787945 0.00463874
0 0.798398 0
0 0.808865 0
0 0.819333 0
0 0.829801 0
0 0.840269 0
0 0.850736 0
0 0.861204 0
0 0.871672 0
0 0.882139 0
0 0.892592 0
0 0.903059 0
0 0.913527 0
0 0.612665 0.759716
0 0.623117 0.724086
0 0.633585 0.688441
0 0.644053 0.652796
0 0.654521 0.617151
0 0.664988 0.581506
0 0.675456 0.545861
0 0.685924 0.510216
0 0.696391 0.474571
0 0.706859 0.438941
0 0.717311 0.403296
0 0.727779 0.367651
0 0.738247 0.332006
0 0.748714 0.296361
0 0.759182 0.260716
0 0.76965 0.225071
0 0.780118 0.189425
0 0.790585 0.15378
0 0.801038 0.118135
0 0.811505 0.0824903
0 0.821973 0.0468452
0 0.832441 0.0112001
0 0.842908 0
0 0.853376 0
0 0.863844 0
0 0.874311 0
0 0.884779 0
0 0.895232 0
0 0.905699 0
0 0.916167 0
0 0.926635 0
0 0.937102 0
0 0.94757 0
0 0.646708 0.801923
0 0.65716 0.766293
0 0.667628 0.730648
0 0.678096 0.695003
0 0.688563 0.659358
0 0.699031 0.623713
0 0.709499 0.588067
0 0.719951 0.552438
0 0.730419 0.516793
0 0.740887 0.481147
0 0.751354 0.445502
0 0.761822 0.409857
0 0.77229 0.374212
0 0.782757 0.338567
0 0.793225 0.302922
0 0.803693 0.267277
0 0.814145 0.231632
0 0.824613 0.195987
0 0.835081 0.160342
0 0.845548 0.124697
0 0.856016 0.0890516
0 0.866484 0.0534066
0 0.876951 0.0177615
0 0.887419 0
0 0.897871 0
0 0.908339 0
0 0.918807 0
0 0.929274 0
0 0.939742 0
0 0.95021 0
0 0.960678 0
0 0.971145 0
0 0.981613 0
0 0.680735 0.844129
0 0.691203 0.808499
0 0.701671 0.772854
0 0.712139 0.737209
0 0.722591 0.701564
0 0.733059 0.665934
0 0.743526 0.630289
0 0.753994 0.594644
0 0.764462 0.558999
0 0.774929 0.523354
0 0.785397 0.487709
0 0.795865 0.452064
0 0.806332 0.416419
0 0.816785 0.380774
0 0.827253 0.345129
0 0.83772 0.309483
0 0.848188 0.273838
0 0.858656 0.238193
0 0.869123 0.202548
0 0.879591 0.166903
0 0.890059 0.131258
0 0.900511 0.095613
0 0.910979 0.059968
0 0.921447 0.0243229
0 0.931914 0
0 0.942382 0
0 0.95285 0
0 0.963317 0
0 0.973785 0
0 0.984253 0
0 0.994705 0
0 1 0
0 1 0
0 0.714778 0.886336
0 0.725231 0.850706
0 0.735698 0.815061
0 0.746166 0.779431
0 0.756634 0.743786
0 0.767102 0.708141
0 0.777569 0.672496
0 0.788037 0.636851
0 0.798505 0.601205
0 0.808972 0.56556
0 0.819425 0.529915
0 0.829892 0.49427
0 0.84036 0.458625
0 0.850828 0.42298
0 0.861295 0.387335
0 0.871763 0.35169
0 0.882231 0.316045
0 0.892699 0.2804
0 0.903151 0.244755
0 0.913619 0.20911
0 0.924086 0.173465
0 0.934554 0.137819
0 0.945022 0.102174
0 0.955489 0.0665293
0 0.965957 0.0308843
0 0.976425 0
0 0.986893 0
0 0.997345 0
0 1 0
0 1 0
0 1 0
0 1 0
0 1 0
0 0.748821 0.928542
0 0.759274 0.892912
0 0.769741 0.857282
0 0.780209 0.821637
0 0.790677 0.785992
0 0.801144 0.750347
0 0.811612 0.714702
0 0.822065 0.679057
0 0.832532 0.643412
0 0.843 0.607767
0 0.853468 0.572122
0 0.863935 0.536477
0 0.874403 0.500832
0 0.884871 0.465187
0 0.895338 0.429541
0 0.905791 0.393896
0 0.916259 0.358251
0 0.926726 0.322606
0 0.937194 0.286961
0 0.947662 0.251316
0 0.958129 0.215671
0 0.968597 0.180026
0 0.979065 0.144381
0 0.989532 0.108736
0 0.999985 0.0730907
0 1 0.0374456
0 1 0.00181582
0 1 0
0 1 0
0 1 0
0 1 0
0 1 0
0 1 0
0 0.782849 0.970748
0 0.793317 0.935134
0 0.803784 0.899489
0 0.814252 0.863844
0 0.824704 0.828199
0 0.835172 0.792554
0 0.84564 0.756909
0 0.856107 0.721263
0 0.866575 0.685618
0 0.877043 0.649973
0 0.88751 0.614328
0 0.897978 0.578683
0 0.908446 0.543038
0 0.918898 0.507393
0 0.929366 0.471748
0 0.939834 0.436103
0 0.950301 0.400458
0 0.960769 0.364813
0 0.971237 0.329168
0 0.981704 0.293523
0 0.992172 0.257877
0 1 0.222232
0 1 0.186587
0 1 0.150942
0 1 0.115312
0 1 0.0796674
0 1 0.0440223
0 1 0.0083772
0 1 0
0 1 0
0 1 0
0 1 0
0 1 0
0 0.816892 1
0 0.827344 0.97734
0 0.837812 0.941695
0 0.84828 0.90605
0 0.858747 0.870405
0 0.869215 0.83476
0 0.879683 0.799115
0 0.89015 0.76347
0 0.900618 0.727825
0 0.911086 0.69218
0 0.921538 0.656535
0 0.932006 0.62089
0 0.942473 0.585245
0 0.952941 0.549599
0 0.963409 0.513954
0 0.973877 0.478309
0 0.984344 0.442664
0 0.994812 0.407019
0 1 0.371374
0 1 0.335729
0 1 0.300084
0 1 0.264439
0 1 0.228809
0 1 0.193164
0 1 0.157519
0 1 0.121874
0 1 0.0862287
0 1 0.0505837
0 1 0.0149386
0 1 0
0 1 0
0 1 0
0 1 0
0 0.850935 1
0 0.861387 1
0 0.871855 0.983902
0 0.882322 0.948257
0 0.89279 0.912612
0 0.903258 0.876967
0 0.913725 0.841321
0 0.924178 0.805676
0 0.934646 0.770031
0 0.945113 0.734386
0 0.955581 0.698741
0 0.966049 0.663096
0 0.976516 0.627451
0 0.986984 0.591806
0 0.997452 0.556161
0 1 0.520516
0 1 0.484871
0 1 0.449226
0 1 0.413581
0 1 0.377935
0 1 0.342306
0 1 0.306661
0 1 0.271015
0 1 0.23537
0 1 0.199725
0 1 0.16408
0 1 0.128435
0 1 0.0927901
0 1 0.057145
0 1 0.0215
0 1 0
0 1 0
0 1 0
0 0.884962 1
0 0.89543 1
0 0.905898 1
0 0.916365 0.990463
0 0.926818 0.954818
0 0.937285 0.919173
0 0.947753 0.883528
0 0.958221 0.847883
0 0.968688 0.812238
0 0.979156 0.776593
0 0.989624 0.740948
0 1 0.705303
0 1 0.669657
0 1 0.634012
0 1 0.598367
0 1 0.562722
0 1 0.527077
0 1 0.491432
0 1 0.455802
0 1 0.420157
0 1 0.384512
0 1 0.348867
0 1 0.313222
0 1 0.277577
0 1 0.241932
0 1 0.206287
0 1 0.170642
0 1 0.134997
0 1 0.0993515
0 1 0.0637064
0 1 0.0280613
0 1 0
0 1 0
0 0.919005 1
0 0.929458 1
0 0.939925 1
0 0.950393 1
0 0.960861 0.997024
0 0.971328 0.961379
0 0.981796 0.925734
0 0.992264 0.890089
0 1 0.854444
