public/LUTS/Color Shift/ColorShift_81.cube
TITLE "Generated by Resolve"
LUT_3D_SIZE 5
0 0 0
0.322042 0 0.265232
0.644099 0 0.530495
0.966155 0 0.795743
1 0 1
0.247684 0.206119 0
0.569726 0.150393 0.0285649
0.891783 0.094667 0.293812
1 0.0389563 0.55906
1 0 0.824323
0.495384 0.412238 0
0.817411 0.356527 0
1 0.300801 0.0571145
1 0.245075 0.322377
1 0.189364 0.587625
0.743069 0.618357 0
1 0.562646 0
1 0.50692 0
1 0.451209 0.0856794
1 0.395483 0.350927
0.990768 0.824491 0
1 0.768765 0
1 0.713054 0
1 0.657328 0
1 0.601602 0.114229
0 0.0995956 0.221424
0.00230411 0.0438697 0.486671
0.324361 0 0.751919
0.646418 0 1
0.96849 0 1
0 0.305699 0
0.249989 0.249989 0.249989
0.572045 0.194263 0.515236
0.894102 0.138552 0.780499
1 0.082826 1
0.175647 0.511833 0
0.497688 0.456107 0.0132906
0.819745 0.400397 0.278553
1 0.344671 0.543801
1 0.288945 0.809049
0.423346 0.717952 0
0.745388 0.662242 0
1 0.606516 0.0418555
1 0.55079 0.307103
1 0.495079 0.572366
0.671046 0.924086 0
0.993072 0.86836 0
1 0.81265 0
1 0.756924 0.0704204
1 0.701198 0.335668
0 0.199191 0.442878
0 0.143481 0.70811
0.00460822 0.0877546 0.973358
0.326665 0.0320287 1
0.648737 0 1
0 0.40531 0.206195
0 0.349584 0.471427
0.252293 0.293873 0.73669
0.57435 0.238148 1
0.896406 0.182422 1
0 0.611429 0
0.177935 0.555718 0.234745
0.499992 0.499992 0.499992
0.822049 0.444266 0.76524
1 0.388556 1
0.103593 0.817548 0
0.425635 0.761837 0
0.747692 0.706111 0.263294
1 0.650401 0.528557
1 0.594675 0.793805
0.351293 1 0
0.673335 0.967956 0
0.995392 0.912245 0.0266117
1 0.856519 0.291859
1 0.800793 0.557107
0 0.298787 0.664317
0 0.243076 0.929549
0 0.18735 1
0.0069276 0.13164 1
0.328984 0.0759136 1
0 0.504906 0.427634
0 0.449195 0.692882
0 0.393469 0.958129
0.254597 0.337743 1
0.576654 0.282032 1
0 0.711025 0.190951
0 0.655314 0.456184
0.18024 0.599588 0.721431
0.502297 0.543877 0.986694
0.824353 0.488151 1
0 0.917159 0
0.105882 0.861433 0.219486
0.427939 0.805722 0.484749
0.749996 0.749996 0.749996
1 0.69427 1
0.0315404 1 0
0.353582 1 0
0.675639 1 0.248051
0.997696 0.956115 0.513298
1 0.900404 0.778561
0 0.398398 0.885771
0 0.342672 1
0 0.286961 1
0 0.231235 1
0.00923171 0.175509 1
0 0.604501 0.649088
0 0.548791 0.914321
0 0.493065 1
0 0.437339 1
0.256916 0.381628 1
0 0.810636 0.41239
0 0.75491 0.677623
0 0.699199 0.942885
0.182544 0.643473 1
0.504601 0.587747 1
0 1 0.175692
0 0.961044 0.44094
0.108186 0.905318 0.706188
0.430243 0.849592 0.971435
0.7523 0.793881 1
0 1 0
0.0338293 1 0.204242
0.355886 1 0.46949
0.677943 1 0.734752
1 1 1
