public/LUTS/Color Shift/ColorShift_13.cube
TITLE "Generated by Resolve"
LUT_3D_SIZE 33
0 0 0
0 0.0116274 0
0 0.0232548 0
0 0.0348821 0
0 0.0465095 0
0 0.0581521 0
0 0.0697795 0
0 0.0814069 0
0 0.0930343 0
0 0.104662 0
0 0.116304 0
0 0.127932 0
0 0.139559 0
0 0.151186 0
0 0.162814 0
0 0.174456 0
0 0.186084 0
0 0.197711 0
0 0.209339 0
0 0.220966 0
0 0.232609 0
0 0.244236 0
0 0.255863 0
0 0.267491 0
0 0.279118 0
0 0.290761 0
0 0.302388 0
0 0.314015 0
0 0.325643 0
0 0.337285 0
0 0.348913 0
0 0.36054 0
0 0.372168 0
0 0.0258488 0.0433814
0 0.0374762 0.0258488
0 0.0491035 0.00830091
0 0.0607309 0
0 0.0723583 0
0 0.0839857 0
0 0.0956283 0
0 0.107256 0
0 0.118883 0
0 0.13051 0
0 0.142138 0
0 0.15378 0
0 0.165408 0
0 0.177035 0
0 0.188663 0
0 0.20029 0
0 0.211933 0
0 0.22356 0
0 0.235187 0
0 0.246815 0
0 0.258442 0
0 0.270085 0
0 0.281712 0
0 0.293339 0
0 0.304967 0
0 0.316594 0
0 0.328237 0
0 0.339864 0
0 0.351492 0
0 0.363119 0
0 0.374746 0
0 0.386389 0
0 0.398016 0
0 0.0516976 0.0867781
0 0.0633249 0.0692454
0 0.0749523 0.0516976
0 0.0865949 0.034165
0 0.0982223 0.0166171
0 0.10985 0
0 0.121477 0
0 0.133104 0
0 0.144747 0
0 0.156374 0
0 0.168002 0
0 0.179629 0
0 0.191257 0
0 0.202899 0
0 0.214527 0
0 0.226154 0
0 0.237781 0
0 0.249409 0
0 0.261051 0
0 0.272679 0
0 0.284306 0
0 0.295933 0
0 0.307561 0
0 0.319203 0
0 0.330831 0
0 0.342458 0
0 0.354086 0
0 0.365728 0
0 0.377356 0
0 0.388983 0
0 0.40061 0
0 0.412238 0
0 0.42388 0
0 0.0775616 0.130175
0 0.089189 0.112642
0 0.100816 0.0951095
0 0.112444 0.0775616
0 0.124071 0.0600137
0 0.135714 0.0424811
0 0.147341 0.0249332
0 0.158968 0.00740063
0 0.170596 0
0 0.182223 0
0 0.193866 0
0 0.205493 0
0 0.217121 0
0 0.228748 0
0 0.240375 0
0 0.252018 0
0 0.263645 0
0 0.275273 0
0 0.2869 0
0 0.298528 0
0 0.31017 0
0 0.321798 0
0 0.333425 0
0 0.345052 0
0 0.356695 0
0 0.368322 0
0 0.37995 0
0 0.391577 0
0 0.403204 0
0 0.414847 0
0 0.426474 0
0 0.438102 0
0 0.449729 0
0 0.103426 0.173571
0 0.115038 0.156039
0 0.12668 0.138506
0 0.138308 0.120958
0 0.149935 0.103426
0 0.161563 0.0858778
0 0.17319 0.0683299
0 0.184833 0.0507973
0 0.19646 0.0332494
0 0.208087 0.0157168
0 0.219715 0
0 0.231342 0
0 0.242985 0
0 0.254612 0
0 0.266239 0
0 0.277867 0
0 0.289509 0
0 0.301137 0
0 0.312764 0
0 0.324392 0
0 0.336019 0
0 0.347662 0
0 0.359289 0
0 0.370916 0
0 0.382544 0
0 0.394171 0
0 0.405814 0
0 0.417441 0
0 0.429068 0
0 0.440696 0
0 0.452323 0
0 0.463966 0
0 0.475593 0
0 0.129274 0.216983
0 0.140902 0.199451
0 0.152529 0.181903
0 0.164157 0.164355
0 0.175799 0.146822
0 0.187427 0.129274
0 0.199054 0.111742
0 0.210681 0.0941939
0 0.222309 0.0766461
0 0.233951 0.0591135
0 0.245579 0.0415656
0 0.257206 0.024033
0 0.268833 0.00648508
0 0.280476 0
0 0.292103 0
0 0.303731 0
0 0.315358 0
0 0.326986 0
0 0.338628 0
0 0.350256 0
0 0.361883 0
0 0.37351 0
0 0.385138 0
0 0.39678 0
0 0.408408 0
0 0.420035 0
0 0.431662 0
0 0.44329 0
0 0.454932 0
0 0.46656 0
0 0.478187 0
0 0.489815 0
0 0.501442 0
0 0.155138 0.26038
0 0.166766 0.242847
0 0.178393 0.225299
0 0.190021 0.207767
0 0.201648 0.190219
0 0.213291 0.172671
0 0.224918 0.155138
0 0.236545 0.137591
0 0.248173 0.120058
0 0.2598 0.10251
0 0.271443 0.0849622
0 0.28307 0.0674296
0 0.294697 0.0498817
0 0.306325 0.0323491
0 0.317952 0.0148013
0 0.329595 0
0 0.341222 0
0 0.35285 0
0 0.364477 0
0 0.376104 0
0 0.387747 0
0 0.399374 0
0 0.411002 0
0 0.422629 0
0 0.434256 0
0 0.445899 0
0 0.457527 0
0 0.469154 0
0 0.480781 0
0 0.492409 0
0 0.504051 0
0 0.515679 0
0 0.527306 0
0 0.180987 0.303777
0 0.192615 0.286244
0 0.204257 0.268696
0 0.215885 0.251164
0 0.227512 0.233616
0 0.239139 0.216083
0 0.250767 0.198535
0 0.262409 0.180987
0 0.274037 0.163455
0 0.285664 0.145907
0 0.297292 0.128374
0 0.308919 0.110826
0 0.320562 0.0932784
0 0.332189 0.0757458
0 0.343816 0.0581979
0 0.355444 0.0406653
0 0.367071 0.0231174
0 0.378714 0.00556954
0 0.390341 0
0 0.401968 0
0 0.413596 0
0 0.425223 0
0 0.436866 0
0 0.448493 0
0 0.460121 0
0 0.471748 0
0 0.483375 0
0 0.495018 0
0 0.506645 0
0 0.518273 0
0 0.5299 0
0 0.541527 0
0 0.55317 0
0 0.206851 0.347173
0 0.218479 0.329641
0 0.230106 0.312108
0 0.241733 0.29456
0 0.253376 0.277012
0 0.265003 0.25948
0 0.276631 0.241932
0 0.288258 0.224399
0 0.299886 0.206851
0 0.311528 0.189303
0 0.323156 0.171771
0 0.334783 0.154223
0 0.34641 0.13669
0 0.358038 0.119142
0 0.36968 0.101595
0 0.381308 0.084062
0 0.392935 0.0665141
0 0.404562 0.0489815
0 0.41619 0.0314336
0 0.427832 0.0138857
0 0.43946 0
0 0.451087 0
0 0.462715 0
0 0.474342 0
0 0.485985 0
0 0.497612 0
0 0.509239 0
0 0.520867 0
0 0.532494 0
0 0.544137 0
0 0.555764 0
0 0.567391 0
0 0.579019 0
0 0.232715 0.390585
0 0.244343 0.373037
0 0.25597 0.355505
0 0.267597 0.337957
0 0.279225 0.320424
0 0.290852 0.302876
0 0.302495 0.285328
0 0.314122 0.267796
0 0.32575 0.250248
0 0.337377 0.232715
0 0.349004 0.215167
0 0.360647 0.19762
0 0.372274 0.180087
0 0.383902 0.162539
0 0.395529 0.145006
0 0.407156 0.127459
0 0.418799 0.109911
0 0.430426 0.0923781
0 0.442054 0.0748302
0 0.453681 0.0572976
0 0.465309 0.0397498
0 0.476951 0.0222019
0 0.488579 0.00466926
0 0.500206 0
0 0.511833 0
0 0.523461 0
0 0.535103 0
0 0.546731 0
0 0.558358 0
0 0.569986 0
0 0.581613 0
0 0.593256 0
0 0.604883 0
0 0.258564 0.433982
0 0.270191 0.416449
0 0.281819 0.398901
0 0.293462 0.381353
0 0.305089 0.363821
0 0.316716 0.346273
0 0.328344 0.32874
0 0.339971 0.311192
0 0.351614 0.293645
0 0.363241 0.276112
0 0.374868 0.258564
0 0.386496 0.241032
0 0.398123 0.223484
0 0.409766 0.205936
0 0.421393 0.188403
0 0.433021 0.170855
0 0.444648 0.153323
0 0.456275 0.135775
0 0.467918 0.118227
0 0.479545 0.100694
0 0.491173 0.0831464
0 0.5028 0.0656138
0 0.514427 0.0480659
0 0.52607 0.030518
0 0.537697 0.0129854
0 0.549325 0
0 0.560952 0
0 0.57258 0
0 0.584222 0
0 0.59585 0
0 0.607477 0
0 0.619104 0
0 0.630732 0
0 0.284428 0.477378
0 0.296056 0.459846
0 0.307683 0.442298
0 0.31931 0.424765
0 0.330938 0.407218
0 0.34258 0.38967
0 0.354208 0.372137
0 0.365835 0.354589
0 0.377462 0.337057
0 0.38909 0.319509
0 0.400732 0.301961
0 0.41236 0.284428
0 0.423987 0.26688
0 0.435615 0.249348
0 0.447242 0.2318
0 0.458885 0.214252
0 0.470512 0.196719
0 0.482139 0.179171
0 0.493767 0.161639
0 0.505394 0.144091
0 0.517037 0.126543
0 0.528664 0.10901
0 0.540291 0.0914626
0 0.551919 0.07393
0 0.563546 0.0563821
0 0.575189 0.0388342
0 0.586816 0.0213016
0 0.598444 0.00375372
0 0.610071 0
0 0.621698 0
0 0.633341 0
0 0.644968 0
0 0.656596 0
0 0.310292 0.520775
0 0.321904 0.503243
0 0.333547 0.48571
0 0.345174 0.468162
0 0.356802 0.450614
0 0.368429 0.433082
0 0.380056 0.415534
0 0.391699 0.397986
0 0.403326 0.380453
0 0.414954 0.362905
0 0.426581 0.345373
0 0.438209 0.327825
0 0.449851 0.310277
0 0.461479 0.292744
0 0.473106 0.275196
0 0.484733 0.257664
0 0.496361 0.240116
0 0.508003 0.222568
0 0.519631 0.205035
0 0.531258 0.187488
0 0.542885 0.169955
0 0.554513 0.152407
0 0.566155 0.134859
0 0.577783 0.117327
0 0.58941 0.0997787
0 0.601038 0.0822461
0 0.612665 0.0646983
0 0.624308 0.0471504
0 0.635935 0.0296178
0 0.647562 0.0120699
0 0.65919 0
0 0.670817 0
0 0.68246 0
0 0.336141 0.564172
0 0.347768 0.546639
0 0.359396 0.529107
0 0.371023 0.511559
0 0.382666 0.494026
0 0.394293 0.476478
0 0.405921 0.45893
0 0.417548 0.441398
0 0.429175 0.42385
0 0.440818 0.406302
0 0.452445 0.388769
0 0.464073 0.371221
0 0.4757 0.353689
0 0.487327 0.336141
0 0.49897 0.318593
0 0.510597 0.30106
0 0.522225 0.283513
0 0.533852 0.26598
0 0.54548 0.248432
0 0.557122 0.230884
0 0.56875 0.213352
0 0.580377 0.195804
0 0.592004 0.178271
0 0.603632 0.160723
0 0.615274 0.143175
0 0.626902 0.125643
0 0.638529 0.108095
0 0.650156 0.090547
0 0.661784 0.0730144
0 0.673426 0.0554665
0 0.685054 0.0379339
0 0.696681 0.0203861
0 0.708309 0.00283818
0 0.362005 0.607584
0 0.373632 0.590051
0 0.38526 0.572503
0 0.396887 0.554955
0 0.408515 0.537423
0 0.420142 0.519875
0 0.431785 0.502327
0 0.443412 0.484794
0 0.455039 0.467247
0 0.466667 0.449714
0 0.478294 0.432166
0 0.489937 0.414618
0 0.501564 0.397086
0 0.513191 0.379538
0 0.524819 0.362005
0 0.536446 0.344457
0 0.548089 0.326909
0 0.559716 0.309377
0 0.571344 0.291829
0 0.582971 0.274296
0 0.594598 0.256748
0 0.606241 0.2392
0 0.617868 0.221668
0 0.629496 0.20412
0 0.641123 0.186587
0 0.65275 0.169039
0 0.664393 0.151492
0 0.67602 0.133959
0 0.687648 0.116411
0 0.699275 0.0988632
0 0.710903 0.0813306
0 0.722545 0.0637827
0 0.734173 0.0462501
0 0.387854 0.65098
0 0.399481 0.633448
0 0.411109 0.6159
0 0.422751 0.598367
0 0.434379 0.580819
0 0.446006 0.563272
0 0.457633 0.545739
0 0.469261 0.528191
0 0.480903 0.510643
0 0.492531 0.493111
0 0.504158 0.475563
0 0.515785 0.45803
0 0.527413 0.440482
0 0.539055 0.422934
0 0.550683 0.405402
0 0.56231 0.387854
0 0.573938 0.370321
0 0.585565 0.352773
0 0.597208 0.335225
0 0.608835 0.317693
0 0.620462 0.300145
0 0.63209 0.282612
0 0.643717 0.265064
0 0.65536 0.247517
0 0.666987 0.229984
0 0.678614 0.212436
0 0.690242 0.194903
0 0.701885 0.177356
0 0.713512 0.159808
0 0.725139 0.142275
0 0.736767 0.124727
0 0.748394 0.107179
0 0.760037 0.0896468
0 0.413718 0.694377
0 0.425345 0.676844
0 0.436973 0.659297
0 0.4486 0.641764
0 0.460227 0.624216
0 0.47187 0.606683
0 0.483497 0.589136
0 0.495125 0.571588
0 0.506752 0.554055
0 0.51838 0.536507
0 0.530022 0.518959
0 0.54165 0.501427
0 0.553277 0.483879
0 0.564904 0.466346
0 0.576532 0.448798
0 0.588174 0.43125
0 0.599802 0.413718
0 0.611429 0.39617
0 0.623056 0.378637
0 0.634684 0.361089
0 0.646326 0.343542
0 0.657954 0.326009
0 0.669581 0.308461
0 0.681208 0.290929
0 0.692851 0.273381
0 0.704479 0.255833
0 0.716106 0.2383
0 0.727733 0.220752
0 0.739361 0.20322
0 0.751003 0.185672
0 0.762631 0.168124
0 0.774258 0.150591
0 0.785885 0.133043
0 0.439582 0.737774
0 0.451194 0.720241
0 0.462837 0.702708
0 0.474464 0.685161
0 0.486091 0.667613
0 0.497719 0.65008
0 0.509346 0.632532
0 0.520989 0.615
0 0.532616 0.597452
0 0.544244 0.579904
0 0.555871 0.562371
0 0.567498 0.544823
0 0.579141 0.527276
0 0.590768 0.509743
0 0.602396 0.492195
0 0.614023 0.474662
0 0.625666 0.457115
0 0.637293 0.439567
0 0.64892 0.422034
0 0.660548 0.404486
0 0.672175 0.386954
0 0.683818 0.369406
0 0.695445 0.351858
0 0.707073 0.334325
0 0.7187 0.316777
0 0.730327 0.299245
0 0.74197 0.281697
0 0.753597 0.264149
0 0.765225 0.246616
0 0.776852 0.229068
0 0.788479 0.211536
0 0.800122 0.193988
0 0.811749 0.17644
0 0.465431 0.78117
0 0.477058 0.763638
0 0.488685 0.746105
0 0.500313 0.728557
0 0.511955 0.711025
0 0.523583 0.693477
0 0.53521 0.675929
0 0.546838 0.658396
0 0.55848 0.640848
0 0.570108 0.623316
0 0.581735 0.605768
0 0.593362 0.58822
0 0.60499 0.570687
0 0.616632 0.55314
0 0.62826 0.535592
0 0.639887 0.518059
0 0.651514 0.500511
0 0.663142 0.482979
0 0.674784 0.465431
0 0.686412 0.447883
0 0.698039 0.43035
0 0.709667 0.412802
0 0.721294 0.39527
0 0.732937 0.377722
0 0.744564 0.360174
0 0.756191 0.342641
0 0.767819 0.325093
0 0.779446 0.307561
0 0.791089 0.290013
0 0.802716 0.272465
0 0.814343 0.254932
0 0.825971 0.237385
0 0.837598 0.219852
0 0.491295 0.824582
0 0.502922 0.80705
0 0.514549 0.789502
0 0.526177 0.771954
0 0.537804 0.754421
0 0.549447 0.736873
0 0.561074 0.719341
0 0.572702 0.701793
0 0.584329 0.684245
0 0.595956 0.666712
0 0.607599 0.649165
0 0.619226 0.631632
0 0.630854 0.614084
0 0.642481 0.596536
0 0.654108 0.579004
0 0.665751 0.561456
0 0.677378 0.543908
0 0.689006 0.526375
0 0.700633 0.508827
0 0.712261 0.491295
0 0.723903 0.473747
0 0.735531 0.456199
0 0.747158 0.438666
0 0.758785 0.421118
0 0.770413 0.403586
0 0.782055 0.386038
0 0.793683 0.36849
0 0.80531 0.350958
0 0.816938 0.33341
0 0.828565 0.315877
0 0.840208 0.298329
0 0.851835 0.280781
0 0.863462 0.263249
0 0.517143 0.867979
0 0.528771 0.850446
0 0.540413 0.832898
0 0.552041 0.815366
0 0.563668 0.797818
0 0.575296 0.78027
0 0.586923 0.762737
0 0.598566 0.74519
0 0.610193 0.727657
0 0.62182 0.710109
0 0.633448 0.692561
0 0.645075 0.675029
0 0.656718 0.657481
0 0.668345 0.639948
0 0.679973 0.6224
0 0.6916 0.604852
0 0.703227 0.58732
0 0.71487 0.569772
0 0.726497 0.552224
0 0.738125 0.534691
0 0.749752 0.517143
0 0.761379 0.499611
0 0.773022 0.482063
0 0.784649 0.464515
0 0.796277 0.446983
0 0.807904 0.429435
0 0.819532 0.411902
0 0.831174 0.394354
0 0.842802 0.376806
0 0.854429 0.359274
0 0.866056 0.341726
0 0.877684 0.324193
0 0.889326 0.306645
0 0.543008 0.911376
0 0.554635 0.893843
0 0.566262 0.876295
0 0.57789 0.858763
0 0.589532 0.841215
0 0.60116 0.823682
0 0.612787 0.806134
0 0.624414 0.788586
0 0.636042 0.771054
0 0.647684 0.753506
0 0.659312 0.735973
0 0.670939 0.718425
0 0.682567 0.700877
0 0.694194 0.683345
0 0.705837 0.665797
0 0.717464 0.648264
0 0.729091 0.630716
0 0.740719 0.613169
0 0.752346 0.595636
0 0.763989 0.578088
0 0.775616 0.56054
0 0.787243 0.543008
0 0.798871 0.52546
0 0.810498 0.507927
0 0.822141 0.490379
0 0.833768 0.472831
0 0.845396 0.455299
0 0.857023 0.437751
0 0.86865 0.420218
0 0.880293 0.40267
0 0.89192 0.385122
0 0.903548 0.36759
0 0.915175 0.350042
0 0.568872 0.954772
0 0.580499 0.93724
0 0.592126 0.919707
0 0.603754 0.902159
0 0.615381 0.884611
0 0.627008 0.867079
0 0.638651 0.849531
0 0.650278 0.831998
0 0.661906 0.81445
0 0.673533 0.796902
0 0.685161 0.77937
0 0.696803 0.761822
0 0.708431 0.744289
0 0.720058 0.726741
0 0.731685 0.709194
0 0.743313 0.691661
0 0.754955 0.674113
0 0.766583 0.656565
0 0.77821 0.639033
0 0.789837 0.621485
0 0.801465 0.603952
0 0.813107 0.586404
0 0.824735 0.568856
0 0.836362 0.551324
0 0.84799 0.533776
0 0.859617 0.516243
0 0.87126 0.498695
0 0.882887 0.481147
0 0.894514 0.463615
0 0.906142 0.446067
0 0.917769 0.428534
0 0.929412 0.410986
0 0.941039 0.393439
0 0.59472 0.998184
0 0.606348 0.980636
0 0.617975 0.963104
0 0.629618 0.945556
0 0.641245 0.928023
0 0.652873 0.910475
0 0.6645 0.892927
0 0.676127 0.875395
0 0.68777 0.857847
0 0.699397 0.840314
0 0.711025 0.822766
0 0.722652 0.805219
0 0.734279 0.787686
0 0.745922 0.770138
0 0.757549 0.752605
0 0.769177 0.735058
0 0.780804 0.71751
0 0.792432 0.699977
0 0.804074 0.682429
0 0.815702 0.664881
0 0.827329 0.647349
0 0.838956 0.629801
0 0.850584 0.612268
0 0.862226 0.59472
0 0.873854 0.577173
0 0.885481 0.55964
0 0.897108 0.542092
0 0.908736 0.524559
0 0.920378 0.507012
0 0.932006 0.489464
0 0.943633 0.471931
0 0.955261 0.454383
0 0.966888 0.436851
0 0.620584 1
0 0.632212 1
0 0.643839 1
0 0.655467 0.988952
0 0.667094 0.97142
0 0.678737 0.953872
0 0.690364 0.936339
0 0.701991 0.918791
0 0.713619 0.901244
0 0.725246 0.883711
0 0.736889 0.866163
0 0.748516 0.84863
0 0.760143 0.831083
0 0.771771 0.813535
0 0.783398 0.796002
0 0.795041 0.778454
0 0.806668 0.760922
0 0.818296 0.743374
0 0.829923 0.725826
0 0.84155 0.708293
0 0.853193 0.690745
0 0.86482 0.673198
0 0.876448 0.655665
0 0.888075 0.638117
0 0.899702 0.620584
0 0.911345 0.603037
0 0.922972 0.585489
0 0.9346 0.567956
0 0.946227 0.550408
0 0.957855 0.532876
0 0.969497 0.515328
0 0.981125 0.49778
0 0.992752 0.480247
0 0.646448 1
0 0.658061 1
0 0.669703 1
0 0.681331 1
0 0.692958 1
0 0.704585 0.997269
0 0.716213 0.979736
0 0.727855 0.962188
0 0.739483 0.944656
0 0.75111 0.927108
0 0.762737 0.90956
0 0.774365 0.892027
0 0.786007 0.874479
0 0.797635 0.856947
0 0.809262 0.839399
0 0.82089 0.821851
0 0.832517 0.804318
0 0.84416 0.78677
0 0.855787 0.769238
0 0.867414 0.75169
0 0.879042 0.734142
0 0.890669 0.716609
0 0.902312 0.699062
0 0.913939 0.681514
0 0.925566 0.663981
0 0.937194 0.646433
0 0.948821 0.628901
0 0.960464 0.611353
0 0.972091 0.593805
0 0.983719 0.576272
0 0.995346 0.558724
0 1 0.541192
0 1 0.523644
0 0.672297 1
0 0.683925 1
0 0.695552 1
0 0.707179 1
0 0.718822 1
0 0.730449 1
0 0.742077 1
0 0.753704 1
0 0.765332 0.988052
0 0.776974 0.970504
0 0.788602 0.952972
0 0.800229 0.935424
0 0.811856 0.917876
0 0.823484 0.900343
0 0.835126 0.882795
0 0.846754 0.865263
0 0.858381 0.847715
0 0.870008 0.830167
0 0.881636 0.812634
0 0.893278 0.795087
0 0.904906 0.777554
0 0.916533 0.760006
0 0.928161 0.742458
0 0.939788 0.724926
0 0.951431 0.707378
0 0.963058 0.68983
0 0.974685 0.672297
0 0.986313 0.654749
0 0.99794 0.637217
0 1 0.619669
0 1 0.602121
0 1 0.584588
0 1 0.567041
0 0.698161 1
0 0.709789 1
0 0.721416 1
0 0.733043 1
0 0.744671 1
0 0.756298 1
0 0.767941 1
0 0.779568 1
0 0.791196 1
