public/LUTS/Color Shift/ColorShift_09.cube
TITLE "Generated by Resolve"
LUT_3D_SIZE 5
0 0 0
0 0.113313 0
0 0.226642 0
0 0.339956 0
0 0.453285 0
0.101564 0.166781 0.410178
0.0129244 0.280095 0.319005
0 0.393423 0.227802
0 0.506737 0.136614
0 0.620066 0.0454261
0.203143 0.333577 0.820386
0.114488 0.446891 0.729213
0.0258335 0.560204 0.63801
0 0.673533 0.546822
0 0.786847 0.455634
0.304707 0.500359 1
0.216068 0.613687 1
0.127413 0.727001 1
0.0387579 0.84033 0.957031
0 0.953643 0.865843
0.406287 0.667155 1
0.317632 0.780468 1
0.228992 0.893797 1
0.140337 1 1
0.0516823 1 1
0.237064 0 0
0.148425 0.0832074 0
0.0597696 0.196521 0
0 0.30985 0
0 0.423178 0
0.338643 0.136675 0.341176
0.249989 0.249989 0.249989
0.161334 0.363317 0.158801
0.0726787 0.476631 0.0676127
0 0.58996 0
0.440208 0.303471 0.751385
0.351568 0.416785 0.660197
0.262913 0.530098 0.569009
0.174258 0.643427 0.477821
0.0856031 0.756741 0.386633
0.541787 0.470253 1
0.453132 0.583566 1
0.364477 0.696895 0.979217
0.275822 0.810224 0.888029
0.187167 0.923537 0.796841
0.643351 0.637049 1
0.554711 0.750362 1
0.466056 0.863691 1
0.377401 0.977005 1
0.288746 1 1
0.474159 0 0
0.385504 0.0531014 0
0.296849 0.166415 0
0.208194 0.279744 0
0.119539 0.393057 0
0.575723 0.106569 0.27216
0.487068 0.219883 0.180972
0.398413 0.333196 0.0897841
0.309758 0.446525 0
0.221118 0.559838 0
0.677302 0.27335 0.682368
0.588647 0.386664 0.59118
0.499992 0.499992 0.499992
0.411337 0.613321 0.408804
0.322683 0.726635 0.317617
0.778866 0.440146 1
0.690227 0.55346 1
0.601572 0.666789 0.910201
0.512917 0.780102 0.819013
0.424262 0.893431 0.727825
0.880446 0.606943 1
0.791791 0.720256 1
0.703136 0.83357 1
0.614481 0.946899 1
0.525826 1 1
0.711238 0 0
0.622583 0.0229801 0
0.533944 0.136309 0
0.445289 0.249638 0
0.356634 0.362951 0
0.812802 0.0764477 0.203143
0.724163 0.189761 0.111955
0.635508 0.30309 0.0207675
0.546853 0.416419 0
0.458198 0.529732 0
0.914382 0.243244 0.613352
0.825727 0.356558 0.522164
0.737072 0.469886 0.430976
0.648417 0.5832 0.339788
0.559762 0.696529 0.2486
1 0.41004 1
0.927306 0.523354 0.932372
0.838651 0.636667 0.841184
0.749996 0.749996 0.749996
0.661341 0.863325 0.658808
1 0.576837 1
1 0.69015 1
0.94023 0.803464 1
0.851575 0.916793 1
0.762921 1 1
0.948318 0 0
0.859678 0 0
0.771023 0.106203 0
0.682368 0.219516 0
0.593713 0.332845 0
1 0.0463417 0.134127
0.961242 0.159655 0.0429389
0.872587 0.272984 0
0.783932 0.386297 0
0.695277 0.499626 0
1 0.213138 0.544335
1 0.326452 0.453147
0.974166 0.439765 0.361959
0.885512 0.553094 0.270771
0.796857 0.666423 0.179583
1 0.379934 0.954543
1 0.493248 0.863355
1 0.606561 0.772168
0.987076 0.71989 0.68098
0.898421 0.833204 0.589792
1 0.546715 1
1 0.660029 1
1 0.773358 1
1 0.886671 1
1 1 1
