public/LUTS/Color Shift/ColorShift_77.cube
TITLE "Generated by Resolve"
LUT_3D_SIZE 5
0 0 0
0.394278 0 0.111315
0.788586 0 0.222644
1 0 0.333959
1 0 0.445289
0.0361028 0.267292 0
0.430381 0.209689 0
0.824689 0.152087 0.00383001
1 0.0944839 0.115145
1 0.0368811 0.226474
0.0722057 0.5346 0
0.466484 0.476997 0
0.860792 0.419394 0
1 0.361791 0
1 0.304189 0.00764477
0.108309 0.801907 0
0.502586 0.744305 0
0.896895 0.686702 0
1 0.629099 0
1 0.571496 0
0.144411 1 0
0.538689 1 0
0.932998 0.954009 0
1 0.896406 0
1 0.838804 0
0 0.0402991 0.357488
0.213886 0 0.468803
0.608194 0 0.580133
1 0 0.691447
1 0 0.802777
0 0.307591 0.138674
0.249989 0.249989 0.249989
0.644297 0.192386 0.361318
1 0.134783 0.472633
1 0.0771801 0.583963
0 0.574899 0
0.286091 0.517296 0.0311589
0.6804 0.459693 0.142489
1 0.40209 0.253803
1 0.344488 0.365133
0 0.842206 0
0.322194 0.784604 0
0.716503 0.727001 0
1 0.669398 0.0349737
1 0.611795 0.146304
0 1 0
0.358297 1 0
0.752605 0.994308 0
1 0.936706 0
1 0.879103 0
0 0.0805982 0.714992
0.0334936 0.0229953 0.826307
0.427787 0 0.937636
0.822095 0 1
1 0 1
0 0.34789 0.496178
0.0695811 0.290288 0.607492
0.46389 0.232685 0.718822
0.858198 0.175082 0.830137
1 0.117479 0.941466
0 0.615198 0.277348
0.105684 0.557595 0.388663
0.499992 0.499992 0.499992
0.894301 0.44239 0.611322
1 0.384787 0.722637
0 0.882506 0.0585184
0.141787 0.824903 0.169848
0.536095 0.7673 0.281163
0.930404 0.709697 0.392493
1 0.652094 0.503807
0 1 0
0.17789 1 0
0.572198 1 0.0623331
0.966506 0.977005 0.173663
1 0.919402 0.284977
0 0.120897 1
0 0.0632944 1
0.247395 0.00569162 1
0.641688 0 1
1 0 1
0 0.38819 0.853697
0 0.330587 0.965011
0.283482 0.272984 1
0.677791 0.215381 1
1 0.157778 1
0 0.655497 0.634867
0 0.597894 0.746181
0.319585 0.540291 0.857496
0.713893 0.482689 0.968826
1 0.425086 1
0 0.922805 0.416037
0 0.865202 0.527352
0.355688 0.807599 0.638666
0.749996 0.749996 0.749996
1 0.692393 0.861326
0 1 0.197208
0 1 0.308522
0.391791 1 0.419852
0.786099 1 0.531167
1 0.959701 0.642496
0 0.161196 1
0 0.103593 1
0.0669871 0.0459907 1
0.461295 0 1
0.855589 0 1
0 0.428489 1
0 0.370886 1
0.10309 0.313283 1
0.497383 0.25568 1
0.891691 0.198077 1
0 0.695796 0.99237
0 0.638193 1
0.139193 0.580591 1
0.533486 0.522988 1
0.927794 0.465385 1
0 0.963104 0.773541
0 0.905501 0.884855
0.175296 0.847898 0.996185
0.569589 0.790295 1
0.963897 0.732692 1
0 1 0.554711
0 1 0.666026
0.211398 1 0.777356
0.605692 1 0.88867
1 1 1
