public/LUTS/Color Shift/ColorShift_51.cube
TITLE "Generated by Resolve"
LUT_3D_SIZE 9
0 0 0
0 0.0793317 0.0180362
0 0.158679 0.0360723
0 0.23801 0.0541238
0 0.317357 0.0721599
0 0.396704 0.0901961
0 0.476036 0.108248
0 0.555383 0.126284
0 0.63473 0.14432
0.181674 0.0352331 0.274174
0.0344854 0.114565 0.29221
0 0.193912 0.310246
0 0.273259 0.328298
0 0.35259 0.346334
0 0.431937 0.36437
0 0.511284 0.382406
0 0.590616 0.400458
0 0.669963 0.418494
0.363363 0.0704814 0.548379
0.216175 0.149813 0.566415
0.068986 0.229145 0.584451
0 0.308492 0.602487
0 0.387839 0.620539
0 0.46717 0.638575
0 0.546517 0.656611
0 0.625864 0.674662
0 0.705196 0.692699
0.545052 0.105715 0.822583
0.397879 0.185046 0.84062
0.250675 0.264393 0.858656
0.103471 0.343725 0.876692
0 0.423072 0.894743
0 0.502419 0.912779
0 0.58175 0.930816
0 0.661097 0.948867
0 0.740444 0.966903
0.726757 0.140948 1
0.579568 0.220279 1
0.432364 0.299626 1
0.285161 0.378973 1
0.137957 0.45832 1
0 0.537652 1
0 0.616999 1
0 0.696345 1
0 0.775677 1
0.908446 0.176196 1
0.761257 0.255528 1
0.614054 0.334874 1
0.466865 0.414206 1
0.319661 0.493553 1
0.172457 0.5729 1
0.0252537 0.652232 1
0 0.731579 1
0 0.810925 1
1 0.211429 1
0.942946 0.290761 1
0.795758 0.370108 1
0.648554 0.449454 1
0.50135 0.528786 1
0.354147 0.608133 1
0.206943 0.68748 1
0.0597543 0.766812 1
0 0.846159 1
1 0.246677 1
1 0.326009 1
0.977447 0.405341 1
0.830243 0.484688 1
0.68304 0.564034 1
0.535836 0.643366 1
0.388647 0.722713 1
0.241443 0.80206 1
0.0942397 0.881407 1
1 0.28191 1
1 0.361242 1
1 0.440589 1
1 0.519936 1
0.864729 0.599268 1
0.71754 0.678614 1
0.570336 0.757961 1
0.423133 0.837293 1
0.275929 0.91664 1
0.0905013 0.0104219 0
0 0.0897536 0
0 0.1691 0
0 0.248432 0
0 0.327779 0
0 0.407126 0
0 0.486458 0
0 0.565805 0
0 0.645151 0
0.272175 0.045655 0.10695
0.124987 0.124987 0.124987
0 0.204334 0.143023
0 0.283665 0.161074
0 0.363012 0.17911
0 0.442359 0.197147
0 0.521691 0.215198
0 0.601038 0.233234
0 0.680385 0.25127
0.453864 0.0808881 0.381155
0.306676 0.16022 0.399191
0.159472 0.239567 0.417227
0.0122835 0.318914 0.435279
0 0.398245 0.453315
0 0.477592 0.471351
0 0.556939 0.489387
0 0.636271 0.507439
0 0.715618 0.525475
0.635554 0.116136 0.65536
0.488365 0.195468 0.673396
0.341176 0.274815 0.691432
0.193973 0.354147 0.709468
0.0467689 0.433494 0.72752
0 0.51284 0.745556
0 0.592172 0.763592
0 0.671519 0.781643
0 0.750866 0.79968
0.817243 0.151369 0.929564
0.670069 0.230701 0.947601
0.522866 0.310048 0.965637
0.375662 0.389395 0.983673
0.228458 0.468727 1
0.0812695 0.548074 1
0 0.62742 1
0 0.706752 1
0 0.786099 1
0.998947 0.186618 1
0.851759 0.265949 1
0.704555 0.345281 1
0.557351 0.424628 1
0.410163 0.503975 1
0.262959 0.583307 1
0.115755 0.662654 1
0 0.742 1
0 0.821332 1
1 0.221851 1
1 0.301183 1
0.886244 0.380529 1
0.739055 0.459876 1
0.591852 0.539208 1
0.444648 0.618555 1
0.297444 0.697902 1
0.15024 0.777234 1
0.0030518 0.85658 1
1 0.257099 1
1 0.336431 1
1 0.415763 1
0.920745 0.495109 1
0.773541 0.574456 1
0.626337 0.653788 1
0.479133 0.733135 1
0.331945 0.812482 1
0.184741 0.891814 1
1 0.292332 1
1 0.371664 1
1 0.451011 1
1 0.530343 1
0.95523 0.609689 1
0.808026 0.689036 1
0.660838 0.768368 1
0.513634 0.847715 1
0.36643 0.927062 1
0.181003 0.0208438 0
0.0338293 0.100175 0
0 0.179507 0
0 0.258854 0
0 0.338201 0
0 0.417533 0
0 0.49688 0
0 0.576226 0
0 0.655558 0
0.362676 0.0560769 0
0.215503 0.135409 0
0.0682994 0.214755 0
0 0.294087 0
0 0.373434 0.0118715
0 0.452781 0.0299077
0 0.532113 0.0479438
0 0.61146 0.0659953
0 0.690806 0.0840314
0.544366 0.09131 0.213916
0.397192 0.170642 0.231952
0.249989 0.249989 0.249989
0.102785 0.329335 0.268025
0 0.408667 0.286076
0 0.488014 0.304112
0 0.567361 0.322148
0 0.646693 0.3402
0 0.72604 0.358236
0.72607 0.126558 0.488106
0.578882 0.20589 0.506157
0.431678 0.285222 0.524193
0.284474 0.364569 0.542229
0.137285 0.443915 0.560281
0 0.523247 0.578317
0 0.602594 0.596353
0 0.681941 0.614389
0 0.761273 0.632441
0.907759 0.161791 0.76231
0.760571 0.241123 0.780362
0.613367 0.32047 0.798398
0.466178 0.399817 0.816434
0.318975 0.479149 0.83447
0.171771 0.558495 0.852522
0.024567 0.637842 0.870558
0 0.717174 0.888594
0 0.796521 0.906645
1 0.19704 1
0.942275 0.276371 1
0.795071 0.355703 1
0.647868 0.43505 1
0.500664 0.514397 1
0.35346 0.593729 1
0.206271 0.673075 1
0.0590677 0.752422 1
0 0.831754 1
1 0.232273 1
1 0.311604 1
0.976761 0.390951 1
0.829557 0.470283 1
0.682353 0.54963 1
0.535164 0.628977 1
0.387961 0.708309 1
0.240757 0.787655 1
0.0935531 0.867002 1
1 0.267506 1
1 0.346838 1
1 0.426184 1
1 0.505531 1
0.864057 0.584878 1
0.716854 0.66421 1
0.56965 0.743557 1
0.422446 0.822904 1
0.275242 0.902235 1
1 0.302754 1
1 0.382086 1
1 0.461433 1
1 0.540764 1
1 0.620111 1
0.898543 0.699458 1
0.751339 0.77879 1
0.604135 0.858137 1
0.456947 0.937484 1
0.271519 0.0312657 0
0.124331 0.110597 0
0 0.189929 0
0 0.269276 0
0 0.348623 0
0 0.427955 0
0 0.507301 0
0 0.586648 0
0 0.66598 0
0.453193 0.0664988 0
0.306004 0.14583 0
0.158801 0.225162 0
0.0116121 0.304509 0
0 0.383856 0
0 0.463188 0
0 0.542535 0
0 0.621881 0
0 0.701228 0
0.634882 0.101732 0.0466621
0.487694 0.181064 0.0646983
0.340505 0.26041 0.0827497
0.193301 0.339757 0.100786
0.0460975 0.419089 0.118822
0 0.498436 0.136873
0 0.577783 0.15491
0 0.657115 0.172946
0 0.736461 0.190997
0.816571 0.13698 0.320867
0.669398 0.216312 0.338903
0.522194 0.295644 0.356954
0.37499 0.37499 0.37499
0.227787 0.454337 0.393027
0.0805829 0.533669 0.411078
0 0.613016 0.429114
0 0.692363 0.44715
0 0.771695 0.465202
0.99826 0.172213 0.595071
0.851087 0.251545 0.613108
0.703883 0.330892 0.631159
0.55668 0.410224 0.649195
0.409476 0.48957 0.667231
0.262287 0.568917 0.685283
0.115084 0.648249 0.703319
0 0.727596 0.721355
0 0.806943 0.739391
1 0.207446 0.869276
1 0.286793 0.887312
0.885573 0.366125 0.905364
0.738369 0.445472 0.9234
0.59118 0.524819 0.941436
0.443976 0.60415 0.959472
0.296773 0.683497 0.977523
0.149569 0.762844 0.99556
0.00236515 0.842176 1
1 0.242695 1
1 0.322026 1
1 0.401373 1
0.920073 0.480705 1
0.772869 0.560052 1
0.625666 0.639399 1
0.478462 0.71873 1
0.331273 0.798077 1
0.18407 0.877424 1
1 0.277928 1
1 0.357259 1
1 0.436606 1
1 0.515953 1
0.954559 0.595285 1
0.807355 0.674632 1
0.660166 0.753979 1
0.512963 0.83331 1
0.365759 0.912657 1
1 0.313176 1
1 0.392508 1
1 0.471839 1
1 0.551186 1
1 0.630533 1
0.989059 0.70988 1
0.841856 0.789212 1
0.694652 0.868559 1
0.547448 0.947906 1
0.362036 0.0416724 0
0.214847 0.121019 0
0.0676432 0.200351 0
0 0.279698 0
0 0.359045 0
0 0.438376 0
0 0.517723 0
0 0.59707 0
0 0.676402 0
0.543694 0.0769207 0
0.396521 0.156252 0
0.249317 0.235584 0
0.102113 0.314931 0
0 0.394278 0
0 0.47361 0
0 0.552956 0
0 0.632303 0
0 0.711635 0
0.725399 0.112154 0
0.57821 0.191485 0
0.431006 0.270832 0
0.283803 0.350164 0
0.136614 0.429511 0
0 0.508858 0
0 0.58819 0
0 0.667536 0.00570687
0 0.746883 0.023743
0.907088 0.147387 0.153628
0.759899 0.226734 0.171664
0.612696 0.306065 0.1897
0.465507 0.385412 0.207752
0.318303 0.464759 0.225788
0.171099 0.544091 0.243824
0.0238956 0.623438 0.261875
0 0.702785 0.279911
0 0.782116 0.297948
1 0.182635 0.427832
0.941588 0.261967 0.445869
0.7944 0.341314 0.463905
0.647196 0.420645 0.481956
0.499992 0.499992 0.499992
0.352789 0.579339 0.518029
0.205585 0.658671 0.53608
0.0583963 0.738018 0.554116
0 0.817365 0.572152
1 0.217868 0.702037
1 0.2972 0.720073
0.976089 0.376547 0.738109
0.828885 0.455894 0.756161
0.681682 0.535225 0.774197
0.534478 0.614572 0.792233
0.387289 0.693919 0.810285
0.240085 0.773251 0.828321
0.0928817 0.852598 0.846357
1 0.253117 0.976242
1 0.332448 0.994278
1 0.411795 1
1 0.491127 1
0.863371 0.570474 1
0.716182 0.649821 1
0.568978 0.729152 1
0.421775 0.808499 1
0.274571 0.887846 1
1 0.28835 1
1 0.367681 1
1 0.447028 1
1 0.526375 1
1 0.605707 1
0.897871 0.685054 1
0.750668 0.764401 1
0.603464 0.843732 1
0.456275 0.923079 1
1 0.323598 1
1 0.40293 1
1 0.482261 1
1 0.561608 1
1 0.640955 1
1 0.720287 1
0.932357 0.799634 1
0.785168 0.878981 1
0.637964 0.958312 1
0.452537 0.0520943 0
0.305348 0.131426 0
0.15816 0.210773 0
0.010956 0.29012 0
0 0.369451 0
0 0.448798 0
0 0.528145 0
0 0.607477 0
0 0.686824 0
0.634211 0.0873426 0
0.487022 0.166674 0
0.339818 0.246006 0
0.19263 0.325353 0
0.0454261 0.4047 0
0 0.484031 0
0 0.563378 0
0 0.642725 0
0 0.722057 0
0.8159 0.122576 0
0.668711 0.201907 0
0.521523 0.281254 0
0.374319 0.360586 0
0.227115 0.439933 0
0.0799115 0.51928 0
0 0.598611 0
0 0.677958 0
0 0.757305 0
0.997589 0.157809 0
0.850416 0.23714 0.00442512
0.703212 0.316487 0.0224613
0.556008 0.395834 0.0405127
0.408804 0.475166 0.0585489
0.261616 0.554513 0.076585
0.114412 0.63386 0.0946212
0 0.713191 0.112673
0 0.792538 0.130709
1 0.193057 0.260594
1 0.272389 0.27863
0.884901 0.351736 0.296666
0.737697 0.431067 0.314702
0.590509 0.510414 0.332753
0.443305 0.589761 0.35079
0.296101 0.669093 0.368826
0.148898 0.74844 0.386877
0.00169375 0.827787 0.404913
1 0.22829 0.534798
1 0.307622 0.552834
1 0.386969 0.570871
0.919402 0.466316 0.588907
0.772198 0.545647 0.606958
0.624994 0.624994 0.624994
0.477791 0.704341 0.64303
0.330587 0.783673 0.661082
0.183398 0.86302 0.679118
1 0.263539 0.809003
1 0.34287 0.827039
1 0.422202 0.845075
1 0.501549 0.863111
0.953887 0.580896 0.881163
0.806683 0.660227 0.899199
0.65948 0.739574 0.917235
0.512291 0.818921 0.935286
0.365087 0.898253 0.953323
1 0.298772 1
1 0.378103 1
1 0.45745 1
1 0.536797 1
1 0.616129 1
0.988373 0.695476 1
0.841184 0.774823 1
0.69398 0.854154 1
0.546777 0.933501 1
1 0.33402 1
1 0.413352 1
1 0.492683 1
1 0.57203 1
1 0.651377 1
1 0.730709 1
1 0.810056 1
0.875669 0.889403 1
0.728466 0.968734 1
0.543053 0.0625162 0
0.395865 0.141848 0
0.248661 0.221195 0
0.101457 0.300542 0
0 0.379873 0
0 0.45922 0
0 0.538567 0
0 0.617899 0
0 0.697246 0
0.724712 0.0977493 0
0.577539 0.177081 0
0.430335 0.256428 0
0.283131 0.335775 0
0.135927 0.415106 0
0 0.494453 0
0 0.5738 0
0 0.653147 0
0 0.732479 0
0.906416 0.132998 0
0.759228 0.212329 0
0.612024 0.291676 0
0.46482 0.371008 0
0.317632 0.450355 0
0.170428 0.529702 0
0.0232242 0.609033 0
0 0.68838 0
0 0.767727 0
1 0.168231 0
0.940917 0.247562 0
0.793713 0.326909 0
0.646525 0.406256 0
0.499321 0.485588 0
0.352117 0.564935 0
0.204913 0.644282 0
0.0577096 0.723613 0
0 0.80296 0
1 0.203479 0.0933394
1 0.282811 0.111391
0.975418 0.362142 0.129427
0.828214 0.441489 0.147463
0.68101 0.520836 0.165515
0.533806 0.600168 0.183551
0.386618 0.679515 0.201587
0.239414 0.758862 0.219623
0.0922103 0.838193 0.237675
1 0.238712 0.367544
1 0.318044 0.385595
1 0.397391 0.403632
1 0.476738 0.421668
0.862699 0.556069 0.439704
0.715511 0.635416 0.457755
0.568307 0.714763 0.475792
0.421103 0.794095 0.493828
0.273899 0.873442 0.511879
1 0.27396 0.641749
1 0.353292 0.659785
1 0.432624 0.677836
1 0.511971 0.695872
1 0.591318 0.713909
0.8972 0.670649 0.73196
0.749996 0.749996 0.749996
0.602792 0.829343 0.768032
0.455589 0.908675 0.786084
1 0.309194 0.915953
1 0.388525 0.933989
1 0.467872 0.952041
1 0.547204 0.970077
1 0.626551 0.988113
1 0.705898 1
0.931685 0.785229 1
0.784482 0.864576 1
0.637293 0.943923 1
1 0.344427 1
1 0.423758 1
1 0.503105 1
1 0.582452 1
1 0.661799 1
1 0.741131 1
1 0.820478 1
0.966186 0.899825 1
0.818982 0.979156 1
0.633555 0.0729381 0
0.486381 0.15227 0
0.339178 0.231617 0
0.191974 0.310964 0
0.04477 0.390295 0
0 0.469642 0
0 0.548989 0
0 0.628321 0
0 0.707668 0
0.815229 0.108171 0
0.66804 0.187503 0
0.520851 0.26685 0
0.373648 0.346197 0
0.226444 0.425528 0
0.0792401 0.504875 0
0 0.584222 0
0 0.663554 0
0 0.742901 0
0.996918 0.14342 0
0.849744 0.222751 0
0.702541 0.302083 0
0.555337 0.38143 0
0.408133 0.460777 0
0.260929 0.540108 0
0.113741 0.619455 0
0 0.698802 0
0 0.778149 0
1 0.178653 0
1 0.257984 0
0.88423 0.337331 0
0.737026 0.416678 0
0.589822 0.49601 0
0.442634 0.575357 0
0.29543 0.654704 0
0.148226 0.734035 0
0.00102235 0.813382 0
1 0.213901 0
1 0.293233 0
1 0.372564 0
0.918715 0.451911 0
0.771527 0.531258 0
0.624323 0.61059 0.0163119
0.477119 0.689937 0.0343481
0.329915 0.769284 0.0523842
0.182712 0.848615 0.0704356
1 0.249134 0.200305
1 0.328466 0.218341
1 0.407813 0.236393
1 0.487144 0.254429
0.953216 0.566491 0.272465
0.806012 0.645838 0.290517
0.658808 0.72517 0.308553
0.51162 0.804517 0.326589
0.364416 0.883864 0.344625
1 0.284367 0.47451
1 0.363714 0.492546
1 0.443046 0.510597
1 0.522393 0.528634
1 0.60174 0.54667
0.987701 0.681071 0.564706
0.840513 0.760418 0.582757
0.693309 0.839765 0.600793
0.546105 0.919097 0.61883
1 0.319615 0.748714
1 0.398947 0.766751
1 0.478294 0.784787
1 0.557626 0.802838
1 0.636973 0.820874
1 0.71632 0.838911
1 0.795651 0.856962
0.874998 0.874998 0.874998
0.727794 0.954345 0.893034
1 0.354849 1
1 0.43418 1
1 0.513527 1
1 0.592874 1
1 0.672206 1
1 0.751553 1
1 0.8309 1
1 0.910231 1
0.909483 0.989578 1
0.724071 0.08336 0
0.576883 0.162692 0
0.429679 0.242039 0
0.28249 0.32137 0
0.135286 0.400717 0
0 0.480064 0
0 0.559396 0
0 0.638743 0
0 0.71809 0
0.905745 0.118593 0
0.758556 0.197925 0
0.611353 0.277272 0
0.464149 0.356619 0
0.31696 0.43595 0
0.169757 0.515297 0
0.0225528 0.594644 0
0 0.673976 0
0 0.753323 0
1 0.153841 0
0.940246 0.233173 0
0.793042 0.312505 0
0.645853 0.391852 0
0.49865 0.471199 0
0.351446 0.55053 0
0.204242 0.629877 0
0.0570382 0.709224 0
0 0.788556 0
1 0.189075 0
1 0.268406 0
0.974746 0.347753 0
0.827543 0.427085 0
0.680339 0.506432 0
0.533135 0.585779 0
0.385931 0.66511 0
0.238743 0.744457 0
0.0915389 0.823804 0
1 0.224323 0
1 0.303655 0
1 0.382986 0
1 0.462333 0
0.862028 0.54168 0
0.714824 0.621012 0
0.567636 0.700359 0
0.420432 0.779706 0
0.273228 0.859037 0
1 0.259556 0.0330663
1 0.338888 0.0511025
1 0.418235 0.0691386
1 0.497566 0.0871901
1 0.576913 0.105226
0.896529 0.65626 0.123262
0.749325 0.735592 0.141314
0.602121 0.814939 0.15935
0.454917 0.894286 0.177386
1 0.294789 0.307271
1 0.374121 0.325307
1 0.453468 0.343343
1 0.532815 0.361395
1 0.612146 0.379431
1 0.691493 0.397467
0.931014 0.77084 0.415518
0.78381 0.850172 0.433555
0.636622 0.929519 0.451591
1 0.330037 0.581476
1 0.409369 0.599512
1 0.488716 0.617548
1 0.568048 0.635599
1 0.647395 0.653635
1 0.726741 0.671672
1 0.806073 0.689708
0.965515 0.88542 0.707759
0.818311 0.964767 0.725795
1 0.36527 0.85568
1 0.444602 0.873716
1 0.523949 0.891752
1 0.603296 0.909789
1 0.682628 0.92784
1 0.761975 0.945876
1 0.841321 0.963912
1 0.920653 0.981964
1 1 1
