public/LUTS/Color Shift/ColorShift_05.cube
TITLE "Generated by Resolve"
LUT_3D_SIZE 5
0 0 0
0 0.118547 0
0 0.237095 0
0 0.355657 0
0 0.474205 0
0.226291 0.12874 0.415
0.0839246 0.247288 0.408515
0 0.365835 0.402014
0 0.484398 0.395514
0 0.602945 0.389013
0.452613 0.257496 0.83003
0.310231 0.376043 0.823545
0.167849 0.494591 0.817044
0.025452 0.613138 0.810544
0 0.731701 0.804044
0.67892 0.386236 1
0.536538 0.504784 1
0.394156 0.623346 1
0.251774 0.741894 1
0.109377 0.860456 1
0.905241 0.514992 1
0.76286 0.633539 1
0.620462 0.752087 1
0.47808 0.870649 1
0.335698 0.989197 1
0.166064 0.00270085 0
0.0236973 0.121248 0
0 0.239796 0
0 0.358358 0
0 0.476905 0
0.39237 0.131441 0.256489
0.249989 0.249989 0.249989
0.107607 0.368536 0.243488
0 0.487098 0.236988
0 0.605646 0.230488
0.618677 0.260197 0.671519
0.476295 0.378744 0.665019
0.333913 0.497292 0.658518
0.191531 0.615839 0.652018
0.049134 0.734401 0.645533
0.844999 0.388937 1
0.702617 0.507485 1
0.56022 0.626047 1
0.417838 0.744595 1
0.275456 0.863142 1
1 0.517693 1
0.928923 0.63624 1
0.786542 0.754788 1
0.644144 0.87335 1
0.501762 0.991897 1
0.332143 0.00540169 0
0.189776 0.123949 0
0.0473793 0.242496 0
0 0.361059 0
0 0.479606 0
0.55845 0.134142 0.0979629
0.416068 0.252689 0.0914626
0.273686 0.371237 0.0849622
0.131289 0.489799 0.0784619
0 0.608347 0.0719615
0.784756 0.262898 0.512993
0.642374 0.381445 0.506493
0.499992 0.499992 0.499992
0.35761 0.61854 0.493492
0.215213 0.737102 0.486992
1 0.391638 0.928023
0.868696 0.510185 0.921523
0.726299 0.628748 0.915022
0.583917 0.747295 0.908522
0.441535 0.865843 0.902022
1 0.520394 1
1 0.638941 1
0.952621 0.757488 1
0.810224 0.876051 1
0.667842 0.994598 1
0.498222 0.00810254 0
0.355856 0.12665 0
0.213458 0.245197 0
0.0710765 0.36376 0
0 0.482307 0
0.724529 0.136843 0
0.582147 0.25539 0
0.439765 0.373938 0
0.297368 0.4925 0
0.154986 0.611048 0
0.950835 0.265599 0.354452
0.808454 0.384146 0.347967
0.666072 0.502693 0.341466
0.52369 0.621241 0.334966
0.381292 0.739803 0.328466
1 0.394339 0.769482
1 0.512886 0.762997
0.892378 0.631449 0.756497
0.749996 0.749996 0.749996
0.607614 0.868544 0.743496
1 0.523095 1
1 0.641642 1
1 0.760189 1
0.976303 0.878752 1
0.833921 0.997299 1
0.664302 0.0108034 0
0.521935 0.129351 0
0.379538 0.247898 0
0.237156 0.366461 0
0.0947585 0.485008 0
0.890608 0.139544 0
0.748226 0.258091 0
0.605844 0.376638 0
0.463447 0.495201 0
0.321065 0.613748 0
1 0.268299 0.195926
0.974533 0.386847 0.189425
0.832151 0.505394 0.18294
0.689769 0.623941 0.17644
0.547372 0.742504 0.16994
1 0.39704 0.610956
1 0.515587 0.604471
1 0.63415 0.597971
0.916075 0.752697 0.59147
0.773693 0.871244 0.58497
1 0.525795 1
1 0.644343 1
1 0.76289 1
1 0.881453 1
1 1 1
