public/LUTS/Color Shift/ColorShift_56.cube
TITLE "Generated by Resolve"
LUT_3D_SIZE 33
0 0 0
0 0.0200809 0
0 0.040177 0
0 0.0602579 0
0 0.080354 0
0 0.100435 0
0 0.120531 0
0 0.140627 0
0 0.160708 0
0 0.180804 0
0 0.2009 0
0 0.220981 0
0 0.241077 0
0 0.261158 0
0 0.281254 0
0 0.30135 0
0 0.321431 0
0 0.341527 0
0 0.361608 0
0 0.381704 0
0 0.401801 0
0 0.421881 0
0 0.441978 0
0 0.462074 0
0 0.482155 0
0 0.502251 0
0 0.522332 0
0 0.542428 0
0 0.562524 0
0 0.582605 0
0 0.602701 0
0 0.622782 0
0 0.642878 0
0.0127871 0.0179751 0.0733043
0 0.038056 0.0532845
0 0.0581521 0.0332494
0 0.078233 0.0132143
0 0.0983291 0
0 0.118425 0
0 0.138506 0
0 0.158602 0
0 0.178683 0
0 0.198779 0
0 0.218875 0
0 0.238956 0
0 0.259052 0
0 0.279133 0
0 0.299229 0
0 0.319326 0
0 0.339406 0
0 0.359503 0
0 0.379599 0
0 0.39968 0
0 0.419776 0
0 0.439857 0
0 0.459953 0
0 0.480049 0
0 0.50013 0
0 0.520226 0
0 0.540307 0
0 0.560403 0
0 0.580499 0
0 0.60058 0
0 0.620676 0
0 0.640772 0
0 0.660853 0
0.0255741 0.0359655 0.146639
0 0.0560464 0.126619
0 0.0761273 0.106584
0 0.0962234 0.0865492
0 0.11632 0.0665293
0 0.1364 0.0464942
0 0.156497 0.0264591
0 0.176577 0.00642405
0 0.196674 0
0 0.21677 0
0 0.236851 0
0 0.256947 0
0 0.277028 0
0 0.297124 0
0 0.31722 0
0 0.337301 0
0 0.357397 0
0 0.377493 0
0 0.397574 0
0 0.41767 0
0 0.437751 0
0 0.457847 0
0 0.477943 0
0 0.498024 0
0 0.51812 0
0 0.538216 0
0 0.558297 0
0 0.578393 0
0 0.598474 0
0 0.61857 0
0 0.638666 0
0 0.658747 0
0 0.678843 0
0.0383612 0.0539406 0.219974
0.0112459 0.0740215 0.199954
0 0.0941176 0.179919
0 0.114214 0.159899
0 0.134295 0.139864
0 0.154391 0.119829
0 0.174472 0.099794
0 0.194568 0.0797589
0 0.214664 0.0597391
0 0.234745 0.039704
0 0.254841 0.0196689
0 0.274937 0
0 0.295018 0
0 0.315114 0
0 0.335195 0
0 0.355291 0
0 0.375387 0
0 0.395468 0
0 0.415564 0
0 0.435645 0
0 0.455741 0
0 0.475837 0
0 0.495918 0
0 0.516014 0
0 0.53611 0
0 0.556191 0
0 0.576288 0
0 0.596368 0
0 0.616464 0
0 0.636561 0
0 0.656641 0
0 0.676738 0
0 0.696818 0
0.0511482 0.071931 0.293309
0.024033 0.0920119 0.273289
0 0.112108 0.253254
0 0.132189 0.233234
0 0.152285 0.213199
0 0.172366 0.193164
0 0.192462 0.173129
0 0.212558 0.153109
0 0.232639 0.133074
0 0.252735 0.113039
0 0.272831 0.0930037
0 0.292912 0.0729839
0 0.313008 0.0529488
0 0.333089 0.0329137
0 0.353185 0.0128786
0 0.373281 0
0 0.393362 0
0 0.413458 0
0 0.433539 0
0 0.453635 0
0 0.473732 0
0 0.493812 0
0 0.513909 0
0 0.534005 0
0 0.554086 0
0 0.574182 0
0 0.594263 0
0 0.614359 0
0 0.634455 0
0 0.654536 0
0 0.674632 0
0 0.694728 0
0 0.714809 0
0.0639353 0.0899214 0.366644
0.03682 0.110002 0.346624
0.00968948 0.130083 0.326604
0 0.150179 0.306569
0 0.170275 0.286534
0 0.190356 0.266499
0 0.210452 0.246479
0 0.230533 0.226444
0 0.250629 0.206409
0 0.270726 0.186374
0 0.290806 0.166354
0 0.310903 0.146319
0 0.330983 0.126284
0 0.35108 0.106249
0 0.371176 0.0862135
0 0.391257 0.0661936
0 0.411353 0.0461585
0 0.431449 0.0261234
0 0.45153 0.00608835
0 0.471626 0
0 0.491707 0
0 0.511803 0
0 0.531899 0
0 0.55198 0
0 0.572076 0
0 0.592157 0
0 0.612253 0
0 0.632349 0
0 0.65243 0
0 0.672526 0
0 0.692622 0
0 0.712703 0
0 0.732799 0
0.0767224 0.107897 0.439994
0.0496071 0.127977 0.419974
0.0224765 0.148074 0.399939
0 0.16817 0.379904
0 0.188251 0.359869
0 0.208347 0.339834
0 0.228428 0.319814
0 0.248524 0.299779
0 0.26862 0.279744
0 0.288701 0.259709
0 0.308797 0.239689
0 0.328878 0.219654
0 0.348974 0.199619
0 0.36907 0.179583
0 0.389151 0.159564
0 0.409247 0.139528
0 0.429343 0.119493
0 0.449424 0.0994583
0 0.46952 0.0794385
0 0.489601 0.0594034
0 0.509697 0.0393683
0 0.529793 0.0193332
0 0.549874 0
0 0.56997 0
0 0.590066 0
0 0.610147 0
0 0.630243 0
0 0.650324 0
0 0.67042 0
0 0.690517 0
0 0.710597 0
0 0.730694 0
0 0.750774 0
0.0895094 0.125887 0.513329
0.0623941 0.145968 0.493309
0.0352636 0.166064 0.473274
0.00813306 0.186145 0.453239
0 0.206241 0.433204
0 0.226322 0.413184
0 0.246418 0.393149
0 0.266514 0.373114
0 0.286595 0.353079
0 0.306691 0.333059
0 0.326787 0.313024
0 0.346868 0.292988
0 0.366964 0.272953
0 0.387045 0.252934
0 0.407141 0.232898
0 0.427237 0.212863
0 0.447318 0.192828
0 0.467414 0.172808
0 0.487495 0.152773
0 0.507591 0.132738
0 0.527687 0.112703
0 0.547768 0.092668
0 0.567864 0.0726482
0 0.587961 0.0526131
0 0.608042 0.032578
0 0.628138 0.0125429
0 0.648219 0
0 0.668315 0
0 0.688411 0
0 0.708492 0
0 0.728588 0
0 0.748669 0
0 0.768765 0
0.102296 0.143877 0.586664
0.0751812 0.163958 0.566644
0.0480507 0.184039 0.546609
0.0209201 0.204135 0.526574
0 0.224216 0.506554
0 0.244312 0.486519
0 0.264408 0.466484
0 0.284489 0.446448
0 0.304585 0.426429
0 0.324681 0.406394
0 0.344762 0.386358
0 0.364858 0.366323
0 0.384939 0.346288
0 0.405035 0.326268
0 0.425132 0.306233
0 0.445212 0.286198
0 0.465309 0.266163
0 0.48539 0.246143
0 0.505486 0.226108
0 0.525582 0.206073
0 0.545663 0.186038
0 0.565759 0.166018
0 0.585855 0.145983
0 0.605936 0.125948
0 0.626032 0.105913
0 0.646113 0.085893
0 0.666209 0.0658579
0 0.686305 0.0458228
0 0.706386 0.0257877
0 0.726482 0.00576791
0 0.746578 0
0 0.766659 0
0 0.786755 0
0.115084 0.161852 0.659998
0.0879683 0.181933 0.639979
0.0608377 0.202029 0.619944
0.0337072 0.22211 0.599908
0.00657664 0.242206 0.579889
0 0.262303 0.559853
0 0.282383 0.539818
0 0.30248 0.519783
0 0.322576 0.499763
0 0.342657 0.479728
0 0.362753 0.459693
0 0.382834 0.439658
0 0.40293 0.419638
0 0.423026 0.399603
0 0.443107 0.379568
0 0.463203 0.359533
0 0.483299 0.339513
0 0.50338 0.319478
0 0.523476 0.299443
0 0.543557 0.279408
0 0.563653 0.259388
0 0.583749 0.239353
0 0.60383 0.219318
0 0.623926 0.199283
0 0.644007 0.179263
0 0.664103 0.159228
0 0.684199 0.139193
0 0.70428 0.119158
0 0.724376 0.0991379
0 0.744472 0.0791028
0 0.764553 0.0590677
0 0.784649 0.0390326
0 0.80473 0.0189975
0.127886 0.179843 0.733333
0.100755 0.199924 0.713314
0.0736248 0.22002 0.693278
0.0464942 0.240101 0.673259
0.0193637 0.260197 0.653223
0 0.280278 0.633188
0 0.300374 0.613153
0 0.32047 0.593133
0 0.340551 0.573098
0 0.360647 0.553063
0 0.380728 0.533028
0 0.400824 0.513008
0 0.42092 0.492973
0 0.441001 0.472938
0 0.461097 0.452903
0 0.481193 0.432883
0 0.501274 0.412848
0 0.52137 0.392813
0 0.541451 0.372778
0 0.561547 0.352758
0 0.581643 0.332723
0 0.601724 0.312688
0 0.62182 0.292653
0 0.641901 0.272618
0 0.661997 0.252598
0 0.682094 0.232563
0 0.702174 0.212528
0 0.722271 0.192493
0 0.742367 0.172473
0 0.762448 0.152438
0 0.782544 0.132403
0 0.802625 0.112367
0 0.822721 0.0923476
0.140673 0.197833 0.806668
0.113542 0.217914 0.786648
0.0864118 0.237995 0.766629
0.0592813 0.258091 0.746593
0.0321508 0.278172 0.726558
0.00502022 0.298268 0.706523
0 0.318364 0.686503
0 0.338445 0.666468
0 0.358541 0.646433
0 0.378622 0.626398
0 0.398718 0.606378
0 0.418814 0.586343
0 0.438895 0.566308
0 0.458991 0.546273
0 0.479088 0.526238
0 0.499168 0.506218
0 0.519265 0.486183
0 0.539345 0.466148
0 0.559442 0.446113
0 0.579538 0.426093
0 0.599619 0.406058
0 0.619715 0.386023
0 0.639811 0.365988
0 0.659892 0.345968
0 0.679988 0.325933
0 0.700069 0.305898
0 0.720165 0.285863
0 0.740261 0.265843
0 0.760342 0.245808
0 0.780438 0.225772
0 0.800519 0.205737
0 0.820615 0.185718
0 0.840711 0.165682
0.15346 0.215808 0.880018
0.126345 0.235889 0.859998
0.0991989 0.255985 0.839963
0.0720684 0.276066 0.819928
0.0449378 0.296162 0.799893
0.0178073 0.316258 0.779858
0 0.336339 0.759838
0 0.356435 0.739803
0 0.376532 0.719768
0 0.396612 0.699733
0 0.416709 0.679713
0 0.43679 0.659678
0 0.456886 0.639643
0 0.476982 0.619608
0 0.497063 0.599588
0 0.517159 0.579553
0 0.53724 0.559518
0 0.557336 0.539483
0 0.577432 0.519463
0 0.597513 0.499428
0 0.617609 0.479393
0 0.637705 0.459358
0 0.657786 0.439338
0 0.677882 0.419303
0 0.697963 0.399268
0 0.718059 0.379232
0 0.738155 0.359213
0 0.758236 0.339178
0 0.778332 0.319142
0 0.798413 0.299107
0 0.818509 0.279072
0 0.838605 0.259052
0 0.858686 0.239017
0.166247 0.233799 0.953353
0.139132 0.25388 0.933333
0.112001 0.27396 0.913298
0.0848554 0.294057 0.893263
0.0577249 0.314153 0.873228
0.0305943 0.334234 0.853208
0.0034638 0.35433 0.833173
0 0.374426 0.813138
0 0.394507 0.793103
0 0.414603 0.773083
0 0.434684 0.753048
0 0.45478 0.733013
0 0.474876 0.712978
0 0.494957 0.692958
0 0.515053 0.672923
0 0.535149 0.652888
0 0.55523 0.632853
0 0.575326 0.612833
0 0.595407 0.592798
0 0.615503 0.572763
0 0.635599 0.552728
0 0.65568 0.532692
0 0.675776 0.512673
0 0.695857 0.492638
0 0.715953 0.472602
0 0.736049 0.452567
0 0.75613 0.432547
0 0.776226 0.412512
0 0.796323 0.392477
0 0.816403 0.372442
0 0.8365 0.352422
0 0.85658 0.332387
0 0.876677 0.312352
0.179034 0.251789 1
0.151919 0.27187 1
0.124788 0.291951 0.986633
0.0976577 0.312047 0.966598
0.0705119 0.332128 0.946578
0.0433814 0.352224 0.926543
0.0162509 0.37232 0.906508
0 0.392401 0.886473
0 0.412497 0.866453
0 0.432578 0.846418
0 0.452674 0.826383
0 0.47277 0.806348
0 0.492851 0.786313
0 0.512947 0.766293
0 0.533043 0.746258
0 0.553124 0.726223
0 0.57322 0.706188
0 0.593301 0.686168
0 0.613397 0.666133
0 0.633494 0.646097
0 0.653574 0.626062
0 0.673671 0.606043
0 0.693751 0.586007
0 0.713848 0.565972
0 0.733944 0.545937
0 0.754025 0.525917
0 0.774121 0.505882
0 0.794217 0.485847
0 0.814298 0.465812
0 0.834394 0.445792
0 0.854475 0.425757
0 0.874571 0.405722
0 0.894667 0.385687
0.191821 0.269764 1
0.164706 0.289845 1
0.137575 0.309941 1
0.110445 0.330022 1
0.0833143 0.350118 1
0.0561685 0.370214 0.999878
0.0290379 0.390295 0.979843
0.00190738 0.410391 0.959808
0 0.430472 0.939788
0 0.450568 0.919753
0 0.470665 0.899718
0 0.490745 0.879683
0 0.510842 0.859663
0 0.530938 0.839628
0 0.551019 0.819593
0 0.571115 0.799558
0 0.591196 0.779538
0 0.611292 0.759503
0 0.631388 0.739467
0 0.651469 0.719432
0 0.671565 0.699413
0 0.691661 0.679377
0 0.711742 0.659342
0 0.731838 0.639307
0 0.751919 0.619287
0 0.772015 0.599252
0 0.792111 0.579217
0 0.812192 0.559182
0 0.832288 0.539147
0 0.852369 0.519127
0 0.872465 0.499092
0 0.892561 0.479057
0 0.912642 0.459022
0.204608 0.287755 1
0.177493 0.307836 1
0.150362 0.327916 1
0.123232 0.348013 1
0.0961013 0.368109 1
0.0689708 0.38819 1
0.041825 0.408286 1
0.0146944 0.428382 1
0 0.448463 1
0 0.468559 0.993088
0 0.48864 0.973053
0 0.508736 0.953033
0 0.528832 0.932998
0 0.548913 0.912963
0 0.569009 0.892927
0 0.58909 0.872908
0 0.609186 0.852872
0 0.629282 0.832837
0 0.649363 0.812802
0 0.669459 0.792767
0 0.689555 0.772747
0 0.709636 0.752712
0 0.729732 0.732677
0 0.749813 0.712642
0 0.769909 0.692622
0 0.790005 0.672587
0 0.810086 0.652552
0 0.830182 0.632517
0 0.850263 0.612497
0 0.870359 0.592462
0 0.890455 0.572427
0 0.910536 0.552392
0 0.930632 0.532372
0.217395 0.30573 1
0.19028 0.325811 1
0.163149 0.345907 1
0.136019 0.366003 1
0.108888 0.386084 1
0.0817578 0.40618 1
0.0546273 0.426276 1
0.0274815 0.446357 1
0.000350958 0.466453 1
0 0.486534 1
0 0.50663 1
0 0.526726 1
0 0.546807 1
0 0.566903 0.986297
0 0.586984 0.966262
0 0.60708 0.946242
0 0.627176 0.926207
0 0.647257 0.906172
0 0.667353 0.886137
0 0.687449 0.866117
0 0.70753 0.846082
0 0.727626 0.826047
0 0.747707 0.806012
0 0.767803 0.785992
0 0.7879 0.765957
0 0.80798 0.745922
0 0.828077 0.725887
0 0.848173 0.705867
0 0.868254 0.685832
0 0.88835 0.665797
0 0.908431 0.645762
0 0.928527 0.625742
0 0.948623 0.605707
0.230182 0.32372 1
0.203067 0.343801 1
0.175937 0.363897 1
0.148806 0.383978 1
0.121675 0.404074 1
0.0945449 0.42417 1
0.0674144 0.444251 1
0.0402686 0.464347 1
0.013138 0.484428 1
0 0.504524 1
0 0.52462 1
0 0.544701 1
0 0.564797 1
0 0.584894 1
0 0.604974 1
0 0.625071 1
0 0.645151 0.999542
0 0.665248 0.979507
0 0.685344 0.959487
0 0.705425 0.939452
0 0.725521 0.919417
0 0.745602 0.899382
0 0.765698 0.879362
0 0.785794 0.859327
0 0.805875 0.839292
0 0.825971 0.819257
0 0.846067 0.799237
0 0.866148 0.779202
0 0.886244 0.759167
0 0.906325 0.739132
0 0.926421 0.719097
0 0.946517 0.699077
0 0.966598 0.679042
0.242969 0.341711 1
0.215854 0.361791 1
0.188724 0.381872 1
0.161593 0.401968 1
0.134463 0.422065 1
0.107332 0.442145 1
0.0802014 0.462242 1
0.0530709 0.482322 1
0.0259251 0.502419 1
0 0.522515 1
0 0.542596 1
0 0.562692 1
0 0.582788 1
0 0.602869 1
0 0.622965 1
0 0.643046 1
0 0.663142 1
0 0.683238 1
0 0.703319 1
0 0.723415 1
0 0.743496 0.992752
0 0.763592 0.972717
0 0.783688 0.952697
0 0.803769 0.932662
0 0.823865 0.912627
0 0.843961 0.892592
0 0.864042 0.872572
0 0.884138 0.852537
0 0.904219 0.832502
0 0.924315 0.812467
0 0.944411 0.792447
0 0.964492 0.772412
0 0.984588 0.752377
0.255772 0.359686 1
0.228641 0.379767 1
0.201511 0.399863 1
0.17438 0.419959 1
0.14725 0.44004 1
0.120119 0.460136 1
0.0929885 0.480232 1
0.0658579 0.500313 1
0.0387274 0.520409 1
0.0115816 0.54049 1
0 0.560586 1
0 0.580682 1
0 0.600763 1
0 0.620859 1
0 0.64094 1
0 0.661036 1
0 0.681132 1
0 0.701213 1
0 0.721309 1
0 0.741405 1
0 0.761486 1
0 0.781582 1
0 0.801663 1
0 0.821759 1
0 0.841856 0.985962
0 0.861936 0.965942
0 0.882033 0.945907
0 0.902113 0.925872
0 0.92221 0.905837
0 0.942306 0.885817
0 0.962386 0.865782
0 0.982483 0.845747
0 1 0.825711
0.268559 0.377676 1
0.241428 0.397757 1
0.214298 0.417853 1
0.187167 0.437934 1
0.160037 0.45803 1
0.132906 0.478126 1
0.105776 0.498207 1
0.078645 0.518303 1
0.0515145 0.538384 1
0.0243839 0.55848 1
0 0.578576 1
0 0.598657 1
0 0.618753 1
0 0.638834 1
0 0.65893 1
0 0.679026 1
0 0.699107 1
0 0.719203 1
0 0.7393 1
0 0.75938 1
0 0.779477 1
0 0.799558 1
0 0.819654 1
0 0.83975 1
0 0.859831 1
0 0.879927 1
0 0.900023 1
0 0.920104 0.999207
0 0.9402 0.979171
0 0.960281 0.959152
0 0.980377 0.939116
0 1 0.919081
0 1 0.899046
0.281346 0.395666 1
0.254231 0.415747 1
0.227085 0.435828 1
0.199954 0.455924 1
0.172824 0.47602 1
0.145693 0.496101 1
0.118563 0.516197 1
0.0914321 0.536278 1
0.0643015 0.556374 1
0.037171 0.576471 1
0.0100404 0.596551 1
0 0.616648 1
0 0.636744 1
0 0.656825 1
0 0.676921 1
0 0.697002 1
0 0.717098 1
0 0.737194 1
0 0.757275 1
0 0.777371 1
0 0.797452 1
0 0.817548 1
0 0.837644 1
0 0.857725 1
0 0.877821 1
0 0.897917 1
0 0.917998 1
0 0.938094 1
0 0.958175 1
0 0.978271 1
0 0.998367 1
0 1 0.992416
0 1 0.972396
0.294133 0.413642 1
0.267018 0.433722 1
0.239887 0.453819 1
0.212741 0.473915 1
0.185611 0.493996 1
0.15848 0.514092 1
0.13135 0.534173 1
0.104219 0.554269 1
0.0770886 0.574365 1
0.049958 0.594446 1
0.0228275 0.614542 1
0 0.634638 1
0 0.654719 1
0 0.674815 1
0 0.694896 1
0 0.714992 1
0 0.735088 1
0 0.755169 1
0 0.775265 1
0 0.795346 1
0 0.815442 1
0 0.835538 1
0 0.855619 1
0 0.875715 1
0 0.895811 1
0 0.915892 1
0 0.935988 1
0 0.956069 1
0 0.976165 1
0 0.996262 1
0 1 1
0 1 1
0 1 1
0.30692 0.431632 1
0.279805 0.451713 1
0.252674 0.471809 1
0.225528 0.49189 1
0.198398 0.511986 1
0.171267 0.532067 1
0.144137 0.552163 1
0.117006 0.572259 1
0.0898756 0.59234 1
0.0627451 0.612436 1
0.0356146 0.632532 1
0.00848402 0.652613 1
0 0.672709 1
0 0.69279 1
0 0.712886 1
0 0.732982 1
0 0.753063 1
0 0.773159 1
0 0.793256 1
0 0.813336 1
0 0.833432 1
0 0.853513 1
0 0.87361 1
0 0.893706 1
0 0.913787 1
0 0.933883 1
0 0.953964 1
0 0.97406 1
0 0.994156 1
0 1 1
0 1 1
0 1 1
0 1 1
0.319707 0.449622 1
0.292592 0.469703 1
0.265461 0.489784 1
0.238331 0.50988 1
0.211185 0.529976 1
0.184054 0.550057 1
0.156924 0.570153 1
0.129793 0.590234 1
0.102663 0.61033 1
0.0755322 0.630426 1
0.0484016 0.650507 1
0.0212711 0.670604 1
0 0.690684 1
0 0.710781 1
0 0.730877 1
0 0.750957 1
0 0.771054 1
0 0.79115 1
0 0.811231 1
0 0.831327 1
0 0.851408 1
0 0.871504 1
0 0.8916 1
0 0.911681 1
0 0.931777 1
0 0.951858 1
0 0.971954 1
0 0.99205 1
0 1 1
0 1 1
0 1 1
0 1 1
0 1 1
0.332494 0.467597 1
0.305379 0.487678 1
0.278248 0.507774 1
0.251118 0.527871 1
0.223987 0.547951 1
0.196841 0.568048 1
0.169711 0.588129 1
0.14258 0.608225 1
0.11545 0.628321 1
0.0883192 0.648402 1
0.0611887 0.668498 1
0.0340581 0.688594 1
0.0069276 0.708675 1
0 0.728771 1
0 0.748852 1
0 0.768948 1
0 0.789044 1
0 0.809125 1
0 0.829221 1
0 0.849302 1
0 0.869398 1
0 0.889494 1
0 0.909575 1
0 0.929671 1
0 0.949767 1
0 0.969848 1
0 0.989944 1
0 1 1
0 1 1
0 1 1
0 1 1
0 1 1
0 1 1
0.345281 0.485588 1
0.318166 0.505669 1
0.291035 0.525765 1
0.263905 0.545846 1
0.236774 0.565942 1
0.209644 0.586023 1
0.182498 0.606119 1
0.155367 0.626215 1
0.128237 0.646296 1
