public/LUTS/Color Shift/ColorShift_84.cube
TITLE "Generated by Resolve"
LUT_3D_SIZE 9
0 0 0
0.111208 0 0.173892
0.222431 0 0.347799
0.333654 0 0.521721
0.444877 0 0.695628
0.5561 0 0.869551
0.667323 0 1
0.778546 0 1
0.889769 0 1
0.198672 0.0771191 0
0.309895 0.0588846 0.0826429
0.421118 0.0406653 0.25655
0.532341 0.0224308 0.430472
0.643565 0.00421149 0.604379
0.754788 0 0.778302
0.866011 0 0.952209
0.977234 0 1
1 0 1
0.397391 0.154238 0
0.508598 0.136019 0
0.619821 0.117784 0.165301
0.731044 0.0995651 0.339208
0.842268 0.0813306 0.513115
0.95349 0.0631113 0.687037
1 0.0448768 0.860945
1 0.0266575 1
1 0.00842298 1
0.596094 0.231357 0
0.707301 0.213138 0
0.818524 0.194903 0.0740368
0.929747 0.176684 0.247944
1 0.15845 0.421866
1 0.14023 0.595773
1 0.121996 0.769696
1 0.103777 0.943603
1 0.0855421 1
0.794797 0.308476 0
0.906004 0.290257 0
1 0.272038 0
1 0.253803 0.156695
1 0.235584 0.330602
1 0.21735 0.504509
1 0.19913 0.678431
1 0.180896 0.852338
1 0.162676 1
0.9935 0.385611 0
1 0.367376 0
1 0.349157 0
1 0.330922 0.0654307
1 0.312703 0.239338
1 0.294469 0.41326
1 0.276249 0.587167
1 0.258015 0.761074
1 0.239796 0.934997
1 0.46273 0
1 0.444511 0
1 0.426276 0
1 0.408057 0
1 0.389822 0.148074
1 0.371603 0.321996
1 0.353368 0.495903
1 0.335149 0.669825
1 0.316915 0.843732
1 0.539849 0
1 0.52163 0
1 0.503395 0
1 0.485176 0
1 0.466941 0.0568246
1 0.448722 0.230732
1 0.430503 0.404654
1 0.412268 0.578561
1 0.394049 0.752468
1 0.616983 0
1 0.598749 0
1 0.58053 0
1 0.562295 0
1 0.544076 0
1 0.525841 0.139467
1 0.507622 0.31339
1 0.489387 0.487297
1 0.471168 0.661219
0 0.0661021 0.0423438
0 0.0478676 0.216236
0.0375372 0.0296483 0.390143
0.14876 0.0114137 0.564065
0.259983 0 0.737972
0.371206 0 0.911894
0.482429 0 1
0.593652 0 1
0.704875 0 1
0.0137789 0.143206 0
0.124987 0.124987 0.124987
0.23621 0.106767 0.298894
0.347433 0.0885328 0.472816
0.458656 0.0703136 0.646723
0.569879 0.052079 0.820645
0.681102 0.0338598 0.994553
0.792325 0.0156252 1
0.903548 0 1
0.212482 0.22034 0
0.32369 0.202106 0.0337224
0.434913 0.183886 0.207645
0.546136 0.165652 0.381552
0.657359 0.147433 0.555474
0.768582 0.129198 0.729381
0.879805 0.110979 0.903288
0.991028 0.0927443 1
1 0.0745251 1
0.411185 0.297459 0
0.522393 0.27924 0
0.633616 0.261006 0.116381
0.744839 0.242786 0.290288
0.856062 0.224552 0.46421
0.967285 0.206332 0.638117
1 0.188098 0.812039
1 0.169879 0.985946
1 0.151644 1
0.609888 0.374578 0
0.721096 0.356359 0
0.832319 0.338125 0.0251164
0.943542 0.319905 0.199039
1 0.301671 0.372946
1 0.283452 0.546853
1 0.265217 0.720775
1 0.246998 0.894682
1 0.228763 1
0.808591 0.451698 0
0.919799 0.433478 0
1 0.415259 0
1 0.397024 0.107774
1 0.378805 0.281682
1 0.360571 0.455604
1 0.342351 0.629511
1 0.324117 0.803418
1 0.305898 0.97734
1 0.528832 0
1 0.510597 0
1 0.492378 0
1 0.474144 0.0165103
1 0.455924 0.190417
1 0.43769 0.36434
1 0.419471 0.538247
1 0.401236 0.712169
1 0.383017 0.886076
1 0.605951 0
1 0.587732 0
1 0.569497 0
1 0.551278 0
1 0.533043 0.0991684
1 0.514824 0.273075
1 0.49659 0.446998
1 0.47837 0.620905
1 0.460136 0.794812
1 0.68307 0
1 0.664851 0
1 0.646616 0
1 0.628397 0
1 0.610162 0.00790417
1 0.591943 0.181811
1 0.573709 0.355734
1 0.555489 0.529641
1 0.537255 0.703563
0 0.132204 0.0846876
0 0.113985 0.258579
0 0.0957504 0.432502
0 0.0775311 0.606409
0.0750591 0.0592966 0.780331
0.186282 0.0410773 0.954238
0.297505 0.0228428 1
0.408728 0.00462348 1
0.519951 0 1
0 0.209323 0
0 0.191089 0.16733
0.0512856 0.172869 0.341253
0.162509 0.154635 0.51516
0.273732 0.136416 0.689082
0.384955 0.118181 0.862989
0.496178 0.0999619 1
0.607401 0.0817273 1
0.718624 0.063508 1
0.0275578 0.286442 0
0.138766 0.268208 0.0760815
0.249989 0.249989 0.249989
0.361212 0.231769 0.423896
0.472435 0.213535 0.597818
0.583658 0.195315 0.771725
0.694881 0.177081 0.945647
0.806104 0.158862 1
0.917327 0.140627 1
0.226261 0.363561 0
0.337469 0.345342 0
0.448692 0.327108 0.158724
0.559915 0.308888 0.332647
0.671138 0.290654 0.506554
0.782361 0.272435 0.680476
0.893584 0.2542 0.854383
1 0.235981 1
1 0.217746 1
0.424964 0.440681 0
0.536171 0.422461 0
0.647395 0.404242 0.0674601
0.758618 0.386007 0.241382
0.869841 0.367788 0.41529
0.981064 0.349554 0.589212
1 0.331334 0.763119
1 0.3131 0.937041
1 0.294881 1
0.623667 0.517815 0
0.734874 0.49958 0
0.846098 0.481361 0
0.957321 0.463127 0.150118
1 0.444907 0.324041
1 0.426673 0.497948
1 0.408453 0.671855
1 0.390219 0.845777
1 0.372 1
0.82237 0.594934 0
0.933577 0.576715 0
1 0.55848 0
1 0.540261 0.058854
1 0.522026 0.232776
1 0.503807 0.406683
1 0.485573 0.580606
1 0.467353 0.754513
1 0.449119 0.92842
1 0.672053 0
1 0.653834 0
1 0.635599 0
1 0.61738 0
1 0.599145 0.141512
1 0.580926 0.315419
1 0.562692 0.489342
1 0.544472 0.663249
1 0.526238 0.837171
1 0.749172 0
1 0.730953 0
1 0.712734 0
1 0.694499 0
1 0.67628 0.050248
1 0.658045 0.22417
1 0.639826 0.398077
1 0.621592 0.572
1 0.603372 0.745907
0 0.198306 0.127047
0 0.180087 0.300938
0 0.161852 0.474845
0 0.143633 0.648768
0 0.125399 0.822675
0.00135805 0.107179 0.996582
0.112581 0.0889448 1
0.223804 0.0707256 1
0.335027 0.052491 1
0 0.275425 0.0357977
0 0.257191 0.209689
0 0.238972 0.383597
0 0.220737 0.557519
0.0888075 0.202518 0.731426
0.200031 0.184298 0.905333
0.311254 0.166064 1
0.422477 0.147845 1
0.5337 0.12961 1
0 0.352544 0
0 0.334325 0.118425
0.0650645 0.316091 0.292332
0.176287 0.297871 0.466255
0.28751 0.279637 0.640162
0.398733 0.261418 0.814084
0.509957 0.243183 0.987991
0.62118 0.224964 1
0.732403 0.206729 1
0.0413367 0.429664 0
0.152544 0.411444 0.0271611
0.263767 0.39321 0.201083
0.37499 0.37499 0.37499
0.486213 0.356771 0.548898
0.597436 0.338537 0.72282
0.708659 0.320317 0.896727
0.819883 0.302083 1
0.931105 0.283864 1
0.24004 0.506798 0
0.351247 0.488563 0
0.46247 0.470344 0.109819
0.573693 0.45211 0.283726
0.684916 0.43389 0.457649
0.796139 0.415656 0.631556
0.907362 0.397436 0.805478
1 0.379202 0.979385
1 0.360983 1
0.438743 0.583917 0
0.54995 0.565682 0
0.661173 0.547463 0.018555
0.772396 0.529244 0.192462
0.883619 0.511009 0.366384
0.994842 0.49279 0.540291
1 0.474556 0.714214
1 0.456336 0.888121
1 0.438102 1
0.637446 0.661036 0
0.748653 0.642817 0
0.859876 0.624582 0
0.971099 0.606363 0.101213
1 0.588129 0.27512
1 0.569909 0.449042
1 0.551675 0.62295
1 0.533455 0.796857
1 0.515221 0.970779
0.836149 0.738155 0
0.947356 0.719936 0
1 0.701717 0
1 0.683482 0.00994888
1 0.665263 0.183856
1 0.647028 0.357778
1 0.628809 0.531685
1 0.610574 0.705608
1 0.592355 0.879515
1 0.81529 0
1 0.797055 0
1 0.778836 0
1 0.760601 0
1 0.742382 0.092607
1 0.724147 0.266514
1 0.705928 0.440421
1 0.687694 0.614343
1 0.669474 0.788251
0 0.264408 0.16939
0 0.246189 0.343282
0 0.22797 0.517205
0 0.209735 0.691112
0 0.191516 0.865019
0 0.173281 1
0 0.155062 1
0.03888 0.136828 1
0.150103 0.118608 1
0 0.341527 0.0781415
0 0.323308 0.252033
0 0.305074 0.42594
0 0.286854 0.599863
0 0.26862 0.77377
0.0151064 0.250401 0.947692
0.126329 0.232166 1
0.237552 0.213947 1
0.348775 0.195712 1
0 0.418647 0
0 0.400427 0.160769
0 0.382193 0.334691
0 0.363973 0.508598
0.102586 0.345739 0.682521
0.213809 0.32752 0.856428
0.325032 0.3093 1
0.436255 0.291066 1
0.547478 0.272847 1
0 0.495781 0
0 0.477546 0.0695048
0.0788434 0.459327 0.243427
0.190066 0.441093 0.417334
0.301289 0.422873 0.591257
0.412512 0.404639 0.765164
0.523735 0.386419 0.939086
0.634958 0.368185 1
0.746181 0.349966 1
0.0551156 0.5729 0
0.166323 0.554665 0
0.277546 0.536446 0.152163
0.388769 0.518212 0.326085
0.499992 0.499992 0.499992
0.611215 0.481773 0.673899
0.722438 0.463539 0.847822
0.833661 0.445319 1
0.944884 0.427085 1
0.253819 0.650019 0
0.365026 0.6318 0
0.476249 0.613565 0.0608988
0.587472 0.595346 0.234821
0.698695 0.577111 0.408728
0.809918 0.558892 0.58265
0.921141 0.540658 0.756558
1 0.522438 0.93048
1 0.504204 1
0.452522 0.727138 0
0.563729 0.708919 0
0.674952 0.690684 0
0.786175 0.672465 0.143557
0.897398 0.654246 0.317464
1 0.636011 0.491386
1 0.617792 0.665293
1 0.599557 0.839216
1 0.581338 1
0.651225 0.804273 0
0.762432 0.786038 0
0.873655 0.767819 0
0.984878 0.749584 0.0522927
1 0.731365 0.226215
1 0.71313 0.400122
1 0.694911 0.574044
1 0.676677 0.747951
1 0.658457 0.921859
0.849928 0.881392 0
0.961135 0.863172 0
1 0.844938 0
1 0.826719 0
1 0.808484 0.134951
1 0.790265 0.308858
1 0.77203 0.48278
1 0.753811 0.656687
1 0.735576 0.83061
0 0.330526 0.211734
0 0.312291 0.385626
0 0.294072 0.559548
0 0.275837 0.733455
0 0.257618 0.907378
0 0.239384 1
0 0.221164 1
0 0.20293 1
0 0.18471 1
0 0.40763 0.120485
0 0.38941 0.294377
0 0.371176 0.468299
0 0.352956 0.642206
0 0.334722 0.816129
0 0.316503 0.990036
0 0.298268 1
0.0526284 0.280049 1
0.163851 0.26183 1
0 0.484749 0.0292363
0 0.466529 0.203128
0 0.44831 0.377035
0 0.430076 0.550942
0 0.411856 0.724865
0.0288853 0.393622 0.898772
0.140108 0.375402 1
0.251331 0.357168 1
0.362554 0.338949 1
0 0.561883 0
0 0.543648 0.111864
0 0.525429 0.285771
0.00514229 0.507195 0.459693
0.116365 0.488975 0.6336
0.227588 0.470741 0.807523
0.338811 0.452522 0.98143
0.450034 0.434302 1
0.561257 0.416068 1
0 0.639002 0
0 0.620783 0.0205997
0.0926223 0.602548 0.194522
0.203845 0.584329 0.368429
0.315068 0.566094 0.542336
0.426291 0.547875 0.716258
0.537514 0.529641 0.890166
0.648737 0.511421 1
0.75996 0.493187 1
0.0688945 0.716121 0
0.180102 0.697902 0
0.291325 0.679667 0.103258
0.402548 0.661448 0.277165
0.513771 0.643214 0.451087
0.624994 0.624994 0.624994
0.736217 0.606775 0.798901
0.84744 0.58854 0.972824
0.958663 0.570321 1
0.267597 0.793256 0
0.378805 0.775021 0
0.490028 0.756802 0.0119936
0.601251 0.738567 0.185901
0.712474 0.720348 0.359823
0.823697 0.702113 0.53373
0.93492 0.683894 0.707652
1 0.66566 0.881559
1 0.64744 1
0.4663 0.870375 0
0.577508 0.85214 0
0.688731 0.833921 0
0.799954 0.815686 0.0946517
0.911177 0.797467 0.268559
1 0.779248 0.442466
1 0.761013 0.616388
1 0.742794 0.790295
1 0.724559 0.964218
0.665003 0.947494 0
0.776211 0.929274 0
0.887434 0.91104 0
0.998657 0.892821 0.0033875
1 0.874586 0.177295
1 0.856367 0.351217
1 0.838132 0.525124
1 0.819913 0.699046
1 0.801678 0.872953
0 0.396628 0.254093
0 0.378393 0.427985
0 0.360174 0.601892
0 0.341939 0.775814
0 0.32372 0.949722
0 0.305501 1
0 0.287266 1
0 0.269047 1
0 0.250813 1
0 0.473732 0.162844
0 0.455512 0.336736
0 0.437293 0.510643
0 0.419059 0.684565
0 0.400839 0.858473
0 0.382605 1
0 0.364385 1
0 0.346151 1
0 0.327932 1
0 0.550866 0.0715801
0 0.532631 0.245472
0 0.514412 0.419379
0 0.496178 0.593301
0 0.477958 0.767208
0 0.459724 0.941131
0 0.441505 1
0.0664073 0.42327 1
0.17763 0.405051 1
0 0.627985 0
0 0.609766 0.154208
0 0.591531 0.32813
0 0.573312 0.502037
0 0.555077 0.675944
0.0426642 0.536858 0.849867
0.153887 0.518624 1
0.26511 0.500404 1
0.376333 0.48217 1
0 0.705104 0
0 0.686885 0.0629435
0 0.66865 0.236866
0.0189212 0.650431 0.410773
0.130144 0.632197 0.584695
0.241367 0.613977 0.758602
0.35259 0.595743 0.932525
0.463813 0.577523 1
0.575036 0.559304 1
0 0.782223 0
0 0.764004 0
0.106401 0.745785 0.145602
0.217624 0.72755 0.319524
0.328847 0.709331 0.493431
0.44007 0.691096 0.667338
0.551293 0.672877 0.84126
0.662516 0.654643 1
0.773739 0.636423 1
0.0826734 0.859358 0
0.193881 0.841123 0
0.305104 0.822904 0.0543374
0.416327 0.804669 0.22826
0.52755 0.78645 0.402167
0.638773 0.768215 0.576089
0.749996 0.749996 0.749996
0.861219 0.731777 0.923903
0.972442 0.713542 1
0.281376 0.936477 0
0.392584 0.918257 0
0.503807 0.900023 0
0.61503 0.881804 0.136995
0.726253 0.863569 0.310903
0.837476 0.84535 0.484825
0.948699 0.827115 0.658732
1 0.808896 0.832654
1 0.790661 1
0.480079 1 0
0.591287 0.995377 0
0.70251 0.977142 0
0.813733 0.958923 0.0457313
0.924956 0.940688 0.219654
1 0.922469 0.393561
1 0.90425 0.567468
1 0.886015 0.74139
1 0.867796 0.915297
0 0.46273 0.296437
0 0.444511 0.470329
0 0.426276 0.644251
0 0.408057 0.818158
0 0.389822 0.992065
0 0.371603 1
0 0.353368 1
0 0.335149 1
0 0.316915 1
0 0.539849 0.205188
0 0.521614 0.37908
0 0.503395 0.552987
0 0.485161 0.726909
0 0.466941 0.900816
0 0.448707 1
0 0.430488 1
0 0.412253 1
0 0.394034 1
0 0.616968 0.113924
0 0.598749 0.287816
0 0.580514 0.461738
0 0.562295 0.635645
0 0.54406 0.809567
0 0.525841 0.983474
0 0.507607 1
0 0.489387 1
0 0.471153 1
0 0.694087 0.0226749
0 0.675868 0.196567
0 0.657633 0.370474
0 0.639414 0.544381
0 0.62118 0.718303
0 0.60296 0.89221
0 0.584726 1
0.0801862 0.566506 1
0.191409 0.548272 1
0 0.771206 0
0 0.752987 0.105303
0 0.734768 0.27921
0 0.716533 0.453132
0 0.698314 0.627039
0.0564431 0.680079 0.800946
0.167666 0.66186 0.974868
0.278889 0.643626 1
0.390112 0.625406 1
0 0.848341 0
0 0.830106 0.0140383
0 0.811887 0.187945
0.0327001 0.793652 0.361868
0.143923 0.775433 0.535775
0.255146 0.757198 0.709697
0.366369 0.738979 0.883604
0.477592 0.720745 1
0.588815 0.702525 1
0 0.92546 0
0.00895705 0.90724 0
0.12018 0.889006 0.0966964
0.231403 0.870787 0.270604
0.342626 0.852552 0.444511
0.453849 0.834333 0.618433
0.565072 0.816098 0.79234
0.676295 0.797879 0.966262
0.787518 0.779644 1
0.0964523 1 0
0.20766 0.98436 0
0.318883 0.966125 0.00543221
0.430106 0.947906 0.179339
0.541329 0.929671 0.353262
0.652552 0.911452 0.527169
0.763775 0.893217 0.701091
0.874998 0.874998 0.874998
0.986221 0.856779 1
0.295155 1 0
0.406363 1 0
0.517586 1 0
0.628809 1 0.0880903
0.740032 1 0.261997
0.851255 0.988571 0.435904
0.962478 0.970352 0.609827
1 0.952117 0.783734
1 0.933898 0.957656
0 0.528832 0.338781
0 0.510613 0.512673
0 0.492378 0.686595
0 0.474159 0.860502
0 0.455924 1
0 0.437705 1
0 0.419471 1
0 0.401251 1
0 0.383017 1
0 0.605951 0.247532
0 0.587732 0.421424
0 0.569497 0.595346
0 0.551278 0.769253
0 0.533043 0.943175
0 0.514824 1
0 0.49659 1
0 0.47837 1
0 0.460136 1
0 0.68307 0.156283
0 0.664851 0.330175
0 0.646616 0.504082
0 0.628397 0.677989
0 0.610162 0.851911
0 0.591943 1
0 0.573709 1
0 0.555489 1
0 0.537255 1
0 0.760189 0.0650187
0 0.74197 0.238911
0 0.723751 0.412818
0 0.705516 0.58674
0 0.687297 0.760647
0 0.669062 0.934569
0 0.650843 1
0 0.632609 1
0.00648508 0.614389 1
0 0.837324 0
0 0.819089 0.147646
0 0.80087 0.321569
0 0.782635 0.495476
0 0.764416 0.669383
0 0.746181 0.843305
0 0.727962 1
0.0939651 0.709728 1
0.205188 0.691508 1
0 0.914443 0
0 0.896223 0.0563821
0 0.877989 0.230304
0 0.85977 0.404211
0 0.841535 0.578134
0.070222 0.823316 0.752041
0.181445 0.805081 0.925948
0.292668 0.786862 1
0.403891 0.768627 1
0 0.991562 0
0 0.973342 0
0 0.955108 0.13904
0.046479 0.936889 0.312947
0.157702 0.918654 0.48687
0.268925 0.900435 0.660777
0.380148 0.8822 0.834699
0.491371 0.863981 1
0.602594 0.845747 1
0 1 0
0.0227359 1 0
0.133959 1 0.047776
0.245182 1 0.221698
0.356405 0.995789 0.395605
0.467628 0.977554 0.569528
0.578851 0.959335 0.743435
0.690074 0.9411 0.917342
0.801297 0.922881 1
0.110231 1 0
0.221439 1 0
0.332662 1 0
0.443885 1 0.130434
0.555108 1 0.304341
0.666331 1 0.478264
0.777554 1 0.652171
0.888777 1 0.826093
1 1 1
