public/LUTS/Color Shift/ColorShift_71.cube
TITLE "Generated by Resolve"
LUT_3D_SIZE 9
0 0 0
0.172107 0 0
0.344228 0 0
0.51635 0 0
0.688472 0 0
0.860578 0 0
1 0 0
1 0 0
1 0 0
0 0.156481 0
0.0708629 0.150942 0
0.242985 0.145403 0
0.415106 0.139849 0
0.587228 0.13431 0
0.75935 0.128771 0
0.931472 0.123232 0
1 0.117678 0
1 0.112139 0
0 0.312978 0
0 0.307439 0
0.141726 0.3019 0
0.313848 0.296361 0
0.485969 0.290806 0
0.658091 0.285267 0
0.830213 0.279728 0
1 0.274189 0
1 0.268635 0
0 0.46949 0
0 0.463951 0
0.0404822 0.458396 0
0.212604 0.452857 0
0.384726 0.447318 0
0.556848 0.441779 0
0.728969 0.436225 0
0.901091 0.430686 0
1 0.425147 0
0 0.625986 0
0 0.620447 0
0 0.614908 0
0.111345 0.609354 0
0.283467 0.603815 0
0.455589 0.598276 0
0.62771 0.592737 0
0.799832 0.587182 0
0.971954 0.581643 0
0 0.782483 0
0 0.776944 0
0 0.771405 0
0.0101015 0.765866 0
0.182223 0.760311 0
0.354345 0.754772 0
0.526467 0.749233 0
0.698589 0.743694 0
0.87071 0.73814 0
0 0.938994 0
0 0.93344 0
0 0.927901 0
0 0.922362 0
0.0809644 0.916823 0
0.253086 0.911269 0
0.425208 0.90573 0
0.59733 0.900191 0
0.769451 0.894652 0
0 1 0
0 1 0
0 1 0
0 1 0
0 1 0
0.151843 1 0
0.323964 1 0
0.496086 1 0
0.668208 1 0
0 1 0
0 1 0
0 1 0
0 1 0
0 1 0
0.0505989 1 0
0.222721 1 0
0.394827 1 0
0.566949 1 0
0.0541238 0 0.200565
0.22623 0 0.13373
0.398352 0 0.0668803
0.570474 0 4.57771e-05
0.742596 0 0
0.914717 0 0
1 0 0
1 0 0
1 0 0
0 0.130526 0.191821
0.124987 0.124987 0.124987
0.297108 0.119448 0.0581369
0.46923 0.113909 0
0.641352 0.108354 0
0.813474 0.102815 0
0.985595 0.0972763 0
1 0.0917372 0
1 0.086183 0
0 0.287037 0.183078
0.023743 0.281483 0.116243
0.195865 0.275944 0.0494087
0.367971 0.270405 0
0.540093 0.264866 0
0.712215 0.259312 0
0.884337 0.253773 0
1 0.248234 0
1 0.242695 0
0 0.443534 0.174334
0 0.437995 0.1075
0.0946059 0.432441 0.0406653
0.266728 0.426902 0
0.438849 0.421363 0
0.610971 0.415824 0
0.783093 0.410269 0
0.955215 0.40473 0
1 0.399191 0
0 0.600031 0.165591
0 0.594491 0.0987564
0 0.588952 0.0319219
0.165484 0.583398 0
0.337606 0.577859 0
0.509712 0.57232 0
0.681834 0.566781 0
0.853956 0.561227 0
1 0.555688 0
0 0.756527 0.156863
0 0.750988 0.0900282
0 0.745449 0.0231785
0.0642252 0.73991 0
0.236347 0.734371 0
0.408469 0.728817 0
0.580591 0.723278 0
0.752712 0.717739 0
0.924834 0.7122 0
0 0.913039 0.148119
0 0.9075 0.0812848
0 0.901946 0.014435
0 0.896406 0
0.135103 0.890867 0
0.307225 0.885328 0
0.479347 0.879774 0
0.651453 0.874235 0
0.823575 0.868696 0
0 1 0.139376
0 1 0.0725414
0 1 0.00569162
0 1 0
0.0338445 1 0
0.205966 1 0
0.378088 1 0
0.55021 1 0
0.722332 1 0
0 1 0.130632
0 1 0.063798
0 1 0
0 1 0
0 1 0
0.104723 1 0
0.276844 1 0
0.448966 1 0
0.621088 1 0
0.108263 0 0.401144
0.280354 0 0.33431
0.452476 0 0.267475
0.624598 0 0.200626
0.796719 0 0.133791
0.968841 0 0.0669413
1 0 0.000106813
1 0 0
1 0 0
0.00701915 0.10457 0.392401
0.179126 0.0990311 0.325567
0.351232 0.093492 0.258732
0.523354 0.0879377 0.191882
0.695476 0.0823987 0.125048
0.867597 0.0768597 0.0581979
1 0.0713207 0
1 0.0657664 0
1 0.0602274 0
0 0.261067 0.383673
0.0778668 0.255528 0.316838
0.249989 0.249989 0.249989
0.42211 0.24445 0.183139
0.594232 0.238911 0.116304
0.766354 0.233356 0.0494545
0.938476 0.227817 0
1 0.222278 0
1 0.216739 0
0 0.417578 0.374929
0 0.412039 0.308095
0.148745 0.406485 0.241245
0.320867 0.400946 0.174411
0.492973 0.395407 0.107561
0.665095 0.389868 0.0407263
0.837217 0.384314 0
1 0.378775 0
1 0.373236 0
0 0.574075 0.366186
0 0.568536 0.299351
0.0474861 0.562997 0.232502
0.219608 0.557443 0.165667
0.39173 0.551904 0.0988174
0.563851 0.546365 0.0319829
0.735973 0.540825 0
0.908095 0.535271 0
1 0.529732 0
0 0.730571 0.357443
0 0.725032 0.290608
0 0.719493 0.223758
0.118364 0.713954 0.156924
0.290486 0.7084 0.090074
0.462608 0.702861 0.0232395
0.634714 0.697322 0
0.806836 0.691783 0
0.978958 0.686229 0
0 0.887083 0.348699
0 0.881544 0.281865
0 0.87599 0.21503
0.0171054 0.870451 0.14818
0.189227 0.864912 0.0813458
0.361349 0.859373 0.0144961
0.533471 0.853819 0
0.705592 0.84828 0
0.877714 0.842741 0
0 1 0.339956
0 1 0.273121
0 1 0.206287
0 1 0.139437
0.0879835 1 0.0726024
0.260105 1 0.00575265
0.432227 1 0
0.604349 1 0
0.776455 0.999237 0
0 1 0.331212
0 1 0.264378
0 1 0.197543
0 1 0.130694
0 1 0.063859
0.158846 1 0
0.330968 1 0
0.50309 1 0
0.675212 1 0
0.162387 0 0.601724
0.334493 0 0.534905
0.506615 0 0.468055
0.678737 0 0.401205
0.850858 0 0.334371
1 0 0.267521
1 0 0.200687
1 0 0.133837
1 0 0.0670024
0.0611429 0.0786145 0.592996
0.233249 0.0730755 0.526162
0.405371 0.0675364 0.459312
0.577493 0.0619821 0.392477
0.749615 0.0564431 0.325628
0.921736 0.0509041 0.258793
1 0.0453651 0.191943
1 0.0398108 0.125109
1 0.0342718 0.0582589
0 0.235111 0.584253
0.132006 0.229572 0.517418
0.304128 0.224033 0.450568
0.476234 0.218494 0.383734
0.648356 0.21294 0.316884
0.820478 0.207401 0.25005
0.992599 0.201862 0.1832
1 0.196323 0.116365
1 0.190768 0.0495155
0 0.391623 0.575509
0.0307469 0.386069 0.508675
0.202869 0.380529 0.44184
0.37499 0.37499 0.37499
0.547112 0.369451 0.308141
0.719234 0.363912 0.241306
0.891356 0.358358 0.174456
1 0.352819 0.107622
1 0.34728 0.0407721
0 0.548119 0.566766
0 0.54258 0.499931
0.101625 0.537041 0.433097
0.273747 0.531487 0.366247
0.445869 0.525948 0.299413
0.617975 0.520409 0.232563
0.790097 0.51487 0.165728
0.962219 0.509316 0.0988785
1 0.503777 0.0320439
0 0.704616 0.558022
0 0.699077 0.491188
0.000366217 0.693538 0.424353
0.172488 0.687999 0.357504
0.34461 0.682445 0.290669
0.516732 0.676905 0.223819
0.688853 0.671366 0.156985
0.860975 0.665827 0.090135
1 0.660273 0.0233005
0 0.861128 0.549279
0 0.855573 0.48246
0 0.850034 0.41561
0.0712444 0.844495 0.34876
0.243366 0.838956 0.281926
0.415488 0.833402 0.215076
0.58761 0.827863 0.148241
0.759716 0.822324 0.0813916
0.931838 0.816785 0.0145571
0 1 0.540551
0 1 0.473716
0 1 0.406867
0 1 0.340032
0.142107 0.995453 0.273182
0.314229 0.989914 0.206348
0.486351 0.984375 0.139498
0.658473 0.978821 0.0726635
0.830594 0.973281 0.00581369
0 1 0.531807
0 1 0.464973
0 1 0.398123
0 1 0.331289
0.0408637 1 0.264439
0.212985 1 0.197604
0.385107 1 0.130755
0.557229 1 0.06392
0.729351 1 0
0.216526 0 0.802319
0.388617 0 0.735485
0.560739 0 0.668635
0.73286 0 0.601801
0.904982 0 0.534951
1 0 0.468116
1 0 0.401266
1 0 0.334432
1 0 0.267582
0.115282 0.0526589 0.793576
0.287388 0.0471199 0.726741
0.459495 0.0415808 0.659907
0.631617 0.0360266 0.593057
0.803738 0.0304875 0.526223
0.97586 0.0249485 0.459373
1 0.0194095 0.392523
1 0.0138552 0.325689
1 0.00831617 0.258839
0.014023 0.209155 0.784833
0.18613 0.203616 0.717998
0.358251 0.198077 0.651164
0.530373 0.192538 0.584314
0.702495 0.186984 0.517479
0.874617 0.181445 0.450629
1 0.175906 0.383795
1 0.170367 0.316945
1 0.164813 0.250111
0 0.365667 0.776089
0.0848859 0.360113 0.709255
0.257008 0.354574 0.64242
0.429129 0.349035 0.57557
0.601236 0.343496 0.508736
0.773358 0.337942 0.441886
0.94548 0.332403 0.375051
1 0.326863 0.308202
1 0.321324 0.241367
0 0.522164 0.767361
0 0.516625 0.700526
0.155749 0.51107 0.633677
0.327871 0.505531 0.566842
0.499992 0.499992 0.499992
0.672114 0.494453 0.433143
0.844236 0.488899 0.366308
1 0.48336 0.299458
1 0.477821 0.232624
0 0.67866 0.758618
0 0.673121 0.691783
0.0545052 0.667582 0.624933
0.226627 0.662043 0.558099
0.398749 0.656489 0.491249
0.570871 0.65095 0.424414
0.742977 0.645411 0.357565
0.915099 0.639872 0.29073
1 0.634318 0.22388
0 0.835172 0.749874
0 0.829618 0.68304
0 0.824079 0.61619
0.125368 0.81854 0.549355
0.29749 0.813001 0.482506
0.469612 0.807446 0.415671
0.641733 0.801907 0.348821
0.813855 0.796368 0.281987
0.985977 0.790829 0.215137
0 0.991669 0.741131
0 0.98613 0.674296
0 0.980575 0.607462
0.0241245 0.975036 0.540612
0.196246 0.969497 0.473762
0.368368 0.963958 0.406928
0.54049 0.958404 0.340078
0.712612 0.952865 0.273243
0.884718 0.947326 0.206394
0 1 0.732387
0 1 0.665553
0 1 0.598718
0 1 0.531868
0.0949874 1 0.465034
0.267109 1 0.398184
0.439231 1 0.33135
0.611353 1 0.2645
0.783475 1 0.197665
0.270649 0 1
0.442756 0 0.936065
0.614878 0 0.86923
0.786999 0 0.80238
0.959121 0 0.735546
1 0 0.668696
1 0 0.601862
1 0 0.535012
1 0 0.468177
0.169406 0.0267033 0.994156
0.341512 0.0211643 0.927321
0.513634 0.01561 0.860487
0.685756 0.010071 0.793637
0.857877 0.00453193 0.726802
1 0 0.659953
1 0 0.593118
1 0 0.526268
1 0 0.459434
0.0681621 0.1832 0.985428
0.240269 0.177661 0.918593
0.412375 0.172122 0.851743
0.584497 0.166583 0.784909
0.756619 0.161028 0.718059
0.92874 0.155489 0.651225
1 0.14995 0.584375
1 0.144411 0.517525
1 0.138857 0.45069
0 0.339712 0.976684
0.13901 0.334157 0.90985
0.311131 0.328618 0.843
0.483253 0.323079 0.776165
0.655375 0.31754 0.709316
0.827497 0.311986 0.642481
0.999619 0.306447 0.575631
1 0.300908 0.508797
1 0.295369 0.441947
0 0.496208 0.967941
0.0377661 0.490669 0.901106
0.209888 0.485115 0.834257
0.38201 0.479576 0.767422
0.554131 0.474037 0.700572
0.726238 0.468498 0.633738
0.89836 0.462943 0.566888
1 0.457404 0.500053
1 0.451865 0.433204
0 0.652705 0.959197
0 0.647166 0.892363
0.108629 0.641627 0.825528
0.280751 0.636072 0.758679
0.452873 0.630533 0.691844
0.624994 0.624994 0.624994
0.797116 0.619455 0.558145
0.969238 0.613916 0.49131
1 0.608362 0.42446
0 0.809216 0.950454
0 0.803662 0.883619
0.00738537 0.798123 0.816785
0.179507 0.792584 0.749935
0.351629 0.787045 0.683101
0.523751 0.781491 0.616251
0.695872 0.775952 0.549416
0.867979 0.770413 0.482567
1 0.764874 0.415732
0 0.965713 0.941711
0 0.960174 0.874876
0 0.95462 0.808042
0.0782483 0.949081 0.741192
0.25037 0.943542 0.674357
0.422492 0.938003 0.607507
0.594614 0.932448 0.540673
0.766735 0.926909 0.473823
0.938857 0.92137 0.406989
0 1 0.932982
0 1 0.866148
0 1 0.799298
0 1 0.732464
0.149126 1 0.665614
0.321248 1 0.598764
0.49337 1 0.531929
0.665492 1 0.46508
0.837613 1 0.398245
0.324788 0 1
0.49688 0 1
0.669001 0 1
0.841123 0 1
1 0 0.936126
1 0 0.869291
1 0 0.802441
1 0 0.735592
1 0 0.668757
0.223545 0.000747692 1
0.395636 0 1
0.567758 0 1
0.739879 0 0.994232
0.912001 0 0.927382
1 0 0.860548
1 0 0.793698
1 0 0.726864
1 0 0.660014
0.122286 0.157244 1
0.294392 0.151705 1
0.466514 0.146166 1
0.638636 0.140612 0.985489
0.810758 0.135073 0.918639
0.982879 0.129534 0.851804
1 0.123995 0.784955
1 0.118441 0.71812
1 0.112902 0.65127
0.0210422 0.313741 1
0.193149 0.308202 1
0.36527 0.302663 1
0.537377 0.297124 0.976745
0.709499 0.291585 0.909911
0.881621 0.28603 0.843061
1 0.280491 0.776226
1 0.274952 0.709377
1 0.269413 0.642542
0 0.470253 1
0.0918898 0.464714 1
0.264012 0.459159 1
0.436133 0.45362 0.968002
0.608255 0.448081 0.901167
0.780377 0.442542 0.834318
0.952499 0.436988 0.767483
1 0.431449 0.700633
1 0.42591 0.633799
0 0.626749 1
0 0.62121 1
0.162768 0.615671 1
0.33489 0.610117 0.959258
0.507012 0.604578 0.892424
0.679133 0.599039 0.825574
0.85124 0.5935 0.75874
1 0.587945 0.69189
1 0.582406 0.625055
0 0.783246 1
0 0.777707 1
0.0615091 0.772168 1
0.233631 0.766629 0.95053
0.405753 0.761074 0.88368
0.577874 0.755535 0.816846
0.749996 0.749996 0.749996
0.922118 0.744457 0.683146
1 0.738918 0.616312
0 0.939757 1
0 0.934218 1
0 0.928664 1
0.132387 0.923125 0.941787
0.304509 0.917586 0.874937
0.476631 0.912047 0.808103
0.648753 0.906493 0.741253
0.820874 0.900954 0.674418
0.992981 0.895415 0.607569
0 1 1
0 1 1
0 1 0.999878
0.0311284 1 0.933043
0.20325 1 0.866194
0.375372 1 0.799359
0.547494 1 0.732509
0.719615 1 0.665675
0.891737 1 0.598825
0.378912 0 1
0.551019 0 1
0.72314 0 1
0.895262 0 1
1 0 1
1 0 1
1 0 1
1 0 0.936187
1 0 0.869337
0.277668 0 1
0.449775 0 1
0.621897 0 1
0.794018 0 1
0.96614 0 1
1 0 1
1 0 0.994293
1 0 0.927443
1 0 0.860609
0.176425 0.131289 1
0.348531 0.12575 1
0.520638 0.120211 1
0.69276 0.114656 1
0.864881 0.109117 1
1 0.103578 1
1 0.0980392 0.98555
1 0.0924849 0.9187
1 0.0869459 0.851865
0.0751659 0.287785 1
0.247272 0.282246 1
0.419394 0.276707 1
0.591516 0.271168 1
0.763638 0.265614 1
0.93576 0.260075 1
1 0.254536 0.976806
1 0.248997 0.909957
1 0.243442 0.843122
0 0.444297 1
0.146029 0.438758 1
0.318151 0.433204 1
0.490272 0.427665 1
0.662394 0.422126 1
0.834501 0.416587 1
1 0.411032 0.968063
1 0.405493 0.901228
1 0.399954 0.834379
0 0.600793 1
0.04477 0.595254 1
0.216892 0.589715 1
0.389013 0.584161 1
0.561135 0.578622 1
0.733257 0.573083 1
0.905379 0.567544 0.959319
1 0.56199 0.892485
1 0.556451 0.825635
0 0.75729 1
0 0.751751 1
0.115648 0.746212 1
0.28777 0.740673 1
0.459892 0.735119 1
0.632013 0.72958 1
0.80412 0.724041 0.950576
0.976242 0.718502 0.883741
1 0.712947 0.816892
0 0.913802 1
0 0.908248 1
0.0143893 0.902708 1
0.186511 0.897169 1
0.358633 0.89163 1
0.530755 0.886076 1
0.702876 0.880537 0.941848
0.874998 0.874998 0.874998
1 0.869459 0.808148
0 1 1
0 1 1
0 1 1
0.0852674 1 1
0.257389 1 1
0.429511 1 0.999939
0.601633 1 0.933104
0.773754 1 0.866255
0.945876 1 0.79942
0.433051 0 1
0.605142 0 1
0.777264 0 1
0.949386 0 1
1 0 1
1 0 1
1 0 1
1 0 1
1 0 1
0.331807 0 1
0.503899 0 1
0.67602 0 1
0.848142 0 1
1 0 1
1 0 1
1 0 1
1 0 1
1 0 1
0.230549 0.105333 1
0.402655 0.099794 1
0.574777 0.094255 1
0.746899 0.0887007 1
0.91902 0.0831617 1
1 0.0776226 1
1 0.0720836 1
1 0.0665293 1
1 0.0609903 1
0.129305 0.26183 1
0.301411 0.256291 1
0.473533 0.250751 1
0.645655 0.245212 1
0.817761 0.239658 1
0.989883 0.234119 1
1 0.22858 1
1 0.223041 1
1 0.217487 1
0.0280461 0.418341 1
0.200153 0.412787 1
0.372274 0.407248 1
0.544396 0.401709 1
0.716518 0.39617 1
0.88864 0.390616 1
1 0.385077 1
1 0.379538 1
1 0.373999 1
0 0.574838 1
0.098909 0.569299 1
0.271031 0.56376 1
0.443153 0.558206 1
0.615274 0.552666 1
0.787396 0.547127 1
0.959503 0.541588 1
1 0.536034 1
1 0.530495 1
0 0.731334 1
0 0.725795 1
0.169772 0.720256 1
0.341894 0.714717 1
0.514015 0.709163 1
0.686137 0.703624 1
0.858259 0.698085 1
1 0.692546 1
1 0.686992 1
0 0.887846 1
0 0.882292 1
0.0685283 0.876753 1
0.24065 0.871214 1
0.412772 0.865675 1
0.584894 0.860121 1
0.757015 0.854582 1
0.929137 0.849042 1
1 0.843503 1
0 1 1
0 1 1
0 1 1
0.139391 1 1
0.311513 1 1
0.483635 1 1
0.655756 1 1
0.827878 1 1
1 1 1
