public/LUTS/Color Shift/ColorShift_70.cube
TITLE "Generated by Resolve"
LUT_3D_SIZE 9
0 0 0
0.159136 0.000549325 0
0.318288 0.00108339 0
0.477424 0.00163272 0
0.636576 0.00218204 0
0.795727 0.00271611 0
0.954879 0.00326543 0
1 0.00381476 0
1 0.00434882 0
0 0.156695 0.0152285
0.0469062 0.157244 0
0.206058 0.157778 0
0.365209 0.158328 0
0.524361 0.158877 0
0.683497 0.159411 0
0.842649 0.15996 0
1 0.16051 0
1 0.161044 0
0 0.31342 0.030457
0 0.313954 0
0.0938125 0.314504 0
0.252964 0.315053 0
0.412116 0.315587 0
0.571267 0.316136 0
0.730419 0.316686 0
0.88957 0.31722 0
1 0.317769 0
0 0.47013 0.0456703
0 0.47068 0
0 0.471214 0
0.140734 0.471763 0
0.29987 0.472313 0
0.459022 0.472847 0
0.618173 0.473396 0
0.777325 0.473945 0
0.936477 0.474479 0
0 0.626841 0.0608988
0 0.62739 0
0 0.627939 0
0.0284886 0.628473 0
0.18764 0.629023 0
0.346792 0.629572 0
0.505943 0.630106 0
0.665095 0.630655 0
0.824231 0.631205 0
0 0.783566 0.0761273
0 0.784115 0
0 0.784649 0
0 0.785199 0
0.0753948 0.785733 0
0.234546 0.786282 0
0.393698 0.786831 0
0.55285 0.787366 0
0.712001 0.787915 0
0 0.940276 0.0913558
0 0.940826 0.0074464
0 0.941375 0
0 0.941909 0
0 0.942458 0
0.122316 0.943008 0
0.281453 0.943542 0
0.440604 0.944091 0
0.599756 0.94464 0
0 1 0.106584
0 1 0.0226749
0 1 0
0 1 0
0 1 0
0.010071 1 0
0.169223 1 0
0.328374 1 0
0.487526 1 0
0 1 0.121798
0 1 0.0379034
0 1 0
0 1 0
0 1 0
0 1 0
0.0569772 1 0
0.216129 1 0
0.37528 1 0
0.0780804 0 0.193668
0.237217 0 0.109758
0.396368 0 0.0258488
0.555505 0 0
0.714656 0 0
0.873808 0 0
1 0 0
1 0 0
1 0 0
0 0.124437 0.208896
0.124987 0.124987 0.124987
0.284138 0.125536 0.041062
0.44329 0.12607 0
0.602441 0.126619 0
0.761593 0.127169 0
0.920729 0.127703 0
1 0.128252 0
1 0.128801 0
0 0.281163 0.224125
0.0127413 0.281697 0.140215
0.171893 0.282246 0.0562905
0.331044 0.282795 0
0.490196 0.28333 0
0.649348 0.283879 0
0.808499 0.284428 0
0.967651 0.284962 0
1 0.285512 0
0 0.437873 0.239353
0 0.438422 0.155444
0.0596628 0.438956 0.071519
0.218814 0.439506 0
0.377951 0.440055 0
0.537102 0.440589 0
0.696254 0.441138 0
0.855406 0.441688 0
1 0.442222 0
0 0.594598 0.254566
0 0.595132 0.170657
0 0.595682 0.0867475
0.106569 0.596231 0.00282292
0.265721 0.596765 0
0.424872 0.597314 0
0.584024 0.597864 0
0.743175 0.598398 0
0.902312 0.598947 0
0 0.751308 0.269795
0 0.751858 0.185885
0 0.752392 0.101976
0 0.752941 0.0180514
0.153475 0.753491 0
0.312627 0.754025 0
0.471778 0.754574 0
0.63093 0.755123 0
0.790082 0.755657 0
0 0.908019 0.285023
0 0.908568 0.201114
0 0.909117 0.117205
0 0.909651 0.0332799
0.0412451 0.910201 0
0.200397 0.91075 0
0.359548 0.911284 0
0.518685 0.911833 0
0.677836 0.912383 0
0 1 0.300252
0 1 0.216342
0 1 0.132418
0 1 0.0485084
0 1 0
0.0881514 1 0
0.247303 1 0
0.406455 1 0
0.565606 1 0
0 1 0.31548
0 1 0.231571
0 1 0.147646
0 1 0.0637369
0 1 0
0 1 0
0.135058 1 0
0.294209 1 0
0.453361 1 0
0.156176 0 0.387366
0.315297 0 0.303456
0.474449 0 0.219532
0.6336 0 0.135622
0.792752 0 0.0516976
0.951904 0 0
1 0 0
1 0 0
1 0 0
0.043946 0.0921798 0.402594
0.203082 0.0927291 0.318685
0.362234 0.0932784 0.23476
0.52137 0.0938125 0.150851
0.680522 0.0943618 0.0669261
0.839673 0.0949111 0
0.998825 0.0954452 0
1 0.0959945 0
1 0.0965438 0
0 0.248905 0.417807
0.090837 0.249439 0.333913
0.249989 0.249989 0.249989
0.40914 0.250538 0.166064
0.568292 0.251072 0.0821546
0.727443 0.251621 0
0.886595 0.252171 0
1 0.252705 0
1 0.253254 0
0 0.405615 0.433036
0 0.406165 0.349126
0.137743 0.406699 0.265217
0.296895 0.407248 0.181292
0.456046 0.407797 0.0973831
0.615198 0.408331 0.0134585
0.77435 0.408881 0
0.933501 0.40943 0
1 0.409964 0
0 0.562341 0.448264
0 0.562875 0.364355
0.0255131 0.563424 0.280446
0.184665 0.563973 0.196521
0.343816 0.564508 0.112612
0.502968 0.565057 0.028687
0.662104 0.565591 0
0.821256 0.56614 0
0.980407 0.56669 0
0 0.719051 0.463493
0 0.7196 0.379583
0 0.720134 0.295659
0.0724193 0.720684 0.211749
0.231571 0.721233 0.127825
0.390723 0.721767 0.0439155
0.549874 0.722316 0
0.709026 0.722866 0
0.868177 0.7234 0
0 0.875761 0.478721
0 0.87631 0.394812
0 0.87686 0.310887
0 0.877394 0.226978
0.119326 0.877943 0.143053
0.278477 0.878492 0.059144
0.437629 0.879026 0
0.59678 0.879576 0
0.755932 0.880125 0
0 1 0.49395
0 1 0.41004
0 1 0.326116
0 1 0.242206
0.00709545 1 0.158282
0.166247 1 0.0743572
0.325399 1 0
0.48455 1 0
0.643687 1 0
0 1 0.509163
0 1 0.425269
0 1 0.341344
0 1 0.25742
0 1 0.17351
0.0540017 1 0.0895857
0.213153 1 0.00567636
0.372305 1 0
0.531456 1 0
0.234257 0 0.581064
0.393393 0 0.497154
0.552544 0 0.41323
0.711696 0 0.32932
0.870848 0 0.245396
1 0 0.161486
1 0 0.0775616
1 0 0
1 0 0
0.122042 0.0599222 0.596277
0.281163 0.0604715 0.512367
0.440314 0.0610208 0.428458
0.599466 0.0615549 0.344533
0.758618 0.0621042 0.260624
0.917769 0.0626383 0.176699
1 0.0631876 0.0927901
1 0.0637369 0.00886549
1 0.064271 0
0.00979629 0.216648 0.611505
0.168933 0.217182 0.527596
0.328084 0.217731 0.443687
0.487236 0.21828 0.359762
0.646372 0.218814 0.275853
0.805524 0.219364 0.191928
0.964675 0.219913 0.108003
1 0.220447 0.024094
1 0.220996 0
0 0.373358 0.626734
0.0566873 0.373907 0.542824
0.215839 0.374441 0.458915
0.37499 0.37499 0.37499
0.534142 0.37554 0.291066
0.693294 0.376074 0.207156
0.852445 0.376623 0.123232
1 0.377172 0.0393225
1 0.377707 0
0 0.530068 0.641962
0 0.530617 0.558053
0.103609 0.531167 0.474128
0.262745 0.531701 0.390219
0.421897 0.53225 0.306294
0.581048 0.532799 0.222385
0.7402 0.533333 0.13846
0.899351 0.533883 0.054551
1 0.534432 0
0 0.686793 0.657191
0 0.687343 0.573281
0 0.687877 0.489357
0.150515 0.688426 0.405447
0.309667 0.68896 0.321523
0.468818 0.689509 0.237613
0.62797 0.690059 0.153689
0.787106 0.690593 0.0697642
0.946258 0.691142 0
0 0.843503 0.672419
0 0.844053 0.58851
0 0.844602 0.504585
0.0382696 0.845136 0.420661
0.197421 0.845685 0.336751
0.356573 0.846235 0.252827
0.515724 0.846769 0.168917
0.674876 0.847318 0.0849928
0.834028 0.847868 0.00108339
0 1 0.687633
0 1 0.603723
0 1 0.519814
0 1 0.435889
0.0851911 1 0.35198
0.244327 1 0.268055
0.403479 1 0.184146
0.562631 1 0.100221
0.721782 1 0.0162966
0 1 0.702861
0 1 0.618952
0 1 0.535042
0 1 0.451118
0 1 0.367208
0.132097 1 0.283284
0.291249 1 0.199359
0.450401 1 0.11545
0.609552 1 0.0315251
0.312352 0 0.774746
0.471489 0 0.690852
0.63064 0 0.606928
0.789792 0 0.523003
0.948928 0 0.439094
1 0 0.355169
1 0 0.27126
1 0 0.187335
1 0 0.103426
0.200122 0.0276646 0.789975
0.359258 0.0282139 0.706065
0.51841 0.028748 0.622156
0.677562 0.0292973 0.538231
0.836713 0.0298466 0.454322
0.995865 0.0303807 0.370398
1 0.03093 0.286473
1 0.0314794 0.202564
1 0.0320134 0.118639
0.087892 0.18439 0.805203
0.247028 0.184924 0.721294
0.406165 0.185473 0.637369
0.565316 0.186023 0.55346
0.724468 0.186557 0.469535
0.883619 0.187106 0.385626
1 0.18764 0.301701
1 0.18819 0.217792
1 0.188739 0.133867
0 0.3411 0.820432
0.134783 0.34165 0.736522
0.293935 0.342184 0.652598
0.453086 0.342733 0.568689
0.612238 0.343282 0.484764
0.771374 0.343816 0.400854
0.930526 0.344366 0.31693
1 0.344915 0.233005
1 0.345449 0.149096
0 0.49781 0.83566
0.0225376 0.49836 0.751751
0.181689 0.498909 0.667826
0.340841 0.499443 0.583917
0.499992 0.499992 0.499992
0.659144 0.500542 0.416068
0.818296 0.501076 0.332158
0.977447 0.501625 0.248234
1 0.502174 0.164324
0 0.654536 0.850874
0 0.65507 0.766979
0.0694591 0.655619 0.683055
0.228611 0.656168 0.59913
0.387747 0.656703 0.515221
0.546899 0.657252 0.431296
0.70605 0.657801 0.347387
0.865202 0.658335 0.263462
1 0.658885 0.179553
0 0.811246 0.866102
0 0.811795 0.782193
0 0.812345 0.698283
0.116365 0.812879 0.614359
0.275517 0.813428 0.530449
0.434669 0.813962 0.446525
0.59382 0.814511 0.362615
0.752956 0.815061 0.278691
0.912108 0.815595 0.194766
0 0.967971 0.881331
0 0.968505 0.797421
0 0.969055 0.713512
0.00411994 0.969604 0.629587
0.163272 0.970138 0.545663
0.322423 0.970687 0.461753
0.481575 0.971237 0.377829
0.640726 0.971771 0.293919
0.799878 0.97232 0.209995
0 1 0.896559
0 1 0.81265
0 1 0.728725
0 1 0.644816
0.0510414 1 0.560891
0.210193 1 0.476982
0.369329 1 0.393057
0.528481 1 0.309148
0.687633 1 0.225223
0.390448 0 0.968444
0.549569 0 0.884535
0.708721 0 0.800626
0.867872 0 0.716701
1 0 0.632792
1 0 0.548867
1 0 0.464942
1 0 0.381033
1 0 0.297108
0.278218 0 0.983673
0.437354 0 0.899763
0.596506 0 0.815839
0.755657 0 0.731929
0.914794 0 0.648005
1 0 0.564095
1 0 0.480171
1 0 0.396262
1 0 0.312337
0.165988 0.152117 0.998901
0.325109 0.152667 0.914992
0.48426 0.153216 0.831067
0.643412 0.15375 0.747158
0.802563 0.154299 0.663233
0.961715 0.154849 0.579324
1 0.155383 0.495399
1 0.155932 0.411475
1 0.156481 0.327565
0.0537423 0.308843 1
0.212879 0.309392 0.93022
0.37203 0.309926 0.846296
0.531167 0.310475 0.762371
0.690318 0.311025 0.678462
0.84947 0.311559 0.594537
1 0.312108 0.510628
1 0.312642 0.426703
1 0.313191 0.342794
0 0.465553 1
0.100633 0.466102 0.945434
0.259785 0.466651 0.861524
0.418936 0.467185 0.7776
0.578088 0.467735 0.69369
0.73724 0.468284 0.609766
0.896376 0.468818 0.525856
1 0.469368 0.441932
1 0.469917 0.358007
0 0.622278 1
0 0.622812 0.960662
0.147539 0.623362 0.876753
0.306691 0.623911 0.792828
0.465843 0.624445 0.708919
0.624994 0.624994 0.624994
0.784146 0.625544 0.54107
0.943297 0.626078 0.45716
1 0.626627 0.373236
0 0.778988 1
0 0.779538 0.975891
0.0353094 0.780072 0.891981
0.194461 0.780621 0.808057
0.353613 0.78117 0.724132
0.512749 0.781704 0.640223
0.671901 0.782254 0.556298
0.831052 0.782803 0.472389
0.990204 0.783337 0.388464
0 0.935714 1
0 0.936248 0.991119
0 0.936797 0.907195
0.0822156 0.937346 0.823285
0.241367 0.937881 0.739361
0.400519 0.93843 0.655451
0.55967 0.938964 0.571527
0.718822 0.939513 0.487617
0.877974 0.940063 0.403693
0 1 1
0 1 1
0 1 0.922423
0 1 0.838514
0.129122 1 0.754589
0.288273 1 0.670665
0.447425 1 0.586755
0.606577 1 0.502831
0.765728 1 0.418921
0.468544 0 1
0.627665 0 1
0.786816 0 0.994308
0.945968 0 0.910399
1 0 0.826474
1 0 0.742565
1 0 0.65864
1 0 0.574731
1 0 0.490806
0.356313 0 1
0.515435 0 1
0.674586 0 1
0.833738 0 0.925628
0.992889 0 0.841703
1 0 0.757778
1 0 0.673869
1 0 0.589944
1 0 0.506035
0.244068 0.11986 1
0.403204 0.120409 1
0.562356 0.120958 1
0.721508 0.121492 0.940841
0.880659 0.122042 0.856931
1 0.122591 0.773007
1 0.123125 0.689097
1 0.123674 0.605173
1 0.124224 0.521263
0.131838 0.276585 1
0.290959 0.277119 1
0.450111 0.277668 1
0.609262 0.278218 0.956069
0.768414 0.278752 0.87216
0.927565 0.279301 0.788235
1 0.27985 0.704326
1 0.280385 0.620401
1 0.280934 0.536477
0.0195926 0.433295 1
0.178729 0.433845 1
0.337881 0.434394 1
0.497032 0.434928 0.971298
0.656168 0.435477 0.887373
0.81532 0.436027 0.803464
0.974472 0.436561 0.719539
1 0.43711 0.63563
1 0.437644 0.551705
0 0.590021 1
0.0664836 0.590555 1
0.225635 0.591104 1
0.384787 0.591653 0.986526
0.543938 0.592187 0.902602
0.70309 0.592737 0.818692
0.862242 0.593286 0.734768
1 0.59382 0.650858
1 0.594369 0.566934
0 0.746731 1
0 0.74728 1
0.11339 0.747814 1
0.272541 0.748363 1
0.431693 0.748913 0.91783
0.590845 0.749447 0.833921
0.749996 0.749996 0.749996
0.909148 0.750546 0.666072
1 0.75108 0.582162
0 0.903456 1
0 0.90399 1
0.00115969 0.90454 1
0.160311 0.905074 1
0.319463 0.905623 0.933059
0.478614 0.906172 0.849134
0.637751 0.906706 0.765225
0.796902 0.907256 0.6813
0.956054 0.907805 0.597391
0 1 1
0 1 1
0 1 1
0.0480659 1 1
0.207218 1 0.948287
0.366369 1 0.864363
0.525521 1 0.780453
0.684672 1 0.696529
0.843824 1 0.612619
0.546624 0 1
0.70576 0 1
0.864912 0 1
1 0 1
1 0 1
1 0 0.936248
1 0 0.852338
1 0 0.768414
1 0 0.684504
0.434409 0 1
0.59353 0 1
0.752682 0 1
0.911833 0 1
1 0 1
1 0 0.951476
1 0 0.867567
1 0 0.783642
1 0 0.699718
0.322164 0.087602 1
0.4813 0.0881514 1
0.640436 0.0887007 1
0.799588 0.0892348 1
0.95874 0.0897841 1
1 0.0903334 0.966705
1 0.0908675 0.88278
1 0.0914168 0.798871
1 0.0919661 0.714946
0.209918 0.244327 1
0.369055 0.244862 1
0.528206 0.245411 1
0.687358 0.24596 1
0.84651 0.246494 1
1 0.247044 0.981933
1 0.247593 0.898009
1 0.248127 0.814099
1 0.248676 0.730175
0.0976883 0.401038 1
0.256809 0.401587 1
0.415961 0.402121 1
0.575113 0.40267 1
0.734264 0.40322 1
0.893416 0.403754 0.997162
1 0.404303 0.913237
1 0.404852 0.829328
1 0.405386 0.745403
0 0.557763 1
0.144579 0.558297 1
0.303731 0.558846 1
0.462882 0.559396 1
0.622034 0.55993 1
0.78117 0.560479 1
0.940322 0.561028 0.928466
1 0.561563 0.844541
1 0.562112 0.760632
0 0.714473 1
0.0323339 0.715023 1
0.191485 0.715557 1
0.350637 0.716106 1
0.509789 0.716655 1
0.66894 0.717189 1
0.828092 0.717739 0.943694
0.987243 0.718288 0.85977
1 0.718822 0.77586
0 0.871183 1
0 0.871733 1
0.0792554 0.872282 1
0.238392 0.872816 1
0.397543 0.873365 1
0.556695 0.873915 1
0.715846 0.874449 0.958923
0.874998 0.874998 0.874998
1 0.875547 0.791074
0 1 1
0 1 1
0 1 1
0.126162 1 1
0.285313 1 1
0.444465 1 1
0.603616 1 0.974136
0.762753 1 0.890227
0.921904 1 0.806302
0.62472 0 1
0.783856 0 1
0.942992 0 1
1 0 1
1 0 1
1 0 1
1 0 1
1 0 0.962112
1 0 0.878202
0.512489 0 1
0.671626 0 1
0.830777 0 1
0.989929 0 1
1 0 1
1 0 1
1 0 1
1 0 0.97734
1 0 0.893416
0.400259 0.0553445 1
0.55938 0.0558938 1
0.718532 0.0564431 1
0.877684 0.0569772 1
1 0.0575265 1
1 0.0580758 1
1 0.0586099 1
1 0.0591592 0.992569
1 0.0596933 0.908644
0.288014 0.21207 1
0.44715 0.212604 1
0.606302 0.213153 1
0.765438 0.213703 1
0.92459 0.214237 1
1 0.214786 1
1 0.215335 1
1 0.215869 1
1 0.216419 0.923873
0.175784 0.36878 1
0.334905 0.369329 1
0.494057 0.369863 1
0.653208 0.370413 1
0.81236 0.370962 1
0.971511 0.371496 1
1 0.372045 1
1 0.372595 1
1 0.373129 0.939101
0.0635386 0.525505 1
0.222675 0.52604 1
0.381811 0.526589 1
0.540963 0.527123 1
0.700114 0.527672 1
0.859266 0.528222 1
1 0.528756 1
1 0.529305 1
1 0.529854 0.95433
0 0.682216 1
0.11043 0.682765 1
0.269581 0.683299 1
0.428733 0.683848 1
0.587884 0.684398 1
0.747036 0.684932 1
0.906172 0.685481 1
1 0.68603 1
1 0.686564 0.969543
0 0.838926 1
0 0.839475 1
0.157336 0.840024 1
0.316487 0.840558 1
0.475639 0.841108 1
0.634791 0.841657 1
0.793942 0.842191 1
0.953094 0.842741 1
1 0.84329 0.984771
0 0.995651 1
0 0.996185 1
0.0451057 0.996735 1
0.204257 0.997284 1
0.363394 0.997818 1
0.522545 0.998367 1
0.681697 0.998917 1
0.840848 0.999451 1
1 1 1
