public/LUTS/Color Shift/ColorShift_74.cube
TITLE "Generated by Resolve"
LUT_3D_SIZE 33
0 0 0
0.0491188 0 0
0.0982681 0 0
0.147433 0 0
0.196582 0 0
0.245731 0 0
0.294881 0 0
0.34403 0 0
0.393179 0 0
0.442329 0 0
0.491478 0 0
0.540627 0 0
0.589776 0 0
0.638926 0 0
0.688075 0 0
0.737224 0 0
0.786374 0 0
0.835523 0 0
0.884672 0 0
0.933822 0 0
0.982971 0 0
1 0 0
1 0 0
1 0 0
1 0 0
1 0 0
1 0 0
1 0 0
1 0 0
1 0 0
1 0 0
1 0 0
1 0 0
0 0.0373388 0
0.0363012 0.0322271 0
0.0854505 0.0271153 0
0.1346 0.0220035 0
0.183749 0.0168917 0
0.232898 0.01178 0
0.282048 0.00666819 0
0.331197 0.00155642 0
0.380346 0 0
0.429496 0 0
0.478645 0 0
0.527794 0 0
0.576944 0 0
0.626093 0 0
0.675242 0 0
0.724392 0 0
0.773541 0 0
0.82269 0 0
0.871839 0 0
0.920989 0 0
0.970138 0 0
1 0 0
1 0 0
1 0 0
1 0 0
1 0 0
1 0 0
1 0 0
1 0 0
1 0 0
1 0 0
1 0 0
1 0 0
0 0.0746929 0
0.0234531 0.0695811 0
0.0726024 0.0644694 0
0.121752 0.0593576 0
0.170901 0.0542458 0
0.22005 0.049134 0
0.2692 0.0440223 0
0.318349 0.0389105 0
0.367498 0.0337987 0
0.416648 0.028687 0
0.465797 0.0235599 0
0.514946 0.0184482 0
0.564111 0.0133364 0
0.61326 0.00822461 0
0.662409 0.00311284 0
0.711559 0 0
0.760708 0 0
0.809857 0 0
0.859007 0 0
0.908156 0 0
0.957305 0 0
1 0 0
1 0 0
1 0 0
1 0 0
1 0 0
1 0 0
1 0 0
1 0 0
1 0 0
1 0 0
1 0 0
1 0 0
0 0.112047 0
0.0106203 0.106935 0
0.0597696 0.101823 0
0.108919 0.0967117 0
0.158068 0.0915999 0
0.207218 0.0864881 0
0.256367 0.0813764 0
0.305516 0.0762646 0
0.354665 0.0711528 0
0.403815 0.066041 0
0.452964 0.0609293 0
0.502113 0.0558175 0
0.551263 0.0506905 0
0.600412 0.0455787 0
0.649561 0.0404669 0
0.698711 0.0353552 0
0.74786 0.0302434 0
0.797009 0.0251316 0
0.846159 0.0200198 0
0.895308 0.0149081 0
0.944457 0.00979629 0
0.993606 0.00468452 0
1 0 0
1 0 0
1 0 0
1 0 0
1 0 0
1 0 0
1 0 0
1 0 0
1 0 0
1 0 0
1 0 0
0 0.149401 0
0 0.144305 0
0.0469368 0.139178 0
0.0960861 0.134066 0
0.145235 0.128954 0
0.194385 0.123842 0
0.243534 0.11873 0
0.292683 0.113619 0
0.341833 0.108507 0
0.390982 0.103395 0
0.440131 0.0982834 0
0.489281 0.0931716 0
0.53843 0.0880598 0
0.587579 0.082948 0
0.636728 0.077821 0
0.685878 0.0727092 0
0.735027 0.0675975 0
0.784176 0.0624857 0
0.833326 0.0573739 0
0.882475 0.0522621 0
0.931624 0.0471504 0
0.980774 0.0420386 0
1 0.0369268 0
1 0.0318151 0
1 0.0267033 0
1 0.0215915 0
1 0.0164797 0
1 0.0113527 0
1 0.00624094 0
1 0.00112917 0
1 0 0
1 0 0
1 0 0
0 0.18677 0
0 0.181659 0
0.0340887 0.176547 0
0.083238 0.171435 0
0.132387 0.166308 0
0.181537 0.161196 0
0.230686 0.156085 0
0.279835 0.150973 0
0.328984 0.145861 0
0.378149 0.140749 0
0.427298 0.135637 0
0.476448 0.130526 0
0.525597 0.125414 0
0.574746 0.120302 0
0.623896 0.11519 0
0.673045 0.110079 0
0.722194 0.104952 0
0.771344 0.0998398 0
0.820493 0.094728 0
0.869642 0.0896162 0
0.918791 0.0845045 0
0.967941 0.0793927 0
1 0.0742809 0
1 0.0691691 0
1 0.0640574 0
1 0.0589456 0
1 0.0538338 0
1 0.0487221 0
1 0.0436103 0
1 0.0384833 0
1 0.0333715 0
1 0.0282597 0
1 0.0231479 0
0 0.224125 0
0 0.219013 0
0.0212558 0.213901 0
0.0704051 0.208789 0
0.119554 0.203677 0
0.168704 0.198566 0
0.217853 0.193439 0
0.267002 0.188327 0
0.316152 0.183215 0
0.365301 0.178103 0
0.41445 0.172992 0
0.4636 0.16788 0
0.512749 0.162768 0
0.561898 0.157656 0
0.611048 0.152544 0
0.660197 0.147433 0
0.709346 0.142321 0
0.758495 0.137209 0
0.807645 0.132082 0
0.856794 0.12697 0
0.905943 0.121859 0
0.955108 0.116747 0
1 0.111635 0
1 0.106523 0
1 0.101411 0
1 0.0962997 0
1 0.0911879 0
1 0.0860761 0
1 0.0809644 0
1 0.0758526 0
1 0.0707408 0
1 0.0656138 0
1 0.060502 0
0 0.261479 0
0 0.256367 0
0.00842298 0.251255 0
0.0575723 0.246143 0
0.106722 0.241032 0
0.155871 0.23592 0
0.20502 0.230808 0
0.25417 0.225696 0
0.303319 0.220569 0
0.352468 0.215457 0
0.401617 0.210346 0
0.450767 0.205234 0
0.499916 0.200122 0
0.549065 0.19501 0
0.598215 0.189899 0
0.647364 0.184787 0
0.696513 0.179675 0
0.745663 0.174563 0
0.794812 0.169451 0
0.843961 0.16434 0
0.893111 0.159213 0
0.94226 0.154101 0
0.991409 0.148989 0
1 0.143877 0
1 0.138766 0
1 0.133654 0
1 0.128542 0
1 0.12343 0
1 0.118318 0
1 0.113207 0
1 0.108095 0
1 0.102983 0
1 0.0978714 0
0 0.298833 0
0 0.293721 0
0 0.288609 0
0.0447242 0.283497 0
0.0938735 0.278386 0
0.143023 0.273274 0
0.192187 0.268162 0
0.241337 0.26305 0
0.290486 0.257939 0
0.339635 0.252827 0
0.388785 0.2477 0
0.437934 0.242588 0
0.487083 0.237476 0
0.536233 0.232364 0
0.585382 0.227253 0
0.634531 0.222141 0
0.68368 0.217029 0
0.73283 0.211917 0
0.781979 0.206806 0
0.831128 0.201694 0
0.880278 0.196582 0
0.929427 0.19147 0
0.978576 0.186343 0
1 0.181231 0
1 0.17612 0
1 0.171008 0
1 0.165896 0
1 0.160784 0
1 0.155673 0
1 0.150561 0
1 0.145449 0
1 0.140337 0
1 0.135225 0
0 0.336187 0
0 0.331075 0
0 0.325963 0
0.0318914 0.320851 0
0.0810407 0.31574 0
0.13019 0.310628 0
0.179339 0.305516 0
0.228489 0.300404 0
0.277638 0.295293 0
0.326787 0.290181 0
0.375937 0.285069 0
0.425086 0.279957 0
0.474235 0.27483 0
0.523384 0.269718 0
0.572534 0.264607 0
0.621683 0.259495 0
0.670832 0.254383 0
0.719982 0.249271 0
0.769131 0.24416 0
0.818296 0.239048 0
0.867445 0.233936 0
0.916594 0.228824 0
0.965743 0.223713 0
1 0.218601 0
1 0.213474 0
1 0.208362 0
1 0.20325 0
1 0.198138 0
1 0.193027 0
1 0.187915 0
1 0.182803 0
1 0.177691 0
1 0.17258 0
0 0.373541 0
0 0.368429 0
0 0.363317 0
0.0190585 0.358206 0
0.0682078 0.353094 0
0.117357 0.347982 0
0.166506 0.34287 0
0.215656 0.337758 0
0.264805 0.332647 0
0.313954 0.327535 0
0.363104 0.322423 0
0.412253 0.317311 0
0.461402 0.3122 0
0.510552 0.307088 0
0.559701 0.301961 0
0.60885 0.296849 0
0.658 0.291737 0
0.707149 0.286625 0
0.756298 0.281514 0
0.805447 0.276402 0
0.854597 0.27129 0
0.903746 0.266178 0
0.952895 0.261067 0
1 0.255955 0
1 0.250843 0
1 0.245731 0
1 0.240604 0
1 0.235492 0
1 0.230381 0
1 0.225269 0
1 0.220157 0
1 0.215045 0
1 0.209934 0
0 0.41091 0
0 0.405798 0
0 0.400687 0
0.00621042 0.39556 0
0.055375 0.390448 0
0.104524 0.385336 0
0.153674 0.380224 0
0.202823 0.375113 0
0.251972 0.370001 0
0.301122 0.364889 0
0.350271 0.359777 0
0.39942 0.354665 0
0.448569 0.349554 0
0.497719 0.344442 0
0.546868 0.33933 0
0.596017 0.334218 0
0.645167 0.329091 0
0.694316 0.32398 0
0.743465 0.318868 0
0.792615 0.313756 0
0.841764 0.308644 0
0.890913 0.303532 0
0.940063 0.298421 0
0.989212 0.293309 0
1 0.288197 0
1 0.283085 0
1 0.277974 0
1 0.272862 0
1 0.267735 0
1 0.262623 0
1 0.257511 0
1 0.252399 0
1 0.247288 0
0 0.448264 0
0 0.443153 0
0 0.438041 0
0 0.432929 0
0.0425269 0.427817 0
0.0916762 0.42269 0
0.140826 0.417578 0
0.189975 0.412467 0
0.239124 0.407355 0
0.288273 0.402243 0
0.337423 0.397131 0
0.386572 0.39202 0
0.435721 0.386908 0
0.484871 0.381796 0
0.53402 0.376684 0
0.583169 0.371572 0
0.632334 0.366461 0
0.681483 0.361349 0
0.730632 0.356222 0
0.779782 0.35111 0
0.828931 0.345998 0
0.87808 0.340887 0
0.92723 0.335775 0
0.976379 0.330663 0
1 0.325551 0
1 0.320439 0
1 0.315328 0
1 0.310216 0
1 0.305104 0
1 0.299992 0
1 0.294865 0
1 0.289754 0
1 0.284642 0
0 0.485618 0
0 0.480507 0
0 0.475395 0
0 0.470283 0
0.0296941 0.465171 0
0.0788434 0.46006 0
0.127993 0.454948 0
0.177142 0.449821 0
0.226291 0.444709 0
0.275441 0.439597 0
0.32459 0.434485 0
0.373739 0.429374 0
0.422889 0.424262 0
0.472038 0.41915 0
0.521187 0.414038 0
0.570336 0.408927 0
0.619486 0.403815 0
0.668635 0.398703 0
0.717784 0.393591 0
0.766934 0.388479 0
0.816083 0.383352 0
0.865232 0.378241 0
0.914382 0.373129 0
0.963531 0.368017 0
1 0.362905 0
1 0.357794 0
1 0.352682 0
1 0.34757 0
1 0.342458 0
1 0.337346 0
1 0.332235 0
1 0.327123 0
1 0.321996 0
0 0.522972 0
0 0.517861 0
0 0.512749 0
0 0.507637 0
0.0168612 0.502525 0
0.0660105 0.497414 0
0.11516 0.492302 0
0.164309 0.48719 0
0.213458 0.482078 0
0.262608 0.476951 0
0.311757 0.471839 0
0.360906 0.466728 0
0.410056 0.461616 0
0.459205 0.456504 0
0.508354 0.451392 0
0.557504 0.446281 0
0.606653 0.441169 0
0.655802 0.436057 0
0.704952 0.430945 0
0.754101 0.425834 0
0.80325 0.420722 0
0.852399 0.41561 0
0.901549 0.410483 0
0.950698 0.405371 0
0.999847 0.400259 0
1 0.395148 0
1 0.390036 0
1 0.384924 0
1 0.379812 0
1 0.374701 0
1 0.369589 0
1 0.364477 0
1 0.359365 0
0 0.560327 0
0 0.555215 0
0 0.550103 0
0 0.544991 0
0.00401312 0.539879 0
0.0531624 0.534768 0
0.102312 0.529656 0
0.151461 0.524544 0
0.20061 0.519432 0
0.24976 0.514321 0
0.298909 0.509209 0
0.348058 0.504082 0
0.397208 0.49897 0
0.446372 0.493858 0
0.495521 0.488746 0
0.544671 0.483635 0
0.59382 0.478523 0
0.642969 0.473411 0
0.692119 0.468299 0
0.741268 0.463188 0
0.790417 0.458076 0
0.839567 0.452964 0
0.888716 0.447852 0
0.937865 0.442741 0
0.987015 0.437613 0
1 0.432502 0
1 0.42739 0
1 0.422278 0
1 0.417166 0
1 0.412055 0
1 0.406943 0
1 0.401831 0
1 0.396719 0
0 0.597681 0
0 0.592569 0
0 0.587457 0
0 0.582345 0
0 0.577234 0
0.0403296 0.572122 0
0.0894789 0.56701 0
0.138628 0.561898 0
0.187778 0.556786 0
0.236927 0.551675 0
0.286076 0.546563 0
0.335225 0.541451 0
0.384375 0.536339 0
0.433524 0.531212 0
0.482673 0.526101 0
0.531823 0.520989 0
0.580972 0.515877 0
0.630121 0.510765 0
0.679271 0.505653 0
0.72842 0.500542 0
0.777569 0.49543 0
0.826719 0.490318 0
0.875868 0.485206 0
0.925017 0.480095 0
0.974166 0.474983 0
1 0.469871 0
1 0.464744 0
1 0.459632 0
1 0.45452 0
1 0.449409 0
1 0.444297 0
1 0.439185 0
1 0.434073 0
0 0.63505 0
0 0.629938 0
0 0.624826 0
0 0.619699 0
0 0.614588 0
0.0274968 0.609476 0
0.0766461 0.604364 0
0.125795 0.599252 0
0.174945 0.594141 0
0.224094 0.589029 0
0.273243 0.583917 0
0.322393 0.578805 0
0.371542 0.573693 0
0.420691 0.568582 0
0.469841 0.56347 0
0.51899 0.558343 0
0.568139 0.553231 0
0.617288 0.548119 0
0.666438 0.543008 0
0.715587 0.537896 0
0.764736 0.532784 0
0.813886 0.527672 0
0.863035 0.52256 0
0.912184 0.517449 0
0.961334 0.512337 0
1 0.507225 0
1 0.502113 0
1 0.497002 0
1 0.491875 0
1 0.486763 0
1 0.481651 0
1 0.476539 0
1 0.471427 0
0 0.672404 0
0 0.667292 0
0 0.662181 0
0 0.657069 0
0 0.651957 0
0.0146487 0.64683 0
0.063798 0.641718 0
0.112947 0.636606 0
0.162097 0.631495 0
0.211246 0.626383 0
0.260395 0.621271 0
0.30956 0.616159 0
0.358709 0.611048 0
0.407858 0.605936 0
0.457008 0.600824 0
0.506157 0.595712 0
0.555306 0.5906 0
0.604456 0.585473 0
0.653605 0.580362 0
0.702754 0.57525 0
0.751904 0.570138 0
0.801053 0.565026 0
0.850202 0.559915 0
0.899351 0.554803 0
0.948501 0.549691 0
0.99765 0.544579 0
1 0.539467 0
1 0.534356 0
1 0.529244 0
1 0.524132 0
1 0.519005 0
1 0.513893 0
1 0.508782 0
0 0.709758 0
0 0.704646 0
0 0.699535 0
0 0.694423 0
0 0.689311 0
0.00181582 0.684199 0
0.0509651 0.679088 0
0.100114 0.673961 0
0.149264 0.668849 0
0.198413 0.663737 0
0.247562 0.658625 0
0.296712 0.653513 0
0.345861 0.648402 0
0.39501 0.64329 0
0.44416 0.638178 0
0.493309 0.633066 0
0.542458 0.627955 0
0.591608 0.622843 0
0.640757 0.617731 0
0.689906 0.612604 0
0.739055 0.607492 0
0.788205 0.60238 0
0.837354 0.597269 0
0.886519 0.592157 0
0.935668 0.587045 0
0.984817 0.581933 0
1 0.576822 0
1 0.57171 0
1 0.566598 0
1 0.561486 0
1 0.556374 0
1 0.551263 0
1 0.546136 0
0 0.747112 0
0 0.742 0
0 0.736889 0
0 0.731777 0
0 0.726665 0
0 0.721553 0
0.0381323 0.716442 0
0.0872816 0.71133 0
0.136431 0.706218 0
0.18558 0.701091 0
0.23473 0.695979 0
0.283879 0.690867 0
0.333028 0.685756 0
0.382177 0.680644 0
0.431327 0.675532 0
0.480476 0.67042 0
0.529625 0.665309 0
0.578775 0.660197 0
0.627924 0.655085 0
0.677073 0.649973 0
0.726223 0.644862 0
0.775372 0.639735 0
0.824521 0.634623 0
0.873671 0.629511 0
0.92282 0.624399 0
0.971969 0.619287 0
1 0.614176 0
1 0.609064 0
1 0.603952 0
1 0.59884 0
1 0.593729 0
1 0.588617 0
1 0.583505 0
0 0.784466 0
0 0.779355 0
0 0.774243 0
0 0.769131 0
0 0.764019 0
0 0.758907 0
0.0252842 0.753796 0
0.0744335 0.748684 0
0.123598 0.743572 0
0.172747 0.73846 0
0.221897 0.733349 0
0.271046 0.728222 0
0.320195 0.72311 0
0.369345 0.717998 0
0.418494 0.712886 0
0.467643 0.707774 0
0.516793 0.702663 0
0.565942 0.697551 0
0.615091 0.692439 0
0.66424 0.687327 0
0.71339 0.682216 0
0.762539 0.677104 0
0.811688 0.671992 0
0.860838 0.666865 0
0.909987 0.661753 0
0.959136 0.656641 0
1 0.65153 0
1 0.646418 0
1 0.641306 0
1 0.636194 0
1 0.631083 0
1 0.625971 0
1 0.620859 0
0 0.82182 0
0 0.816709 0
0 0.811597 0
0 0.806485 0
0 0.801373 0
0 0.796262 0
0.0124514 0.79115 0
0.0616007 0.786038 0
0.11075 0.780926 0
0.159899 0.775814 0
0.209049 0.770703 0
0.258198 0.765591 0
0.307347 0.760479 0
0.356497 0.755352 0
0.405646 0.75024 0
0.454795 0.745129 0
0.503944 0.740017 0
0.553094 0.734905 0
0.602243 0.729793 0
0.651392 0.724681 0
0.700557 0.71957 0
0.749706 0.714458 0
0.798856 0.709346 0
0.848005 0.704234 0
0.897154 0.699123 0
0.946303 0.693996 0
0.995453 0.688884 0
1 0.683772 0
1 0.67866 0
1 0.673548 0
1 0.668437 0
1 0.663325 0
1 0.658213 0
0 0.859174 0
0 0.854078 0
0 0.848951 0
0 0.843839 0
0 0.838727 0
0 0.833616 0
0 0.828504 0
0.0487678 0.823392 0
0.0979171 0.81828 0
0.147066 0.813169 0
0.196216 0.808057 0
0.245365 0.802945 0
0.294514 0.797833 0
0.343664 0.792721 0
0.392813 0.78761 0
0.441962 0.782483 0
0.491112 0.777371 0
0.540261 0.772259 0
0.58941 0.767147 0
0.63856 0.762036 0
0.687709 0.756924 0
0.736858 0.751812 0
0.786007 0.7467 0
0.835157 0.741588 0
0.884306 0.736477 0
0.933455 0.731365 0
0.982605 0.726253 0
1 0.721126 0
1 0.716014 0
1 0.710903 0
1 0.705791 0
1 0.700679 0
1 0.695567 0
0 0.896544 0
0 0.891432 0
0 0.88632 0
0 0.881209 0
0 0.876081 0
0 0.87097 0
0 0.865858 0
0.035935 0.860746 0
0.0850843 0.855634 0
0.134234 0.850523 0
0.183383 0.845411 0
0.232532 0.840299 0
0.281682 0.835187 0
0.330831 0.830076 0
0.37998 0.824964 0
0.429129 0.819852 0
0.478279 0.81474 0
0.527428 0.809613 0
0.576577 0.804501 0
0.625727 0.79939 0
0.674876 0.794278 0
0.724025 0.789166 0
0.773175 0.784054 0
0.822324 0.778943 0
0.871473 0.773831 0
0.920623 0.768719 0
0.969772 0.763607 0
1 0.758495 0
1 0.753384 0
1 0.748257 0
1 0.743145 0
1 0.738033 0
1 0.732921 0
0 0.933898 0
0 0.928786 0
0 0.923674 0
0 0.918563 0
0 0.913451 0
0 0.908339 0
0 0.903212 0
0.0230869 0.8981 0
0.0722362 0.892989 0
0.121386 0.887877 0
0.170535 0.882765 0
0.219684 0.877653 0
0.268833 0.872541 0
0.317983 0.86743 0
0.367132 0.862318 0
0.416281 0.857206 0
0.465431 0.852094 0
0.514595 0.846983 0
0.563745 0.841871 0
0.612894 0.836744 0
0.662043 0.831632 0
0.711192 0.82652 0
0.760342 0.821408 0
0.809491 0.816297 0
0.85864 0.811185 0
0.90779 0.806073 0
0.956939 0.800961 0
1 0.79585 0
1 0.790738 0
1 0.785626 0
1 0.780514 0
1 0.775387 0
1 0.770275 0
0 0.971252 0
0 0.96614 0
0 0.961028 0
0 0.955917 0
0 0.950805 0
0 0.945693 0
0 0.940581 0
0.0102541 0.93547 0
0.0594034 0.930343 0
0.108553 0.925231 0
0.157702 0.920119 0
0.206851 0.915007 0
0.256001 0.909895 0
0.30515 0.904784 0
0.354299 0.899672 0
0.403449 0.89456 0
0.452598 0.889448 0
0.501747 0.884337 0
0.550896 0.879225 0
0.600046 0.874113 0
0.649195 0.869001 0
0.698344 0.863874 0
0.747494 0.858763 0
0.796643 0.853651 0
0.845792 0.848539 0
0.894942 0.843427 0
0.944091 0.838315 0
0.99324 0.833204 0
1 0.828092 0
1 0.82298 0
1 0.817868 0
1 0.812757 0
1 0.807645 0
0 1 0
0 1 0
0 0.998383 0
0 0.993271 0
0 0.988159 0
0 0.983047 0
0 0.977935 0
0 0.972824 0
0.0465705 0.967712 0
