public/LUTS/Color Shift/ColorShift_72.cube
TITLE "Generated by Resolve"
LUT_3D_SIZE 33
0 0 0
0.0456703 0 0
0.091371 0 0
0.137072 0 0
0.182773 0 0
0.228473 0 0
0.274159 0 0
0.31986 0 0
0.36556 0 0
0.411261 0 0
0.456962 0 0
0.502663 0 0
0.548348 0 0
0.594049 0 0
0.63975 0 0
0.68545 0 0
0.731151 0 0
0.776852 0 0
0.822538 0 0
0.868238 0 0
0.913939 0 0
0.95964 0 0
1 0 0
1 0 0
1 0 0
1 0 0
1 0 0
1 0 0
1 0 0
1 0 0
1 0 0
1 0 0
1 0 0
0 0.0387732 0
0.0238651 0.035996 0
0.0695659 0.0332189 0
0.115267 0.0304417 0
0.160952 0.0276493 0
0.206653 0.0248722 0
0.252354 0.0220951 0
0.298054 0.0193027 0
0.343755 0.0165255 0
0.389456 0.0137484 0
0.435142 0.010956 0
0.480842 0.00817884 0
0.526543 0.00540169 0
0.572244 0.00260929 0
0.617945 0 0
0.663645 0 0
0.709331 0 0
0.755032 0 0
0.800732 0 0
0.846433 0 0
0.892134 0 0
0.937819 0 0
0.98352 0 0
1 0 0
1 0 0
1 0 0
1 0 0
1 0 0
1 0 0
1 0 0
1 0 0
1 0 0
1 0 0
0 0.0775769 0
0.00204471 0.0747997 0
0.0477455 0.0720226 0
0.0934462 0.0692302 0
0.139132 0.066453 0
0.184833 0.0636759 0
0.230533 0.0608835 0
0.276234 0.0581064 0
0.321935 0.0553292 0
0.367636 0.0525368 0
0.413321 0.0497597 0
0.459022 0.0469825 0
0.504723 0.0441901 0
0.550423 0.041413 0
0.596124 0.0386358 0
0.64181 0.0358434 0
0.68751 0.0330663 0
0.733211 0.0302892 0
0.778912 0.0274968 0
0.824613 0.0247196 0
0.870314 0.0219425 0
0.915999 0.0191653 0
0.9617 0.0163729 0
1 0.0135958 0
1 0.0108186 0
1 0.00802625 0
1 0.0052491 0
1 0.00247196 0
1 0 0
1 0 0
1 0 0
1 0 0
1 0 0
0 0.116381 0
0 0.113603 0
0.0259251 0.110811 0
0.0716106 0.108034 0
0.117311 0.105257 0
0.163012 0.102464 0
0.208713 0.0996872 0
0.254414 0.09691 0
0.300114 0.0941176 0
0.3458 0.0913405 0
0.391501 0.0885634 0
0.437201 0.085771 0
0.482902 0.0829938 0
0.528603 0.0802167 0
0.574304 0.0774395 0
0.619989 0.0746471 0
0.66569 0.07187 0
0.711391 0.0690929 0
0.757092 0.0663005 0
0.802792 0.0635233 0
0.848493 0.0607462 0
0.894179 0.0579538 0
0.939879 0.0551766 0
0.98558 0.0523995 0
1 0.0496071 0
1 0.0468299 0
1 0.0440528 0
1 0.0412604 0
1 0.0384833 0
1 0.0357061 0
1 0.0329137 0
1 0.0301366 0
1 0.0273594 0
0 0.155184 0
0 0.152392 0
0.00410468 0.149615 0
0.0497902 0.146838 0
0.095491 0.144045 0
0.141192 0.141268 0
0.186892 0.138491 0
0.232593 0.135698 0
0.278294 0.132921 0
0.32398 0.130144 0
0.36968 0.127367 0
0.415381 0.124575 0
0.461082 0.121798 0
0.506783 0.11902 0
0.552483 0.116228 0
0.598169 0.113451 0
0.64387 0.110674 0
0.68957 0.107881 0
0.735271 0.105104 0
0.780972 0.102327 0
0.826658 0.0995346 0
0.872358 0.0967575 0
0.918059 0.0939803 0
0.96376 0.0911879 0
1 0.0884108 0
1 0.0856336 0
1 0.0828412 0
1 0.0800641 0
1 0.0772869 0
1 0.0744945 0
1 0.0717174 0
1 0.0689403 0
1 0.0661479 0
0 0.193973 0
0 0.191196 0
0 0.188418 0
0.0279698 0.185641 0
0.0736706 0.182849 0
0.119371 0.180072 0
0.165072 0.177295 0
0.210773 0.174502 0
0.256458 0.171725 0
0.302159 0.168948 0
0.34786 0.166155 0
0.393561 0.163378 0
0.439261 0.160601 0
0.484962 0.157809 0
0.530648 0.155032 0
0.576349 0.152255 0
0.622049 0.149462 0
0.66775 0.146685 0
0.713451 0.143908 0
0.759152 0.141115 0
0.804837 0.138338 0
0.850538 0.135561 0
0.896239 0.132769 0
0.941939 0.129992 0
0.98764 0.127214 0
1 0.124422 0
1 0.121645 0
1 0.118868 0
1 0.116075 0
1 0.113298 0
1 0.110521 0
1 0.107729 0
1 0.104952 0
0 0.232776 0
0 0.229999 0
0 0.227222 0
0.00614939 0.22443 0
0.0518502 0.221653 0
0.0975509 0.218875 0
0.143252 0.216083 0
0.188952 0.213306 0
0.234638 0.210529 0
0.280339 0.207736 0
0.32604 0.204959 0
0.37174 0.202182 0
0.417441 0.19939 0
0.463142 0.196612 0
0.508827 0.193835 0
0.554528 0.191043 0
0.600229 0.188266 0
0.64593 0.185489 0
0.69163 0.182696 0
0.737316 0.179919 0
0.783017 0.177142 0
0.828717 0.17435 0
0.874418 0.171572 0
0.920119 0.168795 0
0.96582 0.166003 0
1 0.163226 0
1 0.160449 0
1 0.157656 0
1 0.154879 0
1 0.152102 0
1 0.149325 0
1 0.146532 0
1 0.143755 0
0 0.27158 0
0 0.268803 0
0 0.266011 0
0 0.263233 0
0.0300298 0.260456 0
0.0757305 0.257664 0
0.121431 0.254887 0
0.167132 0.25211 0
0.212818 0.249317 0
0.258518 0.24654 0
0.304219 0.243763 0
0.34992 0.24097 0
0.395621 0.238193 0
0.441306 0.235416 0
0.487007 0.232624 0
0.532708 0.229847 0
0.578408 0.22707 0
0.624109 0.224277 0
0.66981 0.2215 0
0.715496 0.218723 0
0.761196 0.21593 0
0.806897 0.213153 0
0.852598 0.210376 0
0.898299 0.207599 0
0.943999 0.204807 0
0.989685 0.202029 0
1 0.199252 0
1 0.19646 0
1 0.193683 0
1 0.190906 0
1 0.188113 0
1 0.185336 0
1 0.182559 0
0 0.310384 0
0 0.307591 0
0 0.304814 0
0 0.302037 0
0.00820935 0.299245 0
0.0539101 0.296468 0
0.0996109 0.29369 0
0.145296 0.290898 0
0.190997 0.288121 0
0.236698 0.285344 0
0.282399 0.282551 0
0.328099 0.279774 0
0.3738 0.276997 0
0.419486 0.274205 0
0.465187 0.271427 0
0.510887 0.26865 0
0.556588 0.265873 0
0.602289 0.263081 0
0.64799 0.260304 0
0.693675 0.257527 0
0.739376 0.254734 0
0.785077 0.251957 0
0.830777 0.24918 0
0.876478 0.246387 0
0.922164 0.24361 0
0.967865 0.240833 0
1 0.238041 0
1 0.235264 0
1 0.232486 0
1 0.229694 0
1 0.226917 0
1 0.22414 0
1 0.221347 0
0 0.349172 0
0 0.346395 0
0 0.343618 0
0 0.340826 0
0 0.338048 0
0.0320897 0.335271 0
0.0777905 0.332479 0
0.123476 0.329702 0
0.169177 0.326925 0
0.214878 0.324132 0
0.260578 0.321355 0
0.306279 0.318578 0
0.35198 0.315801 0
0.397665 0.313008 0
0.443366 0.310231 0
0.489067 0.307454 0
0.534768 0.304662 0
0.580468 0.301885 0
0.626154 0.299107 0
0.671855 0.296315 0
0.717556 0.293538 0
0.763256 0.290761 0
0.808957 0.287968 0
0.854658 0.285191 0
0.900343 0.282414 0
0.946044 0.279622 0
0.991745 0.276844 0
1 0.274067 0
1 0.271275 0
1 0.268498 0
1 0.265721 0
1 0.262928 0
1 0.260151 0
0 0.387976 0
0 0.385199 0
0 0.382406 0
0 0.379629 0
0 0.376852 0
0.0102693 0.374075 0
0.0559548 0.371283 0
0.101656 0.368505 0
0.147356 0.365728 0
0.193057 0.362936 0
0.238758 0.360159 0
0.284459 0.357382 0
0.330144 0.354589 0
0.375845 0.351812 0
0.421546 0.349035 0
0.467247 0.346242 0
0.512947 0.343465 0
0.558648 0.340688 0
0.604334 0.337896 0
0.650034 0.335119 0
0.695735 0.332341 0
0.741436 0.329549 0
0.787137 0.326772 0
0.832837 0.323995 0
0.878523 0.321202 0
0.924224 0.318425 0
0.969924 0.315648 0
1 0.312856 0
1 0.310079 0
1 0.307301 0
1 0.304509 0
1 0.301732 0
1 0.298955 0
0 0.42678 0
0 0.424002 0
0 0.42121 0
0 0.418433 0
0 0.415656 0
0 0.412863 0
0.0341344 0.410086 0
0.0798352 0.407309 0
0.125536 0.404517 0
0.171237 0.40174 0
0.216938 0.398962 0
0.262638 0.39617 0
0.308324 0.393393 0
0.354025 0.390616 0
0.399725 0.387823 0
0.445426 0.385046 0
0.491127 0.382269 0
0.536812 0.379477 0
0.582513 0.376699 0
0.628214 0.373922 0
0.673915 0.37113 0
0.719615 0.368353 0
0.765316 0.365576 0
0.811002 0.362783 0
0.856703 0.360006 0
0.902403 0.357229 0
0.948104 0.354437 0
0.993805 0.351659 0
1 0.348882 0
1 0.34609 0
1 0.343313 0
1 0.340536 0
1 0.337758 0
0 0.465568 0
0 0.462791 0
0 0.460014 0
0 0.457237 0
0 0.454444 0
0 0.451667 0
0.012314 0.44889 0
0.0580148 0.446097 0
0.103716 0.44332 0
0.149416 0.440543 0
0.195117 0.437751 0
0.240803 0.434974 0
0.286503 0.432197 0
0.332204 0.429404 0
0.377905 0.426627 0
0.423606 0.42385 0
0.469306 0.421057 0
0.514992 0.41828 0
0.560693 0.415503 0
0.606394 0.412711 0
0.652094 0.409934 0
0.697795 0.407156 0
0.743496 0.404364 0
0.789181 0.401587 0
0.834882 0.39881 0
0.880583 0.396033 0
0.926284 0.39324 0
0.971984 0.390463 0
1 0.387686 0
1 0.384894 0
1 0.382116 0
1 0.379339 0
1 0.376547 0
0 0.504372 0
0 0.501595 0
0 0.498817 0
0 0.496025 0
0 0.493248 0
0 0.490471 0
0 0.487678 0
0.0361944 0.484901 0
0.0818952 0.482124 0
0.127596 0.479332 0
0.173297 0.476555 0
0.218982 0.473777 0
0.264683 0.470985 0
0.310384 0.468208 0
0.356085 0.465431 0
0.401785 0.462638 0
0.447486 0.459861 0
0.493172 0.457084 0
0.538872 0.454292 0
0.584573 0.451514 0
0.630274 0.448737 0
0.675975 0.44596 0
0.72166 0.443168 0
0.767361 0.440391 0
0.813062 0.437613 0
0.858763 0.434821 0
0.904463 0.432044 0
0.950164 0.429267 0
0.99585 0.426474 0
1 0.423697 0
1 0.42092 0
1 0.418128 0
1 0.415351 0
0 0.543175 0
0 0.540398 0
0 0.537606 0
0 0.534829 0
0 0.532052 0
0 0.529259 0
0 0.526482 0
0.014374 0.523705 0
0.0600748 0.520912 0
0.105776 0.518135 0
0.151461 0.515358 0
0.197162 0.512566 0
0.242863 0.509789 0
0.288563 0.507012 0
0.334264 0.504234 0
0.379965 0.501442 0
0.42565 0.498665 0
0.471351 0.495888 0
0.517052 0.493095 0
0.562753 0.490318 0
0.608454 0.487541 0
0.654154 0.484749 0
0.69984 0.481971 0
0.745541 0.479194 0
0.791241 0.476402 0
0.836942 0.473625 0
0.882643 0.470848 0
0.928344 0.468055 0
0.974029 0.465278 0
1 0.462501 0
1 0.459709 0
1 0.456931 0
1 0.454154 0
0 0.581979 0
0 0.579187 0
0 0.57641 0
0 0.573632 0
0 0.57084 0
0 0.568063 0
0 0.565286 0
0 0.562509 0
0.0382544 0.559716 0
0.0839551 0.556939 0
0.129641 0.554162 0
0.175341 0.551369 0
0.221042 0.548592 0
0.266743 0.545815 0
0.312444 0.543023 0
0.358144 0.540246 0
0.40383 0.537469 0
0.449531 0.534676 0
0.495232 0.531899 0
0.540932 0.529122 0
0.586633 0.526329 0
0.632334 0.523552 0
0.678019 0.520775 0
0.72372 0.517983 0
0.769421 0.515206 0
0.815122 0.512428 0
0.860822 0.509636 0
0.906508 0.506859 0
0.952209 0.504082 0
0.997909 0.501289 0
1 0.498512 0
1 0.495735 0
1 0.492943 0
0 0.620768 0
0 0.61799 0
0 0.615213 0
0 0.612436 0
0 0.609644 0
0 0.606867 0
0 0.604089 0
0 0.601297 0
0.016434 0.59852 0
0.0621347 0.595743 0
0.10782 0.59295 0
0.153521 0.590173 0
0.199222 0.587396 0
0.244923 0.584604 0
0.290623 0.581827 0
0.336309 0.579049 0
0.38201 0.576257 0
0.42771 0.57348 0
0.473411 0.570703 0
0.519112 0.56791 0
0.564813 0.565133 0
0.610498 0.562356 0
0.656199 0.559564 0
0.7019 0.556786 0
0.7476 0.554009 0
0.793301 0.551217 0
0.839002 0.54844 0
0.884688 0.545663 0
0.930388 0.54287 0
0.976089 0.540093 0
1 0.537316 0
1 0.534524 0
1 0.531746 0
0 0.659571 0
0 0.656794 0
0 0.654017 0
0 0.651225 0
0 0.648447 0
0 0.64567 0
0 0.642878 0
0 0.640101 0
0 0.637324 0
0.0402991 0.634531 0
0.0859998 0.631754 0
0.131701 0.628977 0
0.177401 0.626184 0
0.223102 0.623407 0
0.268803 0.62063 0
0.314488 0.617838 0
0.360189 0.615061 0
0.40589 0.612284 0
0.451591 0.609491 0
0.497292 0.606714 0
0.542992 0.603937 0
0.588678 0.601144 0
0.634379 0.598367 0
0.680079 0.59559 0
0.72578 0.592798 0
0.771481 0.590021 0
0.817166 0.587243 0
0.862867 0.584466 0
0.908568 0.581674 0
0.954269 0.578897 0
0.999969 0.57612 0
1 0.573327 0
1 0.57055 0
0 0.698375 0
0 0.695598 0
0 0.692805 0
0 0.690028 0
0 0.687251 0
0 0.684459 0
0 0.681682 0
0 0.678904 0
0 0.676112 0
0.0184787 0.673335 0
0.0641794 0.670558 0
0.10988 0.667765 0
0.155581 0.664988 0
0.201282 0.662211 0
0.246983 0.659419 0
0.292668 0.656641 0
0.338369 0.653864 0
0.38407 0.651072 0
0.42977 0.648295 0
0.475471 0.645518 0
0.521157 0.642725 0
0.566857 0.639948 0
0.612558 0.637171 0
0.658259 0.634394 0
0.70396 0.631601 0
0.74966 0.628824 0
0.795346 0.626047 0
0.841047 0.623255 0
0.886748 0.620478 0
0.932448 0.6177 0
0.978149 0.614908 0
1 0.612131 0
1 0.609354 0
0 0.737179 0
0 0.734386 0
0 0.731609 0
0 0.728832 0
0 0.72604 0
0 0.723262 0
0 0.720485 0
0 0.717693 0
0 0.714916 0
0 0.712139 0
0.042359 0.709346 0
0.0880598 0.706569 0
0.133761 0.703792 0
0.179461 0.700999 0
0.225147 0.698222 0
0.270848 0.695445 0
0.316548 0.692668 0
0.362249 0.689876 0
0.40795 0.687099 0
0.453651 0.684321 0
0.499336 0.681529 0
0.545037 0.678752 0
0.590738 0.675975 0
0.636439 0.673182 0
0.682139 0.670405 0
0.72784 0.667628 0
0.773526 0.664836 0
0.819226 0.662058 0
0.864927 0.659281 0
0.910628 0.656489 0
0.956329 0.653712 0
1 0.650935 0
1 0.648142 0
0 0.775967 0
0 0.77319 0
0 0.770413 0
0 0.76762 0
0 0.764843 0
0 0.762066 0
0 0.759274 0
0 0.756497 0
0 0.753719 0
0 0.750927 0
0.0205386 0.74815 0
0.0662394 0.745373 0
0.11194 0.742596 0
0.157641 0.739803 0
0.203326 0.737026 0
0.249027 0.734249 0
0.294728 0.731456 0
0.340429 0.728679 0
0.38613 0.725902 0
0.431815 0.72311 0
0.477516 0.720333 0
0.523217 0.717556 0
0.568917 0.714763 0
0.614618 0.711986 0
0.660319 0.709209 0
0.706004 0.706416 0
0.751705 0.703639 0
0.797406 0.700862 0
0.843107 0.69807 0
0.888808 0.695293 0
0.934508 0.692515 0
0.980194 0.689723 0
1 0.686946 0
0 0.814771 0
0 0.811994 0
0 0.809201 0
0 0.806424 0
0 0.803647 0
0 0.80087 0
0 0.798077 0
0 0.7953 0
0 0.792523 0
0 0.789731 0
0 0.786954 0
0.044419 0.784176 0
0.0901198 0.781384 0
0.135805 0.778607 0
0.181506 0.77583 0
0.227207 0.773037 0
0.272908 0.77026 0
0.318608 0.767483 0
0.364309 0.764691 0
0.409995 0.761913 0
0.455695 0.759136 0
0.501396 0.756344 0
0.547097 0.753567 0
0.592798 0.75079 0
0.638498 0.747997 0
0.684184 0.74522 0
0.729885 0.742443 0
0.775586 0.739651 0
0.821286 0.736873 0
0.866987 0.734096 0
0.912673 0.731304 0
0.958373 0.728527 0
1 0.72575 0
0 0.853574 0
0 0.850797 0
0 0.848005 0
0 0.845228 0
0 0.842451 0
0 0.839658 0
0 0.836881 0
0 0.834104 0
0 0.831312 0
0 0.828534 0
0 0.825757 0
0.0225986 0.822965 0
0.0682994 0.820188 0
0.113985 0.817411 0
0.159686 0.814618 0
0.205386 0.811841 0
0.251087 0.809064 0
0.296788 0.806271 0
0.342489 0.803494 0
0.388174 0.800717 0
0.433875 0.797925 0
0.479576 0.795148 0
0.525277 0.79237 0
0.570977 0.789578 0
0.616663 0.786801 0
0.662364 0.784024 0
0.708064 0.781231 0
0.753765 0.778454 0
0.799466 0.775677 0
0.845167 0.772885 0
0.890852 0.770108 0
0.936553 0.76733 0
0.982254 0.764553 0
0 0.892378 0
0 0.889586 0
0 0.886809 0
0 0.884031 0
0 0.881239 0
0 0.878462 0
0 0.875685 0
0 0.872892 0
0 0.870115 0
0 0.867338 0
0 0.864546 0
0.00077821 0.861769 0
0.046479 0.858991 0
0.0921645 0.856199 0
0.137865 0.853422 0
0.183566 0.850645 0
0.229267 0.847852 0
0.274968 0.845075 0
0.320653 0.842298 0
0.366354 0.839506 0
0.412055 0.836728 0
0.457755 0.833951 0
0.503456 0.831159 0
0.549157 0.828382 0
0.594842 0.825605 0
0.640543 0.822828 0
0.686244 0.820035 0
0.731945 0.817258 0
0.777646 0.814481 0
0.823346 0.811688 0
0.869032 0.808911 0
0.914733 0.806134 0
0.960433 0.803342 0
0 0.931167 0
0 0.928389 0
0 0.925612 0
0 0.92282 0
0 0.920043 0
0 0.917266 0
0 0.914473 0
0 0.911696 0
0 0.908919 0
0 0.906126 0
0 0.903349 0
0 0.900572 0
0.0246433 0.89778 0
0.0703441 0.895003 0
0.116045 0.892226 0
0.161746 0.889433 0
0.207446 0.886656 0
0.253147 0.883879 0
0.298833 0.881086 0
0.344533 0.878309 0
0.390234 0.875532 0
0.435935 0.872755 0
0.481636 0.869963 0
0.527337 0.867185 0
0.573022 0.864408 0
0.618723 0.861616 0
0.664424 0.858839 0
0.710124 0.856062 0
0.755825 0.853269 0
0.801511 0.850492 0
0.847211 0.847715 0
0.892912 0.844923 0
0.938613 0.842145 0
0 0.96997 0
0 0.967193 0
0 0.964401 0
0 0.961624 0
0 0.958846 0
0 0.956054 0
0 0.953277 0
0 0.9505 0
0 0.947707 0
0 0.94493 0
0 0.942153 0
0 0.939361 0
0.00282292 0.936584 0
0.0485237 0.933806 0
0.0942245 0.931029 0
0.139925 0.928237 0
0.185626 0.92546 0
0.231327 0.922683 0
0.277012 0.91989 0
0.322713 0.917113 0
0.368414 0.914336 0
0.414115 0.911543 0
0.459815 0.908766 0
0.505501 0.905989 0
0.551202 0.903197 0
0.596902 0.90042 0
0.642603 0.897642 0
0.688304 0.89485 0
0.734005 0.892073 0
0.77969 0.889296 0
0.825391 0.886503 0
0.871092 0.883726 0
0.916793 0.880949 0
0 1 0
0 1 0
0 1 0
0 1 0
0 0.997635 0
0 0.994858 0
0 0.992081 0
0 0.989303 0
0 0.986511 0
0 0.983734 0
0 0.980957 0
0 0.978164 0
0 0.975387 0
0.0267033 0.97261 0
0.0724041 0.969818 0
0.118105 0.967041 0
0.163806 0.964263 0
0.209491 0.961471 0
0.255192 0.958694 0
0.300893 0.955917 0
0.346593 0.953124 0
0.392294 0.950347 0
0.437995 0.94757 0
0.48368 0.944778 0
0.529381 0.942 0
0.575082 0.939223 0
0.620783 0.936431 0
0.666484 0.933654 0
0.712184 0.930877 0
0.75787 0.928084 0
0.803571 0.925307 0
0.849271 0.92253 0
0.894972 0.919738 0
0 1 0
0 1 0
0 1 0
0 1 0
0 1 0
0 1 0
0 1 0
0 1 0
0 1 0
