public/LUTS/Color Shift/ColorShift_64.cube
TITLE "Generated by Resolve"
LUT_3D_SIZE 9
0 0 0
0.0465553 0.0418555 0
0.0931106 0.0837262 0
0.139666 0.125582 0
0.186221 0.167452 0
0.232792 0.209308 0
0.279347 0.251179 0
0.325902 0.293034 0
0.372457 0.334905 0
0 0.136141 0.168811
0 0.177996 0.0262455
0 0.219852 0
0.0301671 0.261723 0
0.0767224 0.303578 0
0.123278 0.345449 0
0.169848 0.387304 0
0.216403 0.429175 0
0.262959 0.471046 0
0 0.272282 0.337636
0 0.314137 0.195087
0 0.356008 0.0525063
0 0.397879 0
0 0.439734 0
0.0137636 0.481605 0
0.0603189 0.523461 0
0.106889 0.565332 0
0.153445 0.607187 0
0 0.408438 0.506477
0 0.450294 0.363912
0 0.492164 0.221332
0 0.53402 0.0787518
0 0.575891 0
0 0.617746 0
0 0.659617 0
0 0.701473 0
0.0439307 0.743343 0
0 0.544594 0.675303
0 0.58645 0.532738
0 0.628305 0.390158
0 0.670176 0.247578
0 0.712032 0.105013
0 0.753902 0
0 0.795758 0
0 0.837629 0
0 0.879499 0
0 0.680735 0.844129
0 0.722591 0.701564
0 0.764462 0.558999
0 0.806332 0.416419
0 0.848188 0.273838
0 0.890059 0.131258
0 0.931914 0
0 0.973785 0
0 1 0
0 0.816892 1
0 0.858747 0.870405
0 0.900618 0.727825
0 0.942473 0.585245
0 0.984344 0.442664
0 1 0.300084
0 1 0.157519
0 1 0.0149386
0 1 0
0 0.953048 1
0 0.994904 1
0 1 0.896651
0 1 0.75407
0 1 0.611505
0 1 0.468925
0 1 0.326345
0 1 0.183764
0 1 0.0411841
0 1 1
0 1 1
0 1 1
0 1 0.922911
0 1 0.780331
0 1 0.637751
0 1 0.495171
0 1 0.35259
0 1 0.210025
0.18793 0 0.0987411
0.234485 0 0
0.281041 0.0307164 0
0.327611 0.0725872 0
0.374166 0.114443 0
0.420722 0.156313 0
0.467277 0.198169 0
0.513832 0.24004 0
0.560403 0.281895 0
0.0784314 0.0831311 0.267552
0.124987 0.124987 0.124987
0.171542 0.166857 0
0.218097 0.208713 0
0.264668 0.250584 0
0.311223 0.292439 0
0.357778 0.33431 0
0.404334 0.376165 0
0.450889 0.418036 0
0 0.219272 0.436377
0.0154726 0.261143 0.293812
0.0620279 0.302998 0.151232
0.108583 0.344869 0.00866712
0.155138 0.386725 0
0.201709 0.428595 0
0.248264 0.470451 0
0.29482 0.512322 0
0.341375 0.554177 0
0 0.355428 0.605203
0 0.397284 0.462654
0 0.439155 0.320073
0 0.48101 0.177493
0.0456245 0.522881 0.0349126
0.092195 0.564736 0
0.13875 0.606607 0
0.185306 0.648478 0
0.231861 0.690333 0
0 0.491585 0.774044
0 0.53344 0.631479
0 0.575311 0.488899
0 0.617166 0.346319
0 0.659037 0.203738
0 0.700893 0.0611734
0.0292363 0.742763 0
0.0757916 0.784619 0
0.122347 0.82649 0
0 0.627726 0.94287
0 0.669596 0.800305
0 0.711452 0.657725
0 0.753323 0.51516
0 0.795178 0.37258
0 0.837049 0.229999
0 0.878904 0.0874189
0 0.920775 0
0.0128328 0.962631 0
0 0.763882 1
0 0.805737 0.969146
0 0.847608 0.826566
0 0.889464 0.683986
0 0.931334 0.541405
0 0.97319 0.398825
0 1 0.256245
0 1 0.11368
0 1 0
0 0.900038 1
0 0.941894 1
0 0.983764 0.995392
0 1 0.852811
0 1 0.710231
0 1 0.567651
0 1 0.425086
0 1 0.282506
0 1 0.139925
0 1 1
0 1 1
0 1 1
0 1 1
0 1 0.879072
0 1 0.736492
0 1 0.593912
0 1 0.451331
0 1 0.308751
0.375891 0 0.197482
0.422446 0 0.0549325
0.469001 0 0
0.515572 0.0195621 0
0.562127 0.0614328 0
0.608682 0.103288 0
0.655238 0.145159 0
0.701793 0.187015 0
0.748363 0.228885 0
0.266392 0.0301213 0.366293
0.312947 0.0719768 0.223743
0.359503 0.113832 0.0811627
0.406058 0.155703 0
0.452628 0.197559 0
0.499184 0.239429 0
0.545739 0.281285 0
0.592294 0.323156 0
0.638849 0.365026 0
0.156878 0.166262 0.535134
0.203433 0.208118 0.392569
0.249989 0.249989 0.249989
0.296544 0.291859 0.107408
0.343099 0.333715 0
0.38967 0.375586 0
0.436225 0.417441 0
0.48278 0.459312 0
0.529335 0.501167 0
0.047364 0.302419 0.70396
0.0939193 0.344274 0.561395
0.140475 0.386145 0.418814
0.18703 0.428 0.276234
0.233585 0.469871 0.133669
0.28014 0.511727 0
0.326711 0.553597 0
0.373266 0.595453 0
0.419821 0.637324 0
0 0.438575 0.872786
0 0.48043 0.73022
0.0309606 0.522286 0.587655
0.0775158 0.564157 0.445075
0.124071 0.606012 0.302495
0.170626 0.647883 0.159915
0.217197 0.689738 0.0173342
0.263752 0.731609 0
0.310307 0.77348 0
0 0.574716 1
0 0.616571 0.899062
0 0.658442 0.756481
0 0.700313 0.613901
0.0145571 0.742168 0.471321
0.0611124 0.784039 0.32874
0.107668 0.825895 0.186175
0.154238 0.867765 0.043595
0.200793 0.909621 0
0 0.710872 1
0 0.752728 1
0 0.794598 0.925307
0 0.836454 0.782727
0 0.878325 0.640162
0 0.92018 0.497581
0 0.962051 0.355001
0.0447089 1 0.212421
0.0912795 1 0.0698405
0 0.847028 1
0 0.888884 1
0 0.930739 1
0 0.97261 0.951568
0 1 0.808988
0 1 0.666407
0 1 0.523827
0 1 0.381247
0 1 0.238682
0 0.983169 1
0 1 1
0 1 1
0 1 1
0 1 0.977813
0 1 0.835233
0 1 0.692653
0 1 0.550088
0 1 0.407507
0.563851 0 0.296239
0.610407 0 0.153674
0.656962 0 0.0110933
0.703532 0 0
0.750088 0.00842298 0
0.796643 0.0502785 0
0.843198 0.0921492 0
0.889754 0.134005 0
0.936324 0.175875 0
0.454353 0 0.465049
0.500908 0.018967 0.322484
0.547463 0.0608225 0.179904
0.594018 0.102693 0.0373236
0.640574 0.144549 0
0.687144 0.186419 0
0.7337 0.228275 0
0.780255 0.270146 0
0.82681 0.312001 0
0.344839 0.113252 0.633875
0.391394 0.155108 0.49131
0.437949 0.196979 0.348745
0.484504 0.238834 0.206165
0.53106 0.280705 0.0635843
0.57763 0.32256 0
0.624186 0.364431 0
0.670741 0.406287 0
0.717296 0.448157 0
0.235325 0.249409 0.802701
0.28188 0.291264 0.660151
0.328435 0.33312 0.517571
0.37499 0.37499 0.37499
0.421546 0.416861 0.23241
0.468101 0.458717 0.0898299
0.514672 0.500587 0
0.561227 0.542443 0
0.607782 0.584314 0
0.125811 0.38555 0.971542
0.172351 0.42742 0.828977
0.218921 0.469276 0.686397
0.265476 0.511147 0.543816
0.312032 0.553002 0.401236
0.358587 0.594873 0.258671
0.405142 0.636728 0.116091
0.451713 0.678599 0
0.498268 0.720455 0
0.0162966 0.521706 1
0.0628367 0.563561 0.997803
0.109407 0.605432 0.855222
0.155962 0.647288 0.712657
0.202518 0.689158 0.570077
0.249073 0.731014 0.427497
0.295628 0.772885 0.284916
0.342199 0.81474 0.142336
0.388754 0.856611 0
0 0.657862 1
0 0.699718 1
0 0.741573 1
0.0464485 0.783444 0.881483
0.0930037 0.825315 0.738903
0.139559 0.86717 0.596323
0.186114 0.909041 0.453742
0.23267 0.950896 0.311177
0.27924 0.992767 0.168597
0 0.794003 1
0 0.835874 1
0 0.877729 1
0 0.9196 1
0 0.961456 0.907729
0.030045 1 0.765164
0.0766003 1 0.622583
0.123156 1 0.480003
0.169711 1 0.337423
0 0.930159 1
0 0.972015 1
0 1 1
0 1 1
0 1 1
0 1 0.933989
0 1 0.791409
0.0136416 1 0.648829
0.0601968 1 0.506249
0.751812 0 0.39498
0.798367 0 0.25243
0.844923 0 0.10985
0.891478 0 0
0.938048 0 0
0.984604 0 0
1 0.0391394 0
1 0.0809949 0
1 0.122866 0
0.642313 0 0.56379
0.688869 0 0.421241
0.735424 0.00781262 0.27866
0.781979 0.0496681 0.13608
0.828534 0.0915389 0
0.875105 0.13341 0
0.92166 0.175265 0
0.968215 0.217136 0
1 0.258991 0
0.532799 0.0602426 0.732631
0.579355 0.102098 0.590066
0.62591 0.143969 0.447486
0.672465 0.185824 0.304906
0.71902 0.227695 0.162325
0.765576 0.269551 0.0197604
0.812146 0.311421 0
0.858701 0.353277 0
0.905257 0.395148 0
0.423285 0.196399 0.901457
0.469841 0.238254 0.758892
0.516396 0.28011 0.616312
0.562951 0.321981 0.473747
0.609506 0.363836 0.331167
0.656062 0.405707 0.188586
0.702632 0.447562 0.0460059
0.749187 0.489433 0
0.795743 0.531289 0
0.313771 0.33254 1
0.360311 0.374395 0.927718
0.406882 0.416266 0.785153
0.453437 0.458122 0.642573
0.499992 0.499992 0.499992
0.546548 0.541863 0.357412
0.593103 0.583719 0.214832
0.639673 0.625589 0.0722515
0.686229 0.667445 0
0.204242 0.468696 1
0.250797 0.510552 1
0.297353 0.552422 0.953979
0.343923 0.594278 0.811399
0.390478 0.636149 0.668818
0.437034 0.678004 0.526238
0.483589 0.719875 0.383673
0.530144 0.76173 0.241093
0.576715 0.803601 0.0985122
0.094728 0.604852 1
0.141283 0.646708 1
0.187839 0.688563 1
0.234409 0.730434 0.980224
0.280964 0.77229 0.837659
0.32752 0.81416 0.695079
0.374075 0.856016 0.552499
0.42063 0.897887 0.409918
0.467201 0.939742 0.267338
0 0.740993 1
0.0317693 0.782849 1
0.0783246 0.82472 1
0.12488 0.866575 1
0.17145 0.908446 1
0.218006 0.950317 0.863905
0.264561 0.992172 0.721325
0.311116 1 0.578744
0.357671 1 0.436179
0 0.87715 1
0 0.919005 1
0 0.960876 1
0.0153658 1 1
0.0619211 1 1
0.108492 1 1
0.155047 1 0.890166
0.201602 1 0.747585
0.248157 1 0.605005
0.939773 0 0.493736
0.986328 0 0.351171
1 0 0.208591
1 0 0.0660105
1 0 0
1 0 0
1 0 0
1 0.027985 0
1 0.0698405 0
0.830274 0 0.662547
0.876829 0 0.519982
0.923384 0 0.377401
0.96994 0 0.234821
1 0.038529 0.092256
1 0.0803845 0
1 0.122255 0
1 0.164111 0
1 0.205982 0
0.72076 0.00723278 0.831373
0.767315 0.0490883 0.688807
0.81387 0.0909438 0.546242
0.860426 0.132815 0.403662
0.906981 0.17467 0.261082
0.953536 0.216541 0.118502
1 0.258412 0
1 0.300267 0
1 0.342138 0
0.611246 0.143374 1
0.657786 0.185245 0.857649
0.704356 0.2271 0.715068
0.750912 0.268971 0.572488
0.797467 0.310826 0.429908
0.844022 0.352697 0.287327
0.890578 0.394553 0.144762
0.937148 0.436423 0.00218204
0.983703 0.478279 0
0.501732 0.27953 1
0.548272 0.321386 1
0.594842 0.363256 0.883894
0.641398 0.405112 0.741314
0.687953 0.446983 0.598749
0.734508 0.488838 0.456168
0.781064 0.530709 0.313588
0.827634 0.572564 0.171008
0.874189 0.614435 0.0284276
0.392203 0.415686 1
0.438758 0.457542 1
0.485313 0.499397 1
0.531884 0.541268 0.910155
0.578439 0.583124 0.767575
0.624994 0.624994 0.624994
0.67155 0.666865 0.482414
0.718105 0.708721 0.339834
0.764675 0.750591 0.197253
0.282689 0.551827 1
0.329244 0.593698 1
0.375799 0.635554 1
0.422354 0.677424 1
0.468925 0.71928 0.9364
0.51548 0.761151 0.79382
0.562036 0.803006 0.65124
0.608591 0.844877 0.508675
0.655146 0.886732 0.366094
0.173175 0.687984 1
0.21973 0.729839 1
0.266285 0.77171 1
0.31284 0.813565 1
0.359411 0.855436 1
0.405966 0.897292 0.962661
0.452522 0.939162 0.820081
0.499077 0.981018 0.677501
0.545632 1 0.53492
0.0636606 0.82414 1
0.110216 0.865995 1
0.156771 0.907851 1
0.203326 0.949722 1
0.249882 0.991577 1
0.296452 1 1
0.343008 1 0.988907
0.389563 1 0.846326
0.436118 1 0.703746
1 0 0.592477
1 0 0.449928
1 0 0.307347
1 0 0.164767
1 0 0.0221866
1 0 0
1 0 0
1 0 0
1 0.0168307 0
1 0 0.761288
1 0 0.618738
1 0 0.476158
1 0 0.333577
1 0 0.190997
1 0.0273747 0.0484169
1 0.0692454 0
1 0.111101 0
1 0.152972 0
0.908721 0 0.930129
0.955276 0 0.787564
1 0.0379339 0.644984
1 0.0798047 0.502403
1 0.12166 0.359823
1 0.163531 0.217258
1 0.205386 0.0746777
1 0.247257 0
1 0.289113 0
0.799207 0.0903639 1
0.845747 0.132219 0.95639
0.892317 0.17409 0.813809
0.938872 0.215946 0.671244
0.985428 0.257816 0.528664
1 0.299672 0.386084
1 0.341543 0.243503
1 0.383413 0.100923
1 0.425269 0
0.689677 0.22652 1
0.736233 0.268376 1
0.782788 0.310246 0.982651
0.829358 0.352102 0.84007
0.875914 0.393973 0.69749
0.922469 0.435828 0.55491
0.969024 0.477699 0.412329
1 0.519554 0.269764
1 0.561425 0.127184
0.580163 0.362661 1
0.626719 0.404532 1
0.673274 0.446387 1
0.719844 0.488258 1
0.7664 0.530114 0.866316
0.812955 0.571984 0.723751
0.85951 0.61384 0.58117
0.906065 0.655711 0.43859
0.952636 0.697566 0.29601
0.470649 0.498817 1
0.517205 0.540673 1
0.56376 0.582544 1
0.610315 0.624399 1
0.656886 0.66627 1
0.703441 0.708125 0.892576
0.749996 0.749996 0.749996
0.796551 0.791867 0.607416
0.843107 0.833722 0.464836
0.361135 0.634974 1
0.407691 0.676829 1
0.454246 0.718685 1
0.500801 0.760555 1
0.547356 0.802426 1
0.593927 0.844282 1
0.640482 0.886152 0.918822
0.687037 0.928008 0.776242
0.733593 0.969879 0.633677
0.251621 0.771115 1
0.298177 0.812985 1
0.344732 0.854841 1
0.391287 0.896712 1
0.437842 0.938567 1
0.484413 0.980438 1
0.530968 1 1
0.577523 1 0.945083
0.624079 1 0.802502
1 0 0.691234
1 0 0.548669
1 0 0.406088
1 0 0.263523
1 0 0.120943
1 0 0
1 0 0
1 0 0
1 0 0
1 0 0.860044
1 0 0.717479
1 0 0.574899
1 0 0.432334
1 0 0.289754
1 0 0.147173
1 0.0162203 0.00459297
1 0.0580911 0
1 0.0999619 0
1 0 1
1 0 0.886305
1 0 0.74374
1 0.0267948 0.60116
1 0.0686503 0.458579
1 0.110521 0.315999
1 0.152377 0.173419
1 0.194247 0.0308385
1 0.236103 0
0.987152 0.0373541 1
1 0.0792096 1
1 0.12108 0.912566
1 0.162936 0.769985
1 0.204807 0.627405
1 0.246662 0.484825
1 0.288533 0.34226
1 0.330388 0.19968
1 0.372259 0.0570993
0.877638 0.17351 1
0.924193 0.215366 1
0.970748 0.257221 1
1 0.299092 0.938811
1 0.340948 0.796246
1 0.382818 0.653666
1 0.424674 0.511086
1 0.466545 0.368505
1 0.508415 0.225925
0.768124 0.309651 1
0.814679 0.351507 1
0.861234 0.393378 1
0.90779 0.435248 1
0.95436 0.477104 0.965072
1 0.518975 0.822492
1 0.56083 0.679911
1 0.602701 0.537331
1 0.644556 0.394766
0.65861 0.445808 1
0.705165 0.487663 1
0.75172 0.529534 1
0.798276 0.571389 1
0.844846 0.61326 1
0.891402 0.655116 0.991318
0.937957 0.696986 0.848753
0.984512 0.738842 0.706172
1 0.780713 0.563592
0.549096 0.581964 1
0.595651 0.623819 1
0.642206 0.665675 1
0.688762 0.707546 1
0.735317 0.749401 1
0.781888 0.791272 1
0.828443 0.833127 1
0.874998 0.874998 0.874998
0.921553 0.916869 0.732418
0.439582 0.718105 1
0.486137 0.75996 1
0.532692 0.801831 1
0.579248 0.843687 1
0.625803 0.885557 1
0.672358 0.927428 1
0.718929 0.969284 1
0.765484 1 1
0.812039 1 0.901244
1 0 0.789975
1 0 0.647425
1 0 0.504845
1 0 0.362264
1 0 0.219684
1 0 0.0771038
1 0 0
1 0 0
1 0 0
1 0 0.958785
1 0 0.816236
1 0 0.673655
1 0 0.531075
1 0 0.388495
1 0 0.245914
1 0 0.103349
1 0.00508125 0
1 0.0469368 0
1 0 1
1 0 0.985061
1 0 0.842481
1 0 0.699901
1 0.0156405 0.557336
1 0.057496 0.414755
1 0.0993668 0.272175
1 0.141222 0.129595
1 0.183093 0
1 0 1
1 0.0261997 1
1 0.0680552 1
1 0.109926 0.868742
1 0.151797 0.726162
1 0.193652 0.583581
1 0.235523 0.441001
1 0.277378 0.298421
1 0.319249 0.15584
1 0.120485 1
1 0.162356 1
1 0.204211 1
1 0.246082 1
1 0.287938 0.894987
1 0.329809 0.752407
1 0.371664 0.609827
1 0.413535 0.467262
1 0.45539 0.324681
0.956085 0.256641 1
1 0.298497 1
1 0.340368 1
1 0.382223 1
1 0.424094 1
1 0.46595 0.921248
1 0.50782 0.778668
1 0.549676 0.636088
1 0.591546 0.493507
0.846571 0.392798 1
0.893126 0.434653 1
0.939681 0.476509 1
0.986236 0.51838 1
1 0.56025 1
1 0.602106 1
1 0.643977 0.947494
1 0.685832 0.804913
1 0.727703 0.662333
0.737057 0.528939 1
0.783612 0.570809 1
0.830167 0.612665 1
0.876722 0.654536 1
0.923278 0.696391 1
0.969848 0.738262 1
1 0.780118 1
1 0.821988 0.973754
1 0.863844 0.831174
0.627543 0.665095 1
0.674098 0.70695 1
0.720653 0.748821 1
0.767208 0.790677 1
0.813764 0.832547 1
0.860319 0.874403 1
0.906889 0.916274 1
0.953445 0.958129 1
1 1 1
