public/LUTS/Color Shift/ColorShift_03.cube
TITLE "Generated by Resolve"
LUT_3D_SIZE 9
0 0 0
0 0.0574807 0.0214237
0 0.114961 0.0428473
0 0.172442 0.0642557
0 0.229923 0.0856794
0 0.287404 0.107103
0 0.344884 0.128527
0 0.402365 0.14995
0 0.459846 0.171374
0.142885 0.0567483 0.197299
0.0671244 0.114229 0.218723
0 0.17171 0.240146
0 0.229191 0.26157
0 0.286671 0.282979
0 0.344152 0.304402
0 0.401633 0.325826
0 0.459113 0.34725
0 0.516594 0.368673
0.285801 0.113512 0.394629
0.210025 0.170993 0.416052
0.134249 0.228473 0.437461
0.0584726 0.285954 0.458885
0 0.343435 0.480308
0 0.400916 0.501732
0 0.458396 0.523156
0 0.515877 0.544579
0 0.573358 0.566003
0.428702 0.170275 0.591959
0.352941 0.227741 0.613367
0.27715 0.285222 0.634791
0.201373 0.342702 0.656214
0.125597 0.400183 0.677638
0.0498207 0.457664 0.699062
0 0.515145 0.720485
0 0.572625 0.741894
0 0.630106 0.763317
0.571618 0.227024 0.789288
0.495842 0.284504 0.810697
0.420066 0.341985 0.83212
0.344289 0.399466 0.853544
0.268513 0.456947 0.874968
0.192721 0.514427 0.896391
0.116945 0.571908 0.9178
0.0411688 0.629389 0.939223
0 0.68687 0.960647
0.714519 0.283787 0.986603
0.638758 0.341268 1
0.562966 0.398749 1
0.48719 0.45623 1
0.411414 0.51371 1
0.335637 0.571191 1
0.259861 0.628672 1
0.18407 0.686152 1
0.108293 0.743633 1
0.857435 0.340551 1
0.781659 0.398016 1
0.705882 0.455497 1
0.630106 0.512978 1
0.554314 0.570459 1
0.478538 0.627939 1
0.402762 0.68542 1
0.326986 0.742901 1
0.251209 0.800381 1
1 0.397314 1
0.924575 0.45478 1
0.848783 0.512261 1
0.773007 0.569741 1
0.69723 0.627222 1
0.621454 0.684703 1
0.545678 0.742184 1
0.469886 0.799664 1
0.39411 0.857145 1
1 0.454063 1
1 0.511543 1
0.991699 0.569024 1
0.915923 0.626505 1
0.840131 0.683986 1
0.764355 0.741466 1
0.688579 0.798947 1
0.612802 0.856428 1
0.537026 0.913909 1
0.0578622 0.0107576 0
0 0.0682383 0
0 0.125719 0
0 0.1832 0
0 0.240681 0
0 0.298161 0.0133669
0 0.355642 0.0347906
0 0.413123 0.0562142
0 0.470603 0.0776379
0.200763 0.0675059 0.103563
0.124987 0.124987 0.124987
0.0492103 0.182467 0.14641
0 0.239948 0.167834
0 0.297429 0.189258
0 0.35491 0.210666
0 0.41239 0.23209
0 0.469871 0.253513
0 0.527352 0.274937
0.343664 0.124269 0.300893
0.267887 0.18175 0.322316
0.192111 0.239231 0.34374
0.116335 0.296712 0.365148
0.0405585 0.354192 0.386572
0 0.411673 0.407996
0 0.469154 0.429419
0 0.526635 0.450843
0 0.584115 0.472267
0.48658 0.181033 0.498222
0.410803 0.238499 0.519646
0.335027 0.295979 0.541054
0.259251 0.35346 0.562478
0.183459 0.410941 0.583902
0.107683 0.468421 0.605325
0.0319066 0.525902 0.626749
0 0.583383 0.648173
0 0.640864 0.669581
0.62948 0.237797 0.695552
0.553704 0.295262 0.71696
0.477928 0.352743 0.738384
0.402152 0.410224 0.759808
0.326375 0.467704 0.781231
0.250599 0.525185 0.802655
0.174807 0.582666 0.824079
0.0990311 0.640146 0.845487
0.0232548 0.697627 0.866911
0.772396 0.294545 0.892866
0.69662 0.352026 0.91429
0.620844 0.409506 0.935714
0.545052 0.466987 0.957137
0.469276 0.524468 0.978561
0.3935 0.581949 0.999969
0.317723 0.639429 1
0.241947 0.69691 1
0.166155 0.754391 1
0.915297 0.351308 1
0.839521 0.408789 1
0.763745 0.46627 1
0.687968 0.523751 1
0.612192 0.581231 1
0.536416 0.638712 1
0.460624 0.696193 1
0.384848 0.753674 1
0.309071 0.811154 1
1 0.408072 1
0.982437 0.465537 1
0.906661 0.523018 1
0.830869 0.580499 1
0.755093 0.63798 1
0.679316 0.69546 1
0.60354 0.752941 1
0.527764 0.810422 1
0.451972 0.867903 1
1 0.46482 1
1 0.522301 1
1 0.579782 1
0.973785 0.637263 1
0.898009 0.694743 1
0.822217 0.752224 1
0.746441 0.809705 1
0.670665 0.867185 1
0.594888 0.924666 1
0.11574 0.0215152 0
0.0399634 0.078996 0
0 0.136477 0
0 0.193957 0
0 0.251438 0
0 0.308919 0
0 0.3664 0
0 0.42388 0
0 0.481361 0
0.258625 0.0782788 0.00982681
0.182864 0.135744 0.0312352
0.107088 0.193225 0.0526589
0.0312963 0.250706 0.0740826
0 0.308186 0.0955062
0 0.365667 0.11693
0 0.423148 0.138354
0 0.480629 0.159762
0 0.538109 0.181186
0.401541 0.135027 0.207141
0.325765 0.192508 0.228565
0.249989 0.249989 0.249989
0.174212 0.307469 0.271412
0.098436 0.36495 0.292836
0.0226444 0.422431 0.31426
0 0.479912 0.335668
0 0.537392 0.357092
0 0.594873 0.378515
0.544442 0.191791 0.404471
0.468681 0.249271 0.425895
0.392889 0.306752 0.447318
0.317113 0.364233 0.468742
0.241337 0.421714 0.49015
0.16556 0.479194 0.511574
0.0897841 0.536675 0.532998
0.0139925 0.594156 0.554421
0 0.651637 0.575845
0.687358 0.248554 0.601801
0.611582 0.30602 0.623224
0.535805 0.3635 0.644648
0.460029 0.420981 0.666056
0.384253 0.478462 0.68748
0.308461 0.535943 0.708904
0.232685 0.593423 0.730327
0.156909 0.650904 0.751751
0.0811322 0.708385 0.773175
0.830259 0.305318 0.79913
0.754498 0.362783 0.820539
0.678706 0.420264 0.841962
0.60293 0.477745 0.863386
0.527153 0.535225 0.88481
0.451377 0.592706 0.906233
0.375601 0.650187 0.927657
0.299809 0.707668 0.949081
0.224033 0.765148 0.970489
0.973175 0.362066 0.99646
0.897398 0.419547 1
0.821622 0.477028 1
0.745846 0.534508 1
0.670054 0.591989 1
0.594278 0.64947 1
0.518502 0.70695 1
0.442725 0.764431 1
0.366949 0.821912 1
1 0.41883 1
1 0.47631 1
0.964523 0.533791 1
0.888747 0.591272 1
0.81297 0.648753 1
0.737194 0.706233 1
0.661418 0.763714 1
0.585626 0.821195 1
0.50985 0.878676 1
1 0.475593 1
1 0.533059 1
1 0.590539 1
1 0.64802 1
0.955871 0.705501 1
0.880095 0.762982 1
0.804318 0.820462 1
0.728542 0.877943 1
0.652766 0.935424 1
0.173617 0.0322881 0
0.0978408 0.0897536 0
0.0220645 0.147234 0
0 0.204715 0
0 0.262196 0
0 0.319677 0
0 0.377157 0
0 0.434638 0
0 0.492119 0
0.316503 0.0890364 0
0.240726 0.146517 0
0.16495 0.203998 0
0.0891737 0.261479 0
0.0133974 0.318959 0.00175479
0 0.37644 0.0231785
0 0.433921 0.0446021
0 0.491402 0.0660258
0 0.548882 0.0874495
0.459419 0.1458 0.113405
0.383642 0.203265 0.134829
0.307866 0.260746 0.156237
0.23209 0.318227 0.177661
0.156298 0.375708 0.199084
0.0805219 0.433188 0.220508
0.00474556 0.490669 0.241932
0 0.54815 0.263355
0 0.605631 0.284764
0.602319 0.202548 0.310735
0.526543 0.260029 0.332143
0.450767 0.31751 0.353567
0.37499 0.37499 0.37499
0.299214 0.432471 0.396414
0.223438 0.489952 0.417838
0.147646 0.547433 0.439261
0.07187 0.604913 0.46067
0 0.662394 0.482094
0.745235 0.259312 0.508049
0.669459 0.316793 0.529473
0.593683 0.374273 0.550896
0.517891 0.431754 0.57232
0.442115 0.489235 0.593744
0.366339 0.546715 0.615152
0.290562 0.604196 0.636576
0.214786 0.661677 0.658
0.138994 0.719158 0.679423
0.888136 0.316075 0.705379
0.81236 0.373541 0.726802
0.736584 0.431022 0.748226
0.660807 0.488502 0.76965
0.585031 0.545983 0.791058
0.509255 0.603464 0.812482
0.433463 0.660945 0.833906
0.357687 0.718425 0.855329
0.28191 0.775906 0.876753
1 0.372839 0.902708
0.955276 0.430304 0.924132
0.879499 0.487785 0.945541
0.803708 0.545266 0.966964
0.727932 0.602747 0.988388
0.652155 0.660227 1
0.576379 0.717708 1
0.500603 0.775189 1
0.424811 0.83267 1
1 0.429587 1
1 0.487068 1
1 0.544549 1
0.946624 0.602029 1
0.870848 0.65951 1
0.795056 0.716991 1
0.71928 0.774472 1
0.643503 0.831952 1
0.567727 0.889433 1
1 0.486351 1
1 0.543832 1
1 0.601312 1
1 0.658793 1
1 0.716274 1
0.937972 0.773754 1
0.862196 0.831235 1
0.786419 0.888716 1
0.710628 0.946197 1
0.231479 0.0430457 0
0.155718 0.100526 0
0.079942 0.158007 0
0.00415045 0.215488 0
0 0.272969 0
0 0.330449 0
0 0.38793 0
0 0.445411 0
0 0.502892 0
0.37438 0.099794 0
0.298604 0.157275 0
0.222827 0.214755 0
0.147051 0.272236 0
0.0712749 0.329717 0
0 0.387198 0
0 0.444678 0
0 0.502159 0
0 0.55964 0
0.517281 0.156558 0.0196536
0.44152 0.214038 0.0410773
0.365728 0.271519 0.062501
0.289952 0.329 0.0839246
0.214176 0.386481 0.105333
0.138399 0.443961 0.126757
0.062623 0.501442 0.14818
0 0.558923 0.169604
0 0.616403 0.191028
0.660197 0.213321 0.216983
0.584421 0.270787 0.238407
0.508644 0.328267 0.259831
0.432868 0.385748 0.281239
0.357092 0.443229 0.302663
0.2813 0.50071 0.324086
0.205524 0.55819 0.34551
0.129747 0.615671 0.366934
0.0539712 0.673152 0.388357
0.803098 0.270069 0.414313
0.727337 0.32755 0.435721
0.651545 0.385031 0.457145
0.575769 0.442512 0.478569
0.499992 0.499992 0.499992
0.424216 0.557473 0.521416
0.34844 0.614954 0.54284
0.272648 0.672435 0.564263
0.196872 0.729915 0.585672
0.946014 0.326833 0.611643
0.870237 0.384314 0.633051
0.794461 0.441794 0.654475
0.718685 0.499275 0.675898
0.642893 0.556756 0.697322
0.567117 0.614237 0.718746
0.491341 0.671717 0.740154
0.415564 0.729198 0.761578
0.339788 0.786679 0.783001
1 0.383597 0.808957
1 0.441062 0.830381
0.937362 0.498543 0.851804
0.861585 0.556023 0.873228
0.785809 0.613504 0.894652
0.710033 0.670985 0.91606
0.634256 0.728466 0.937484
0.558465 0.785946 0.958907
0.482689 0.843427 0.980331
1 0.44036 1
1 0.497826 1
1 0.555306 1
1 0.612787 1
0.92871 0.670268 1
0.852934 0.727749 1
0.777157 0.785229 1
0.701381 0.84271 1
0.625605 0.900191 1
1 0.497108 1
1 0.554589 1
1 0.61207 1
1 0.669551 1
1 0.727031 1
0.99585 0.784512 1
0.920058 0.841993 1
0.844282 0.899474 1
0.768505 0.956954 1
0.289357 0.0538033 0
0.213596 0.111284 0
0.137804 0.168765 0
0.0620279 0.226246 0
0 0.283726 0
0 0.341207 0
0 0.398688 0
0 0.456168 0
0 0.513649 0
0.432258 0.110567 0
0.356481 0.168032 0
0.280705 0.225513 0
0.204929 0.282994 0
0.129137 0.340475 0
0.0533608 0.397955 0
0 0.455436 0
0 0.512917 0
0 0.570397 0
0.575158 0.167315 0
0.499382 0.224796 0
0.423606 0.282277 0
0.347829 0.339757 0
0.272053 0.397238 0.0115969
0.196277 0.454719 0.0330205
0.120485 0.5122 0.0544442
0.0447089 0.56968 0.0758526
0 0.627161 0.0972763
0.718074 0.224079 0.123232
0.642298 0.281559 0.144656
0.566522 0.33904 0.166079
0.49073 0.396521 0.187503
0.414954 0.454002 0.208927
0.339178 0.511482 0.230335
0.263401 0.568963 0.251759
0.187625 0.626444 0.273182
0.111833 0.683925 0.294606
0.860975 0.280842 0.320562
0.785199 0.338308 0.341985
0.709422 0.395789 0.363409
0.633646 0.453269 0.384833
0.55787 0.51075 0.406241
0.482094 0.568231 0.427665
0.406302 0.625711 0.449088
0.330526 0.683192 0.470512
0.254749 0.740673 0.491936
1 0.337591 0.517891
0.928115 0.395071 0.539315
0.852338 0.452552 0.560723
0.776547 0.510033 0.582147
0.700771 0.567514 0.603571
0.624994 0.624994 0.624994
0.549218 0.682475 0.646418
0.473442 0.739956 0.667842
0.39765 0.797436 0.689265
1 0.394354 0.715221
1 0.451835 0.736629
0.995239 0.509316 0.758053
0.919463 0.566796 0.779477
0.843687 0.624277 0.8009
0.767895 0.681758 0.822324
0.692119 0.739239 0.843748
0.616342 0.796719 0.865156
0.540566 0.8542 0.88658
1 0.451118 0.912535
1 0.508583 0.933959
1 0.566064 0.955383
1 0.623545 0.976806
0.986587 0.681025 0.99823
0.910811 0.738506 1
0.835035 0.795987 1
0.759258 0.853468 1
0.683467 0.910948 1
1 0.507881 1
1 0.565347 1
1 0.622827 1
1 0.680308 1
1 0.737789 1
1 0.79527 1
0.977935 0.85275 1
0.902159 0.910231 1
0.826383 0.967712 1
0.347234 0.0645762 0
0.271458 0.122042 0
0.195682 0.179522 0
0.119905 0.237003 0
0.0441291 0.294484 0
0 0.351965 0
0 0.409445 0
0 0.466926 0
0 0.524407 0
0.49012 0.121324 0
0.414359 0.17879 0
0.338567 0.236271 0
0.262791 0.293751 0
0.187015 0.351232 0
0.111238 0.408713 0
0.035462 0.466194 0
0 0.523674 0
0 0.581155 0
0.633036 0.178088 0
0.55726 0.235554 0
0.481483 0.293034 0
0.405707 0.350515 0
0.329931 0.407996 0
0.254139 0.465476 0
0.178363 0.522957 0
0.102586 0.580438 0
0.0268101 0.637919 0.00354009
0.775937 0.234836 0.0294957
0.700175 0.292317 0.0509041
0.624384 0.349798 0.0723278
0.548608 0.407279 0.0937514
0.472831 0.464759 0.115175
0.397055 0.52224 0.136599
0.321279 0.579721 0.158022
0.245487 0.637201 0.179446
0.169711 0.694682 0.200855
0.918853 0.2916 0.226825
0.843076 0.349081 0.248234
0.7673 0.406561 0.269657
0.691524 0.464042 0.291081
0.615732 0.521523 0.312505
0.539956 0.579004 0.333928
0.464179 0.636484 0.355337
0.388403 0.693965 0.376761
0.312627 0.751446 0.398184
1 0.348363 0.42414
0.985992 0.405829 0.445563
0.910201 0.46331 0.466987
0.834424 0.52079 0.488411
0.758648 0.578271 0.509834
0.682872 0.635752 0.531243
0.607095 0.693233 0.552666
0.531304 0.750713 0.57409
0.455528 0.808194 0.595514
1 0.405112 0.621469
1 0.462593 0.642893
1 0.520073 0.664317
0.97734 0.577554 0.685725
0.901549 0.635035 0.707149
0.825772 0.692515 0.728573
0.749996 0.749996 0.749996
0.67422 0.807477 0.77142
0.598444 0.864958 0.792844
1 0.461875 0.818799
1 0.519356 0.840223
1 0.576837 0.861631
1 0.634318 0.883055
1 0.691798 0.904479
0.968688 0.749279 0.925902
0.892897 0.80676 0.947326
0.817121 0.86424 0.96875
0.741344 0.921721 0.990158
1 0.518639 1
1 0.576104 1
1 0.633585 1
1 0.691066 1
1 0.748547 1
1 0.806027 1
1 0.863508 1
0.960037 0.920989 1
0.88426 0.978469 1
0.405112 0.0753338 0
0.329335 0.132799 0
0.253559 0.19028 0
0.177783 0.247761 0
0.101991 0.305241 0
0.026215 0.362722 0
0 0.420203 0
0 0.477684 0
0 0.535164 0
0.547997 0.132082 0
0.472221 0.189563 0
0.396445 0.247044 0
0.320668 0.304524 0
0.244892 0.362005 0
0.169116 0.419486 0
0.0933242 0.476967 0
0.0175479 0.534447 0
0 0.591928 0
0.690913 0.188846 0
0.615137 0.246311 0
0.539361 0.303792 0
0.463569 0.361273 0
0.387793 0.418753 0
0.312016 0.476234 0
0.23624 0.533715 0
0.160464 0.591196 0
0.0846723 0.648676 0
0.833814 0.245609 0
0.758038 0.303075 0
0.682261 0.360555 0
0.606485 0.418036 1.5259e-05
0.530709 0.475517 0.0214237
0.454932 0.532998 0.0428473
0.379141 0.590478 0.064271
0.303365 0.647959 0.0856947
0.227588 0.70544 0.107118
0.97673 0.302358 0.133074
0.900954 0.359838 0.154498
0.825177 0.417319 0.175906
0.749386 0.4748 0.19733
0.673609 0.53228 0.218753
0.597833 0.589761 0.240177
0.522057 0.647242 0.261601
0.446281 0.704723 0.283024
0.370489 0.762203 0.304448
1 0.359121 0.330404
1 0.416602 0.351812
0.968078 0.474083 0.373236
0.892302 0.531563 0.394659
0.816526 0.589044 0.416083
0.740734 0.646525 0.437507
0.664958 0.704005 0.45893
0.589181 0.761486 0.480339
0.513405 0.818967 0.501762
1 0.415885 0.527718
1 0.47335 0.549142
1 0.530831 0.570565
1 0.588312 0.591989
0.959426 0.645792 0.613413
0.88365 0.703273 0.634836
0.807874 0.760754 0.656245
0.732097 0.818235 0.677668
0.656306 0.875715 0.699092
1 0.472633 0.725048
1 0.530114 0.746471
1 0.587594 0.767895
1 0.645075 0.789319
1 0.702556 0.810727
1 0.760037 0.832151
0.950774 0.817517 0.853574
0.874998 0.874998 0.874998
0.799222 0.932479 0.896422
1 0.529397 0.922377
1 0.586877 0.943801
1 0.644358 0.965225
1 0.701839 0.986633
1 0.759319 1
1 0.8168 1
1 0.874281 1
1 0.931762 1
0.942123 0.989242 1
0.462974 0.0860914 0
0.387213 0.143572 0
0.311437 0.201053 0
0.235645 0.258534 0
0.159869 0.316014 0
0.0840925 0.373495 0
0.00831617 0.430976 0
0 0.488457 0
0 0.545937 0
0.605875 0.14284 0
0.530098 0.20032 0
0.454322 0.257801 0
0.378546 0.315282 0
0.30277 0.372763 0
0.226978 0.430243 0
0.151202 0.487724 0
0.0754253 0.545205 0
0 0.602686 0
0.748775 0.199603 0
0.673014 0.257084 0
0.597223 0.314565 0
0.521447 0.372045 0
0.44567 0.429526 0
0.369894 0.487007 0
0.294118 0.544488 0
0.218326 0.601968 0
0.14255 0.659449 0
0.891691 0.256367 0
0.815915 0.313832 0
0.740139 0.371313 0
0.664363 0.428794 0
0.588571 0.486275 0
0.512795 0.543755 0
0.437018 0.601236 0
0.361242 0.658717 0
0.285466 0.716197 0.0133669
1 0.31313 0.0393225
0.958831 0.370596 0.0607462
0.88304 0.428077 0.0821698
0.807263 0.485557 0.103593
0.731487 0.543038 0.125017
0.655711 0.600519 0.146426
0.579934 0.658 0.167849
0.504143 0.71548 0.189273
0.428367 0.772961 0.210697
1 0.369879 0.236652
1 0.427359 0.258076
1 0.48484 0.2795
0.950179 0.542321 0.300908
0.874388 0.599802 0.322332
0.798611 0.657282 0.343755
0.722835 0.714763 0.365179
0.647059 0.772244 0.386603
0.571283 0.829725 0.408026
1 0.426642 0.433982
1 0.484123 0.455406
1 0.541604 0.476814
1 0.599084 0.498238
1 0.656565 0.519661
0.941527 0.714046 0.541085
0.865736 0.771527 0.562509
0.78996 0.829007 0.583932
0.714183 0.886488 0.605341
1 0.483406 0.631312
1 0.540871 0.65272
1 0.598352 0.674144
1 0.655833 0.695567
1 0.713314 0.716991
1 0.770794 0.738415
1 0.828275 0.759838
0.932876 0.885756 0.781247
0.857099 0.943236 0.80267
1 0.540154 0.828626
1 0.597635 0.85005
1 0.655116 0.871473
1 0.712596 0.892897
1 0.770077 0.914321
1 0.827558 0.935729
1 0.885039 0.957153
1 0.942519 0.978576
1 1 1
