public/LUTS/Color Shift/ColorShift_28.cube
TITLE "Generated by Resolve"
LUT_3D_SIZE 5
0 0 0
0.247379 0 0.111498
0.494759 0 0.222995
0.742153 0 0.334493
0.989548 0 0.445991
0.12369 0.221241 0
0.371054 0.207691 0.046479
0.618448 0.194141 0.157977
0.865843 0.180591 0.269474
1 0.167041 0.380972
0.247379 0.442496 0
0.494759 0.428946 0
0.742138 0.415396 0.0929427
0.989532 0.401846 0.20444
1 0.388296 0.315938
0.371069 0.663752 0
0.618448 0.650202 0
0.865843 0.636652 0.027924
1 0.623102 0.139422
1 0.609552 0.250919
0.494759 0.885008 0
0.742138 0.871458 0
0.989532 0.857908 0
1 0.844358 0.074403
1 0.830808 0.185901
0 0.042298 0.20351
0.126299 0.028748 0.315007
0.373693 0.015198 0.426505
0.621088 0.00164797 0.538003
0.868467 0 0.649516
0.00260929 0.263539 0.138491
0.249989 0.249989 0.249989
0.497383 0.236439 0.361486
0.744762 0.222889 0.472984
0.992157 0.209339 0.584482
0.126314 0.484794 0.0734722
0.373678 0.471244 0.18497
0.621073 0.457694 0.296468
0.868467 0.444144 0.407965
1 0.430594 0.519463
0.250004 0.70605 0.00843824
0.497368 0.6925 0.119936
0.744762 0.67895 0.231434
0.992157 0.6654 0.342931
1 0.65185 0.454444
0.373693 0.927306 0
0.621073 0.913756 0.0549172
0.868452 0.900206 0.166415
1 0.886656 0.277913
1 0.873106 0.38941
0 0.084596 0.40705
0.00521859 0.071046 0.518532
0.252613 0.057496 0.630045
0.500008 0.043946 0.741543
0.747387 0.030396 0.85304
0 0.305837 0.342031
0.128908 0.292287 0.453513
0.376303 0.278737 0.565011
0.623682 0.265187 0.676524
0.871077 0.251637 0.788022
0.00523384 0.527092 0.276997
0.252598 0.513542 0.388495
0.499992 0.499992 0.499992
0.747387 0.486442 0.61149
0.994766 0.472892 0.722988
0.128923 0.748348 0.211978
0.376303 0.734798 0.323461
0.623682 0.721248 0.434974
0.871077 0.707698 0.546471
1 0.694148 0.657969
0.252613 0.969604 0.146944
0.499992 0.956054 0.258442
0.747372 0.942504 0.36994
0.994766 0.928954 0.481437
1 0.915404 0.592935
0 0.126894 0.610574
0 0.113344 0.722072
0.131533 0.099794 0.83357
0.378927 0.086244 0.945068
0.626307 0.072694 1
0 0.348135 0.545556
0.00782788 0.334585 0.657053
0.255222 0.321035 0.768551
0.502617 0.307485 0.880049
0.749996 0.293935 0.991547
0 0.56939 0.480522
0.131518 0.55584 0.59202
0.378912 0.54229 0.703517
0.626307 0.52874 0.815015
0.873686 0.51519 0.926528
0.00784314 0.790646 0.415503
0.255222 0.777096 0.527001
0.502602 0.763546 0.638498
0.749996 0.749996 0.749996
0.997391 0.736446 0.861494
0.131533 1 0.350484
0.378912 0.998352 0.461967
0.626307 0.984802 0.573465
0.873686 0.971252 0.684977
1 0.957702 0.796475
0 0.169192 0.814099
0 0.155642 0.925597
0.0104524 0.142092 1
0.257847 0.128542 1
0.505241 0.114992 1
0 0.390448 0.749081
0 0.376883 0.860578
0.134142 0.363333 0.972076
0.381537 0.349783 1
0.628916 0.336233 1
0 0.611704 0.684062
0.0104524 0.598138 0.795544
0.257832 0.584588 0.907057
0.505226 0.571038 1
0.752621 0.557488 1
0 0.832944 0.619028
0.134142 0.819394 0.730526
0.381521 0.805844 0.842023
0.628916 0.792294 0.953521
0.87631 0.778744 1
0.0104524 1 0.554009
0.257832 1 0.665507
0.505226 1 0.777005
0.752605 1 0.888502
1 1 1
