public/LUTS/Color Shift/ColorShift_82.cube
TITLE "Generated by Resolve"
LUT_3D_SIZE 5
0 0 0
0.292439 0 0.296757
0.584909 0 0.59353
0.877379 0 0.890303
1 0 1
0.299809 0.188952 0
0.592264 0.138064 0.071931
0.884718 0.0871595 0.368704
1 0.0362707 0.665476
1 0 0.962249
0.599649 0.377905 0
0.892088 0.327016 0
1 0.276127 0.143847
1 0.225223 0.440635
1 0.174334 0.737408
0.899474 0.566873 0
1 0.515984 0
1 0.46508 0
1 0.414191 0.215778
1 0.363287 0.512551
1 0.755825 0
1 0.704936 0
1 0.654047 0
1 0.603143 0
1 0.552254 0.287709
0 0.111925 0.178058
0 0.0610361 0.474815
0.242634 0.0101472 0.771603
0.535103 0 1
0.827558 0 1
0 0.300877 0
0.249989 0.249989 0.249989
0.542458 0.1991 0.546761
0.834913 0.148196 0.843534
1 0.0973068 1
0.257374 0.489845 0
0.549828 0.438956 0.0251469
0.842283 0.388052 0.32192
1 0.337163 0.618692
1 0.286259 0.915465
0.557214 0.678798 0
0.849653 0.627909 0
1 0.57702 0.0970779
1 0.526116 0.393851
1 0.475227 0.690623
0.857038 0.867765 0
1 0.816876 0
1 0.765972 0
1 0.715084 0.168994
1 0.664179 0.465782
0 0.223865 0.356146
0 0.172976 0.652903
0 0.122087 0.949676
0.192813 0.0711833 1
0.485267 0.0202945 1
0 0.412818 0.131304
0 0.361929 0.428061
0.200153 0.311025 0.724834
0.492622 0.260136 1
0.785092 0.209247 1
0 0.601785 0
0.207523 0.550881 0.20322
0.499992 0.499992 0.499992
0.792462 0.449104 0.796765
1 0.398199 1
0.214908 0.790738 0
0.507362 0.739849 0
0.799832 0.68896 0.275151
1 0.638056 0.571923
1 0.587167 0.868696
0.514748 0.979706 0
0.807187 0.928801 0
1 0.877913 0.0502937
1 0.827024 0.347082
1 0.77612 0.643854
0 0.335805 0.534218
0 0.284916 0.830976
0 0.234028 1
0 0.183124 1
0.142977 0.132235 1
0 0.524758 0.309377
0 0.473869 0.606134
0 0.422965 0.902907
0.150332 0.372076 1
0.442802 0.321187 1
0 0.71371 0.084535
0 0.662821 0.381292
0.157702 0.611933 0.678065
0.450156 0.561028 0.974838
0.742626 0.51014 1
0 0.902678 0
0.165072 0.851789 0.156451
0.457527 0.800885 0.453223
0.749996 0.749996 0.749996
1 0.699107 1
0.172457 1 0
0.464897 1 0
0.757366 0.989853 0.228382
1 0.938964 0.525154
1 0.88806 0.821927
0 0.447745 0.712291
0 0.396857 1
0 0.345953 1
0 0.295064 1
0 0.244175 1
0 0.636698 0.487449
0 0.585809 0.784207
0 0.534905 1
0 0.484016 1
0.100496 0.433112 1
0 0.82565 0.262608
0 0.774762 0.559365
0 0.723873 0.856138
0.107866 0.672969 1
0.400336 0.62208 1
0 1 0.0377661
0 0.963729 0.334524
0.115236 0.912825 0.631296
0.407706 0.861936 0.928069
0.70016 0.811032 1
0 1 0
0.122606 1 0.109667
0.415076 1 0.406455
0.70753 1 0.703227
1 1 1
