public/LUTS/Color Shift/ColorShift_33.cube
TITLE "Generated by Resolve"
LUT_3D_SIZE 5
0 0 0
0.174014 0 0.212451
0.348028 0 0.424918
0.522057 0 0.637385
0.696071 0 0.849867
0.277928 0.172976 0
0.451942 0.16846 0.162936
0.625956 0.163928 0.375402
0.799969 0.159411 0.587869
0.973999 0.154894 0.800336
0.555871 0.345968 0
0.729885 0.341436 0.113405
0.903899 0.336919 0.325872
1 0.332403 0.538338
1 0.327871 0.75082
0.833814 0.518944 0
1 0.514427 0.0638895
1 0.509911 0.276356
1 0.505379 0.488823
1 0.500862 0.701289
1 0.691936 0
1 0.687419 0.0143587
1 0.682887 0.226825
1 0.67837 0.439292
1 0.673854 0.651759
0 0.081529 0.0870527
0 0.0770123 0.299504
0.14609 0.0724956 0.511986
0.320104 0.0679637 0.724453
0.494118 0.063447 0.936919
0.0759747 0.254505 0.0375372
0.249989 0.249989 0.249989
0.424002 0.245472 0.462455
0.598032 0.24094 0.674922
0.772045 0.236423 0.887388
0.353918 0.427497 0
0.527932 0.42298 0.200458
0.701946 0.418448 0.41294
0.875975 0.413931 0.625406
1 0.409415 0.837873
0.631861 0.600488 0
0.805875 0.595956 0.150942
0.979889 0.59144 0.363409
1 0.586923 0.575875
1 0.582391 0.788342
0.909804 0.77348 0
1 0.768948 0.101411
1 0.764431 0.313878
1 0.759899 0.526345
1 0.755383 0.738827
0 0.163073 0.174121
0 0.158556 0.386572
0 0.154025 0.599039
0.118151 0.149508 0.811505
0.292165 0.144991 1
0 0.336049 0.12459
0.0480354 0.331533 0.337041
0.222049 0.327001 0.549523
0.396063 0.322484 0.76199
0.570092 0.317968 0.974456
0.151965 0.509041 0.0750744
0.325978 0.504509 0.287526
0.499992 0.499992 0.499992
0.674006 0.495476 0.712459
0.848035 0.490944 0.924926
0.429908 0.682017 0.0255436
0.603922 0.677501 0.237995
0.777935 0.672984 0.450462
0.951949 0.668452 0.662943
1 0.663935 0.87541
0.707851 0.855009 0
0.881849 0.850492 0.188479
1 0.84596 0.400946
1 0.841443 0.613413
1 0.836927 0.825879
0 0.244617 0.261173
0 0.240085 0.473625
0 0.235569 0.686091
0 0.231052 0.898573
0.0902113 0.22652 1
0 0.417594 0.211658
0 0.413062 0.424109
0.0200961 0.408545 0.636576
0.19411 0.404028 0.849042
0.368139 0.399496 1
0 0.59057 0.162127
0.12401 0.586053 0.374578
0.298039 0.581537 0.587045
0.472053 0.577005 0.799527
0.646067 0.572488 1
0.227939 0.763561 0.112612
0.401953 0.759045 0.325063
0.575982 0.754513 0.53753
0.749996 0.749996 0.749996
0.92401 0.74548 0.962463
0.505882 0.936553 0.0630808
0.679896 0.932021 0.275532
0.853925 0.927504 0.487999
1 0.922988 0.700465
1 0.918456 0.912947
0 0.326146 0.348241
0 0.32163 0.560693
0 0.317113 0.773159
0 0.312581 0.985626
0 0.308064 1
0 0.499123 0.298711
0 0.494606 0.511162
0 0.490089 0.723644
0 0.485557 0.93611
0.166171 0.481041 1
0 0.672114 0.249195
0 0.667597 0.461646
0.0960708 0.663066 0.674113
0.2701 0.658549 0.88658
0.444114 0.654032 1
0.0259861 0.845106 0.199664
0.2 0.840574 0.412116
0.374014 0.836057 0.624582
0.548043 0.83154 0.837049
0.722057 0.827008 1
0.303929 1 0.150134
0.477943 1 0.3626
0.651957 1 0.575067
0.825986 1 0.787533
1 1 1
