public/LUTS/Color Shift/ColorShift_46.cube
TITLE "Generated by Resolve"
LUT_3D_SIZE 5
0 0 0
0 0.0899062 0.162005
0 0.179797 0.324041
0 0.269703 0.486061
0 0.359609 0.648081
0.39704 0.0938277 0.288212
0.277928 0.183719 0.450217
0.158816 0.273625 0.612238
0.039704 0.363531 0.774273
0 0.453437 0.936294
0.79411 0.18764 0.57644
0.674998 0.277546 0.738445
0.555886 0.367453 0.900481
0.436774 0.457359 1
0.317662 0.547265 1
1 0.281468 0.864668
1 0.371374 1
0.952956 0.46128 1
0.833844 0.551186 1
0.714733 0.641093 1
1 0.375296 1
1 0.465202 1
1 0.555108 1
1 0.645014 1
1 0.734905 1
0 0.0662699 0
0 0.156161 0
0 0.246067 0.123796
0 0.335973 0.285817
0 0.425879 0.447837
0.3691 0.160082 0.0879835
0.249989 0.249989 0.249989
0.130877 0.339895 0.412009
0.0117647 0.429801 0.574029
0 0.519707 0.736049
0.766155 0.25391 0.376211
0.647059 0.343816 0.538216
0.527947 0.433722 0.700236
0.408835 0.523629 0.862257
0.289723 0.613535 1
1 0.347738 0.664439
1 0.437644 0.826444
0.925002 0.52755 0.988464
0.80589 0.617456 1
0.686778 0.707347 1
1 0.441566 0.952667
1 0.531472 1
1 0.621378 1
1 0.711269 1
1 0.801175 1
0 0.13254 0
0 0.222446 0
0 0.312352 0
0 0.402243 0.0855726
0 0.492149 0.247593
0.341146 0.226368 0
0.222034 0.316258 0.0497444
0.102922 0.406165 0.211765
0 0.496071 0.373785
0 0.585977 0.535805
0.738216 0.320195 0.175952
0.619104 0.410086 0.337972
0.499992 0.499992 0.499992
0.38088 0.589899 0.662013
0.261769 0.679805 0.824033
1 0.414008 0.464195
1 0.503914 0.6262
0.897063 0.59382 0.78822
0.777951 0.683726 0.95024
0.658839 0.773632 1
1 0.507836 0.752422
1 0.597742 0.914427
1 0.687648 1
1 0.777554 1
1 0.86746 1
0 0.19881 0
0 0.288716 0
0 0.378622 0
0 0.468528 0
0 0.558434 0.0473487
0.313191 0.292638 0
0.194095 0.382528 0
0.0749828 0.472435 0.0115206
0 0.562341 0.173541
0 0.652247 0.335561
0.710262 0.386465 0
0.59115 0.476356 0.137728
0.472038 0.566262 0.299748
0.352926 0.656168 0.461769
0.233814 0.746075 0.623789
1 0.480293 0.263935
0.98822 0.570184 0.425956
0.869108 0.66009 0.587976
0.749996 0.749996 0.749996
0.630884 0.839902 0.912016
1 0.574121 0.552163
1 0.664012 0.714183
1 0.753918 0.876204
1 0.843824 1
1 0.93373 1
0 0.265095 0
0 0.354986 0
0 0.444892 0
0 0.534798 0
0 0.624704 0
0.285252 0.358907 0
0.16614 0.448814 0
0.0470283 0.53872 0
0 0.628611 0
0 0.718517 0.135317
0.682307 0.452735 0
0.56321 0.542641 0
0.444099 0.632532 0.0995041
0.324987 0.722438 0.261524
0.205875 0.812345 0.423545
1 0.546563 0.0636912
0.960266 0.636454 0.225711
0.841154 0.72636 0.387732
0.722042 0.816266 0.549752
0.60293 0.906172 0.711772
1 0.640391 0.351919
1 0.730282 0.513939
1 0.820188 0.675959
1 0.910094 0.83798
1 1 1
