public/LUTS/Color Shift/ColorShift_57.cube
TITLE "Generated by Resolve"
LUT_3D_SIZE 9
0 0 0
0 0.0779431 0
0 0.155886 0
0 0.233829 0
0 0.311788 0
0 0.389731 0
0 0.467674 0
0 0.545632 0
0 0.623575 0
0.0250858 0.0805066 0.287388
0 0.15845 0.191516
0 0.236393 0.0956283
0 0.314351 0
0 0.392294 0
0 0.470237 0
0 0.548196 0
0 0.626139 0
0 0.704082 0
0.0501717 0.161028 0.574823
0 0.238972 0.478935
0 0.316915 0.383047
0 0.394873 0.287175
0 0.472816 0.191287
0 0.550759 0.0953994
0 0.628717 0
0 0.706661 0
0 0.784619 0
0.0752575 0.24155 0.862242
0 0.319493 0.766369
0 0.397436 0.670481
0 0.475395 0.574594
0 0.553338 0.478706
0 0.631296 0.382818
0 0.709239 0.286931
0 0.787182 0.191043
0 0.865141 0.0951553
0.100343 0.322072 1
0.00662242 0.400015 1
0 0.477974 0.9579
0 0.555917 0.862013
0 0.63386 0.76614
0 0.711818 0.670253
0 0.789761 0.574365
0 0.867704 0.478477
0 0.945663 0.382589
0.125429 0.402609 1
0.0317082 0.480537 1
0 0.558495 1
0 0.636439 1
0 0.714382 1
0 0.79234 0.957671
0 0.870283 0.861784
0 0.948226 0.765896
0 1 0.670008
0.150515 0.483131 1
0.0567941 0.561059 1
0 0.639017 1
0 0.71696 1
0 0.794903 1
0 0.872862 1
0 0.950805 1
0 1 1
0 1 0.957443
0.175601 0.563653 1
0.0818799 0.641581 1
0 0.719539 1
0 0.797482 1
0 0.875425 1
0 0.953384 1
0 1 1
0 1 1
0 1 1
0.200687 0.644175 1
0.106966 0.722103 1
0.0132296 0.800061 1
0 0.878004 1
0 0.955947 1
0 1 1
0 1 1
0 1 1
0 1 1
0.193622 0 0
0.0999008 0.04448 0
0.0061799 0.122423 0
0 0.200366 0
0 0.278325 0
0 0.356268 0
0 0.434211 0
0 0.512169 0
0 0.590112 0
0.218708 0.0470436 0.220859
0.124987 0.124987 0.124987
0.0312505 0.20293 0.029099
0 0.280888 0
0 0.358831 0
0 0.436774 0
0 0.514733 0
0 0.592676 0
0 0.670619 0
0.243793 0.127565 0.508293
0.150072 0.205509 0.412406
0.0563363 0.283452 0.316533
0 0.36141 0.220645
0 0.439353 0.124758
0 0.517296 0.0288701
0 0.595254 0
0 0.673198 0
0 0.751141 0
0.268879 0.208087 0.795712
0.175158 0.28603 0.69984
0.0814221 0.363973 0.603952
0 0.441932 0.508064
0 0.519875 0.412177
0 0.597818 0.316289
0 0.675776 0.220401
0 0.753719 0.124514
0 0.831662 0.0286259
0.293965 0.288609 1
0.200244 0.366552 0.987259
0.106508 0.444495 0.891371
0.0127871 0.522454 0.795483
0 0.600397 0.699611
0 0.67834 0.603723
0 0.756298 0.507836
0 0.834241 0.411948
0 0.912184 0.31606
0.319051 0.369131 1
0.22533 0.447074 1
0.131594 0.525017 1
0.0378729 0.602975 1
0 0.680919 0.98703
0 0.758862 0.891142
0 0.83682 0.795254
0 0.914763 0.699367
0 0.992706 0.603479
0.344137 0.449653 1
0.250416 0.527596 1
0.15668 0.605539 1
0.0629587 0.683497 1
0 0.76144 1
0 0.839399 1
0 0.917342 1
0 0.995285 0.986801
0 1 0.890913
0.369223 0.530175 1
0.275502 0.608118 1
0.181781 0.686076 1
0.0880446 0.764019 1
0 0.841962 1
0 0.919921 1
0 0.997864 1
0 1 1
0 1 1
0.394308 0.610697 1
0.300587 0.68864 1
0.206867 0.766598 1
0.11313 0.844541 1
0.0193942 0.922484 1
0 1 1
0 1 1
0 1 1
0 1 1
0.387274 0 0
0.293553 0.0110018 0
0.199817 0.0889601 0
0.106081 0.166903 0
0.0123598 0.244846 0
0 0.322805 0
0 0.400748 0
0 0.478691 0
0 0.556649 0
0.41236 0.0135805 0.15433
0.318639 0.0915236 0.0584421
0.224903 0.169467 0
0.131167 0.24741 0
0.0374456 0.325368 0
0 0.403311 0
0 0.481254 0
0 0.559213 0
0 0.637156 0
0.437446 0.0941024 0.441749
0.343725 0.172045 0.345876
0.249989 0.249989 0.249989
0.156252 0.327932 0.154101
0.0625315 0.40589 0.0582132
0 0.483833 0
0 0.561776 0
0 0.639735 0
0 0.717678 0
0.462531 0.174624 0.729183
0.368811 0.252567 0.633295
0.275074 0.33051 0.537408
0.181338 0.408453 0.441535
0.0876173 0.486412 0.345647
0 0.564355 0.24976
0 0.642298 0.153872
0 0.720256 0.0579843
0 0.798199 0
0.487617 0.255146 1
0.393896 0.333089 0.920729
0.30016 0.411032 0.824842
0.206424 0.488975 0.728954
0.112703 0.566934 0.633066
0.018967 0.644877 0.537179
0 0.72282 0.441291
0 0.800778 0.345403
0 0.878721 0.249516
0.512703 0.335668 1
0.418982 0.413611 1
0.325246 0.491554 1
0.23151 0.569497 1
0.137789 0.647456 0.920485
0.0440528 0.725399 0.824613
0 0.803342 0.728725
0 0.8813 0.632837
0 0.959243 0.53695
0.537789 0.41619 1
0.444068 0.494133 1
0.350332 0.572076 1
0.256596 0.650019 1
0.162875 0.727977 1
0.0691386 0.80592 1
0 0.883864 1
0 0.961822 0.920256
0 1 0.824369
0.562875 0.496712 1
0.469154 0.574655 1
0.375418 0.652598 1
0.281697 0.730541 1
0.187961 0.808499 1
0.0942245 0.886442 1
0.000503548 0.964401 1
0 1 1
0 1 1
0.587961 0.577234 1
0.49424 0.655177 1
0.400504 0.73312 1
0.306783 0.811078 1
0.213046 0.889021 1
0.11931 0.966964 1
0.0255894 1 1
0 1 1
0 1 1
0.580911 0 0
0.48719 0 0
0.393469 0.0554818 0
0.299733 0.13344 0
0.205997 0.211383 0
0.112276 0.289326 0
0.0185397 0.367285 0
0 0.445228 0
0 0.523171 0
0.605997 0 0.0877852
0.512276 0.0580453 0
0.418555 0.136004 0
0.324819 0.213947 0
0.231083 0.29189 0
0.137362 0.369848 0
0.0436255 0.447791 0
0 0.525734 0
0 0.603693 0
0.631083 0.0606394 0.375219
0.537362 0.138567 0.279332
0.443641 0.216526 0.183444
0.349905 0.294469 0.0875715
0.256168 0.372412 0
0.162448 0.45037 0
0.0687114 0.528313 0
0 0.606256 0
0 0.684215 0
0.656168 0.141161 0.662638
0.562448 0.219089 0.566766
0.468727 0.297047 0.470878
0.37499 0.37499 0.37499
0.281254 0.452934 0.279103
0.187533 0.530892 0.183215
0.0937972 0.608835 0.0873274
6.10361e-05 0.686778 0
0 0.764736 0
0.681254 0.221683 0.950072
0.587533 0.299611 0.854185
0.493812 0.377569 0.758297
0.400076 0.455512 0.662409
0.30634 0.533455 0.566537
0.212619 0.611414 0.470649
0.118883 0.689357 0.374762
0.0251469 0.7673 0.278874
0 0.845258 0.182986
0.70634 0.302205 1
0.612619 0.380133 1
0.518898 0.458091 1
0.425162 0.536034 0.949844
0.331426 0.613977 0.853956
0.237705 0.691936 0.758068
0.143969 0.769879 0.662181
0.0502327 0.847822 0.566293
0 0.92578 0.470405
0.731426 0.382727 1
0.637705 0.460655 1
0.543984 0.538613 1
0.450248 0.616556 1
0.356512 0.694499 1
0.262791 0.772457 1
0.169055 0.850401 0.949615
0.0753185 0.928344 0.853727
0 1 0.757839
0.756512 0.463249 1
0.662791 0.541176 1
0.56907 0.619135 1
0.475334 0.697078 1
0.381598 0.775021 1
0.287877 0.852979 1
0.194141 0.930922 1
0.100404 1 1
0.00668345 1 1
0.781598 0.54377 1
0.687877 0.621698 1
0.594156 0.699657 1
0.50042 0.7776 1
0.406699 0.855543 1
0.312963 0.933501 1
0.219226 1 1
0.125505 1 1
0.0317693 1 1
0.774563 0 0
0.680842 0 0
0.587106 0.0220188 0
0.493385 0.0999619 0
0.399649 0.17792 0
0.305913 0.255863 0
0.212192 0.333806 0
0.118456 0.411765 0
0.0247196 0.489708 0
0.799649 0 0.0212558
0.705928 0.0245823 0
0.612192 0.102525 0
0.518471 0.180484 0
0.424735 0.258427 0
0.330999 0.33637 0
0.237278 0.414328 0
0.143542 0.492271 0
0.0498054 0.570214 0
0.824735 0.0271611 0.308675
0.731014 0.105104 0.212802
0.637278 0.183047 0.116915
0.543557 0.261006 0.0210269
0.449821 0.338949 0
0.356085 0.416892 0
0.262364 0.49485 0
0.168627 0.572793 0
0.0748913 0.650736 0
0.849821 0.107683 0.596109
0.7561 0.185626 0.500221
0.662364 0.263569 0.404334
0.568643 0.341527 0.308446
0.474907 0.419471 0.212573
0.38117 0.497414 0.116686
0.287449 0.575372 0.020798
0.193713 0.653315 0
0.0999771 0.731258 0
0.874907 0.188205 0.883528
0.781186 0.266148 0.787655
0.687449 0.344091 0.691768
0.593729 0.422049 0.59588
0.499992 0.499992 0.499992
0.406256 0.577935 0.404105
0.312535 0.655894 0.308217
0.218799 0.733837 0.212329
0.125063 0.81178 0.116442
0.899992 0.268727 1
0.806271 0.34667 1
0.712535 0.424613 0.979187
0.618814 0.502571 0.883299
0.525078 0.580514 0.787411
0.431342 0.658457 0.691539
0.337621 0.736416 0.595651
0.243885 0.814359 0.499763
0.150149 0.892302 0.403876
0.925078 0.349248 1
0.831357 0.427192 1
0.737621 0.505135 1
0.6439 0.583093 1
0.550164 0.661036 1
0.456428 0.738979 0.978958
0.362707 0.816938 0.88307
0.268971 0.894881 0.787182
0.175235 0.972824 0.691295
0.950164 0.42977 1
0.856443 0.507713 1
0.762707 0.585657 1
0.668986 0.663615 1
0.57525 0.741558 1
0.481514 0.819501 1
0.387793 0.897459 1
0.294057 0.975402 1
0.20032 1 0.978729
0.97525 0.510292 1
0.881529 0.588235 1
0.787793 0.666178 1
0.694072 0.744137 1
0.600336 0.82208 1
0.5066 0.900023 1
0.412879 0.977981 1
0.319142 1 1
0.225406 1 1
0.968215 0 0
0.874495 0 0
0.780758 0 0
0.687022 0.0664988 0
0.593301 0.144442 0
0.499565 0.2224 0
0.405829 0.300343 0
0.312108 0.378286 0
0.218372 0.456245 0
0.993286 0 0
0.89958 0 0
0.805844 0.0690623 0
0.712108 0.147005 0
0.618387 0.224964 0
0.524651 0.302907 0
0.430915 0.38085 0
0.337194 0.458808 0
0.243458 0.536751 0
1 0 0.242145
0.924666 0.0716411 0.146258
0.83093 0.149584 0.05037
0.737194 0.227527 0
0.643473 0.305486 0
0.549737 0.383429 0
0.456001 0.461372 0
0.36228 0.53933 0
0.268544 0.617273 0
1 0.0742199 0.529564
0.949752 0.152163 0.433692
0.856016 0.230106 0.337804
0.76228 0.308049 0.241917
0.668559 0.386007 0.146029
0.574823 0.463951 0.0501411
0.481086 0.541894 0
0.387366 0.619852 0
0.293629 0.697795 0
1 0.154742 0.816999
0.974838 0.232685 0.721111
0.881102 0.310628 0.625223
0.787366 0.388571 0.529335
0.693645 0.466529 0.433448
0.599908 0.544472 0.337575
0.506172 0.622415 0.241688
0.412451 0.700374 0.1458
0.318715 0.778317 0.0499123
1 0.235264 1
0.999924 0.313207 1
0.906188 0.39115 0.912657
0.812451 0.469093 0.81677
0.71873 0.547051 0.720882
0.624994 0.624994 0.624994
0.531258 0.702937 0.529107
0.437537 0.780896 0.433219
0.343801 0.858839 0.337331
1 0.315785 1
1 0.393729 1
0.931273 0.471672 1
0.837537 0.549615 1
0.743816 0.627573 1
0.65008 0.705516 0.912413
0.556344 0.783459 0.816526
0.462623 0.861418 0.720653
0.368887 0.939361 0.624765
1 0.396307 1
1 0.47425 1
0.956359 0.552193 1
0.862623 0.630137 1
0.768902 0.708095 1
0.675166 0.786038 1
0.58143 0.863981 1
0.487709 0.941939 1
0.393973 1 0.912184
1 0.476829 1
1 0.554772 1
0.981445 0.632715 1
0.887709 0.710658 1
0.793988 0.788617 1
0.700252 0.86656 1
0.606516 0.944503 1
0.512795 1 1
0.419059 1 1
1 0 0
1 0 0
0.974411 0 0
0.880674 0.0330205 0
0.786938 0.110979 0
0.693217 0.188922 0
0.599481 0.266865 0
0.505745 0.344823 0
0.412024 0.422766 0
1 0 0
1 0 0
0.999481 0.0355993 0
0.90576 0.113542 0
0.812024 0.191485 0
0.718303 0.269444 0
0.624567 0.347387 0
0.530831 0.42533 0
0.43711 0.503288 0
1 0 0.175601
1 0.0381628 0.0797284
1 0.116121 0
0.930846 0.194064 0
0.83711 0.272007 0
0.743389 0.349966 0
0.649653 0.427909 0
0.555917 0.505852 0
0.462196 0.58381 0
1 0.0407568 0.463035
1 0.118685 0.367147
1 0.196643 0.27126
0.955932 0.274586 0.175372
0.862196 0.352529 0.0794995
0.768475 0.430488 0
0.674739 0.508431 0
0.581003 0.586374 0
0.487282 0.664332 0
1 0.121279 0.750454
1 0.199207 0.654582
1 0.277165 0.558694
0.981018 0.355108 0.462806
0.887282 0.433051 0.366918
0.793561 0.511009 0.271031
0.699825 0.588952 0.175143
0.606088 0.666896 0.0792554
0.512367 0.744854 0
1 0.201801 1
1 0.279728 0.942
1 0.357687 0.846113
1 0.43563 0.750225
0.912367 0.513573 0.654337
0.818647 0.591531 0.55845
0.72491 0.669474 0.462577
0.631174 0.747417 0.36669
0.537453 0.825376 0.270802
1 0.282322 1
1 0.36025 1
1 0.438209 1
1 0.516152 1
0.937453 0.594095 0.941772
0.843732 0.672053 0.845884
0.749996 0.749996 0.749996
0.65626 0.827939 0.654108
0.562539 0.905898 0.558221
1 0.362844 1
1 0.440772 1
1 0.51873 1
1 0.596674 1
0.962539 0.674617 1
0.868818 0.752575 1
0.775082 0.830518 1
0.681346 0.908461 0.941543
0.587625 0.986419 0.845655
1 0.443366 1
1 0.521294 1
1 0.599252 1
1 0.677195 1
0.987625 0.755138 1
0.893904 0.833097 1
0.800168 0.91104 1
0.706432 0.988983 1
0.612711 1 1
1 0 0
1 0 0
1 0 0
1 0 0
0.980591 0.0775006 0
0.886854 0.155459 0
0.793133 0.233402 0
0.699397 0.311345 0
0.605661 0.389303 0
1 0 0
1 0 0
1 0.002121 0
1 0.0800641 0
1 0.158022 0
0.91194 0.235966 0
0.818204 0.313909 0
0.724483 0.391867 0
0.630747 0.46981 0
1 0 0.109071
1 0.00469978 0.0131838
1 0.0826429 0
1 0.160601 0
1 0.238544 0
0.937026 0.316487 0
0.84329 0.394446 0
0.749569 0.472389 0
0.655833 0.550332 0
1 0.00727855 0.39649
1 0.0852216 0.300618
1 0.163165 0.20473
1 0.241123 0.108843
1 0.319066 0.0129549
0.962112 0.397009 0
0.868391 0.474968 0
0.774655 0.552911 0
0.680919 0.630854 0
1 0.0878004 0.683925
1 0.165743 0.588037
1 0.243687 0.492149
1 0.321645 0.396262
1 0.399588 0.300374
0.987198 0.477531 0.204501
0.893477 0.555489 0.108614
0.799741 0.633433 0.012726
0.706004 0.711376 0
1 0.168322 0.971344
1 0.246265 0.875471
1 0.324208 0.779583
1 0.402167 0.683696
1 0.48011 0.587808
1 0.558053 0.49192
0.918563 0.636011 0.396033
0.824826 0.713954 0.300145
0.73109 0.791897 0.204257
1 0.248844 1
1 0.326787 1
1 0.40473 1
1 0.482689 0.971115
1 0.560632 0.875227
1 0.638575 0.779339
0.943648 0.716533 0.683452
0.849912 0.794476 0.587579
0.756176 0.872419 0.491691
1 0.329366 1
1 0.407309 1
1 0.485252 1
1 0.56321 1
1 0.641154 1
1 0.719097 1
0.968734 0.797055 0.970886
0.874998 0.874998 0.874998
0.781262 0.952941 0.77911
1 0.409888 1
1 0.487831 1
1 0.565774 1
1 0.643732 1
1 0.721675 1
1 0.799619 1
0.99382 0.877577 1
0.900084 0.95552 1
0.806348 1 1
1 0 0
1 0 0
1 0 0
1 0 0
1 0.0440375 0
1 0.121981 0
0.98677 0.199939 0
0.89305 0.277882 0
0.799313 0.355825 0
1 0 0
1 0 0
1 0 0
1 0.0466011 0
1 0.124544 0
1 0.202502 0
1 0.280446 0
0.91812 0.358389 0
0.824399 0.436347 0
1 0 0.0425269
1 0 0
1 0.0491798 0
1 0.127123 0
1 0.205066 0
1 0.283024 0
1 0.360967 0
0.943206 0.438911 0
0.849485 0.516869 0
1 0 0.329961
1 0.0517433 0.234073
1 0.129702 0.138186
1 0.207645 0.042298
1 0.285603 0
1 0.363546 0
1 0.441489 0
0.968292 0.519448 0
0.874571 0.597391 0
1 0.0543374 0.61738
1 0.13228 0.521508
1 0.210224 0.42562
1 0.288167 0.329732
1 0.366125 0.233845
1 0.444068 0.137957
1 0.522011 0.0420691
0.993393 0.59997 0
0.899657 0.677913 0
1 0.134859 0.904799
1 0.212802 0.808927
1 0.290745 0.713039
1 0.368688 0.617151
1 0.446647 0.521263
1 0.52459 0.425376
1 0.602533 0.329503
1 0.680491 0.233616
0.924743 0.758434 0.137728
1 0.215381 1
1 0.293324 1
1 0.371267 1
1 0.44921 0.904585
1 0.527169 0.808698
1 0.605112 0.71281
1 0.683055 0.616922
1 0.761013 0.521035
0.949828 0.838956 0.425147
1 0.295903 1
1 0.373846 1
1 0.451789 1
1 0.529732 1
1 0.607691 1
1 0.685634 1
1 0.763577 0.904341
1 0.841535 0.808454
0.974914 0.919478 0.712581
1 0.376425 1
1 0.454368 1
1 0.532311 1
1 0.610254 1
1 0.688212 1
1 0.766155 1
1 0.844099 1
1 0.922057 1
1 1 1
