public/LUTS/Color Shift/ColorShift_53.cube
TITLE "Generated by Resolve"
LUT_3D_SIZE 5
0 0 0
0 0.164782 0
0 0.329564 0
0 0.494362 0
0 0.659159 0
0.262211 0.0963607 0.583017
0 0.261143 0.535225
0 0.42594 0.487419
0 0.590723 0.439628
0 0.75552 0.391836
0.524437 0.192737 1
0.245655 0.357519 1
0 0.522316 1
0 0.687099 1
0 0.851896 0.974884
0.786664 0.289113 1
0.507881 0.453895 1
0.229068 0.618677 1
0 0.783475 1
0 0.948272 1
1 0.385489 1
0.770108 0.550271 1
0.491295 0.715053 1
0.212482 0.87985 1
0 1 1
0.266575 0 0
0 0.153628 0
0 0.31841 0
0 0.483207 0
0 0.64799 0
0.528786 0.0852064 0.29778
0.249989 0.249989 0.249989
0 0.414786 0.202197
0 0.579568 0.154391
0 0.744366 0.1066
0.791012 0.181582 0.880827
0.512215 0.346365 0.833036
0.233402 0.511147 0.785245
0 0.675944 0.737438
0 0.840726 0.689647
1 0.277958 1
0.774441 0.442741 1
0.495644 0.607523 1
0.216831 0.77232 1
0 0.937102 1
1 0.374334 1
1 0.539101 1
0.75787 0.703899 1
0.479057 0.868681 1
0.200244 1 1
0.53315 0 0
0.254368 0.142458 0
0 0.307256 0
0 0.472038 0
0 0.636835 0
0.795361 0.074052 0.0125277
0.516579 0.238834 0
0.237766 0.403616 0
0 0.568414 0
0 0.733196 0
1 0.170428 0.59559
0.778805 0.335195 0.547784
0.499992 0.499992 0.499992
0.22118 0.66479 0.452201
0 0.829572 0.404395
1 0.266789 1
1 0.431571 1
0.762219 0.596368 1
0.483406 0.761151 1
0.204608 0.925948 0.987442
1 0.363165 1
1 0.527947 1
1 0.692744 1
0.745632 0.857527 1
0.466835 1 1
0.799741 0 0
0.520943 0.131304 0
0.24213 0.296086 0
0 0.460883 0
0 0.625681 0
1 0.0628824 0
0.783154 0.227665 0
0.504356 0.392462 0
0.225544 0.557244 0
0 0.722042 0
1 0.159258 0.310338
1 0.324041 0.262547
0.766583 0.488838 0.21474
0.48777 0.65362 0.166949
0.208957 0.818418 0.119142
1 0.255634 0.893385
1 0.420417 0.845594
1 0.585199 0.797787
0.749996 0.749996 0.749996
0.471183 0.914794 0.702205
1 0.35201 1
1 0.516793 1
1 0.681575 1
1 0.846372 1
0.73341 1 1
1 0 0
0.787533 0.12015 0
0.508721 0.284932 0
0.229908 0.449729 0
0 0.614511 0
1 0.0517281 0
1 0.21651 0
0.770932 0.381308 0
0.492119 0.54609 0
0.213321 0.710887 0
1 0.148104 0.0250858
1 0.312886 0
1 0.477668 0
0.75436 0.642466 0
0.475547 0.807248 0
1 0.24448 0.608133
1 0.409262 0.560342
1 0.574044 0.512551
1 0.738842 0.464744
0.737774 0.903624 0.416953
1 0.340841 1
1 0.505623 1
1 0.67042 1
1 0.835203 1
1 1 1
