public/LUTS/Color Shift/ColorShift_06.cube
TITLE "Generated by Resolve"
LUT_3D_SIZE 33
0 0 0
0 0.014847 0
0 0.0296941 0
0 0.0445411 0
0 0.0593881 0
0 0.0742351 0
0 0.0890974 0
0 0.103944 0
0 0.118791 0
0 0.133639 0
0 0.148486 0
0 0.163333 0
0 0.178195 0
0 0.193042 0
0 0.207889 0
0 0.222736 0
0 0.237583 0
0 0.25243 0
0 0.267292 0
0 0.282139 0
0 0.296986 0
0 0.311833 0
0 0.32668 0
0 0.341527 0
0 0.35639 0
0 0.371237 0
0 0.386084 0
0 0.400931 0
0 0.415778 0
0 0.43064 0
0 0.445487 0
0 0.460334 0
0 0.475181 0
0.0243839 0.0171817 0.05243
0.00773632 0.0320287 0.0486763
0 0.0468757 0.0449378
0 0.0617227 0.0411841
0 0.0765698 0.0374456
0 0.0914168 0.0336919
0 0.106279 0.0299535
0 0.121126 0.026215
0 0.135973 0.0224613
0 0.15082 0.0187228
0 0.165667 0.0149691
0 0.180514 0.0112306
0 0.195377 0.00747692
0 0.210224 0.00373846
0 0.225071 0
0 0.239918 0
0 0.254765 0
0 0.269612 0
0 0.284474 0
0 0.299321 0
0 0.314168 0
0 0.329015 0
0 0.343862 0
0 0.358724 0
0 0.373571 0
0 0.388418 0
0 0.403265 0
0 0.418112 0
0 0.432959 0
0 0.447822 0
0 0.462669 0
0 0.477516 0
0 0.492363 0
0.0487678 0.0343786 0.104875
0.0321355 0.0492103 0.101137
0.0154879 0.0640574 0.0973831
0 0.0789197 0.0936446
0 0.0937667 0.0898909
0 0.108614 0.0861524
0 0.123461 0.0823987
0 0.138308 0.0786603
0 0.153155 0.0749065
0 0.168017 0.0711681
0 0.182864 0.0674144
0 0.197711 0.0636759
0 0.212558 0.0599374
0 0.227405 0.0561837
0 0.242267 0.0524453
0 0.257115 0.0486915
0 0.271962 0.0449531
0 0.286809 0.0411994
0 0.301656 0.0374609
0 0.316503 0.0337072
0 0.331365 0.0299687
0 0.346212 0.026215
0 0.361059 0.0224765
0 0.375906 0.0187228
0 0.390753 0.0149844
0 0.4056 0.0112306
0 0.420462 0.00749218
0 0.435309 0.00375372
0 0.450156 0
0 0.465003 0
0 0.47985 0
0 0.494697 0
0 0.50956 0
0.0731518 0.0515602 0.157321
0.0565194 0.0664073 0.153582
0.0398718 0.0812543 0.149844
0.0232395 0.0961013 0.14609
0.0065919 0.110948 0.142351
0 0.125811 0.138598
0 0.140658 0.134859
0 0.155505 0.131106
0 0.170352 0.127367
0 0.185199 0.123613
0 0.200046 0.119875
0 0.214908 0.116121
0 0.229755 0.112383
0 0.244602 0.108629
0 0.259449 0.104891
0 0.274296 0.101152
0 0.289143 0.0973983
0 0.304006 0.0936599
0 0.318853 0.0899062
0 0.3337 0.0861677
0 0.348547 0.082414
0 0.363394 0.0786755
0 0.378241 0.0749218
0 0.393103 0.0711833
0 0.40795 0.0674296
0 0.422797 0.0636912
0 0.437644 0.0599374
0 0.452491 0.056199
0 0.467353 0.0524453
0 0.4822 0.0487068
0 0.497047 0.0449531
0 0.511894 0.0412146
0 0.526741 0.0374762
0.0975357 0.0687572 0.209781
0.0809033 0.0835889 0.206027
0.064271 0.0984512 0.202289
0.0476234 0.113298 0.19855
0.0309758 0.128145 0.194797
0.0143282 0.142992 0.191058
0 0.157839 0.187304
0 0.172686 0.183566
0 0.187549 0.179812
0 0.202396 0.176074
0 0.217243 0.17232
0 0.23209 0.168582
0 0.246937 0.164828
0 0.261799 0.161089
0 0.276646 0.157336
0 0.291493 0.153597
0 0.30634 0.149844
0 0.321187 0.146105
0 0.336034 0.142351
0 0.350896 0.138613
0 0.365743 0.134874
0 0.380591 0.131121
0 0.395438 0.127382
0 0.410285 0.123629
0 0.425132 0.11989
0 0.439994 0.116136
0 0.454841 0.112398
0 0.469688 0.108644
0 0.484535 0.104906
0 0.499382 0.101152
0 0.514229 0.0974136
0 0.529091 0.0936599
0 0.543938 0.0899214
0.121935 0.0859388 0.262226
0.105287 0.100786 0.258488
0.0886549 0.115633 0.254734
0.0720073 0.13048 0.250996
0.0553597 0.145342 0.247242
0.0387274 0.160189 0.243503
0.0220798 0.175036 0.23975
0.00543221 0.189883 0.236011
0 0.20473 0.232273
0 0.219577 0.228519
0 0.23444 0.224781
0 0.249287 0.221027
0 0.264134 0.217288
0 0.278981 0.213535
0 0.293828 0.209796
0 0.308675 0.206043
0 0.323537 0.202304
0 0.338384 0.19855
0 0.353231 0.194812
0 0.368078 0.191058
0 0.382925 0.18732
0 0.397772 0.183566
0 0.412634 0.179828
0 0.427482 0.176089
0 0.442329 0.172335
0 0.457176 0.168597
0 0.472023 0.164843
0 0.48687 0.161105
0 0.501732 0.157351
0 0.516579 0.153613
0 0.531426 0.149859
0 0.546273 0.14612
0 0.56112 0.142367
0.146319 0.103136 0.314687
0.129686 0.117983 0.310933
0.113039 0.13283 0.307195
0.0963912 0.147677 0.303441
0.0797589 0.162524 0.299702
0.0631113 0.177371 0.295949
0.0464637 0.192218 0.29221
0.0298314 0.20708 0.288457
0.0131838 0.221927 0.284718
0 0.236774 0.280964
0 0.251621 0.277226
0 0.266468 0.273487
0 0.281315 0.269734
0 0.296178 0.265995
0 0.311025 0.262242
0 0.325872 0.258503
0 0.340719 0.254749
0 0.355566 0.251011
0 0.370428 0.247257
0 0.385275 0.243519
0 0.400122 0.239765
0 0.414969 0.236027
0 0.429816 0.232273
0 0.444663 0.228534
0 0.459525 0.224781
0 0.474372 0.221042
0 0.489219 0.217288
0 0.504067 0.21355
0 0.518914 0.209812
0 0.533761 0.206058
0 0.548623 0.202319
0 0.56347 0.198566
0 0.578317 0.194827
0.170703 0.120317 0.367132
0.15407 0.135164 0.363394
0.137423 0.150011 0.35964
0.12079 0.164874 0.355901
0.104143 0.179721 0.352148
0.0874952 0.194568 0.348409
0.0708629 0.209415 0.344656
0.0542153 0.224262 0.340917
0.0375677 0.239109 0.337163
0.0209354 0.253971 0.333425
0.00428779 0.268818 0.329671
0 0.283665 0.325933
0 0.298512 0.322179
0 0.313359 0.318441
0 0.328206 0.314687
0 0.343069 0.310948
0 0.357916 0.30721
0 0.372763 0.303456
0 0.38761 0.299718
0 0.402457 0.295964
0 0.417304 0.292226
0 0.432166 0.288472
0 0.447013 0.284733
0 0.46186 0.28098
0 0.476707 0.277241
0 0.491554 0.273487
0 0.506401 0.269749
0 0.521263 0.265995
0 0.53611 0.262257
0 0.550958 0.258503
0 0.565805 0.254765
0 0.580652 0.251026
0 0.595499 0.247272
0.195102 0.137514 0.419577
0.178454 0.152361 0.415839
0.161822 0.167208 0.412085
0.145174 0.182055 0.408347
0.128527 0.196902 0.404608
0.111894 0.211749 0.400854
0.0952468 0.226612 0.397116
0.0785992 0.241459 0.393362
0.0619669 0.256306 0.389624
0.0453193 0.271153 0.38587
0.0286717 0.286 0.382132
0.0120241 0.300847 0.378378
0 0.315709 0.37464
0 0.330556 0.370886
0 0.345403 0.367147
0 0.36025 0.363394
0 0.375097 0.359655
0 0.389944 0.355901
0 0.404807 0.352163
0 0.419654 0.348424
0 0.434501 0.344671
0 0.449348 0.340932
0 0.464195 0.337179
0 0.479057 0.33344
0 0.493904 0.329686
0 0.508751 0.325948
0 0.523598 0.322194
0 0.538445 0.318456
0 0.553292 0.314702
0 0.568154 0.310964
0 0.583001 0.30721
0 0.597848 0.303471
0 0.612696 0.299718
0.219486 0.154711 0.472038
0.202853 0.169543 0.468284
0.186206 0.18439 0.464546
0.169558 0.199252 0.460792
0.152926 0.214099 0.457053
0.136278 0.228946 0.4533
0.119631 0.243793 0.449561
0.102983 0.25864 0.445808
0.0863508 0.273503 0.442069
0.0697032 0.28835 0.438331
0.0530556 0.303197 0.434577
0.0364233 0.318044 0.430838
0.0197757 0.332891 0.427085
0.0031281 0.347738 0.423346
0 0.3626 0.419593
0 0.377447 0.415854
0 0.392294 0.4121
0 0.407141 0.408362
0 0.421988 0.404608
0 0.436835 0.40087
0 0.451698 0.397116
0 0.466545 0.393378
0 0.481392 0.389624
0 0.496239 0.385885
0 0.511086 0.382147
0 0.525933 0.378393
0 0.540795 0.374655
0 0.555642 0.370901
0 0.570489 0.367163
0 0.585336 0.363409
0 0.600183 0.35967
0 0.61503 0.355917
0 0.629892 0.352178
0.24387 0.171893 0.524483
0.227237 0.18674 0.520745
0.21059 0.201587 0.516991
0.193957 0.216434 0.513252
0.17731 0.231281 0.509499
0.160662 0.246143 0.50576
0.144015 0.26099 0.502007
0.127382 0.275837 0.498268
0.110735 0.290684 0.494514
0.0940871 0.305531 0.490776
0.0774548 0.320378 0.487022
0.0608072 0.335241 0.483284
0.0441596 0.350088 0.479545
0.0275273 0.364935 0.475792
0.0108797 0.379782 0.472053
0 0.394629 0.468299
0 0.409476 0.464561
0 0.424338 0.460807
0 0.439185 0.457069
0 0.454032 0.453315
0 0.468879 0.449577
0 0.483726 0.445823
0 0.498573 0.442084
0 0.513436 0.438331
0 0.528283 0.434592
0 0.54313 0.430838
0 0.557977 0.4271
0 0.572824 0.423346
0 0.587686 0.419608
0 0.602533 0.415869
0 0.61738 0.412116
0 0.632227 0.408377
0 0.647074 0.404623
0.268254 0.18909 0.576928
0.251621 0.203922 0.57319
0.234989 0.218784 0.569451
0.218341 0.233631 0.565698
0.201694 0.248478 0.561959
0.185046 0.263325 0.558206
0.168414 0.278172 0.554467
0.151766 0.293019 0.550713
0.135119 0.307881 0.546975
0.118486 0.322728 0.543221
0.101839 0.337575 0.539483
0.0851911 0.352422 0.535729
0.0685588 0.367269 0.531991
0.0519112 0.382132 0.528237
0.0352636 0.396979 0.524498
0.0186313 0.411826 0.520745
0.00198367 0.426673 0.517006
0 0.44152 0.513268
0 0.456367 0.509514
0 0.471229 0.505776
0 0.486076 0.502022
0 0.500923 0.498283
0 0.51577 0.49453
0 0.530617 0.490791
0 0.545464 0.487037
0 0.560327 0.483299
0 0.575174 0.479545
0 0.590021 0.475807
0 0.604868 0.472053
0 0.619715 0.468315
0 0.634562 0.464561
0 0.649424 0.460822
0 0.664271 0.457084
0.292653 0.206271 0.629389
0.27602 0.221118 0.625635
0.259373 0.235966 0.621897
0.242725 0.250813 0.618143
0.226078 0.265675 0.614404
0.209445 0.280522 0.610666
0.192798 0.295369 0.606912
0.17615 0.310216 0.603174
0.159518 0.325063 0.59942
0.14287 0.33991 0.595682
0.126223 0.354772 0.591928
0.10959 0.369619 0.58819
0.0929427 0.384466 0.584436
0.0762951 0.399313 0.580697
0.0596628 0.41416 0.576944
0.0430152 0.429007 0.573205
0.0263676 0.44387 0.569451
0.00972 0.458717 0.565713
0 0.473564 0.561959
0 0.488411 0.558221
0 0.503258 0.554482
0 0.518105 0.550729
0 0.532967 0.54699
0 0.547814 0.543236
0 0.562661 0.539498
0 0.577508 0.535744
0 0.592355 0.532006
0 0.607202 0.528252
0 0.622065 0.524514
0 0.636912 0.52076
0 0.651759 0.517021
0 0.666606 0.513268
0 0.681453 0.509529
0.317037 0.223468 0.681834
0.300404 0.238315 0.678096
0.283757 0.253162 0.674342
0.267109 0.268009 0.670604
0.250477 0.282856 0.66685
0.233829 0.297704 0.663111
0.217182 0.312551 0.659358
0.200549 0.327413 0.655619
0.183902 0.34226 0.651865
0.167254 0.357107 0.648127
0.150622 0.371954 0.644388
0.133974 0.386801 0.640635
0.117327 0.401648 0.636896
0.100679 0.41651 0.633143
0.0840467 0.431357 0.629404
0.0673991 0.446204 0.62565
0.0507515 0.461051 0.621912
0.0341192 0.475898 0.618158
0.0174716 0.490761 0.61442
0.000823987 0.505608 0.610666
0 0.520455 0.606928
0 0.535302 0.603174
0 0.550149 0.599435
0 0.564996 0.595682
0 0.579858 0.591943
0 0.594705 0.588205
0 0.609552 0.584451
0 0.624399 0.580713
0 0.639246 0.576959
0 0.654093 0.57322
0 0.668956 0.569467
0 0.683803 0.565728
0 0.69865 0.561975
0.341421 0.24065 0.734279
0.324788 0.255497 0.730541
0.308141 0.270344 0.726802
0.291508 0.285206 0.723049
0.274861 0.300053 0.71931
0.258213 0.3149 0.715557
0.241581 0.329747 0.711818
0.224933 0.344594 0.708064
0.208286 0.359442 0.704326
0.191653 0.374304 0.700572
0.175006 0.389151 0.696834
0.158358 0.403998 0.69308
0.141711 0.418845 0.689342
0.125078 0.433692 0.685603
0.108431 0.448539 0.681849
0.091783 0.463401 0.678111
0.0751507 0.478248 0.674357
0.0585031 0.493095 0.670619
0.0418555 0.507942 0.666865
0.0252232 0.522789 0.663127
0.00857557 0.537636 0.659373
0 0.552499 0.655634
0 0.567346 0.651881
0 0.582193 0.648142
0 0.59704 0.644388
0 0.611887 0.64065
0 0.626734 0.636896
0 0.641596 0.633158
0 0.656443 0.629419
0 0.67129 0.625666
0 0.686137 0.621927
0 0.700984 0.618173
0 0.715846 0.614435
0.36582 0.257847 0.78674
0.349172 0.272694 0.783001
0.33254 0.287541 0.779248
0.315892 0.302388 0.775509
0.299245 0.317235 0.771756
0.282612 0.332082 0.768017
0.265965 0.346944 0.764263
0.249317 0.361791 0.760525
0.232685 0.376638 0.756771
0.216037 0.391485 0.753033
0.19939 0.406332 0.749279
0.182742 0.42118 0.745541
0.16611 0.436042 0.741787
0.149462 0.450889 0.738048
0.132815 0.465736 0.734295
0.116182 0.480583 0.730556
0.0995346 0.49543 0.726802
0.082887 0.510277 0.723064
0.0662547 0.525139 0.719326
0.0496071 0.539986 0.715572
0.0329595 0.554833 0.711833
0.0163272 0.56968 0.70808
0 0.584527 0.704341
0 0.59939 0.700587
0 0.614237 0.696849
0 0.629084 0.693095
0 0.643931 0.689357
0 0.658778 0.685603
0 0.673625 0.681865
0 0.688487 0.678111
0 0.703334 0.674372
0 0.718181 0.670619
0 0.733028 0.66688
0.390204 0.275044 0.839185
0.373571 0.289876 0.835447
0.356924 0.304723 0.831693
0.340276 0.319585 0.827955
0.323644 0.334432 0.824201
0.306996 0.349279 0.820462
0.290349 0.364126 0.816724
0.273716 0.378973 0.81297
0.257069 0.393835 0.809232
0.240421 0.408682 0.805478
0.223774 0.423529 0.80174
0.207141 0.438376 0.797986
0.190494 0.453223 0.794247
0.173846 0.468071 0.790494
0.157214 0.482933 0.786755
0.140566 0.49778 0.783001
0.123919 0.512627 0.779263
0.107286 0.527474 0.775509
0.0906386 0.542321 0.771771
0.073991 0.557168 0.768017
0.0573587 0.57203 0.764279
0.0407111 0.586877 0.76054
0.0240635 0.601724 0.756786
0.00741588 0.616571 0.753048
0 0.631418 0.749294
0 0.646265 0.745556
0 0.661128 0.741802
0 0.675975 0.738064
0 0.690822 0.73431
0 0.705669 0.730571
0 0.720516 0.726818
0 0.735363 0.723079
0 0.750225 0.719326
0.414588 0.292226 0.891646
0.397955 0.307073 0.887892
0.381308 0.32192 0.884153
0.364675 0.336767 0.8804
0.348028 0.351614 0.876661
0.33138 0.366476 0.872908
0.314733 0.381323 0.869169
0.2981 0.39617 0.865415
0.281453 0.411017 0.861677
0.264805 0.425864 0.857939
0.248173 0.440711 0.854185
0.231525 0.455573 0.850446
0.214878 0.47042 0.846693
0.198245 0.485267 0.842954
0.181598 0.500114 0.8392
0.16495 0.514961 0.835462
0.148318 0.529809 0.831708
0.13167 0.544671 0.82797
0.115023 0.559518 0.824216
0.0983749 0.574365 0.820478
0.0817426 0.589212 0.816724
0.065095 0.604059 0.812985
0.0484474 0.618921 0.809232
0.0318151 0.633768 0.805493
0.0151675 0.648615 0.80174
0 0.663462 0.798001
0 0.678309 0.794263
0 0.693156 0.790509
0 0.708019 0.78677
0 0.722866 0.783017
0 0.737713 0.779278
0 0.75256 0.775525
0 0.767407 0.771786
0.438972 0.309422 0.944091
0.422339 0.324254 0.940352
0.405707 0.339117 0.936599
0.389059 0.353964 0.93286
0.372412 0.368811 0.929107
0.355764 0.383658 0.925368
0.339132 0.398505 0.921614
0.322484 0.413367 0.917876
0.305837 0.428214 0.914122
0.289204 0.443061 0.910384
0.272557 0.457908 0.90663
0.255909 0.472755 0.902892
0.239277 0.487602 0.899138
0.222629 0.502464 0.895399
0.205982 0.517311 0.891661
0.189349 0.532158 0.887907
0.172702 0.547005 0.884169
0.156054 0.561852 0.880415
0.139406 0.576699 0.876677
0.122774 0.591562 0.872923
0.106126 0.606409 0.869184
0.0894789 0.621256 0.865431
0.0728466 0.636103 0.861692
0.056199 0.65095 0.857939
0.0395514 0.665797 0.8542
0.0229191 0.680659 0.850446
0.00627146 0.695506 0.846708
0 0.710353 0.842954
0 0.7252 0.839216
0 0.740047 0.835477
0 0.754894 0.831724
0 0.769757 0.827985
0 0.784604 0.824231
0.463371 0.326604 0.996536
0.446738 0.341451 0.992798
0.430091 0.356298 0.989059
0.413443 0.371145 0.985306
0.396796 0.386007 0.981567
0.380163 0.400854 0.977813
0.363516 0.415702 0.974075
0.346868 0.430549 0.970321
0.330236 0.445396 0.966583
0.313588 0.460243 0.962829
0.296941 0.475105 0.959091
0.280308 0.489952 0.955337
0.263661 0.504799 0.951598
0.247013 0.519646 0.947845
0.230381 0.534493 0.944106
0.213733 0.54934 0.940352
0.197086 0.564202 0.936614
0.180438 0.579049 0.932876
0.163806 0.593896 0.929122
0.147158 0.608743 0.925383
0.13051 0.62359 0.92163
0.113878 0.638437 0.917891
0.0972305 0.6533 0.914137
0.0805829 0.668147 0.910399
0.0639506 0.682994 0.906645
0.047303 0.697841 0.902907
0.0306554 0.712688 0.899153
0.014023 0.72755 0.895415
0 0.742397 0.891661
0 0.757244 0.887922
0 0.772091 0.884169
0 0.786938 0.88043
0 0.801785 0.876677
0.487755 0.343801 1
0.471122 0.358648 1
0.454475 0.373495 1
0.437827 0.388342 1
0.421195 0.403189 1
0.404547 0.418036 1
0.3879 0.432883 1
0.371267 0.447745 1
0.35462 0.462593 1
0.337972 0.47744 1
0.32134 0.492287 1
0.304692 0.507134 1
0.288045 0.521996 1
0.271412 0.536843 1
0.254765 0.55169 0.996551
0.238117 0.566537 0.992813
0.221469 0.581384 0.989059
0.204837 0.596231 0.985321
0.18819 0.611093 0.981567
0.171542 0.62594 0.977829
0.15491 0.640787 0.974075
0.138262 0.655634 0.970336
0.121614 0.670481 0.966598
0.104982 0.685328 0.962844
0.0883345 0.700191 0.959106
0.0716869 0.715038 0.955352
0.0550546 0.729885 0.951614
0.038407 0.744732 0.94786
0.0217594 0.759579 0.944121
0.00511177 0.774426 0.940368
0 0.789288 0.936629
0 0.804135 0.932876
0 0.818982 0.929137
0.512139 0.360983 1
0.495506 0.37583 1
0.478859 0.390677 1
0.462226 0.405539 1
0.445579 0.420386 1
0.428931 0.435233 1
0.412299 0.45008 1
0.395651 0.464927 1
0.379004 0.479774 1
0.362371 0.494636 1
0.345724 0.509483 1
0.329076 0.52433 1
0.312428 0.539178 1
0.295796 0.554025 1
0.279149 0.568872 1
0.262501 0.583734 1
0.245869 0.598581 1
0.229221 0.613428 1
0.212573 0.628275 1
0.195941 0.643122 1
0.179294 0.657969 1
0.162646 0.672831 1
0.146014 0.687678 1
0.129366 0.702525 1
0.112718 0.717372 1
0.0960708 0.732219 1
0.0794385 0.747066 1
0.0627909 0.761929 1
0.0461433 0.776776 0.996567
0.0295109 0.791623 0.992828
0.0128634 0.80647 0.989075
0 0.821317 0.985336
0 0.836179 0.981582
0.536538 0.37818 1
0.51989 0.393027 1
0.503258 0.407874 1
0.48661 0.422721 1
0.469963 0.437568 1
0.45333 0.452415 1
0.436683 0.467277 1
0.420035 0.482124 1
0.403403 0.496971 1
0.386755 0.511818 1
0.370108 0.526665 1
0.35346 0.541512 1
0.336828 0.556374 1
0.32018 0.571221 1
0.303532 0.586069 1
0.2869 0.600916 1
0.270253 0.615763 1
0.253605 0.630625 1
0.236973 0.645472 1
0.220325 0.660319 1
0.203677 0.675166 1
0.187045 0.690013 1
0.170397 0.70486 1
0.15375 0.719722 1
0.137102 0.734569 1
0.12047 0.749416 1
0.103822 0.764263 1
0.0871748 0.77911 1
0.0705425 0.793957 1
0.0538949 0.80882 1
0.0372473 0.823667 1
0.0206149 0.838514 1
0.00396735 0.853361 1
0.560922 0.395377 1
0.544289 0.410208 1
0.527642 0.425071 1
0.510994 0.439918 1
0.494362 0.454765 1
0.477714 0.469612 1
0.461067 0.484459 1
0.444434 0.499306 1
0.427787 0.514168 1
0.411139 0.529015 1
0.394491 0.543862 1
0.377859 0.558709 1
0.361212 0.573556 1
0.344564 0.588403 1
0.327932 0.603265 1
0.311284 0.618112 1
0.294636 0.632959 1
0.278004 0.647807 1
0.261357 0.662654 1
0.244709 0.677501 1
0.228077 0.692363 1
0.211429 0.70721 1
0.194781 0.722057 1
0.178134 0.736904 1
0.161501 0.751751 1
0.144854 0.766598 1
0.128206 0.78146 1
0.111574 0.796307 1
0.0949264 0.811154 1
0.0782788 0.826001 1
0.0616465 0.840848 1
0.0449989 0.855695 1
0.0283513 0.870558 1
0.585306 0.412558 1
0.568673 0.427405 1
0.552026 0.442252 1
0.535393 0.457099 1
0.518746 0.471946 1
0.502098 0.486809 1
0.485451 0.501656 1
0.468818 0.516503 1
0.452171 0.53135 1
0.435523 0.546197 1
0.418891 0.561044 1
0.402243 0.575906 1
0.385595 0.590753 1
0.368963 0.6056 1
0.352316 0.620447 1
0.335668 0.635294 1
0.319036 0.650141 1
0.302388 0.665003 1
0.28574 0.67985 1
0.269108 0.694697 1
0.252461 0.709545 1
0.235813 0.724392 1
0.219165 0.739254 1
0.202533 0.754101 1
0.185885 0.768948 1
0.169238 0.783795 1
0.152605 0.798642 1
0.135958 0.813489 1
0.11931 0.828351 1
0.102678 0.843198 1
0.0860304 0.858045 1
0.0693828 0.872892 1
0.0527504 0.887739 1
0.609689 0.429755 1
0.593057 0.444587 1
0.576425 0.459449 1
0.559777 0.474296 1
0.54313 0.489143 1
0.526482 0.50399 1
0.50985 0.518837 1
0.493202 0.5337 1
0.476555 0.548547 1
0.459922 0.563394 1
0.443275 0.578241 1
0.426627 0.593088 1
0.409995 0.607935 1
0.393347 0.622797 1
0.376699 0.637644 1
0.360067 0.652491 1
0.34342 0.667338 1
0.326772 0.682185 1
0.310124 0.697032 1
0.293492 0.711894 1
0.276844 0.726741 1
0.260197 0.741588 1
0.243565 0.756436 1
0.226917 0.771282 1
0.210269 0.78613 1
0.193637 0.800992 1
0.176989 0.815839 1
0.160342 0.830686 1
0.143709 0.845533 1
0.127062 0.86038 1
0.110414 0.875227 1
0.0937667 0.890089 1
0.0771344 0.904936 1
0.634089 0.446937 1
0.617456 0.461784 1
0.600809 0.476631 1
0.584161 0.491478 1
0.567514 0.50634 1
0.550881 0.521187 1
0.534234 0.536034 1
0.517586 0.550881 1
0.500954 0.565728 1
0.484306 0.580575 1
0.467658 0.595438 1
0.451026 0.610285 1
0.434379 0.625132 1
0.417731 0.639979 1
0.401099 0.654826 1
0.384451 0.669673 1
0.367803 0.684535 1
0.351156 0.699382 1
0.334524 0.714229 1
0.317876 0.729076 1
0.301228 0.743923 1
0.284596 0.75877 1
0.267948 0.773632 1
0.251301 0.788479 1
0.234668 0.803326 1
0.218021 0.818173 1
0.201373 0.833021 1
0.184741 0.847883 1
0.168093 0.86273 1
0.151446 0.877577 1
0.134798 0.892424 1
0.118166 0.907271 1
0.101518 0.922118 1
0.658473 0.464134 1
0.64184 0.478981 1
0.625193 0.493828 1
0.608545 0.508675 1
0.591913 0.523522 1
0.575265 0.538369 1
0.558618 0.553216 1
0.541985 0.568078 1
0.525338 0.582925 1
