public/LUTS/Color Shift/ColorShift_26.cube
TITLE "Generated by Resolve"
LUT_3D_SIZE 33
0 0 0
0.0320592 0 0.00776684
0.0641184 0 0.0155337
0.0961929 0 0.0233005
0.128267 0 0.0310826
0.160342 0 0.0388495
0.192401 0 0.0466163
0.224475 0 0.0543832
0.25655 0 0.06215
0.288609 0 0.0699321
0.320684 0 0.0776989
0.352758 0 0.0854658
0.384833 0 0.0932326
0.416892 0 0.100999
0.448966 0 0.108782
0.481041 0 0.116548
0.5131 0 0.124315
0.545174 0 0.132082
0.577249 0 0.139849
0.609323 0 0.147631
0.641382 0 0.155398
0.673457 0 0.163165
0.705531 0 0.170932
0.737591 0 0.178698
0.769665 0 0.186481
0.80174 0 0.194247
0.833814 0 0.202014
0.865873 0 0.209781
0.897948 0 0.217548
0.930022 0 0.22533
0.962081 0 0.233097
0.994156 0 0.240864
1 0 0.248631
0.00802625 0.0295415 0
0.0400702 0.0283055 0.00218204
0.0721447 0.0270542 0.00996414
0.104219 0.0258183 0.017731
0.136278 0.024567 0.0254978
0.168353 0.0233158 0.0332647
0.200427 0.0220798 0.0410315
0.232502 0.0208286 0.0488136
0.264561 0.0195926 0.0565805
0.296635 0.0183413 0.0643473
0.32871 0.0170901 0.0721141
0.360769 0.0158541 0.079881
0.392844 0.0146029 0.0876631
0.424918 0.0133669 0.0954299
0.456992 0.0121157 0.103197
0.489052 0.0108797 0.110964
0.521126 0.00962844 0.11873
0.553201 0.0083772 0.126513
0.58526 0.00714122 0.134279
0.617334 0.00588998 0.142046
0.649409 0.004654 0.149813
0.681483 0.00340276 0.15758
0.713542 0.00215152 0.165362
0.745617 0.000915541 0.173129
0.777691 0 0.180896
0.80975 0 0.188663
0.841825 0 0.196429
0.873899 0 0.204211
0.905974 0 0.211978
0.938033 0 0.219745
0.970108 0 0.227512
1 0 0.235279
1 0 0.243061
0.0160372 0.0591135 0
0.0480964 0.0578622 0
0.0801709 0.056611 0.00437934
0.112245 0.055375 0.0121462
0.144305 0.0541238 0.019913
0.176379 0.0528878 0.0276799
0.208453 0.0516365 0.035462
0.240513 0.0504005 0.0432288
0.272587 0.0491493 0.0509957
0.304662 0.0478981 0.0587625
0.336736 0.0466621 0.0665293
0.368795 0.0454108 0.0743114
0.40087 0.0441749 0.0820783
0.432944 0.0429236 0.0898451
0.465003 0.0416724 0.097612
0.497078 0.0404364 0.105379
0.529152 0.0391852 0.113161
0.561227 0.0379492 0.120928
0.593286 0.0366979 0.128695
0.62536 0.0354467 0.136461
0.657435 0.0342107 0.144228
0.689494 0.0329595 0.15201
0.721569 0.0317235 0.159777
0.753643 0.0304723 0.167544
0.785718 0.029221 0.175311
0.817777 0.027985 0.183078
0.849851 0.0267338 0.19086
0.881926 0.0254978 0.198627
0.913985 0.0242466 0.206394
0.946059 0.0230106 0.21416
0.978134 0.0217594 0.221927
1 0.0205081 0.229709
1 0.0192721 0.237476
0.0240635 0.0886702 0
0.0561227 0.0874189 0
0.0881971 0.086183 0
0.120256 0.0849317 0.00656138
0.152331 0.0836957 0.0143282
0.184405 0.0824445 0.0221103
0.216464 0.0811933 0.0298772
0.248539 0.0799573 0.037644
0.280613 0.078706 0.0454108
0.312688 0.0774701 0.0531777
0.344747 0.0762188 0.0609598
0.376822 0.0749676 0.0687266
0.408896 0.0737316 0.0764935
0.44097 0.0724804 0.0842603
0.47303 0.0712444 0.0920272
0.505104 0.0699931 0.0998093
0.537179 0.0687419 0.107576
0.569238 0.0675059 0.115343
0.601312 0.0662547 0.12311
0.633387 0.0650187 0.130877
0.665461 0.0637675 0.138659
0.69752 0.0625315 0.146426
0.729595 0.0612802 0.154192
0.761669 0.060029 0.161959
0.793729 0.058793 0.169726
0.825803 0.0575418 0.177508
0.857877 0.0563058 0.185275
0.889952 0.0550546 0.193042
0.922011 0.0538033 0.200809
0.954086 0.0525673 0.208576
0.98616 0.0513161 0.216358
1 0.0500801 0.224125
1 0.0488289 0.231891
0.0320897 0.118227 0
0.0641489 0.116991 0
0.0962081 0.11574 0
0.128283 0.114488 0.000991836
0.160357 0.113252 0.00875868
0.192432 0.112001 0.0165255
0.224491 0.110765 0.0242924
0.256565 0.109514 0.0320592
0.28864 0.108263 0.0398413
0.320699 0.107027 0.0476081
0.352773 0.105776 0.055375
0.384848 0.10454 0.0631418
0.416922 0.103288 0.0709087
0.448981 0.102052 0.0786908
0.481056 0.100801 0.0864576
0.51313 0.0995499 0.0942245
0.54519 0.0983139 0.101991
0.577264 0.0970626 0.109758
0.609339 0.0958267 0.11754
0.641413 0.0945754 0.125307
0.673472 0.0933242 0.133074
0.705547 0.0920882 0.140841
0.737621 0.090837 0.148608
0.76968 0.089601 0.15639
0.801755 0.0883497 0.164157
0.833829 0.0870985 0.171923
0.865904 0.0858625 0.17969
0.897963 0.0846113 0.187457
0.930037 0.0833753 0.195239
0.962112 0.0821241 0.203006
0.994171 0.0808728 0.210773
1 0.0796368 0.21854
1 0.0783856 0.226307
0.040116 0.147784 0
0.0721752 0.146548 0
0.104234 0.145296 0
0.136309 0.14406 0
0.168383 0.142809 0.00317388
0.200443 0.141573 0.0109407
0.232517 0.140322 0.0187076
0.264591 0.139071 0.0264897
0.296666 0.137835 0.0342565
0.328725 0.136584 0.0420233
0.3608 0.135348 0.0497902
0.392874 0.134096 0.057557
0.424933 0.132845 0.0653391
0.457008 0.131609 0.073106
0.489082 0.130358 0.0808728
0.521157 0.129122 0.0886397
0.553216 0.127871 0.0964065
0.58529 0.126619 0.104189
0.617365 0.125383 0.111955
0.649424 0.124132 0.119722
0.681498 0.122896 0.127489
0.713573 0.121645 0.135256
0.745647 0.120394 0.143038
0.777707 0.119158 0.150805
0.809781 0.117906 0.158572
0.841856 0.11667 0.166339
0.873915 0.115419 0.174105
0.905989 0.114183 0.181888
0.938064 0.112932 0.189654
0.970138 0.111681 0.197421
1 0.110445 0.205188
1 0.109194 0.212955
1 0.107958 0.220737
0.0481422 0.177356 0
0.0801862 0.176104 0
0.112261 0.174868 0
0.144335 0.173617 0
0.17641 0.172366 0
0.208469 0.17113 0.00535592
0.240543 0.169879 0.013138
0.272618 0.168643 0.0209049
0.304677 0.167391 0.0286717
0.336751 0.16614 0.0364385
0.368826 0.164904 0.0442054
0.4009 0.163653 0.0519875
0.432959 0.162417 0.0597543
0.465034 0.161166 0.0675212
0.497108 0.159915 0.075288
0.529168 0.158679 0.0830549
0.561242 0.157427 0.090837
0.593317 0.156191 0.0986038
0.625391 0.15494 0.106371
0.65745 0.153704 0.114137
0.689525 0.152453 0.121904
0.721599 0.151202 0.129686
0.753658 0.149966 0.137453
0.785733 0.148714 0.14522
0.817807 0.147478 0.152987
0.849882 0.146227 0.160754
0.881941 0.144976 0.168536
0.914015 0.14374 0.176303
0.94609 0.142489 0.18407
0.978149 0.141253 0.191836
1 0.140002 0.199603
1 0.13875 0.207385
1 0.137514 0.215152
0.0561685 0.206912 0
0.0882124 0.205661 0
0.120287 0.204425 0
0.152361 0.203174 0
0.184421 0.201938 0
0.216495 0.200687 0
0.248569 0.199435 0.00755322
0.280644 0.198199 0.0153201
0.312703 0.196948 0.0230869
0.344778 0.195712 0.030869
0.376852 0.194461 0.0386358
0.408911 0.193225 0.0464027
0.440986 0.191974 0.0541695
0.47306 0.190723 0.0619364
0.505135 0.189487 0.0697185
0.537194 0.188235 0.0774853
0.569268 0.186999 0.0852522
0.601343 0.185748 0.093019
0.633402 0.184497 0.100786
0.665476 0.183261 0.108568
0.697551 0.18201 0.116335
0.729625 0.180774 0.124102
0.761685 0.179522 0.131868
0.793759 0.178271 0.139635
0.825833 0.177035 0.147417
0.857893 0.175784 0.155184
0.889967 0.174548 0.162951
0.922042 0.173297 0.170718
0.954116 0.172045 0.178485
0.986175 0.170809 0.186267
1 0.169558 0.194034
1 0.168322 0.201801
1 0.167071 0.209567
0.0641794 0.236469 0
0.0962387 0.235233 0
0.128313 0.233982 0
0.160388 0.232746 0
0.192447 0.231495 0
0.224521 0.230243 0
0.256596 0.229007 0.00196841
0.288655 0.227756 0.00973526
0.320729 0.22652 0.0175174
0.352804 0.225269 0.0252842
0.384878 0.224018 0.033051
0.416938 0.222782 0.0408179
0.449012 0.22153 0.0485847
0.481086 0.220295 0.0563668
0.513146 0.219043 0.0641337
0.54522 0.217792 0.0719005
0.577295 0.216556 0.0796674
0.609369 0.215305 0.0874342
0.641428 0.214069 0.0952163
0.673503 0.212818 0.102983
0.705577 0.211566 0.11075
0.737636 0.21033 0.118517
0.769711 0.209079 0.126284
0.801785 0.207843 0.134066
0.83386 0.206592 0.141833
0.865919 0.205356 0.149599
0.897993 0.204105 0.157366
0.930068 0.202853 0.165133
0.962127 0.201617 0.172915
0.994202 0.200366 0.180682
1 0.19913 0.188449
1 0.197879 0.196216
1 0.196628 0.203983
0.0722057 0.266041 0
0.104265 0.26479 0
0.136339 0.263539 0
0.168399 0.262303 0
0.200473 0.261051 0
0.232547 0.259815 0
0.264607 0.258564 0
0.296681 0.257313 0.00416571
0.328756 0.256077 0.0119326
0.36083 0.254826 0.0196994
0.392889 0.25359 0.0274662
0.424964 0.252338 0.0352331
0.457038 0.251087 0.0430152
0.489097 0.249851 0.050782
0.521172 0.2486 0.0585489
0.553246 0.247364 0.0663157
0.585321 0.246113 0.0740826
0.61738 0.244877 0.0818647
0.649454 0.243626 0.0896315
0.681529 0.242374 0.0973983
0.713588 0.241138 0.105165
0.745663 0.239887 0.112932
0.777737 0.238651 0.120714
0.809812 0.2374 0.128481
0.841871 0.236149 0.136248
0.873945 0.234913 0.144015
0.90602 0.233661 0.151781
0.938079 0.232425 0.159564
0.970153 0.231174 0.16733
1 0.229923 0.175097
1 0.228687 0.182864
1 0.227436 0.190631
1 0.2262 0.198413
0.0802319 0.295598 0
0.112291 0.294347 0
0.14435 0.293111 0
0.176425 0.291859 0
0.208499 0.290608 0
0.240574 0.289372 0
0.272633 0.288121 0
0.304707 0.286885 0
0.336782 0.285634 0.00634775
0.368841 0.284398 0.0141146
0.400916 0.283146 0.0218814
0.43299 0.281895 0.0296635
0.465064 0.280659 0.0374304
0.497124 0.279408 0.0451972
0.529198 0.278172 0.0529641
0.561273 0.276921 0.0607309
0.593332 0.275669 0.068513
0.625406 0.274434 0.0762798
0.657481 0.273182 0.0840467
0.689555 0.271946 0.0918135
0.721614 0.270695 0.0995804
0.753689 0.269444 0.107362
0.785763 0.268208 0.115129
0.817823 0.266957 0.122896
0.849897 0.265721 0.130663
0.881971 0.264469 0.13843
0.914046 0.263218 0.146212
0.946105 0.261982 0.153979
0.97818 0.260731 0.161746
1 0.259495 0.169512
1 0.258244 0.177279
1 0.257008 0.185061
1 0.255756 0.192828
0.0882582 0.325154 0
0.120317 0.323903 0
0.152377 0.322667 0
0.184451 0.321416 0
0.216526 0.32018 0
0.248585 0.318929 0
0.280659 0.317693 0
0.312734 0.316442 0
0.344808 0.31519 0.000762951
0.376867 0.313954 0.00854505
0.408942 0.312703 0.0163119
0.441016 0.311467 0.0240787
0.473075 0.310216 0.0318456
0.50515 0.308965 0.0396124
0.537224 0.307729 0.0473945
0.569299 0.306477 0.0551614
0.601358 0.305241 0.0629282
0.633433 0.30399 0.0706951
0.665507 0.302739 0.0784619
0.697566 0.301503 0.086244
0.729641 0.300252 0.0940108
0.761715 0.299016 0.101778
0.79379 0.297765 0.109545
0.825849 0.296529 0.117311
0.857923 0.295277 0.125093
0.889998 0.294026 0.13286
0.922057 0.29279 0.140627
0.954131 0.291539 0.148394
0.986206 0.290303 0.156161
1 0.289052 0.163943
1 0.2878 0.17171
1 0.286564 0.179477
1 0.285313 0.187243
0.0962844 0.354711 0
0.128328 0.353475 0
0.160403 0.352224 0
0.192477 0.350988 0
0.224552 0.349737 0
0.256611 0.348486 0
0.288685 0.34725 0
0.32076 0.345998 0
0.352819 0.344762 0
0.384894 0.343511 0.00296025
0.416968 0.34226 0.0107271
0.449042 0.341024 0.0184939
0.481102 0.339773 0.0262608
0.513176 0.338537 0.0340429
0.545251 0.337285 0.0418097
0.57731 0.336049 0.0495766
0.609384 0.334798 0.0573434
0.641459 0.333547 0.0651102
0.673533 0.332311 0.0728923
0.705592 0.33106 0.0806592
0.737667 0.329824 0.088426
0.769741 0.328573 0.0961929
0.801801 0.327321 0.10396
0.833875 0.326085 0.111742
0.86595 0.324834 0.119509
0.898024 0.323598 0.127275
0.930083 0.322347 0.135042
0.962158 0.321096 0.142809
0.994232 0.31986 0.150591
1 0.318608 0.158358
1 0.317372 0.166125
1 0.316121 0.173892
1 0.31487 0.181659
0.104311 0.384283 0
0.136355 0.383032 0
0.168429 0.381781 0
0.200504 0.380545 0
0.232563 0.379294 0
0.264637 0.378058 0
0.296712 0.376806 0
0.328786 0.37557 0
0.360845 0.374319 0
0.39292 0.373068 0
0.424994 0.371832 0.00514229
0.457053 0.370581 0.0129091
0.489128 0.369345 0.0206912
0.521202 0.368093 0.0284581
0.553277 0.366842 0.0362249
0.585336 0.365606 0.0439918
0.617411 0.364355 0.0517586
0.649485 0.363119 0.0595407
0.681544 0.361868 0.0673075
0.713619 0.360616 0.0750744
0.745693 0.35938 0.0828412
0.777768 0.358129 0.0906081
0.809827 0.356893 0.0983902
0.841901 0.355642 0.106157
0.873976 0.354391 0.113924
0.906035 0.353155 0.121691
0.938109 0.351904 0.129458
0.970184 0.350668 0.13724
1 0.349416 0.145006
1 0.34818 0.152773
1 0.346929 0.16054
1 0.345678 0.168307
1 0.344442 0.176089
0.112322 0.41384 0
0.144381 0.412589 0
0.176455 0.411353 0
0.208515 0.410101 0
0.240589 0.408865 0
0.272663 0.407614 0
0.304738 0.406363 0
0.336797 0.405127 0
0.368872 0.403876 0
0.400946 0.40264 0
0.433005 0.401389 0
0.46508 0.400137 0.00733959
0.497154 0.398901 0.0151064
0.529229 0.39765 0.0228733
0.561288 0.396414 0.0306401
0.593362 0.395163 0.0384222
0.625437 0.393912 0.0461891
0.657496 0.392676 0.0539559
0.68957 0.391424 0.0617227
0.721645 0.390188 0.0694896
0.753719 0.388937 0.0772717
0.785779 0.387701 0.0850385
0.817853 0.38645 0.0928054
0.849928 0.385199 0.100572
0.882002 0.383963 0.108339
0.914061 0.382712 0.116121
0.946136 0.381476 0.123888
0.97821 0.380224 0.131655
1 0.378973 0.139422
1 0.377737 0.147189
1 0.376486 0.154971
1 0.37525 0.162737
1 0.373999 0.170504
0.120348 0.443397 0
0.152407 0.442161 0
0.184482 0.440909 0
0.216541 0.439658 0
0.248615 0.438422 0
0.28069 0.437171 0
0.312749 0.435935 0
0.344823 0.434684 0
0.376898 0.433433 0
0.408972 0.432197 0
0.441032 0.430945 0
0.473106 0.429709 0.00175479
0.50518 0.428458 0.00952163
0.53724 0.427222 0.0172885
0.569314 0.425971 0.0250706
0.601389 0.42472 0.0328374
0.633463 0.423484 0.0406043
0.665522 0.422232 0.0483711
0.697597 0.420996 0.0561379
0.729671 0.419745 0.06392
0.76173 0.418494 0.0716869
0.793805 0.417258 0.0794537
0.825879 0.416007 0.0872206
0.857954 0.414771 0.0949874
0.890013 0.41352 0.10277
0.922087 0.412268 0.110536
0.954162 0.411032 0.118303
0.986221 0.409781 0.12607
1 0.408545 0.133837
1 0.407294 0.141619
1 0.406043 0.149386
1 0.404807 0.157153
1 0.403555 0.16492
0.128374 0.472953 0
0.160433 0.471717 0
0.192493 0.470466 0
0.224567 0.46923 0
0.256641 0.467979 0
0.288716 0.466728 0
0.320775 0.465492 0
0.35285 0.46424 0
0.384924 0.463004 0
0.416983 0.461753 0
0.449058 0.460517 0
0.481132 0.459266 0
0.513207 0.458015 0.00393683
0.545266 0.456779 0.0117189
0.57734 0.455528 0.0194858
0.609415 0.454292 0.0272526
0.641474 0.45304 0.0350195
0.673548 0.451789 0.0427863
0.705623 0.450553 0.0505684
0.737697 0.449302 0.0583352
0.769757 0.448066 0.0661021
0.801831 0.446815 0.0738689
0.833906 0.445563 0.0816358
0.865965 0.444327 0.0894179
0.898039 0.443076 0.0971847
0.930114 0.44184 0.104952
0.962188 0.440589 0.112718
0.994247 0.439353 0.120485
1 0.438102 0.128267
1 0.436851 0.136034
1 0.435615 0.143801
1 0.434363 0.151568
1 0.433127 0.159335
0.1364 0.502525 0
0.16846 0.501274 0
0.200519 0.500038 0
0.232593 0.498787 0
0.264668 0.497536 0
0.296727 0.4963 0
0.328801 0.495048 0
0.360876 0.493812 0
0.39295 0.492561 0
0.42501 0.49131 0
0.457084 0.490074 0
0.489158 0.488823 0
0.521218 0.487587 0
0.553292 0.486336 0.00613413
0.585367 0.485084 0.013901
0.617441 0.483848 0.0216678
0.6495 0.482597 0.0294347
0.681575 0.481361 0.0372168
0.713649 0.48011 0.0449836
0.745708 0.478874 0.0527504
0.777783 0.477623 0.0605173
0.809857 0.476371 0.0682841
0.841932 0.475135 0.0760662
0.873991 0.473884 0.0838331
0.906065 0.472648 0.0915999
0.93814 0.471397 0.0993668
0.970199 0.470146 0.107134
1 0.46891 0.114916
1 0.467658 0.122683
1 0.466423 0.130449
1 0.465171 0.138216
1 0.46392 0.145983
1 0.462684 0.153765
0.144427 0.532082 0
0.176471 0.530831 0
0.208545 0.529595 0
0.24062 0.528344 0
0.272694 0.527108 0
0.304753 0.525856 0
0.336828 0.524605 0
0.368902 0.523369 0
0.400961 0.522118 0
0.433036 0.520882 0
0.46511 0.519631 0
0.497185 0.51838 0
0.529244 0.517143 0
0.561318 0.515892 0.000549325
0.593393 0.514656 0.00831617
0.625452 0.513405 0.0160983
0.657526 0.512169 0.0238651
0.689601 0.510918 0.031632
0.721675 0.509667 0.0393988
0.753735 0.508431 0.0471656
0.785809 0.507179 0.0549477
0.817884 0.505943 0.0627146
0.849943 0.504692 0.0704814
0.882017 0.503441 0.0782483
0.914092 0.502205 0.0860151
0.946166 0.500954 0.0937972
0.978225 0.499718 0.101564
1 0.498466 0.109331
1 0.497215 0.117098
1 0.495979 0.124865
1 0.494728 0.132647
1 0.493492 0.140414
1 0.492241 0.14818
0.152453 0.561639 0
0.184497 0.560403 0
0.216571 0.559152 0
0.248646 0.5579 0
0.280705 0.556664 0
0.312779 0.555413 0
0.344854 0.554177 0
0.376913 0.552926 0
0.408988 0.55169 0
0.441062 0.550439 0
0.473136 0.549187 0
0.505196 0.547951 0
0.53727 0.5467 0
0.569345 0.545464 0
0.601404 0.544213 0.00274662
0.633478 0.542962 0.0105135
0.665553 0.541726 0.0182803
0.697627 0.540475 0.0260471
0.729686 0.539239 0.033814
0.761761 0.537987 0.0415961
0.793835 0.536736 0.0493629
0.82591 0.5355 0.0571298
0.857969 0.534249 0.0648966
0.890043 0.533013 0.0726635
0.922118 0.531762 0.0804456
0.954177 0.530526 0.0882124
0.986252 0.529274 0.0959793
1 0.528023 0.103746
1 0.526787 0.111513
1 0.525536 0.119295
1 0.5243 0.127062
1 0.523049 0.134829
1 0.521798 0.142596
0.160464 0.591196 0
0.192523 0.58996 0
0.224598 0.588708 0
0.256657 0.587472 0
0.288731 0.586221 0
0.320806 0.584985 0
0.35288 0.583734 0
0.384939 0.582483 0
0.417014 0.581247 0
0.449088 0.579995 0
0.481147 0.578759 0
0.513222 0.577508 0
0.545296 0.576257 0
0.577371 0.575021 0
0.60943 0.57377 0
0.641505 0.572534 0.00492866
0.673579 0.571283 0.0126955
0.705638 0.570047 0.0204623
0.737713 0.568795 0.0282444
0.769787 0.567544 0.0360113
0.801862 0.566308 0.0437781
0.833921 0.565057 0.051545
0.865995 0.563821 0.0593118
0.89807 0.56257 0.0670939
0.930129 0.561318 0.0748608
0.962203 0.560082 0.0826276
0.994278 0.558831 0.0903944
1 0.557595 0.0981613
1 0.556344 0.105943
1 0.555093 0.11371
1 0.553857 0.121477
1 0.552605 0.129244
1 0.551369 0.137011
0.16849 0.620768 0
0.200549 0.619516 0
0.232624 0.61828 0
0.264683 0.617029 0
0.296757 0.615778 0
0.328832 0.614542 0
0.360891 0.613291 0
0.392966 0.612055 0
0.42504 0.610803 0
0.457115 0.609567 0
0.489174 0.608316 0
0.521248 0.607065 0
0.553323 0.605829 0
0.585382 0.604578 0
0.617456 0.603342 0
0.649531 0.60209 0
0.681605 0.600839 0.00712596
0.713664 0.599603 0.0148928
0.745739 0.598352 0.0226596
0.777813 0.597116 0.0304265
0.809873 0.595865 0.0381933
0.841947 0.594614 0.0459754
0.874022 0.593378 0.0537423
0.906096 0.592126 0.0615091
0.938155 0.59089 0.069276
0.97023 0.589639 0.0770428
1 0.588388 0.0848249
1 0.587152 0.0925917
1 0.585901 0.100359
1 0.584665 0.108125
1 0.583413 0.115892
1 0.582177 0.123674
1 0.580926 0.131441
0.176516 0.650324 0
0.208576 0.649073 0
0.240635 0.647837 0
0.272709 0.646586 0
0.304784 0.64535 0
0.336858 0.644099 0
0.368917 0.642863 0
0.400992 0.641611 0
0.433066 0.64036 0
0.465126 0.639124 0
0.4972 0.637873 0
0.529274 0.636637 0
0.561349 0.635386 0
0.593408 0.634134 0
0.625483 0.632898 0
0.657557 0.631647 0
0.689616 0.630411 0.00154116
0.721691 0.62916 0.009308
0.753765 0.627909 0.0170748
0.78584 0.626673 0.0248417
0.817899 0.625422 0.0326238
0.849973 0.624186 0.0403906
0.882048 0.622934 0.0481575
0.914107 0.621698 0.0559243
0.946181 0.620447 0.0636912
0.978256 0.619196 0.0714733
1 0.61796 0.0792401
1 0.616709 0.0870069
1 0.615473 0.0947738
1 0.614221 0.102541
1 0.61297 0.110323
1 0.611734 0.11809
1 0.610483 0.125856
0.184543 0.679881 0
0.216602 0.678645 0
0.248661 0.677394 0
0.280735 0.676158 0
0.31281 0.674907 0
0.344869 0.673655 0
0.376944 0.672419 0
0.409018 0.671168 0
0.441093 0.669932 0
0.473152 0.668681 0
0.505226 0.66743 0
0.537301 0.666194 0
0.56936 0.664942 0
0.601434 0.663706 0
0.633509 0.662455 0
0.665583 0.661204 0
0.697643 0.659968 0
0.729717 0.658717 0.0037232
0.761791 0.657481 0.01149
0.793851 0.656229 0.0192721
0.825925 0.654994 0.027039
0.858 0.653742 0.0348058
0.890074 0.652491 0.0425727
0.922133 0.651255 0.0503395
0.954208 0.650004 0.0581216
0.986282 0.648768 0.0658885
1 0.647517 0.0736553
1 0.646265 0.0814221
1 0.645029 0.089189
1 0.643778 0.0969711
1 0.642542 0.104738
1 0.641291 0.112505
1 0.64004 0.120272
0.192569 0.709453 0
0.224613 0.708202 0
0.256687 0.70695 0
0.288762 0.705715 0
0.320821 0.704463 0
0.352895 0.703227 0
0.38497 0.701976 0
0.417044 0.700725 0
0.449104 0.699489 0
0.481178 0.698238 0
0.513252 0.697002 0
0.545312 0.69575 0
0.577386 0.694514 0
0.609461 0.693263 0
0.641535 0.692012 0
0.673594 0.690776 0
0.705669 0.689525 0
0.737743 0.688289 0
0.769802 0.687037 0.0059205
0.801877 0.685786 0.0136873
0.833951 0.68455 0.0214542
0.866026 0.683299 0.029221
0.898085 0.682063 0.0369879
0.930159 0.680812 0.04477
0.962234 0.679561 0.0525368
0.994308 0.678325 0.0603037
1 0.677073 0.0680705
1 0.675837 0.0758373
1 0.674586 0.0836194
1 0.67335 0.0913863
1 0.672099 0.0991531
1 0.670848 0.10692
1 0.669612 0.114687
0.20058 0.73901 0
0.232639 0.737758 0
0.264714 0.736522 0
0.296788 0.735271 0
0.328847 0.734035 0
0.360922 0.732784 0
0.392996 0.731533 0
0.425055 0.730297 0
0.45713 0.729046 0
0.489204 0.72781 0
0.521279 0.726558 0
0.553338 0.725307 0
0.585412 0.724071 0
0.617487 0.72282 0
0.649546 0.721584 0
0.68162 0.720333 0
0.713695 0.719081 0
0.745769 0.717845 0
0.777829 0.716594 0.000335698
0.809903 0.715358 0.00810254
0.841978 0.714107 0.0158694
0.874037 0.712871 0.0236515
0.906111 0.71162 0.0314183
0.938186 0.710369 0.0391852
0.97026 0.709133 0.046952
1 0.707881 0.0547189
1 0.706645 0.062501
1 0.705394 0.0702678
1 0.704143 0.0780346
1 0.702907 0.0858015
1 0.701656 0.0935683
1 0.70042 0.10135
1 0.699168 0.109117
0.208606 0.768566 0
0.240665 0.76733 0
0.27274 0.766079 0
0.304799 0.764828 0
0.336873 0.763592 0
0.368948 0.762341 0
0.401022 0.761105 0
0.433082 0.759854 0
0.465156 0.758602 0
0.49723 0.757366 0
0.52929 0.756115 0
0.561364 0.754879 0
0.593439 0.753628 0
0.625513 0.752377 0
0.657572 0.751141 0
0.689647 0.749889 0
0.721721 0.748653 0
0.75378 0.747402 0
0.785855 0.746166 0
0.817929 0.744915 0.00251774
0.850004 0.743664 0.0102998
0.882063 0.742428 0.0180667
0.914137 0.741176 0.0258335
0.946212 0.73994 0.0336004
0.978271 0.738689 0.0413672
1 0.737438 0.0491493
1 0.736202 0.0569162
1 0.734951 0.064683
1 0.733715 0.0724498
1 0.732464 0.0802167
1 0.731212 0.0879988
1 0.729976 0.0957656
1 0.728725 0.103532
0.216632 0.798123 0
0.248692 0.796887 0
0.280766 0.795636 0
0.312825 0.7944 0
0.3449 0.793149 0
0.376974 0.791897 0
0.409033 0.790661 0
0.441108 0.78941 0
0.473182 0.788174 0
