public/LUTS/Color Shift/ColorShift_89.cube
TITLE "Generated by Resolve"
LUT_3D_SIZE 9
0 0 0
0.00593576 0.0106355 0.195056
0.0118868 0.0212711 0.390127
0.0178225 0.0319066 0.585214
0.0237736 0.0425422 0.780285
0.0297093 0.0531777 0.975372
0.0356603 0.0638285 1
0.0415961 0.074464 1
0.0475319 0.0850996 1
0.284489 0.0388495 0.00616464
0.290425 0.049485 0.201221
0.296361 0.0601205 0.396307
0.302312 0.0707561 0.591379
0.308248 0.0813916 0.786465
0.314199 0.0920272 0.981537
0.320134 0.102663 1
0.326085 0.113298 1
0.332021 0.123949 1
0.569009 0.0776989 0.0123445
0.574945 0.0883345 0.207401
0.58088 0.09897 0.402472
0.586831 0.109606 0.597559
0.592767 0.120241 0.79263
0.598718 0.130877 0.987716
0.604654 0.141512 1
0.610605 0.152163 1
0.616541 0.162799 1
0.853529 0.116548 0.0185092
0.859464 0.127184 0.213565
0.8654 0.137819 0.408652
0.871351 0.148455 0.603723
0.877287 0.159091 0.79881
0.883238 0.169741 0.993881
0.889174 0.180377 1
0.895125 0.191012 1
0.901061 0.201648 1
1 0.155398 0.0246891
1 0.166033 0.219745
1 0.176669 0.414816
1 0.187304 0.609903
1 0.197955 0.804974
1 0.208591 1
1 0.219226 1
1 0.229862 1
1 0.240497 1
1 0.194247 0.0308537
1 0.204883 0.22591
1 0.215518 0.420996
1 0.226169 0.616068
1 0.236805 0.811154
1 0.24744 1
1 0.258076 1
1 0.268711 1
1 0.279347 1
1 0.233112 0.0370336
1 0.243748 0.23209
1 0.254383 0.427161
1 0.265019 0.622248
1 0.275654 0.817319
1 0.28629 1
1 0.296925 1
1 0.307561 1
1 0.318196 1
1 0.271962 0.0431983
1 0.282597 0.238254
1 0.293233 0.433341
1 0.303868 0.628412
1 0.314504 0.823499
1 0.325139 1
1 0.335775 1
1 0.34641 1
1 0.357046 1
1 0.310811 0.0493782
1 0.321447 0.244434
1 0.332082 0.439506
1 0.342718 0.634592
1 0.353353 0.829664
1 0.363989 1
1 0.374624 1
1 0.38526 1
1 0.395895 1
0 0.0755016 0
0 0.0861372 0.118822
0 0.0967727 0.313893
0 0.107408 0.50898
0 0.118044 0.704051
0 0.128695 0.899123
0 0.13933 1
0 0.149966 1
0 0.160601 1
0.119051 0.114351 0
0.124987 0.124987 0.124987
0.130922 0.135622 0.320058
0.136873 0.146258 0.515145
0.142809 0.156893 0.710216
0.14876 0.167529 0.905303
0.154696 0.17818 1
0.160647 0.188815 1
0.166583 0.199451 1
0.403571 0.153201 0
0.409506 0.163836 0.131151
0.415442 0.174472 0.326238
0.421393 0.185107 0.521309
0.427329 0.195743 0.716396
0.43328 0.206394 0.911467
0.439216 0.217029 1
0.445167 0.227665 1
0.451102 0.2383 1
0.688075 0.19205 0
0.694026 0.202686 0.137331
0.699962 0.213321 0.332403
0.705913 0.223957 0.527489
0.711849 0.234607 0.72256
0.7178 0.245243 0.917647
0.723735 0.255879 1
0.729671 0.266514 1
0.735622 0.27715 1
0.972595 0.2309 0
0.978546 0.241535 0.143496
0.984482 0.252186 0.338582
0.990433 0.262821 0.533654
0.996368 0.273457 0.72874
1 0.284092 0.923812
1 0.294728 1
1 0.305364 1
1 0.315999 1
1 0.269764 0
1 0.2804 0.149676
1 0.291035 0.344747
1 0.301671 0.539834
1 0.312306 0.734905
1 0.322942 0.929992
1 0.333577 1
1 0.344213 1
1 0.354849 1
1 0.308614 0
1 0.319249 0.15584
1 0.329885 0.350927
1 0.34052 0.545998
1 0.351156 0.741085
1 0.361791 0.936156
1 0.372427 1
1 0.383062 1
1 0.393698 1
1 0.347463 0
1 0.358099 0.16202
1 0.368734 0.357092
1 0.37937 0.552178
1 0.390005 0.74725
1 0.400641 0.942336
1 0.411276 1
1 0.421912 1
1 0.432563 1
1 0.386313 0
1 0.396948 0.168185
1 0.407584 0.363272
1 0.418219 0.558343
1 0.428855 0.753429
1 0.43949 0.948501
1 0.450126 1
1 0.460777 1
1 0.471412 1
0 0.151019 0
0 0.161654 0.0425727
0 0.17229 0.237644
0 0.182925 0.432731
0 0.193561 0.627802
0 0.204196 0.822873
0 0.214832 1
0 0.225483 1
0 0.236118 1
0 0.189868 0
0 0.200504 0.0487373
0 0.211139 0.243824
0 0.221775 0.438895
0 0.23241 0.633967
0 0.243046 0.829053
0 0.253681 1
0 0.264317 1
0.00112917 0.274952 1
0.238102 0.228717 0
0.244053 0.239353 0.0549172
0.249989 0.249989 0.249989
0.255924 0.260624 0.44506
0.261875 0.27126 0.640146
0.267811 0.281895 0.835218
0.273762 0.292531 1
0.279698 0.303181 1
0.285649 0.313817 1
0.522622 0.267567 0
0.528557 0.278202 0.0610819
0.534508 0.288838 0.256153
0.540444 0.299474 0.45124
0.546395 0.310109 0.646311
0.552331 0.320745 0.841398
0.558282 0.331395 1
0.564218 0.342031 1
0.570169 0.352667 1
0.807141 0.306416 0
0.813077 0.317052 0.0672618
0.819028 0.327688 0.262333
0.824964 0.338323 0.457404
0.830915 0.348959 0.652491
0.836851 0.359609 0.847562
0.842802 0.370245 1
0.848737 0.38088 1
0.854673 0.391516 1
1 0.345266 0
1 0.355901 0.0734264
1 0.366537 0.268498
1 0.377188 0.463584
1 0.387823 0.658656
1 0.398459 0.853742
1 0.409094 1
1 0.41973 1
1 0.430365 1
1 0.384115 0
1 0.394751 0.0796063
1 0.405402 0.274678
1 0.416037 0.469749
1 0.426673 0.664836
1 0.437308 0.859907
1 0.447944 1
1 0.458579 1
1 0.469215 1
1 0.42298 0
1 0.433616 0.085771
1 0.444251 0.280842
1 0.454887 0.475929
1 0.465522 0.671
1 0.476158 0.866087
1 0.486793 1
1 0.497429 1
1 0.508064 1
1 0.46183 0
1 0.472465 0.0919509
1 0.483101 0.287022
1 0.493736 0.482094
1 0.504372 0.67718
1 0.515007 0.872251
1 0.525643 1
1 0.536278 1
1 0.546914 1
0 0.226535 0
0 0.237171 0
0 0.247807 0.161395
0 0.258442 0.356481
0 0.269078 0.551553
0 0.279713 0.746639
0 0.290349 0.941711
0 0.300984 1
0 0.31162 1
0 0.265385 0
0 0.27602 0
0 0.286656 0.167575
0 0.297292 0.362646
0 0.307927 0.557717
0 0.318563 0.752804
0 0.329198 0.947875
0 0.339834 1
0 0.350469 1
0.0726482 0.304234 0
0.078584 0.31487 0
0.084535 0.325505 0.173739
0.0904707 0.336141 0.368826
0.0964218 0.346777 0.563897
0.102358 0.357412 0.758968
0.108293 0.368048 0.954055
0.114244 0.378683 1
0.12018 0.389319 1
0.357168 0.343084 0
0.363104 0.353719 0
0.369055 0.364355 0.179919
0.37499 0.37499 0.37499
0.380926 0.385626 0.570062
0.386877 0.396262 0.765148
0.392813 0.406897 0.96022
0.398764 0.417533 1
0.4047 0.428183 1
0.641688 0.381933 0
0.647623 0.392569 0
0.653559 0.403204 0.186084
0.65951 0.41384 0.38117
0.665446 0.424475 0.576242
0.671397 0.435111 0.771313
0.677333 0.445747 0.9664
0.683284 0.456397 1
0.689219 0.467033 1
0.926207 0.420783 0
0.932143 0.431418 0
0.938079 0.442054 0.192264
0.94403 0.452689 0.387335
0.949966 0.463325 0.582406
0.955917 0.47396 0.777493
0.961852 0.484611 0.972564
0.967803 0.495247 1
0.973739 0.505882 1
1 0.459632 0
1 0.470268 0.00335698
1 0.480903 0.198428
1 0.491539 0.3935
1 0.50219 0.588586
1 0.512825 0.783658
1 0.523461 0.978744
1 0.534096 1
1 0.544732 1
1 0.498482 0
1 0.509117 0.00952163
1 0.519753 0.204608
1 0.530404 0.39968
1 0.541039 0.594751
1 0.551675 0.789837
1 0.56231 0.984909
1 0.572946 1
1 0.583581 1
1 0.537331 0
1 0.547967 0.0157015
1 0.558618 0.210773
1 0.569253 0.405844
1 0.579889 0.600931
1 0.590524 0.796002
1 0.60116 0.991089
1 0.611795 1
1 0.622431 1
0 0.302037 0
0 0.312673 0
0 0.323323 0.0851453
0 0.333959 0.280232
0 0.344594 0.475303
0 0.35523 0.67039
0 0.365866 0.865461
0 0.376501 1
0 0.387137 1
0 0.340887 0
0 0.351522 0
0 0.362158 0.0913252
0 0.372793 0.286397
0 0.383444 0.481483
0 0.39408 0.676555
0 0.404715 0.871626
0 0.415351 1
0 0.425986 1
0 0.379736 0
0 0.390372 0
0 0.401022 0.0974899
0 0.411658 0.292576
0 0.422293 0.487648
0 0.432929 0.682719
0 0.443565 0.877806
0 0.4542 1
0 0.464836 1
0.191699 0.418601 0
0.19765 0.429236 0
0.203586 0.439872 0.10367
0.209537 0.450507 0.298741
0.215473 0.461143 0.493828
0.221424 0.471778 0.688899
0.227359 0.482414 0.88397
0.233295 0.49305 1
0.239246 0.503685 1
0.476219 0.45745 0
0.48217 0.468086 0
0.488106 0.478721 0.109834
0.494057 0.489357 0.304921
0.499992 0.499992 0.499992
0.505928 0.510628 0.695064
0.511879 0.521263 0.89015
0.517815 0.531899 1
0.523766 0.542535 1
0.760739 0.4963 0
0.76669 0.506935 0
0.772625 0.517571 0.116014
0.778561 0.528206 0.311086
0.784512 0.538842 0.506157
0.790448 0.549477 0.701244
0.796399 0.560113 0.896315
0.802335 0.570748 1
0.808286 0.581399 1
1 0.535149 0
1 0.545785 0
1 0.55642 0.122179
1 0.567056 0.317266
1 0.577691 0.512337
1 0.588327 0.707408
1 0.598962 0.902495
1 0.609613 1
1 0.620249 1
1 0.573999 0
1 0.584634 0
1 0.59527 0.128359
1 0.605905 0.32343
1 0.616541 0.518502
1 0.627192 0.713588
1 0.637827 0.90866
1 0.648463 1
1 0.659098 1
1 0.612848 0
1 0.623484 0
1 0.634119 0.134524
1 0.644755 0.32961
1 0.655406 0.524681
1 0.666041 0.719753
1 0.676677 0.914839
1 0.687312 1
1 0.697948 1
0 0.377554 0
0 0.38819 0
0 0.398825 0.00889601
0 0.409461 0.203983
0 0.420111 0.399054
0 0.430747 0.594141
0 0.441382 0.789212
0 0.452018 0.984298
0 0.462654 1
0 0.416403 0
0 0.427039 0
0 0.437675 0.0150759
0 0.44831 0.210147
0 0.458946 0.405234
0 0.469581 0.600305
0 0.480232 0.795377
0 0.490867 0.990463
0 0.501503 1
0 0.455253 0
0 0.465888 0
0 0.476524 0.0212406
0 0.48716 0.216327
0 0.497795 0.411399
0 0.508446 0.606485
0 0.519081 0.801556
0 0.529717 0.996628
0 0.540352 1
0.0262455 0.494102 0
0.0321813 0.504738 0
0.0381323 0.515373 0.0274205
0.0440681 0.526024 0.222492
0.0500191 0.53666 0.417578
0.0559548 0.547295 0.61265
0.0619059 0.557931 0.807721
0.0678416 0.568566 1
0.0737774 0.579202 1
0.310765 0.532952 0
0.316701 0.543587 0
0.322652 0.554238 0.0335851
0.328588 0.564874 0.228672
0.334539 0.575509 0.423743
0.340475 0.586145 0.61883
0.346426 0.59678 0.813901
0.352361 0.607416 1
0.358297 0.618051 1
0.595285 0.571817 0
0.601221 0.582452 0
0.607172 0.593088 0.039765
0.613108 0.603723 0.234836
0.619058 0.614359 0.429923
0.624994 0.624994 0.624994
0.63093 0.63563 0.820066
0.636881 0.646265 1
0.642817 0.656901 1
0.879805 0.610666 0
0.88574 0.621302 0
0.891691 0.631937 0.0459297
0.897627 0.642573 0.241016
0.903578 0.653208 0.436088
0.909514 0.663844 0.631159
0.91545 0.674479 0.826246
0.921401 0.685115 1
0.927337 0.69575 1
1 0.649516 0
1 0.660151 0
1 0.670787 0.0521096
1 0.681422 0.247181
1 0.692058 0.442267
1 0.702693 0.637339
1 0.713329 0.83241
1 0.723964 1
1 0.734615 1
1 0.688365 0
1 0.699001 0
1 0.709636 0.0582742
1 0.720272 0.253361
1 0.730907 0.448432
1 0.741543 0.643503
1 0.752194 0.83859
1 0.762829 1
1 0.773465 1
0 0.453071 0
0 0.463706 0
0 0.474342 0
0 0.484977 0.127733
0 0.495613 0.322805
0 0.506249 0.517891
0 0.516884 0.712963
0 0.527535 0.908049
0 0.53817 1
0 0.49192 0
0 0.502556 0
0 0.513191 0
0 0.523827 0.133898
0 0.534463 0.328984
0 0.545098 0.524056
0 0.555734 0.719142
0 0.566369 0.914214
0 0.57702 1
0 0.53077 0
0 0.541405 0
0 0.552041 0
0 0.562676 0.140078
0 0.573312 0.335149
0 0.583947 0.530236
0 0.594583 0.725307
0 0.605234 0.920378
0 0.615869 1
0 0.569619 0
0 0.580255 0
0 0.59089 0
0 0.601526 0.146242
0 0.612161 0.341329
0 0.622797 0.5364
0 0.633448 0.731487
0 0.644083 0.926558
0 0.654719 1
0.145312 0.608469 0
0.151247 0.619104 0
0.157183 0.62974 0
0.163134 0.640375 0.152422
0.16907 0.651026 0.347494
0.175021 0.661662 0.54258
0.180957 0.672297 0.737652
0.186908 0.682933 0.932723
0.192844 0.693568 1
0.429816 0.647318 0
0.435767 0.657954 0
0.441703 0.668589 0
0.447654 0.67924 0.158587
0.45359 0.689876 0.353674
0.459541 0.700511 0.548745
0.465476 0.711147 0.743832
0.471427 0.721782 0.938903
0.477363 0.732418 1
0.714336 0.686168 0
0.720287 0.696818 0
0.726223 0.707454 0
0.732174 0.71809 0.164767
0.738109 0.728725 0.359838
0.74406 0.739361 0.554925
0.749996 0.749996 0.749996
0.755932 0.760632 0.945068
0.761883 0.771267 1
0.998856 0.725032 0
1 0.735668 0
1 0.746303 0
1 0.756939 0.170932
1 0.767575 0.366018
1 0.77821 0.56109
1 0.788846 0.756161
1 0.799481 0.951247
1 0.810117 1
1 0.763882 0
1 0.774517 0
1 0.785153 0
1 0.795789 0.177111
1 0.806424 0.372183
1 0.81706 0.567269
1 0.827695 0.762341
1 0.838331 0.957412
1 0.848966 1
0 0.528588 0
0 0.539223 0
0 0.549859 0
0 0.560494 0.0514839
0 0.57113 0.246555
0 0.581765 0.441642
0 0.592401 0.636713
0 0.603037 0.8318
0 0.613672 1
0 0.567437 0
0 0.578073 0
0 0.588708 0
0 0.599344 0.0576486
0 0.609979 0.252735
0 0.620615 0.447807
0 0.631251 0.642893
0 0.641886 0.837964
0 0.652522 1
0 0.606287 0
0 0.616922 0
0 0.627558 0
0 0.638193 0.0638285
0 0.648829 0.2589
0 0.659464 0.453986
0 0.6701 0.649058
0 0.680735 0.844144
0 0.691371 1
0 0.645136 0
0 0.655772 0
0 0.666407 0
0 0.677043 0.0699931
0 0.687678 0.26508
0 0.698314 0.460151
0 0.708949 0.655238
0 0.719585 0.850309
0 0.730236 1
0 0.683986 0
0 0.694621 0
0 0.705257 0
0 0.715892 0.076173
0.00361639 0.726528 0.271244
0.00955215 0.737163 0.466331
0.0155032 0.747799 0.661402
0.0214389 0.75845 0.856489
0.0273899 0.769085 1
0.264363 0.722835 0
0.270314 0.733471 0
0.276249 0.744106 0
0.282185 0.754742 0.0823377
0.288136 0.765377 0.277424
0.294072 0.776028 0.472496
0.300023 0.786664 0.667582
0.305959 0.797299 0.862654
0.31191 0.807935 1
0.548882 0.761685 0
0.554818 0.77232 0
0.560769 0.782956 0
0.566705 0.793591 0.0885176
0.572656 0.804242 0.283589
0.578592 0.814878 0.478676
0.584543 0.825513 0.673747
0.590478 0.836149 0.868833
0.596429 0.846784 1
0.833402 0.800534 0
0.839338 0.81117 0
0.845289 0.82182 0
0.851225 0.832456 0.0946822
0.857176 0.843091 0.289769
0.863111 0.853727 0.48484
0.869062 0.864363 0.679927
0.874998 0.874998 0.874998
0.880934 0.885634 1
1 0.839399 0
1 0.850034 0
1 0.86067 0
1 0.871305 0.100862
1 0.881941 0.295933
1 0.892576 0.49102
1 0.903212 0.686091
1 0.913848 0.881163
1 0.924483 1
0 0.604105 0
0 0.61474 0
0 0.625376 0
0 0.636011 0
0 0.646647 0.170306
0 0.657282 0.365393
0 0.667918 0.560464
0 0.678553 0.75555
0 0.689189 0.950622
0 0.642939 0
0 0.653574 0
0 0.66421 0
0 0.674861 0
0 0.685496 0.176486
0 0.696132 0.371557
0 0.706767 0.566644
0 0.717403 0.761715
0 0.728038 0.956802
0 0.681788 0
0 0.692424 0
0 0.703075 0
0 0.71371 0
0 0.724346 0.18265
0 0.734981 0.377737
0 0.745617 0.572808
0 0.756252 0.767895
0 0.766888 0.962966
0 0.720653 0
0 0.731289 0
0 0.741924 0
0 0.75256 0
0 0.763195 0.18883
0 0.773831 0.383902
0 0.784466 0.578988
0 0.795102 0.77406
0 0.805737 0.969146
0 0.759503 0
0 0.770138 0
0 0.780774 0
0 0.791409 0
0 0.802045 0.194995
0 0.81268 0.390082
0 0.823316 0.585153
0 0.833951 0.78024
0 0.844587 0.975311
0.098909 0.798352 0
0.104845 0.808988 0
0.110796 0.819623 0
0.116732 0.830259 0.00608835
0.122667 0.840894 0.201175
0.128618 0.85153 0.396246
0.134554 0.862165 0.591333
0.140505 0.872801 0.786404
0.146441 0.883452 0.981491
0.383429 0.837201 0
0.389364 0.847837 0
0.395315 0.858473 0
0.401251 0.869108 0.0122683
0.407187 0.879744 0.20734
0.413138 0.890379 0.402426
0.419074 0.90103 0.597498
0.425025 0.911665 0.792584
0.430961 0.922301 0.987655
0.667948 0.876051 0
0.673884 0.886687 0
0.67982 0.897322 0
0.685771 0.907958 0.0184329
0.691707 0.918593 0.213519
0.697658 0.929244 0.408591
0.703593 0.939879 0.603677
0.709545 0.950515 0.798749
0.71548 0.961151 0.993835
0.952468 0.9149 0
0.958404 0.925536 0
0.96434 0.936172 0
0.970291 0.946807 0.0246128
0.976226 0.957458 0.219684
0.982177 0.968093 0.414771
0.988113 0.978729 0.609842
0.994064 0.989364 0.804929
1 1 1
