public/LUTS/Color Shift/ColorShift_92.cube
TITLE "Generated by Resolve"
LUT_3D_SIZE 33
0 0 0
0 0.00791943 0.0440528
0 0.0158389 0.0881208
0 0.0237583 0.132189
0 0.0316777 0.176257
0 0.0395972 0.22034
0 0.0475166 0.264408
0 0.055436 0.308476
0 0.0633555 0.352544
0 0.0712749 0.396612
0 0.0791943 0.440696
0 0.0871138 0.484764
0 0.0950332 0.528832
0 0.102953 0.5729
0 0.110872 0.616968
0 0.118791 0.661051
0 0.126711 0.705119
0 0.13463 0.749187
0 0.14255 0.793256
0 0.150469 0.837324
0 0.158389 0.881407
0 0.166308 0.925475
0 0.174228 0.969543
0 0.182147 1
0 0.190066 1
0 0.197986 1
0 0.205905 1
0 0.213825 1
0 0.221744 1
0 0.229664 1
0 0.237583 1
0 0.245502 1
0 0.253422 1
0.0751812 0.00602731 0.0206455
0.0611582 0.0139467 0.0646983
0.0471199 0.0218662 0.108766
0.0330816 0.0297856 0.152834
0.0190433 0.037705 0.196918
0.00500496 0.0456245 0.240986
0 0.0535439 0.285054
0 0.0614633 0.329122
0 0.0693828 0.37319
0 0.0773022 0.417273
0 0.0852216 0.461341
0 0.0931411 0.505409
0 0.101061 0.549477
0 0.10898 0.593545
0 0.116899 0.637629
0 0.124819 0.681697
0 0.132738 0.725765
0 0.140658 0.769833
0 0.148577 0.813901
0 0.156497 0.857984
0 0.164416 0.902052
0 0.172335 0.94612
0 0.180255 0.990188
0 0.188174 1
0 0.196094 1
0 0.204013 1
0 0.211933 1
0 0.219852 1
0 0.227771 1
0 0.235691 1
0 0.24361 1
0 0.25153 1
0 0.259449 1
0.150393 0.0120546 0.0413062
0.13637 0.0199741 0.085359
0.122332 0.0278935 0.129427
0.108293 0.0358129 0.173495
0.0942702 0.0437324 0.217563
0.0802319 0.0516518 0.261646
0.0661936 0.0595712 0.305715
0.0521553 0.0674907 0.349783
0.038117 0.0754101 0.393851
0.024094 0.0833295 0.437919
0.0100557 0.091249 0.482002
0 0.0991684 0.52607
0 0.107088 0.570138
0 0.115007 0.614206
0 0.122927 0.658274
0 0.130846 0.702358
0 0.138766 0.746426
0 0.146685 0.790494
0 0.154604 0.834562
0 0.162524 0.87863
0 0.170443 0.922713
0 0.178363 0.966781
0 0.186282 1
0 0.194202 1
0 0.202121 1
0 0.21004 1
0 0.21796 1
0 0.225879 1
0 0.233799 1
0 0.241718 1
0 0.249638 1
0 0.257557 1
0 0.265476 1
0.225605 0.0180819 0.0619669
0.211582 0.0260014 0.10602
0.197543 0.0339208 0.150088
0.18352 0.0418402 0.194156
0.169482 0.0497597 0.238224
0.155444 0.0576791 0.282292
0.141405 0.0655985 0.326375
0.127367 0.073518 0.370443
0.113344 0.0814374 0.414511
0.0993057 0.0893568 0.458579
0.0852674 0.0972763 0.502647
0.0712291 0.105196 0.546731
0.0572061 0.113115 0.590799
0.0431678 0.121035 0.634867
0.0291295 0.128954 0.678935
0.0150912 0.136873 0.723003
0.00106813 0.144793 0.767086
0 0.152712 0.811154
0 0.160632 0.855222
0 0.168551 0.89929
0 0.176471 0.943358
0 0.18439 0.987442
0 0.192309 1
0 0.200229 1
0 0.208148 1
0 0.216068 1
0 0.223987 1
0 0.231907 1
0 0.239826 1
0 0.247745 1
0 0.255665 1
0 0.263584 1
0 0.271504 1
0.300832 0.0241093 0.0826276
0.286793 0.0320287 0.126665
0.27277 0.0399481 0.170748
0.258732 0.0478676 0.214817
0.244694 0.055787 0.258885
0.230655 0.0637064 0.302953
0.216632 0.0716259 0.347021
0.202594 0.0795453 0.391104
0.188556 0.0874647 0.435172
0.174517 0.0953841 0.47924
0.160479 0.103304 0.523308
0.146456 0.111223 0.567376
0.132418 0.119142 0.61146
0.118379 0.127062 0.655528
0.104341 0.134981 0.699596
0.0903182 0.142901 0.743664
0.0762798 0.15082 0.787747
0.0622416 0.15874 0.831815
0.0482032 0.166659 0.875883
0.0341802 0.174578 0.919951
0.0201419 0.182498 0.964019
0.00610361 0.190417 1
0 0.198337 1
0 0.206256 1
0 0.214176 1
0 0.222095 1
0 0.230015 1
0 0.237934 1
0 0.245853 1
0 0.253773 1
0 0.261692 1
0 0.269612 1
0 0.277531 1
0.376043 0.0301518 0.103273
0.36202 0.038056 0.147326
0.347982 0.0459754 0.191394
0.333944 0.0538949 0.235477
0.319905 0.0618143 0.279545
0.305882 0.0697337 0.323613
0.291844 0.0776532 0.367681
0.277806 0.0855726 0.411765
0.263767 0.093492 0.455833
0.249729 0.101411 0.499901
0.235706 0.109331 0.543969
0.221668 0.11725 0.588037
0.20763 0.12517 0.63212
0.193591 0.133089 0.676188
0.179568 0.141009 0.720256
0.16553 0.148928 0.764324
0.151492 0.156847 0.808392
0.137453 0.164767 0.852476
0.12343 0.172686 0.896544
0.109392 0.180606 0.940612
0.0953536 0.188525 0.98468
0.0813153 0.196445 1
0.0672923 0.204364 1
0.053254 0.212284 1
0.0392157 0.220203 1
0.0251774 0.228122 1
0.0111391 0.236042 1
0 0.243961 1
0 0.251881 1
0 0.2598 1
0 0.26772 1
0 0.275639 1
0 0.283558 1
0.451255 0.0361791 0.123934
0.437232 0.0440833 0.167987
0.423194 0.0520027 0.212055
0.409155 0.0599222 0.256138
0.395132 0.0678416 0.300206
0.381094 0.075761 0.344274
0.367056 0.0836805 0.388342
0.353017 0.0915999 0.43241
0.338994 0.0995193 0.476493
0.324956 0.107439 0.520562
0.310918 0.115358 0.56463
0.29688 0.123278 0.608698
0.282841 0.131197 0.652766
0.268818 0.139116 0.696849
0.25478 0.147036 0.740917
0.240742 0.154955 0.784985
0.226703 0.162875 0.829053
0.21268 0.170794 0.873121
0.198642 0.178714 0.917205
0.184604 0.186633 0.961273
0.170565 0.194568 1
0.156542 0.202487 1
0.142504 0.210407 1
0.128466 0.218326 1
0.114427 0.226246 1
0.100389 0.234165 1
0.0863661 0.242084 1
0.0723278 0.250004 1
0.0582895 0.257923 1
0.0442512 0.265843 1
0.0302281 0.273762 1
0.0161898 0.281682 1
0.00215152 0.289601 1
0.526467 0.0422065 0.144594
0.512444 0.0501259 0.188647
0.498405 0.0580453 0.232715
0.484382 0.0659648 0.276783
0.470344 0.0738842 0.320867
0.456306 0.0818036 0.364935
0.442267 0.0897231 0.409003
0.428244 0.0976425 0.453071
0.414206 0.105562 0.497139
0.400168 0.113481 0.541222
0.38613 0.121401 0.58529
0.372091 0.12932 0.629358
0.358068 0.13724 0.673426
0.34403 0.145159 0.717494
0.329992 0.153079 0.761578
0.315953 0.160998 0.805646
0.30193 0.168917 0.849714
0.287892 0.176837 0.893782
0.273854 0.184756 0.93785
0.259815 0.192676 0.981933
0.245792 0.200595 1
0.231754 0.208515 1
0.217716 0.216434 1
0.203677 0.224353 1
0.189654 0.232273 1
0.175616 0.240192 1
0.161578 0.248112 1
0.147539 0.256031 1
0.133501 0.263951 1
0.119478 0.27187 1
0.10544 0.279789 1
0.0914015 0.287709 1
0.0773632 0.295628 1
0.601694 0.0482338 0.165255
0.587655 0.0561532 0.209308
0.573632 0.0640726 0.253376
0.559594 0.0719921 0.297444
0.545556 0.0799115 0.341512
0.531518 0.0878309 0.385595
0.517494 0.0957504 0.429664
0.503456 0.10367 0.473732
0.489418 0.111589 0.5178
0.47538 0.119509 0.561868
0.461357 0.127428 0.605951
0.447318 0.135348 0.650019
0.43328 0.143267 0.694087
0.419242 0.151186 0.738155
0.405203 0.159106 0.782223
0.39118 0.167025 0.826307
0.377142 0.174945 0.870375
0.363104 0.182864 0.914443
0.349065 0.190784 0.958511
0.335042 0.198703 1
0.321004 0.206622 1
0.306966 0.214542 1
0.292927 0.222461 1
0.278904 0.230381 1
0.264866 0.2383 1
0.250828 0.24622 1
0.236789 0.254139 1
0.222751 0.262058 1
0.208728 0.269978 1
0.19469 0.277897 1
0.180652 0.285817 1
0.166613 0.293736 1
0.15259 0.301656 1
0.676905 0.0542611 0.185916
0.662882 0.0621805 0.229969
0.648844 0.0700999 0.274037
0.634806 0.0780194 0.318105
0.620768 0.0859388 0.362173
0.606744 0.0938582 0.406241
0.592706 0.101778 0.450324
0.578668 0.109697 0.494392
0.56463 0.117617 0.53846
0.550607 0.125536 0.582528
0.536568 0.133455 0.626596
0.52253 0.141375 0.67068
0.508492 0.149294 0.714748
0.494453 0.157214 0.758816
0.48043 0.165133 0.802884
0.466392 0.173053 0.846952
0.452354 0.180972 0.891035
0.438315 0.188891 0.935103
0.424292 0.196811 0.979171
0.410254 0.20473 1
0.396216 0.21265 1
0.382177 0.220569 1
0.368154 0.228489 1
0.354116 0.236408 1
0.340078 0.244327 1
0.32604 0.252247 1
0.312016 0.260166 1
0.297978 0.268086 1
0.28394 0.276005 1
0.269902 0.283925 1
0.255863 0.291844 1
0.24184 0.299763 1
0.227802 0.307683 1
0.752117 0.0602884 0.206577
0.738094 0.0682078 0.250614
0.724056 0.0761273 0.294697
0.710018 0.0840467 0.338766
0.695994 0.0919661 0.382834
0.681956 0.0998856 0.426902
0.667918 0.107805 0.47097
0.65388 0.115724 0.515053
0.639857 0.123644 0.559121
0.625818 0.131563 0.603189
0.61178 0.139483 0.647257
0.597742 0.147402 0.691325
0.583719 0.155322 0.735409
0.56968 0.163241 0.779477
0.555642 0.17116 0.823545
0.541604 0.17908 0.867613
0.527565 0.186999 0.911696
0.513542 0.194919 0.955764
0.499504 0.202838 0.999832
0.485466 0.210758 1
0.471427 0.218677 1
0.457404 0.226596 1
0.443366 0.234516 1
0.429328 0.242435 1
0.41529 0.250355 1
0.401266 0.258274 1
0.387228 0.266194 1
0.37319 0.274113 1
0.359152 0.282032 1
0.345113 0.289952 1
0.33109 0.297871 1
0.317052 0.305791 1
0.303014 0.31371 1
0.827344 0.0663157 0.227222
0.813306 0.0742351 0.271275
0.799268 0.0821546 0.315343
0.785245 0.090074 0.359426
0.771206 0.0979934 0.403494
0.757168 0.105913 0.447562
0.74313 0.113832 0.49163
0.729107 0.121752 0.535714
0.715068 0.129671 0.579782
0.70103 0.137591 0.62385
0.686992 0.14551 0.667918
0.672969 0.153429 0.711986
0.65893 0.161349 0.756069
0.644892 0.169268 0.800137
0.630854 0.177188 0.844205
0.616815 0.185107 0.888273
0.602792 0.193027 0.932342
0.588754 0.200946 0.976425
0.574716 0.208865 1
0.560678 0.216785 1
0.546654 0.224704 1
0.532616 0.232624 1
0.518578 0.240543 1
0.50454 0.248463 1
0.490517 0.256382 1
0.476478 0.264302 1
0.46244 0.272221 1
0.448402 0.28014 1
0.434379 0.28806 1
0.42034 0.295979 1
0.406302 0.303899 1
0.392264 0.311818 1
0.378225 0.319738 1
0.902556 0.072343 0.247883
0.888518 0.0802625 0.291936
0.874495 0.0881819 0.336004
0.860456 0.0961013 0.380087
0.846418 0.104021 0.424155
0.83238 0.11194 0.468223
0.818357 0.11986 0.512291
0.804318 0.127779 0.556359
0.79028 0.135698 0.600443
0.776242 0.143618 0.644511
0.762219 0.151537 0.688579
0.74818 0.159457 0.732647
0.734142 0.167376 0.776715
0.720104 0.175296 0.820798
0.706081 0.183215 0.864866
0.692042 0.191135 0.908934
0.678004 0.199054 0.953002
0.663966 0.206973 0.99707
0.649927 0.214893 1
0.635904 0.222812 1
0.621866 0.230732 1
0.607828 0.238651 1
0.59379 0.246571 1
0.579767 0.25449 1
0.565728 0.262409 1
0.55169 0.270329 1
0.537652 0.278248 1
0.523629 0.286168 1
0.50959 0.294087 1
0.495552 0.302007 1
0.481514 0.309926 1
0.467475 0.317845 1
0.453452 0.325765 1
0.977768 0.0783856 0.268544
0.963745 0.0862898 0.312596
0.949706 0.0942092 0.356664
0.935668 0.102129 0.400732
0.92163 0.110048 0.444816
0.907607 0.117968 0.488884
0.893568 0.125887 0.532952
0.87953 0.133806 0.57702
0.865492 0.141726 0.621088
0.851469 0.149645 0.665171
0.83743 0.157565 0.709239
0.823392 0.165484 0.753307
0.809354 0.173404 0.797375
0.795331 0.181323 0.841443
0.781292 0.189242 0.885527
0.767254 0.197162 0.929595
0.753216 0.205081 0.973663
0.739178 0.213001 1
0.725155 0.22092 1
0.711116 0.22884 1
0.697078 0.236759 1
0.68304 0.244678 1
0.669017 0.252598 1
0.654978 0.260517 1
0.64094 0.268452 1
0.626902 0.276371 1
0.612879 0.284291 1
0.59884 0.29221 1
0.584802 0.30013 1
0.570764 0.308049 1
0.556741 0.315969 1
0.542702 0.323888 1
0.528664 0.331807 1
1 0.0844129 0.289204
1 0.0923323 0.333257
1 0.100252 0.377325
1 0.108171 0.421393
0.996857 0.116091 0.465461
0.982818 0.12401 0.509544
0.96878 0.13193 0.553613
0.954742 0.139849 0.597681
0.940719 0.147768 0.641749
0.92668 0.155688 0.685817
0.912642 0.163607 0.7299
0.898604 0.171527 0.773968
0.884581 0.179446 0.818036
0.870542 0.187366 0.862104
0.856504 0.195285 0.906172
0.842466 0.203204 0.950256
0.828443 0.211124 0.994324
0.814404 0.219043 1
0.800366 0.226963 1
0.786328 0.234882 1
0.77229 0.242802 1
0.758267 0.250721 1
0.744228 0.25864 1
0.73019 0.26656 1
0.716152 0.274479 1
0.702129 0.282399 1
0.68809 0.290318 1
0.674052 0.298238 1
0.660014 0.306157 1
0.645991 0.314076 1
0.631952 0.321996 1
0.617914 0.329915 1
0.603876 0.337835 1
1 0.0904402 0.309865
1 0.0983597 0.353918
1 0.106279 0.397986
1 0.114199 0.442054
1 0.122118 0.486122
1 0.130037 0.53019
1 0.137957 0.574273
1 0.145876 0.618341
1 0.153796 0.662409
1 0.161715 0.706477
0.987854 0.169635 0.750546
0.973831 0.177554 0.794629
0.959792 0.185473 0.838697
0.945754 0.193393 0.882765
0.931716 0.201312 0.926833
0.917693 0.209232 0.970901
0.903655 0.217151 1
0.889616 0.225071 1
0.875578 0.23299 1
0.86154 0.240909 1
0.847517 0.248829 1
0.833478 0.256748 1
0.81944 0.264668 1
0.805402 0.272587 1
0.791379 0.280507 1
0.77734 0.288426 1
0.763302 0.296345 1
0.749264 0.304265 1
0.735241 0.312184 1
0.721202 0.320104 1
0.707164 0.328023 1
0.693126 0.335943 1
0.679103 0.343862 1
1 0.0964675 0.330526
1 0.104387 0.374563
1 0.112306 0.418647
1 0.120226 0.462715
1 0.128145 0.506783
1 0.136065 0.550851
1 0.143984 0.594919
1 0.151904 0.639002
1 0.159823 0.68307
1 0.167742 0.727138
1 0.175662 0.771206
1 0.183581 0.815274
1 0.191501 0.859358
1 0.19942 0.903426
1 0.20734 0.947494
0.992905 0.215259 0.991562
0.978866 0.223178 1
0.964828 0.231098 1
0.950805 0.239017 1
0.936767 0.246937 1
0.922728 0.254856 1
0.90869 0.262776 1
0.894652 0.270695 1
0.880629 0.278614 1
0.86659 0.286534 1
0.852552 0.294453 1
0.838514 0.302373 1
0.824491 0.310292 1
0.810452 0.318212 1
0.796414 0.326131 1
0.782376 0.334051 1
0.768353 0.34197 1
0.754314 0.349889 1
1 0.102495 0.351171
1 0.110414 0.395224
1 0.118334 0.439292
1 0.126253 0.483375
1 0.134173 0.527443
1 0.142092 0.571511
1 0.150011 0.615579
1 0.157931 0.659648
1 0.16585 0.703731
1 0.17377 0.747799
1 0.181689 0.791867
1 0.189609 0.835935
1 0.197528 0.880018
1 0.205447 0.924086
1 0.213367 0.968154
1 0.221286 1
1 0.229206 1
1 0.237125 1
1 0.245045 1
1 0.252964 1
0.99794 0.260884 1
0.983902 0.268803 1
0.969879 0.276722 1
0.95584 0.284642 1
0.941802 0.292561 1
0.927764 0.300481 1
0.913741 0.3084 1
0.899702 0.31632 1
0.885664 0.324239 1
0.871626 0.332158 1
0.857603 0.340078 1
0.843565 0.347997 1
0.829526 0.355917 1
1 0.108522 0.371832
1 0.116442 0.415885
1 0.124361 0.459953
1 0.13228 0.504036
1 0.1402 0.548104
1 0.148119 0.592172
1 0.156039 0.63624
1 0.163958 0.680308
1 0.171878 0.724392
1 0.179797 0.76846
1 0.187716 0.812528
1 0.195636 0.856596
1 0.203555 0.900664
1 0.211475 0.944747
1 0.219394 0.988815
1 0.227314 1
1 0.235233 1
1 0.243153 1
1 0.251072 1
1 0.258991 1
1 0.266911 1
1 0.27483 1
1 0.28275 1
1 0.290669 1
1 0.298589 1
1 0.306508 1
0.988952 0.314427 1
0.974914 0.322347 1
0.960876 0.330266 1
0.946853 0.338186 1
0.932815 0.346105 1
0.918776 0.354025 1
0.904738 0.361944 1
1 0.114549 0.392493
1 0.122469 0.436545
1 0.130388 0.480613
1 0.138308 0.524681
1 0.146227 0.568765
1 0.154147 0.612833
1 0.162066 0.656901
1 0.169986 0.700969
1 0.177905 0.745037
1 0.185824 0.78912
1 0.193744 0.833188
1 0.201663 0.877256
1 0.209583 0.921324
1 0.217502 0.965393
1 0.225422 1
1 0.233341 1
1 0.24126 1
1 0.24918 1
1 0.257099 1
1 0.265019 1
1 0.272938 1
1 0.280858 1
1 0.288777 1
1 0.296696 1
1 0.304616 1
1 0.312535 1
1 0.320455 1
1 0.328374 1
1 0.336294 1
1 0.344213 1
1 0.352132 1
0.993988 0.360052 1
0.979965 0.367971 1
1 0.120592 0.413153
1 0.128496 0.457206
1 0.136416 0.501274
1 0.144335 0.545342
1 0.152255 0.58941
1 0.160174 0.633494
1 0.168093 0.677562
1 0.176013 0.72163
1 0.183932 0.765698
1 0.191852 0.809766
1 0.199771 0.853849
1 0.207691 0.897917
1 0.21561 0.941985
1 0.223529 0.986053
1 0.231449 1
1 0.239368 1
1 0.247288 1
1 0.255207 1
1 0.263127 1
1 0.271046 1
1 0.278965 1
1 0.286885 1
1 0.294804 1
1 0.302724 1
1 0.310643 1
1 0.318563 1
1 0.326482 1
1 0.334401 1
1 0.342336 1
1 0.350256 1
1 0.358175 1
1 0.366094 1
1 0.374014 1
1 0.126619 0.433814
1 0.134539 0.477867
1 0.142458 0.521935
1 0.150378 0.566003
1 0.158297 0.610071
1 0.166217 0.654139
1 0.174136 0.698222
1 0.182055 0.74229
1 0.189975 0.786358
1 0.197894 0.830427
1 0.205814 0.874495
1 0.213733 0.918578
1 0.221653 0.962646
1 0.229572 1
1 0.237491 1
1 0.245411 1
1 0.25333 1
1 0.26125 1
1 0.269169 1
1 0.277089 1
1 0.285008 1
1 0.292927 1
1 0.300847 1
1 0.308766 1
1 0.316686 1
1 0.324605 1
1 0.332525 1
1 0.340444 1
1 0.348363 1
1 0.356283 1
1 0.364202 1
1 0.372122 1
1 0.380041 1
1 0.132647 0.454475
1 0.140566 0.498512
1 0.148486 0.542596
1 0.156405 0.586664
1 0.164324 0.630732
1 0.172244 0.6748
1 0.180163 0.718868
1 0.188083 0.762951
1 0.196002 0.807019
1 0.203922 0.851087
1 0.211841 0.895155
1 0.21976 0.939223
1 0.22768 0.983307
1 0.235599 1
1 0.243519 1
1 0.251438 1
1 0.259358 1
1 0.267277 1
1 0.275196 1
1 0.283116 1
1 0.291035 1
1 0.298955 1
1 0.306874 1
1 0.314794 1
1 0.322713 1
1 0.330632 1
1 0.338552 1
1 0.346471 1
1 0.354391 1
1 0.36231 1
1 0.37023 1
1 0.378149 1
1 0.386069 1
1 0.138674 0.47512
1 0.146593 0.519173
1 0.154513 0.563241
1 0.162432 0.607324
1 0.170352 0.651392
1 0.178271 0.69546
1 0.186191 0.739528
1 0.19411 0.783597
1 0.202029 0.82768
1 0.209949 0.871748
1 0.217868 0.915816
1 0.225788 0.959884
1 0.233707 1
1 0.241627 1
1 0.249546 1
1 0.257465 1
1 0.265385 1
1 0.273304 1
1 0.281224 1
1 0.289143 1
1 0.297063 1
1 0.304982 1
1 0.312901 1
1 0.320821 1
1 0.32874 1
1 0.33666 1
1 0.344579 1
1 0.352499 1
1 0.360418 1
1 0.368338 1
1 0.376257 1
1 0.384176 1
1 0.392096 1
1 0.144701 0.495781
1 0.152621 0.539834
1 0.16054 0.583902
1 0.16846 0.627985
1 0.176379 0.672053
1 0.184298 0.716121
1 0.192218 0.760189
1 0.200137 0.804257
1 0.208057 0.848341
1 0.215976 0.892409
1 0.223896 0.936477
1 0.231815 0.980545
1 0.239734 1
1 0.247654 1
1 0.255573 1
1 0.263493 1
1 0.271412 1
1 0.279332 1
1 0.287251 1
1 0.295171 1
1 0.30309 1
1 0.311009 1
1 0.318929 1
1 0.326848 1
1 0.334768 1
1 0.342687 1
1 0.350607 1
1 0.358526 1
1 0.366445 1
1 0.374365 1
1 0.382284 1
1 0.390204 1
1 0.398123 1
1 0.150729 0.516442
1 0.158648 0.560494
1 0.166567 0.604562
1 0.174487 0.64863
1 0.182406 0.692714
1 0.190326 0.736782
1 0.198245 0.78085
1 0.206165 0.824918
1 0.214084 0.868986
1 0.222004 0.913069
1 0.229923 0.957137
1 0.237842 1
1 0.245762 1
1 0.253681 1
1 0.261601 1
1 0.26952 1
1 0.27744 1
1 0.285359 1
1 0.293278 1
1 0.301198 1
1 0.309117 1
1 0.317037 1
1 0.324956 1
1 0.332876 1
1 0.340795 1
1 0.348714 1
1 0.356634 1
1 0.364553 1
1 0.372473 1
1 0.380392 1
1 0.388312 1
1 0.396231 1
1 0.40415 1
1 0.156756 0.537102
1 0.164675 0.581155
1 0.172595 0.625223
1 0.180514 0.669291
1 0.188434 0.713359
1 0.196353 0.757443
1 0.204273 0.801511
1 0.212192 0.845579
1 0.220111 0.889647
1 0.228031 0.933715
1 0.23595 0.977798
1 0.24387 1
1 0.251789 1
1 0.259709 1
1 0.267628 1
1 0.275547 1
1 0.283467 1
1 0.291386 1
1 0.299306 1
1 0.307225 1
1 0.315145 1
1 0.323064 1
1 0.330983 1
1 0.338903 1
1 0.346822 1
1 0.354742 1
1 0.362661 1
1 0.370581 1
1 0.3785 1
1 0.386419 1
1 0.394339 1
1 0.402258 1
1 0.410178 1
1 0.162799 0.557763
1 0.170703 0.601816
1 0.178622 0.645884
1 0.186542 0.689952
1 0.194461 0.73402
1 0.20238 0.778088
1 0.2103 0.822171
1 0.218219 0.866239
1 0.226139 0.910307
