public/LUTS/Color Shift/ColorShift_15.cube
TITLE "Generated by Resolve"
LUT_3D_SIZE 5
0 0 0
0.0507668 0.078706 0
0.101534 0.157427 0
0.1523 0.236133 0
0.203067 0.314855 0
0 0.224506 0.298253
0.00790417 0.303212 0.150927
0.0586709 0.381918 0.00358587
0.109438 0.460639 0
0.160204 0.539345 0
0 0.449012 0.596521
0 0.527733 0.449195
0.0157931 0.606439 0.301854
0.0665599 0.685161 0.154528
0.117327 0.763867 0.007187
0 0.673533 0.894789
0 0.752239 0.747463
0 0.830961 0.600122
0.0236973 0.909667 0.452796
0.074464 0.988388 0.305455
0 0.898054 1
0 0.976761 1
0 1 0.89839
0 1 0.751064
0.0316014 1 0.603723
0.242084 0 0.0990616
0.292851 0.0254826 0
0.343618 0.104204 0
0.394385 0.18291 0
0.445151 0.261631 0
0.199222 0.171283 0.397314
0.249989 0.249989 0.249989
0.300755 0.328695 0.102663
0.351522 0.407416 0
0.402289 0.486122 0
0.156359 0.395804 0.695583
0.207126 0.47451 0.548257
0.257893 0.553216 0.400916
0.308659 0.631937 0.25359
0.359426 0.710643 0.106249
0.113497 0.62031 0.993851
0.164263 0.699016 0.846525
0.215015 0.777737 0.699184
0.265782 0.856443 0.551858
0.316548 0.935164 0.404517
0.0706188 0.844831 1
0.121386 0.923537 1
0.172152 1 0.997452
0.222919 1 0.850126
0.273686 1 0.702785
0.484199 0 0.198138
0.534951 0 0.0508125
0.585718 0.0509804 0
0.636484 0.129686 0
0.687251 0.208392 0
0.441321 0.118059 0.496376
0.492088 0.196765 0.349065
0.542855 0.275471 0.201724
0.593622 0.354192 0.0543984
0.644388 0.432898 0
0.398459 0.342565 0.794644
0.449226 0.421286 0.647318
0.499992 0.499992 0.499992
0.550759 0.578698 0.352651
0.601526 0.65742 0.205325
0.355596 0.567086 1
0.406363 0.645792 0.945586
0.45713 0.724514 0.79826
0.507897 0.80322 0.650919
0.558663 0.881941 0.503594
0.312734 0.791608 1
0.3635 0.870314 1
0.414267 0.94902 1
0.465019 1 0.949187
0.515785 1 0.801862
0.726299 0 0.2972
0.777066 0 0.149874
0.827832 0 0.00254826
0.878599 0.076463 0
0.929366 0.155169 0
0.683436 0.0648356 0.595453
0.734203 0.143542 0.448127
0.78497 0.222248 0.300801
0.835721 0.300969 0.15346
0.886488 0.379675 0.00613413
0.640574 0.289342 0.893721
0.691325 0.368048 0.746395
0.742092 0.446769 0.599069
0.792859 0.525475 0.451728
0.843626 0.604196 0.304402
0.597696 0.513863 1
0.648463 0.592569 1
0.699229 0.67129 0.897322
0.749996 0.749996 0.749996
0.800763 0.828702 0.60267
0.554833 0.738384 1
0.6056 0.81709 1
0.656367 0.895796 1
0.707134 0.974517 1
0.7579 1 0.900923
0.968399 0 0.396277
1 0 0.248951
1 0 0.10161
1 0.0232395 0
1 0.101946 0
0.925536 0.0115969 0.694514
0.976303 0.0903182 0.547204
1 0.169024 0.399863
1 0.24773 0.252537
1 0.326452 0.105196
0.882673 0.236118 0.992782
0.93344 0.314824 0.845472
0.984207 0.393545 0.698131
1 0.472251 0.550805
1 0.550973 0.403464
0.839811 0.460639 1
0.890562 0.539345 1
0.941329 0.618051 0.996399
0.992096 0.696773 0.849073
1 0.775479 0.701732
0.796933 0.685145 1
0.8477 0.763867 1
0.898466 0.842573 1
0.949233 0.921294 1
1 1 1
