public/LUTS/Color Shift/ColorShift_78.cube
TITLE "Generated by Resolve"
LUT_3D_SIZE 5
0 0 0
0.383795 0 0.152789
0.767605 0 0.305592
1 0 0.458381
1 0 0.611185
0.0877699 0.25362 0
0.471565 0.193835 0
0.855375 0.134035 0.0725567
1 0.0742504 0.22536
1 0.0144656 0.378149
0.175555 0.507256 0
0.559335 0.447471 0
0.943145 0.387671 0
1 0.327886 0
1 0.268101 0.145113
0.263325 0.760876 0
0.64712 0.701091 0
1 0.641306 0
1 0.581521 0
1 0.521737 0
0.351095 1 0
0.73489 0.954726 0
1 0.894942 0
1 0.835157 0
1 0.775357 0
0 0.0561532 0.330236
0.162219 0 0.483024
0.546029 0 0.635813
0.929839 0 0.788617
1 0 0.941421
0 0.309773 0.0972
0.249989 0.249989 0.249989
0.633799 0.190204 0.402792
1 0.130404 0.555581
1 0.0706188 0.708385
0 0.563409 0
0.337758 0.503624 0.0169375
0.721584 0.443839 0.169741
1 0.384039 0.322545
1 0.324254 0.475334
0.0417487 0.817044 0
0.425544 0.757259 0
0.809354 0.697459 0
1 0.637675 0.0894942
1 0.57789 0.242298
0.129534 1 0
0.513313 1 0
0.897124 0.951095 0
1 0.89131 0
1 0.831525 0.00924697
0 0.112322 0.660471
0 0.0525368 0.813275
0.324437 0 0.966064
0.708263 0 1
1 0 1
0 0.365927 0.427451
0.028397 0.306142 0.58024
0.412222 0.246357 0.733043
0.796033 0.186572 0.885832
1 0.126787 1
0 0.619562 0.1944
0.116182 0.559777 0.347189
0.499992 0.499992 0.499992
0.883803 0.440208 0.652796
1 0.380407 0.805585
0 0.873198 0
0.203952 0.813413 0.114153
0.587762 0.753628 0.266941
0.971588 0.693843 0.419745
1 0.634043 0.572549
0 1 0
0.291737 1 0
0.675547 1 0.0339055
1 0.947463 0.186709
1 0.887678 0.339498
0 0.168475 0.990723
0 0.10869 1
0.102861 0.0489052 1
0.486671 0 1
0.870481 0 1
0 0.422095 0.757702
0 0.36231 0.910491
0.190631 0.302525 1
0.574441 0.242725 1
0.958251 0.18294 1
0 0.675731 0.524651
0 0.615946 0.67744
0.278401 0.556146 0.830243
0.662226 0.496361 0.983047
1 0.436576 1
0 0.929366 0.291615
0 0.869581 0.444404
0.366186 0.809781 0.597192
0.749996 0.749996 0.749996
1 0.690211 0.9028
0 1 0.0585641
0.0701457 1 0.211353
0.453956 1 0.364157
0.837766 1 0.516945
1 0.943847 0.669749
0 0.224643 1
0 0.164858 1
0 0.105058 1
0.26508 0.0452735 1
0.648905 0 1
0 0.478248 1
0 0.418463 1
0 0.358679 1
0.352865 0.298894 1
0.736675 0.239109 1
0 0.731884 0.854902
0 0.672099 1
0.0568246 0.612314 1
0.440635 0.552529 1
0.824445 0.492729 1
0 0.985519 0.621866
0 0.925734 0.774655
0.144594 0.86595 0.927443
0.528405 0.806149 1
0.91223 0.746365 1
0 1 0.388815
0 1 0.541604
0.23238 1 0.694408
0.61619 1 0.847196
1 1 1
