public/LUTS/Color Shift/ColorShift_55.cube
TITLE "Generated by Resolve"
LUT_3D_SIZE 9
0 0 0
0 0.0819104 0
0 0.163836 0
0 0.245747 0
0 0.327672 0
0 0.409598 0
0 0.491508 0
0 0.573434 0
0 0.65536 0
0.0777905 0.0635996 0.295995
0 0.14551 0.23331
0 0.22742 0.170626
0 0.309346 0.107942
0 0.391272 0.0452583
0 0.473182 0
0 0.555108 0
0 0.637034 0
0 0.718944 0
0.155581 0.127199 0.59202
0.0343938 0.20911 0.529335
0 0.291035 0.466651
0 0.372946 0.403967
0 0.454871 0.341283
0 0.536797 0.278584
0 0.618708 0.2159
0 0.700633 0.153216
0 0.782559 0.0905318
0.233371 0.190799 0.888045
0.112184 0.272709 0.82536
0 0.354635 0.762676
0 0.436561 0.699992
0 0.518471 0.637308
0 0.600397 0.574624
0 0.682322 0.511925
0 0.764233 0.449241
0 0.846159 0.386557
0.311177 0.254414 1
0.18999 0.336324 1
0.0687877 0.418235 1
0 0.50016 0.996017
0 0.582086 0.933333
0 0.663996 0.870649
0 0.745922 0.80795
0 0.827848 0.745266
0 0.909758 0.682582
0.388968 0.318013 1
0.267781 0.399924 1
0.146578 0.481834 1
0.0253758 0.56376 1
0 0.645685 1
0 0.727611 1
0 0.809522 1
0 0.891447 1
0 0.973373 0.978607
0.466758 0.381613 1
0.345571 0.463523 1
0.224384 0.545449 1
0.103182 0.627359 1
0 0.709285 1
0 0.791211 1
0 0.873121 1
0 0.955047 1
0 1 1
0.544564 0.445212 1
0.423377 0.527123 1
0.302174 0.609049 1
0.180972 0.690974 1
0.0597696 0.772885 1
0 0.85481 1
0 0.936736 1
0 1 1
0 1 1
0.622354 0.508827 1
0.501167 0.590738 1
0.379965 0.672648 1
0.258762 0.754574 1
0.13756 0.8365 1
0.0163729 0.91841 1
0 1 1
0 1 1
0 1 1
0.168383 0 0
0.0471962 0.061387 0
0 0.143313 0
0 0.225238 0
0 0.307149 0
0 0.389075 0
0 0.471 0
0 0.552911 0
0 0.634836 0
0.246174 0.0430762 0.187671
0.124987 0.124987 0.124987
0.00378424 0.206912 0.0623026
0 0.288823 0
0 0.370748 0
0 0.452674 0
0 0.534585 0
0 0.61651 0
0 0.698436 0
0.323964 0.106676 0.483696
0.202777 0.188586 0.421012
0.0815747 0.270512 0.358328
0 0.352438 0.295644
0 0.434348 0.232959
0 0.516274 0.17026
0 0.598199 0.107576
0 0.68011 0.044892
0 0.762036 0
0.40177 0.170291 0.779721
0.280583 0.252201 0.717037
0.15938 0.334112 0.654353
0.0381781 0.416037 0.591669
0 0.497963 0.528984
0 0.579873 0.466285
0 0.661799 0.403601
0 0.743725 0.340917
0 0.825635 0.278233
0.479561 0.23389 1
0.358373 0.315801 1
0.237171 0.397711 0.950378
0.115969 0.479637 0.887694
0 0.561563 0.82501
0 0.643473 0.762325
0 0.725399 0.699626
0 0.807324 0.636942
0 0.88925 0.574258
0.557351 0.29749 1
0.436164 0.3794 1
0.314961 0.461326 1
0.193774 0.543236 1
0.0725719 0.625162 1
0 0.707088 1
0 0.788998 0.995651
0 0.870924 0.932967
0 0.95285 0.870283
0.635142 0.361089 1
0.51397 0.443 1
0.392767 0.524926 1
0.271565 0.606851 1
0.150362 0.688762 1
0.02916 0.770687 1
0 0.852613 1
0 0.934524 1
0 1 1
0.712947 0.424704 1
0.59176 0.506615 1
0.470558 0.588525 1
0.349355 0.670451 1
0.228153 0.752377 1
0.10695 0.834287 1
0 0.916213 1
0 0.998138 1
0 1 1
0.790738 0.488304 1
0.669551 0.570214 1
0.548348 0.65214 1
0.427146 0.734051 1
0.305959 0.815976 1
0.184756 0.897902 1
0.0635538 0.979812 1
0 1 1
0 1 1
0.336797 0 0
0.21561 0.0408637 0
0.0944076 0.122789 0
0 0.204715 0
0 0.286625 0
0 0.368551 0
0 0.450477 0
0 0.532387 0
0 0.614313 0
0.414572 0.0225528 0.0793317
0.2934 0.104463 0.0166476
0.172198 0.186389 0
0.0509957 0.268299 0
0 0.350225 0
0 0.432151 0
0 0.514061 0
0 0.595987 0
0 0.677913 0
0.492378 0.0861524 0.375357
0.371191 0.168063 0.312673
0.249989 0.249989 0.249989
0.128786 0.331914 0.187304
0.00758373 0.413825 0.12462
0 0.49575 0.0619211
0 0.577676 0
0 0.659586 0
0 0.741512 0
0.570169 0.149767 0.671382
0.448981 0.231678 0.608698
0.327779 0.313588 0.546014
0.206577 0.395514 0.48333
0.0853895 0.47744 0.420645
0 0.55935 0.357961
0 0.641276 0.295262
0 0.723201 0.232578
0 0.805112 0.169894
0.647959 0.213367 0.967407
0.526787 0.295277 0.904723
0.405585 0.377203 0.842039
0.284382 0.459113 0.779355
0.16318 0.541039 0.71667
0.0419776 0.622965 0.653986
0 0.704875 0.591287
0 0.786801 0.528603
0 0.868727 0.465919
0.725765 0.276967 1
0.604578 0.358877 1
0.483375 0.440803 1
0.362173 0.522713 1
0.24097 0.604639 1
0.119768 0.686564 0.950011
0 0.768475 0.887327
0 0.850401 0.824628
0 0.932326 0.761944
0.803555 0.340566 1
0.682368 0.422477 1
0.561166 0.504402 1
0.439963 0.586328 1
0.318776 0.668238 1
0.197574 0.750164 1
0.0763714 0.83209 1
0 0.914 1
0 0.995926 1
0.881346 0.404181 1
0.760159 0.486091 1
0.638972 0.568002 1
0.517769 0.649927 1
0.396567 0.731853 1
0.275364 0.813764 1
0.154162 0.895689 1
0.0329595 0.977615 1
0 1 1
0.959152 0.467781 1
0.837964 0.549691 1
0.716762 0.631617 1
0.59556 0.713527 1
0.474357 0.795453 1
0.353155 0.877379 1
0.231952 0.959289 1
0.110765 1 1
0 1 1
0.505196 0 0
0.384009 0.0203403 0
0.262821 0.102266 0
0.141619 0.184192 0
0.0204166 0.266102 0
0 0.348028 0
0 0.429953 0
0 0.511864 0
0 0.59379 0
0.582986 0.00202945 0
0.461799 0.0839399 0
0.340597 0.165866 0
0.219394 0.247776 0
0.0981918 0.329702 0
0 0.411627 0
0 0.493553 0
0 0.575463 0
0 0.657389 0
0.660777 0.0656291 0.267018
0.53959 0.147539 0.204334
0.418402 0.229465 0.141649
0.2972 0.311391 0.0789654
0.175998 0.393301 0.0162814
0.0547951 0.475227 0
0 0.557153 0
0 0.639063 0
0 0.720989 0
0.738582 0.129244 0.563043
0.617395 0.211154 0.500359
0.496193 0.293065 0.437675
0.37499 0.37499 0.37499
0.253788 0.456916 0.312306
0.132586 0.538827 0.249622
0.0113832 0.620752 0.186923
0 0.702678 0.124239
0 0.784588 0.0615549
0.816373 0.192844 0.859068
0.695186 0.274754 0.796384
0.573983 0.35668 0.7337
0.452781 0.43859 0.671016
0.331579 0.520516 0.608331
0.210391 0.602441 0.545647
0.089189 0.684352 0.482963
0 0.766278 0.420264
0 0.848203 0.35758
0.894163 0.256443 1
0.772976 0.338354 1
0.651789 0.420279 1
0.530587 0.502205 0.967041
0.409384 0.584115 0.904356
0.288182 0.666041 0.841672
0.166979 0.747967 0.778988
0.0457771 0.829877 0.716289
0 0.911803 0.653605
0.971969 0.320043 1
0.850782 0.401953 1
0.72958 0.483879 1
0.608377 0.565805 1
0.487175 0.647715 1
0.365972 0.729641 1
0.24477 0.811566 1
0.123568 0.893477 1
0.00238041 0.975402 0.94963
1 0.383658 1
0.928573 0.465568 1
0.80737 0.547478 1
0.686168 0.629404 1
0.564965 0.71133 1
0.443778 0.79324 1
0.322576 0.875166 1
0.201373 0.957092 1
0.0801709 1 1
1 0.447257 1
1 0.529168 1
0.885161 0.611093 1
0.763973 0.693004 1
0.642771 0.774929 1
0.521569 0.856855 1
0.400366 0.938766 1
0.279164 1 1
0.157961 1 1
0.673609 0 0
0.552422 0 0
0.43122 0.0817426 0
0.310018 0.163668 0
0.188815 0.245579 0
0.0676127 0.327504 0
0 0.40943 0
0 0.491341 0
0 0.573266 0
0.7514 0 0
0.630213 0.0634165 0
0.50901 0.145342 0
0.387808 0.227268 0
0.266606 0.309178 0
0.145403 0.391104 0
0.0242008 0.47303 0
0 0.55494 0
0 0.636866 0
0.82919 0.0451057 0.158679
0.708003 0.127016 0.0959945
0.586801 0.208942 0.0333104
0.465599 0.290867 0
0.344396 0.372778 0
0.223194 0.454704 0
0.102007 0.536629 0
0 0.618555 0
0 0.700465 0
0.906981 0.108721 0.454704
0.785794 0.190631 0.39202
0.664591 0.272541 0.329335
0.543404 0.354467 0.266651
0.422202 0.436393 0.203967
0.300999 0.518303 0.141283
0.179797 0.600229 0.0785992
0.0585946 0.682155 0.0158999
0 0.764065 0
0.984787 0.17232 0.750729
0.8636 0.254231 0.68806
0.742397 0.336156 0.62536
0.621195 0.418067 0.562676
0.499992 0.499992 0.499992
0.37879 0.581918 0.437308
0.257588 0.663828 0.374624
0.136385 0.745754 0.311925
0.015198 0.82768 0.249241
1 0.23592 1
0.94139 0.31783 0.984085
0.820188 0.399756 0.921386
0.698985 0.481682 0.858701
0.577783 0.563592 0.796017
0.45658 0.645518 0.733333
0.335393 0.727443 0.670649
0.214191 0.809354 0.607965
0.0929885 0.891279 0.545266
1 0.299519 1
1 0.38143 1
0.897978 0.463355 1
0.776791 0.545281 1
0.655589 0.627207 1
0.534386 0.709117 1
0.413184 0.791043 0.966674
0.291981 0.872969 0.90399
0.170779 0.954879 0.841291
1 0.363134 1
1 0.445045 1
0.975784 0.526955 1
0.854582 0.608881 1
0.733379 0.690806 1
0.612177 0.772717 1
0.490974 0.854643 1
0.369772 0.936568 1
0.248569 1 1
1 0.426734 1
1 0.508644 1
1 0.59057 1
0.932372 0.67248 1
0.81117 0.754406 1
0.689967 0.836332 1
0.56878 0.918242 1
0.447578 1 1
0.326375 1 1
0.842008 0 0
0.720836 0 0
0.599634 0.0612192 0
0.478431 0.143145 0
0.357229 0.225071 0
0.236027 0.306981 0
0.114824 0.388907 0
0 0.470832 0
0 0.552743 0
0.919799 0 0
0.798611 0.0428931 0
0.677409 0.124819 0
0.556207 0.206744 0
0.435019 0.288655 0
0.313817 0.370581 0
0.192615 0.452506 0
0.0714122 0.534417 0
0 0.616342 0
0.997589 0.0245823 0.0503395
0.876417 0.106508 0
0.755215 0.188418 0
0.634012 0.270344 0
0.51281 0.35227 0
0.391608 0.43418 0
0.270405 0.516106 0
0.149203 0.598032 0
0.0280003 0.679942 0
1 0.0881971 0.346365
0.954208 0.170108 0.283696
0.833005 0.252018 0.220996
0.711803 0.333944 0.158312
0.5906 0.415869 0.0956283
0.469398 0.49778 0.0329442
0.348196 0.579705 0
0.227008 0.661631 0
0.105806 0.743557 0
1 0.151797 0.64239
1 0.233707 0.579721
0.910796 0.315633 0.517021
0.789593 0.397543 0.454337
0.668406 0.479469 0.391653
0.547204 0.561395 0.328969
0.426001 0.643305 0.266285
0.304799 0.725231 0.203601
0.183597 0.807157 0.140902
1 0.215396 0.938415
1 0.297307 0.875746
0.988602 0.379232 0.813062
0.867399 0.461158 0.750362
0.746197 0.543069 0.687678
0.624994 0.624994 0.624994
0.503792 0.70692 0.56231
0.382589 0.78883 0.499626
0.261387 0.870756 0.436927
1 0.279011 1
1 0.360922 1
1 0.442832 1
0.94519 0.524758 1
0.823987 0.606683 0.983703
0.702785 0.688594 0.921019
0.581582 0.77052 0.858335
0.460395 0.852445 0.795651
0.339193 0.934356 0.732967
1 0.342611 1
1 0.424521 1
1 0.506447 1
1 0.588357 1
0.901793 0.670283 1
0.780591 0.752209 1
0.659388 0.834119 1
0.538186 0.916045 1
0.416983 0.997971 1
1 0.40621 1
1 0.488121 1
1 0.570047 1
1 0.651957 1
0.979583 0.733883 1
0.858381 0.815808 1
0.737179 0.897719 1
0.615976 0.979644 1
0.494774 1 1
1 0 0
0.889235 0 0
0.768032 0.0406958 0
0.64683 0.122621 0
0.525628 0.204547 0
0.40444 0.286458 0
0.283238 0.368383 0
0.162036 0.450309 0
0.0408331 0.532219 0
1 0 0
0.967025 0.0223697 0
0.845823 0.104295 0
0.72462 0.186221 0
0.603418 0.268132 0
0.482216 0.350057 0
0.361013 0.431983 0
0.239826 0.513893 0
0.118624 0.595819 0
1 0.00407416 0
1 0.0859846 0
0.923613 0.167895 0
0.802411 0.249821 0
0.681208 0.331746 0
0.560021 0.413657 0
0.438819 0.495583 0
0.317617 0.577508 0
0.196414 0.659419 0
1 0.0676738 0.238025
1 0.149584 0.175357
1 0.23151 0.112657
0.880217 0.31342 0.0499733
0.759014 0.395346 0
0.637812 0.477272 0
0.516609 0.559182 0
0.395407 0.641108 0
0.274205 0.723033 0
1 0.131273 0.534051
1 0.213184 0.471382
1 0.295109 0.408698
0.958007 0.37702 0.345998
0.836805 0.458946 0.283314
0.715602 0.540871 0.22063
0.5944 0.622782 0.157946
0.473198 0.704707 0.0952621
0.35201 0.786633 0.0325628
1 0.194873 0.830076
1 0.276783 0.767407
1 0.358709 0.704723
1 0.440635 0.642023
0.914595 0.522545 0.579339
0.793408 0.604471 0.516655
0.672206 0.686397 0.453971
0.551003 0.768307 0.391287
0.429801 0.850233 0.328603
1 0.258488 1
1 0.340398 1
1 0.422309 1
1 0.504234 0.938064
0.992401 0.58616 0.875364
0.871199 0.66807 0.81268
0.749996 0.749996 0.749996
0.628794 0.831922 0.687312
0.507591 0.913832 0.624628
1 0.322087 1
1 0.403998 1
1 0.485924 1
1 0.567834 1
1 0.64976 1
0.948989 0.731685 1
0.827787 0.813596 1
0.706584 0.895521 0.983337
0.585397 0.977447 0.920653
1 0.385687 1
1 0.467597 1
1 0.549523 1
1 0.631434 1
1 0.713359 1
1 0.795285 1
0.905592 0.877211 1
0.78439 0.959121 1
0.663188 1 1
1 0 0
1 0 0
0.936446 0.0201724 0
0.815244 0.102098 0
0.694041 0.184024 0
0.572839 0.265934 0
0.451637 0.34786 0
0.330434 0.429786 0
0.209247 0.511696 0
1 0 0
1 0.00184634 0
1 0.083772 0
0.893034 0.165698 0
0.771832 0.247608 0
0.650629 0.329534 0
0.529427 0.41146 0
0.408225 0.49337 0
0.287022 0.575296 0
1 0 0
1 0.0654612 0
1 0.147372 0
0.970825 0.229297 0
0.849622 0.311223 0
0.72842 0.393133 0
0.607217 0.475059 0
0.486015 0.556985 0
0.364828 0.638895 0
1 0.0471504 0.129686
1 0.129061 0.0670176
1 0.210986 0.0043183
1 0.292897 0
0.927413 0.374823 0
0.80621 0.456748 0
0.685023 0.538659 0
0.563821 0.620584 0
0.442618 0.70251 0
1 0.11075 0.425711
1 0.19266 0.363043
1 0.274586 0.300359
1 0.356512 0.237659
1 0.438422 0.174975
0.884016 0.520348 0.112291
0.762814 0.602274 0.0496071
0.641611 0.684184 0
0.520409 0.76611 0
1 0.17435 0.721752
1 0.25626 0.659068
1 0.338186 0.596384
1 0.420111 0.5337
1 0.502022 0.471
0.961807 0.583947 0.408316
0.840604 0.665873 0.345632
0.719402 0.747784 0.282948
0.598199 0.829709 0.220264
1 0.237964 1
1 0.319875 0.955093
1 0.401785 0.892409
1 0.483711 0.829725
1 0.565637 0.767025
1 0.647547 0.704341
0.91841 0.729473 0.641657
0.797208 0.811399 0.578973
0.676005 0.893309 0.516289
1 0.301564 1
1 0.383474 1
1 0.4654 1
1 0.547311 1
1 0.629236 1
1 0.711162 1
0.996201 0.793072 0.937682
0.874998 0.874998 0.874998
0.753796 0.956924 0.812314
1 0.365164 1
1 0.447074 1
1 0.529 1
1 0.610925 1
1 0.692836 1
1 0.774762 1
1 0.856687 1
0.952789 0.938598 1
0.831586 1 1
1 0 0
1 0 0
1 0 0
0.983642 0.0815747 0
0.862455 0.1635 0
0.741253 0.245411 0
0.62005 0.327337 0
0.498848 0.409262 0
0.377646 0.491173 0
1 0 0
1 0 0
1 0.0632486 0
1 0.145174 0
0.94023 0.227085 0
0.819028 0.30901 0
0.697841 0.390936 0
0.576638 0.472847 0
0.455436 0.554772 0
1 0 0
1 0.0449378 0
1 0.126848 0
1 0.208774 0
1 0.2907 0
0.896834 0.37261 0
0.775631 0.454536 0
0.654429 0.536461 0
0.533227 0.618372 0
1 0.026627 0.0213474
1 0.108537 0
1 0.190463 0
1 0.272374 0
1 0.354299 0
0.974624 0.436225 0
0.853422 0.518135 0
0.732219 0.600061 0
0.611017 0.681987 0
1 0.0902266 0.317388
1 0.172137 0.254704
1 0.254063 0.19202
1 0.335988 0.12932
1 0.417899 0.0666361
1 0.499825 0.00395209
0.931212 0.58175 0
0.810025 0.663661 0
0.688823 0.745586 0
1 0.153826 0.613413
1 0.235737 0.550729
1 0.317662 0.488045
1 0.399588 0.425361
1 0.481514 0.362661
1 0.563424 0.299977
1 0.64535 0.237293
0.887816 0.727275 0.174609
0.766613 0.809186 0.111925
1 0.217441 0.909438
1 0.299351 0.846754
1 0.381262 0.78407
1 0.463188 0.721386
1 0.545113 0.658701
1 0.627024 0.596002
1 0.708949 0.533318
0.965606 0.790875 0.470634
0.844404 0.872786 0.40795
1 0.281041 1
1 0.362951 1
1 0.444877 1
1 0.526787 1
1 0.608713 0.954726
1 0.690639 0.892027
1 0.772549 0.829343
1 0.854475 0.766659
0.92221 0.9364 0.703975
1 0.34464 1
1 0.426551 1
1 0.508476 1
1 0.590402 1
1 0.672312 1
1 0.754238 1
1 0.836164 1
1 0.918074 1
1 1 1
