public/LUTS/Color Shift/ColorShift_60.cube
TITLE "Generated by Resolve"
LUT_3D_SIZE 33
0 0 0
0 0.016495 0
0 0.0330053 0
0 0.0495155 0
0 0.0660258 0
0 0.082536 0
0 0.0990463 0
0 0.115557 0
0 0.132052 0
0 0.148562 0
0 0.165072 0
0 0.181582 0
0 0.198093 0
0 0.214603 0
0 0.231113 0
0 0.247623 0
0 0.264118 0
0 0.280629 0
0 0.297139 0
0 0.313649 0
0 0.330159 0
0 0.34667 0
0 0.36318 0
0 0.37969 0
0 0.396185 0
0 0.412695 0
0 0.429206 0
0 0.445716 0
0 0.462226 0
0 0.478737 0
0 0.495247 0
0 0.511757 0
0 0.528252 0
0 0.0265812 0.0628061
0 0.0430762 0.0301366
0 0.0595865 0
0 0.0760967 0
0 0.092607 0
0 0.109117 0
0 0.125628 0
0 0.142138 0
0 0.158648 0
0 0.175143 0
0 0.191653 0
0 0.208164 0
0 0.224674 0
0 0.241184 0
0 0.257694 0
0 0.274205 0
0 0.290715 0
0 0.30721 0
0 0.32372 0
0 0.34023 0
0 0.356741 0
0 0.373251 0
0 0.389761 0
0 0.406271 0
0 0.422782 0
0 0.439277 0
0 0.455787 0
0 0.472297 0
0 0.488807 0
0 0.505318 0
0 0.521828 0
0 0.538338 0
0 0.554849 0
0 0.0531777 0.125643
0 0.0696727 0.0929732
0 0.086183 0.0602731
0 0.102693 0.0275883
0 0.119203 0
0 0.135714 0
0 0.152224 0
0 0.168734 0
0 0.185229 0
0 0.20174 0
0 0.21825 0
0 0.23476 0
0 0.25127 0
0 0.267781 0
0 0.284291 0
0 0.300801 0
0 0.317296 0
0 0.333806 0
0 0.350317 0
0 0.366827 0
0 0.383337 0
0 0.399847 0
0 0.416358 0
0 0.432868 0
0 0.449363 0
0 0.465873 0
0 0.482383 0
0 0.498894 0
0 0.515404 0
0 0.531914 0
0 0.548424 0
0 0.564935 0
0 0.58143 0
0 0.0797742 0.188495
0 0.0962692 0.15581
0 0.112779 0.12311
0 0.12929 0.090425
0 0.1458 0.0577249
0 0.16231 0.0250401
0 0.17882 0
0 0.195315 0
0 0.211826 0
0 0.228336 0
0 0.244846 0
0 0.261357 0
0 0.277867 0
0 0.294377 0
0 0.310887 0
0 0.327382 0
0 0.343893 0
0 0.360403 0
0 0.376913 0
0 0.393423 0
0 0.409934 0
0 0.426444 0
0 0.442954 0
0 0.459449 0
0 0.475959 0
0 0.49247 0
0 0.50898 0
0 0.52549 0
0 0.542 0
0 0.558511 0
0 0.575021 0
0 0.591516 0
0 0.608026 0
0 0.106371 0.251331
0 0.122866 0.218647
0 0.139376 0.185962
0 0.155886 0.153262
0 0.172396 0.120562
0 0.188907 0.0878767
0 0.205417 0.0551766
0 0.221912 0.0224918
0 0.238422 0
0 0.254932 0
0 0.271443 0
0 0.287953 0
0 0.304463 0
0 0.320974 0
0 0.337484 0
0 0.353979 0
0 0.370489 0
0 0.386999 0
0 0.40351 0
0 0.42002 0
0 0.43653 0
0 0.45304 0
0 0.469551 0
0 0.486046 0
0 0.502556 0
0 0.519066 0
0 0.535576 0
0 0.552087 0
0 0.568597 0
0 0.585107 0
0 0.601617 0
0 0.618112 0
0 0.634623 0
0 0.132967 0.314168
0 0.149462 0.281483
0 0.165972 0.248798
0 0.182483 0.216098
0 0.198993 0.183413
0 0.215503 0.150713
0 0.231998 0.118013
0 0.248508 0.0853285
0 0.265019 0.0526284
0 0.281529 0.0199435
0 0.298039 0
0 0.314549 0
0 0.33106 0
0 0.34757 0
0 0.364065 0
0 0.380575 0
0 0.397086 0
0 0.413596 0
0 0.430106 0
0 0.446616 0
0 0.463127 0
0 0.479637 0
0 0.496132 0
0 0.512642 0
0 0.529152 0
0 0.545663 0
0 0.562173 0
0 0.578683 0
0 0.595193 0
0 0.611704 0
0 0.628199 0
0 0.644709 0
0 0.661219 0
0 0.159564 0.377005
0 0.176059 0.344335
0 0.192569 0.311635
0 0.209079 0.278935
0 0.225589 0.24625
0 0.2421 0.21355
0 0.258595 0.180865
0 0.275105 0.148165
0 0.291615 0.11548
0 0.308125 0.0827802
0 0.324636 0.0500801
0 0.341146 0.0173953
0 0.357656 0
0 0.374151 0
0 0.390661 0
0 0.407172 0
0 0.423682 0
0 0.440192 0
0 0.456703 0
0 0.473213 0
0 0.489723 0
0 0.506218 0
0 0.522728 0
0 0.539239 0
0 0.555749 0
0 0.572259 0
0 0.588769 0
0 0.60528 0
0 0.62179 0
0 0.638285 0
0 0.654795 0
0 0.671305 0
0 0.687816 0
0 0.18616 0.439841
0 0.202655 0.407172
0 0.219165 0.374472
0 0.235676 0.341787
0 0.252186 0.309087
0 0.268681 0.276387
0 0.285191 0.243702
0 0.301701 0.211002
0 0.318212 0.178317
0 0.334722 0.145617
0 0.351232 0.112932
0 0.367742 0.0802319
0 0.384253 0.0475319
0 0.400748 0.014847
0 0.417258 0
0 0.433768 0
0 0.450278 0
0 0.466789 0
0 0.483299 0
0 0.499809 0
0 0.51632 0
0 0.532815 0
0 0.549325 0
0 0.565835 0
0 0.582345 0
0 0.598856 0
0 0.615366 0
0 0.631876 0
0 0.648386 0
0 0.664881 0
0 0.681392 0
0 0.697902 0
0 0.714412 0
0 0.212757 0.502678
0 0.229252 0.470008
0 0.245762 0.437308
0 0.262272 0.404623
0 0.278767 0.371923
0 0.295277 0.339239
0 0.311788 0.306538
0 0.328298 0.273838
0 0.344808 0.241154
0 0.361318 0.208453
0 0.377829 0.175769
0 0.394339 0.143069
0 0.410834 0.110384
0 0.427344 0.0776837
0 0.443854 0.0449836
0 0.460365 0.0122988
0 0.476875 0
0 0.493385 0
0 0.509896 0
0 0.526406 0
0 0.542901 0
0 0.559411 0
0 0.575921 0
0 0.592432 0
0 0.608942 0
0 0.625452 0
0 0.641962 0
0 0.658473 0
0 0.674968 0
0 0.691478 0
0 0.707988 0
0 0.724498 0
0 0.741009 0
0 0.239338 0.56553
0 0.255848 0.532845
0 0.272358 0.50016
0 0.288869 0.46746
0 0.305364 0.43476
0 0.321874 0.402075
0 0.338384 0.369375
0 0.354894 0.33669
0 0.371405 0.30399
0 0.387915 0.27129
0 0.404425 0.238605
0 0.420935 0.205905
0 0.43743 0.17322
0 0.453941 0.14052
0 0.470451 0.107836
0 0.486961 0.0751354
0 0.503471 0.0424353
0 0.519982 0.00975052
0 0.536492 0
0 0.552987 0
0 0.569497 0
0 0.586007 0
0 0.602518 0
0 0.619028 0
0 0.635538 0
0 0.652049 0
0 0.668559 0
0 0.685054 0
0 0.701564 0
0 0.718074 0
0 0.734585 0
0 0.751095 0
0 0.767605 0
0 0.265934 0.628367
0 0.282445 0.595682
0 0.298955 0.562997
0 0.31545 0.530297
0 0.33196 0.497612
0 0.34847 0.464912
0 0.364981 0.432212
0 0.381491 0.399527
0 0.398001 0.366827
0 0.414511 0.334142
0 0.431022 0.301442
0 0.447517 0.268757
0 0.464027 0.236057
0 0.480537 0.203357
0 0.497047 0.170672
0 0.513558 0.137972
0 0.530068 0.105287
0 0.546578 0.0725872
0 0.563088 0.0398871
0 0.579583 0.00720226
0 0.596094 0
0 0.612604 0
0 0.629114 0
0 0.645624 0
0 0.662135 0
0 0.678645 0
0 0.695155 0
0 0.71165 0
0 0.728161 0
0 0.744671 0
0 0.761181 0
0 0.777691 0
0 0.794202 0
0 0.292531 0.691203
0 0.309041 0.658518
0 0.325536 0.625834
0 0.342046 0.593133
0 0.358557 0.560449
0 0.375067 0.527749
0 0.391577 0.495064
0 0.408087 0.462364
0 0.424598 0.429664
0 0.441108 0.396979
0 0.457603 0.364279
0 0.474113 0.331594
0 0.490623 0.298894
0 0.507134 0.266209
0 0.523644 0.233509
0 0.540154 0.200809
0 0.556664 0.168124
0 0.573175 0.135424
0 0.58967 0.102739
0 0.60618 0.0700389
0 0.62269 0.0373388
0 0.6392 0.004654
0 0.655711 0
0 0.672221 0
0 0.688731 0
0 0.705242 0
0 0.721736 0
0 0.738247 0
0 0.754757 0
0 0.771267 0
0 0.787778 0
0 0.804288 0
0 0.820798 0
0 0.319127 0.75404
0 0.335637 0.72137
0 0.352132 0.68867
0 0.368643 0.655985
0 0.385153 0.623285
0 0.401663 0.590585
0 0.418173 0.5579
0 0.434684 0.5252
0 0.451194 0.492515
0 0.467704 0.459815
0 0.484199 0.427115
0 0.50071 0.39443
0 0.51722 0.36173
0 0.53373 0.329046
0 0.55024 0.296345
0 0.566751 0.263661
0 0.583261 0.230961
0 0.599771 0.19826
0 0.616266 0.165576
0 0.632776 0.132876
0 0.649287 0.100191
0 0.665797 0.0674907
0 0.682307 0.0348058
0 0.698817 0.00210575
0 0.715328 0
0 0.731823 0
0 0.748333 0
0 0.764843 0
0 0.781353 0
0 0.797864 0
0 0.814374 0
0 0.830884 0
0 0.847395 0
0 0.345724 0.816876
0 0.362219 0.784207
0 0.378729 0.751507
0 0.395239 0.718822
0 0.411749 0.686122
0 0.42826 0.653437
0 0.44477 0.620737
0 0.46128 0.588037
0 0.477791 0.555352
0 0.494285 0.522652
0 0.510796 0.489967
0 0.527306 0.457267
0 0.543816 0.424567
0 0.560327 0.391882
0 0.576837 0.359182
0 0.593347 0.326497
0 0.609857 0.293797
0 0.626352 0.261112
0 0.642863 0.228412
0 0.659373 0.195712
0 0.675883 0.163027
0 0.692393 0.130327
0 0.708904 0.0976425
0 0.725414 0.0649424
0 0.741924 0.0322576
0 0.758419 0
0 0.774929 0
0 0.79144 0
0 0.80795 0
0 0.82446 0
0 0.84097 0
0 0.857481 0
0 0.873991 0
0 0.37232 0.879728
0 0.388815 0.847044
0 0.405325 0.814343
0 0.421836 0.781659
0 0.438346 0.748959
0 0.454856 0.716274
0 0.471366 0.683574
0 0.487877 0.650889
0 0.504372 0.618189
0 0.520882 0.585489
0 0.537392 0.552804
0 0.553903 0.520104
0 0.570413 0.487419
0 0.586923 0.454719
0 0.603433 0.422034
0 0.619944 0.389334
0 0.636439 0.356634
0 0.652949 0.323949
0 0.669459 0.291249
0 0.685969 0.258564
0 0.70248 0.225864
0 0.71899 0.193164
0 0.7355 0.160479
0 0.75201 0.127779
0 0.768505 0.0950942
0 0.785016 0.0623941
0 0.801526 0.0297093
0 0.818036 0
0 0.834546 0
0 0.851057 0
0 0.867567 0
0 0.884077 0
0 0.900572 0
0 0.398917 0.942565
0 0.415412 0.90988
0 0.431922 0.877195
0 0.448432 0.844495
0 0.464942 0.81181
0 0.481453 0.77911
0 0.497963 0.74641
0 0.514473 0.713726
0 0.530968 0.681025
0 0.547478 0.648341
0 0.563989 0.615641
0 0.580499 0.58294
0 0.597009 0.550256
0 0.613519 0.517555
0 0.63003 0.484871
0 0.64654 0.452171
0 0.663035 0.419486
0 0.679545 0.386786
0 0.696056 0.354086
0 0.712566 0.321401
0 0.729076 0.288701
0 0.745586 0.256016
0 0.762097 0.223316
0 0.778607 0.190616
0 0.795102 0.157931
0 0.811612 0.125231
0 0.828122 0.092546
0 0.844633 0.0598459
0 0.861143 0.0271611
0 0.877653 0
0 0.894163 0
0 0.910674 0
0 0.927169 0
0 0.425513 1
0 0.442008 0.972717
0 0.458518 0.940032
0 0.475029 0.907332
0 0.491539 0.874647
0 0.508049 0.841947
0 0.524559 0.809262
0 0.541054 0.776562
0 0.557565 0.743862
0 0.574075 0.711177
0 0.590585 0.678477
0 0.607095 0.645792
0 0.623606 0.613092
0 0.640116 0.580392
0 0.656626 0.547707
0 0.673121 0.515007
0 0.689632 0.482322
0 0.706142 0.449622
0 0.722652 0.416938
0 0.739162 0.384237
0 0.755673 0.351537
0 0.772183 0.318853
0 0.788693 0.286152
0 0.805188 0.253468
0 0.821698 0.220768
0 0.838209 0.188083
0 0.854719 0.155383
0 0.871229 0.122683
0 0.887739 0.0899977
0 0.90425 0.0572976
0 0.92076 0.0246128
0 0.937255 0
0 0.953765 0
0 0.45211 1
0 0.468605 1
0 0.485115 1
0 0.501625 0.970169
0 0.518135 0.937484
0 0.534646 0.904784
0 0.551141 0.872099
0 0.567651 0.839399
0 0.584161 0.806714
0 0.600671 0.774014
0 0.617182 0.741314
0 0.633692 0.708629
0 0.650202 0.675929
0 0.666712 0.643244
0 0.683207 0.610544
0 0.699718 0.577844
0 0.716228 0.545159
0 0.732738 0.512459
0 0.749249 0.479774
0 0.765759 0.447074
0 0.782269 0.414389
0 0.798779 0.381689
0 0.815274 0.348989
0 0.831785 0.316304
0 0.848295 0.283604
0 0.864805 0.250919
0 0.881315 0.218219
0 0.897826 0.185534
0 0.914336 0.152834
0 0.930846 0.120134
0 0.947341 0.0874495
0 0.963851 0.0547494
0 0.980362 0.0220645
0 0.478706 1
0 0.495201 1
0 0.511711 1
0 0.528222 1
0 0.544732 1
0 0.561242 0.96762
0 0.577737 0.934936
0 0.594247 0.902235
0 0.610758 0.869551
0 0.627268 0.836851
0 0.643778 0.804166
0 0.660288 0.771466
0 0.676799 0.738766
0 0.693309 0.706081
0 0.709804 0.673381
0 0.726314 0.640696
0 0.742824 0.607996
0 0.759335 0.575311
0 0.775845 0.542611
0 0.792355 0.509911
0 0.808865 0.477226
0 0.825376 0.444526
0 0.841871 0.411841
0 0.858381 0.379141
0 0.874891 0.346441
0 0.891402 0.313756
0 0.907912 0.281056
0 0.924422 0.248371
0 0.940932 0.215671
0 0.957443 0.182986
0 0.973938 0.150286
0 0.990448 0.117586
0 1 0.0849012
0 0.505302 1
0 0.521798 1
0 0.538308 1
0 0.554818 1
0 0.571328 1
0 0.587823 1
0 0.604334 0.997772
0 0.620844 0.965087
0 0.637354 0.932387
0 0.653864 0.899687
0 0.670375 0.867002
0 0.686885 0.834302
0 0.703395 0.801617
0 0.71989 0.768917
0 0.7364 0.736217
0 0.752911 0.703532
0 0.769421 0.670832
0 0.785931 0.638148
0 0.802441 0.605447
0 0.818952 0.572763
0 0.835462 0.540063
0 0.851957 0.507362
0 0.868467 0.474678
0 0.884978 0.441978
0 0.901488 0.409293
0 0.917998 0.376593
0 0.934508 0.343893
0 0.951019 0.311208
0 0.967529 0.278508
0 0.984024 0.245823
0 1 0.213123
0 1 0.180438
0 1 0.147738
0 0.531899 1
0 0.548394 1
0 0.564904 1
0 0.581415 1
0 0.59791 1
0 0.61442 1
0 0.63093 1
0 0.64744 1
0 0.663951 0.995224
0 0.680461 0.962539
0 0.696971 0.929839
0 0.713481 0.897139
0 0.729976 0.864454
0 0.746487 0.831754
0 0.762997 0.799069
0 0.779507 0.766369
0 0.796017 0.733669
0 0.812528 0.700984
0 0.829038 0.668284
0 0.845548 0.635599
0 0.862043 0.602899
0 0.878553 0.570214
0 0.895064 0.537514
0 0.911574 0.504814
0 0.928084 0.472129
0 0.944595 0.439429
0 0.961105 0.406744
0 0.977615 0.374044
0 0.99411 0.34136
0 1 0.308659
0 1 0.275959
0 1 0.243275
0 1 0.210575
0 0.55848 1
0 0.57499 1
0 0.591501 1
0 0.608011 1
0 0.624506 1
0 0.641016 1
0 0.657526 1
0 0.674037 1
0 0.690547 1
0 0.707057 1
0 0.723568 0.992676
0 0.740078 0.959991
0 0.756573 0.927291
0 0.773083 0.894591
0 0.789593 0.861906
0 0.806104 0.829206
0 0.822614 0.796521
0 0.839124 0.763821
0 0.855634 0.731121
0 0.872145 0.698436
0 0.88864 0.665736
0 0.90515 0.633051
0 0.92166 0.600351
0 0.93817 0.567666
0 0.954681 0.534966
0 0.971191 0.502266
0 0.987701 0.469581
0 1 0.436881
0 1 0.404196
0 1 0.371496
0 1 0.338811
0 1 0.306111
0 1 0.273411
0 0.585077 1
0 0.601587 1
0 0.618097 1
0 0.634592 1
0 0.651102 1
0 0.667613 1
0 0.684123 1
0 0.700633 1
0 0.717144 1
0 0.733654 1
0 0.750164 1
0 0.766659 1
0 0.783169 0.990127
0 0.79968 0.957443
0 0.81619 0.924743
0 0.8327 0.892042
0 0.84921 0.859358
0 0.865721 0.826658
0 0.882231 0.793973
0 0.898726 0.761273
0 0.915236 0.728588
0 0.931746 0.695888
0 0.948257 0.663188
0 0.964767 0.630503
0 0.981277 0.597803
0 0.997787 0.565118
0 1 0.532418
0 1 0.499718
0 1 0.467033
0 1 0.434333
0 1 0.401648
0 1 0.368948
0 1 0.336263
0 0.611673 1
0 0.628183 1
0 0.644694 1
0 0.661189 1
0 0.677699 1
0 0.694209 1
0 0.710719 1
0 0.72723 1
0 0.74374 1
0 0.76025 1
0 0.776745 1
0 0.793256 1
0 0.809766 1
0 0.826276 1
0 0.842786 0.987579
0 0.859297 0.954894
0 0.875807 0.922194
0 0.892317 0.889494
0 0.908812 0.856809
0 0.925322 0.824109
0 0.941833 0.791424
0 0.958343 0.758724
0 0.974853 0.72604
0 0.991363 0.693339
0 1 0.660639
0 1 0.627955
0 1 0.595254
0 1 0.56257
0 1 0.52987
0 1 0.497185
0 1 0.464485
0 1 0.431785
0 1 0.3991
0 0.63827 1
0 0.65478 1
0 0.671275 1
0 0.687785 1
0 0.704295 1
0 0.720806 1
0 0.737316 1
0 0.753826 1
0 0.770336 1
0 0.786847 1
0 0.803342 1
0 0.819852 1
0 0.836362 1
0 0.852872 1
0 0.869383 1
0 0.885893 1
0 0.902403 0.985031
0 0.918914 0.952346
0 0.935409 0.919646
0 0.951919 0.886946
0 0.968429 0.854261
0 0.984939 0.821561
0 1 0.788876
0 1 0.756176
0 1 0.723491
0 1 0.690791
0 1 0.658091
0 1 0.625406
0 1 0.592706
0 1 0.560021
0 1 0.527321
0 1 0.494636
0 1 0.461936
0 0.664866 1
0 0.681361 1
0 0.697871 1
0 0.714382 1
0 0.730892 1
0 0.747402 1
0 0.763912 1
0 0.780423 1
0 0.796933 1
0 0.813428 1
0 0.829938 1
0 0.846448 1
0 0.862959 1
0 0.879469 1
0 0.895979 1
0 0.91249 1
0 0.929 1
0 0.945495 1
0 0.962005 0.982483
0 0.978515 0.949798
0 0.995026 0.917098
0 1 0.884398
0 1 0.851713
0 1 0.819013
0 1 0.786328
0 1 0.753628
0 1 0.720943
0 1 0.688243
0 1 0.655543
0 1 0.622858
0 1 0.590158
0 1 0.557473
0 1 0.524773
0 0.691463 1
0 0.707958 1
0 0.724468 1
0 0.740978 1
0 0.757488 1
0 0.773999 1
0 0.790509 1
0 0.807019 1
0 0.823529 1
0 0.840024 1
0 0.856535 1
0 0.873045 1
0 0.889555 1
0 0.906065 1
0 0.922576 1
0 0.939086 1
0 0.955581 1
0 0.972091 1
0 0.988602 1
0 1 1
0 1 0.979934
0 1 0.94725
0 1 0.914549
0 1 0.881865
0 1 0.849165
0 1 0.816464
0 1 0.78378
0 1 0.75108
0 1 0.718395
0 1 0.685695
0 1 0.652995
0 1 0.62031
0 1 0.58761
0 0.718059 1
0 0.734554 1
0 0.751064 1
0 0.767575 1
0 0.784085 1
0 0.800595 1
0 0.817105 1
0 0.833616 1
0 0.850111 1
