public/LUTS/Color Shift/ColorShift_85.cube
TITLE "Generated by Resolve"
LUT_3D_SIZE 9
0 0 0
0.0915541 0 0.183246
0.183124 0 0.366522
0.274678 0 0.549798
0.366247 0 0.733074
0.457816 0 0.91635
0.549371 0 1
0.64094 0 1
0.732509 0 1
0.22063 0.0686198 0
0.312184 0.0550851 0.106905
0.403738 0.0415503 0.290181
0.495308 0.0280156 0.473457
0.586877 0.0144808 0.656733
0.678447 0.000946059 0.840009
0.770001 0 1
0.86157 0 1
0.95314 0 1
0.441276 0.13724 0
0.53283 0.123705 0.0305486
0.624399 0.11017 0.213825
0.715969 0.0966354 0.397101
0.807523 0.0831006 0.580377
0.899092 0.0695811 0.763653
0.990662 0.0560464 0.946929
1 0.0425116 1
1 0.0289769 1
0.661936 0.205859 0
0.753491 0.192325 0
0.84506 0.17879 0.137469
0.936614 0.165255 0.320745
1 0.151736 0.504021
1 0.138201 0.687297
1 0.124666 0.870573
1 0.111131 1
1 0.0975967 1
0.882582 0.274479 0
0.974136 0.260945 0
1 0.24741 0.0611124
1 0.233875 0.244388
1 0.220356 0.427665
1 0.206821 0.610941
1 0.193286 0.794217
1 0.179751 0.977493
1 0.166217 1
1 0.343099 0
1 0.329564 0
1 0.31603 0
1 0.30251 0.168032
1 0.288975 0.351308
1 0.275441 0.534585
1 0.261906 0.717861
1 0.248371 0.901137
1 0.234836 1
1 0.411719 0
1 0.398184 0
1 0.384665 0
1 0.37113 0.0916762
1 0.357595 0.274952
1 0.34406 0.458228
1 0.330526 0.641505
1 0.316991 0.824781
1 0.303456 1
1 0.480339 0
1 0.466819 0
1 0.453285 0
1 0.43975 0.0153201
1 0.426215 0.198596
1 0.41268 0.381872
1 0.399145 0.565148
1 0.385611 0.748425
1 0.372091 0.931701
1 0.548959 0
1 0.535439 0
1 0.521904 0
1 0.50837 0
1 0.494835 0.12224
1 0.4813 0.305516
1 0.467765 0.488792
1 0.454246 0.672068
1 0.440711 0.855344
0 0.0699016 0.0180819
0 0.0563668 0.201328
0 0.0428473 0.384604
0.0874952 0.0293126 0.56788
0.179049 0.0157778 0.751156
0.270619 0.00224308 0.934432
0.362188 0 1
0.453742 0 1
0.545312 0 1
0.0334325 0.138521 0
0.124987 0.124987 0.124987
0.216556 0.111452 0.308263
0.30811 0.0979171 0.491539
0.39968 0.0843824 0.674815
0.491249 0.0708629 0.858091
0.582818 0.0573281 1
0.674372 0.0437934 1
0.765942 0.0302586 1
0.254093 0.207141 0
0.345647 0.193606 0.0486305
0.437201 0.180072 0.231907
0.528771 0.166537 0.415183
0.62034 0.153017 0.598459
0.711894 0.139483 0.781735
0.803464 0.125948 0.965011
0.895033 0.112413 1
0.986587 0.0988785 1
0.474739 0.275761 0
0.566293 0.262226 0
0.657862 0.248692 0.15555
0.749416 0.235172 0.338827
0.840986 0.221637 0.522103
0.932555 0.208103 0.705379
1 0.194568 0.888655
1 0.181033 1
1 0.167498 1
0.695399 0.344381 0
0.786954 0.330846 0
0.878508 0.317327 0.0791943
0.970077 0.303792 0.26247
1 0.290257 0.445747
1 0.276722 0.629023
1 0.263188 0.812299
1 0.249653 0.995575
1 0.236118 1
0.916045 0.413001 0
1 0.399466 0
1 0.385946 0.00283818
1 0.372412 0.186114
1 0.358877 0.36939
1 0.345342 0.552666
1 0.331807 0.735943
1 0.318273 0.919219
1 0.304753 1
1 0.481621 0
1 0.468101 0
1 0.454566 0
1 0.441032 0.109758
1 0.427497 0.293034
1 0.413962 0.47631
1 0.400427 0.659586
1 0.386892 0.842863
1 0.373373 1
1 0.55024 0
1 0.536721 0
1 0.523186 0
1 0.509651 0.033402
1 0.496117 0.216678
1 0.482582 0.399954
1 0.469047 0.58323
1 0.455528 0.766506
1 0.441993 0.949783
1 0.618875 0
1 0.605341 0
1 0.591806 0
1 0.578271 0
1 0.564736 0.140322
1 0.551202 0.323598
1 0.537682 0.506874
1 0.524147 0.69015
1 0.510613 0.873426
0 0.139818 0.0361639
0 0.126284 0.219409
0 0.112749 0.402686
0 0.0992142 0.585962
0 0.0856947 0.769238
0.0834058 0.0721599 0.952514
0.174975 0.0586252 1
0.266529 0.0450904 1
0.358099 0.0315557 1
0 0.208423 0
0 0.194903 0.143069
0.0293278 0.181369 0.326345
0.120897 0.167834 0.509621
0.212467 0.154299 0.692897
0.304036 0.140764 0.876173
0.39559 0.12723 1
0.48716 0.11371 1
0.578729 0.100175 1
0.066865 0.277058 0
0.158419 0.263523 0.0667124
0.249989 0.249989 0.249989
0.341558 0.236454 0.433265
0.433112 0.222919 0.616541
0.524681 0.209384 0.799817
0.616251 0.195865 0.983093
0.70782 0.18233 1
0.799374 0.168795 1
0.287526 0.345678 0
0.37908 0.332143 0
0.470649 0.318608 0.173632
0.562203 0.305074 0.356909
0.653773 0.291539 0.540185
0.745342 0.278019 0.723461
0.836896 0.264485 0.906737
0.928466 0.25095 1
1 0.237415 1
0.508171 0.414298 0
0.599725 0.400763 0
0.691295 0.387228 0.0972763
0.782864 0.373693 0.280552
0.874418 0.360174 0.463828
0.965988 0.346639 0.647105
1 0.333104 0.830381
1 0.31957 1
1 0.306035 1
0.728832 0.482918 0
0.820386 0.469383 0
0.911955 0.455848 0.0209201
1 0.442329 0.204196
1 0.428794 0.387472
1 0.415259 0.570748
1 0.401724 0.754025
1 0.38819 0.937301
1 0.374655 1
0.949477 0.551537 0
1 0.538003 0
1 0.524468 0
1 0.510948 0.12784
1 0.497414 0.311116
1 0.483879 0.494392
1 0.470344 0.677668
1 0.456809 0.860945
1 0.443275 1
1 0.620157 0
1 0.606622 0
1 0.593103 0
1 0.579568 0.0514839
1 0.566033 0.23476
1 0.552499 0.418036
1 0.538964 0.601312
1 0.525429 0.784588
1 0.511894 0.967865
1 0.688777 0
1 0.675258 0
1 0.661723 0
1 0.648188 0
1 0.634653 0.158404
1 0.621118 0.34168
1 0.607584 0.524956
1 0.594049 0.708232
1 0.58053 0.891508
0 0.209735 0.0542458
0 0.196201 0.237491
0 0.182666 0.420768
0 0.169131 0.604044
0 0.155596 0.78732
0 0.142061 0.970596
0 0.128542 1
0.0793164 0.115007 1
0.170886 0.101472 1
0 0.27834 0
0 0.264805 0.161151
0 0.251286 0.344427
0 0.237751 0.527703
0.0252537 0.224216 0.710979
0.116808 0.210681 0.894255
0.208377 0.197147 1
0.299947 0.183612 1
0.391501 0.170077 1
0 0.34696 0
0 0.33344 0.0847944
0.0627756 0.319905 0.26807
0.15433 0.306371 0.451347
0.245899 0.292836 0.634623
0.337469 0.279301 0.817899
0.429038 0.265766 1
0.520592 0.252232 1
0.612161 0.238712 1
0.100313 0.415579 0
0.191867 0.40206 0.00843824
0.283421 0.388525 0.191714
0.37499 0.37499 0.37499
0.46656 0.361456 0.558267
0.558114 0.347921 0.741543
0.649683 0.334386 0.924819
0.741253 0.320867 1
0.832822 0.307332 1
0.320958 0.484215 0
0.412512 0.47068 0
0.504082 0.457145 0.115358
0.595651 0.44361 0.298634
0.687205 0.430076 0.48191
0.778775 0.416541 0.665187
0.870344 0.403021 0.848463
0.961898 0.389487 1
1 0.375952 1
0.541619 0.552834 0
0.633173 0.5393 0
0.724727 0.525765 0.0390021
0.816297 0.51223 0.222278
0.907866 0.498695 0.405554
0.99942 0.485176 0.58883
1 0.471641 0.772107
1 0.458106 0.955383
1 0.444572 1
0.762264 0.621454 0
0.853819 0.607919 0
0.945388 0.594385 0
1 0.58085 0.145922
1 0.56733 0.329198
1 0.553796 0.512474
1 0.540261 0.69575
1 0.526726 0.879026
1 0.513191 1
0.982925 0.690074 0
1 0.676539 0
1 0.663005 0
1 0.64947 0.0695659
1 0.63595 0.252842
1 0.622415 0.436118
1 0.608881 0.619394
1 0.595346 0.80267
1 0.581811 0.985946
1 0.758694 0
1 0.745159 0
1 0.731624 0
1 0.718105 0
1 0.70457 0.176486
1 0.691035 0.359762
1 0.677501 0.543038
1 0.663966 0.726314
1 0.650431 0.90959
0 0.279637 0.0723278
0 0.266117 0.255573
0 0.252583 0.438849
0 0.239048 0.622126
0 0.225513 0.805402
0 0.211978 0.988678
0 0.198444 1
0 0.184909 1
0 0.171389 1
0 0.348257 0
0 0.334722 0.179232
0 0.321187 0.362509
0 0.307652 0.545785
0 0.294133 0.729061
0 0.280598 0.912337
0.0211643 0.267063 1
0.112734 0.253529 1
0.204288 0.239994 1
0 0.416876 0
0 0.403342 0.102876
0 0.389807 0.286152
0 0.376287 0.469429
0.0586862 0.362753 0.652705
0.150256 0.349218 0.835981
0.24181 0.335683 1
0.333379 0.322148 1
0.424949 0.308614 1
0 0.485496 0
0.00463874 0.471962 0.0265202
0.0962081 0.458442 0.209796
0.187778 0.444907 0.393072
0.279332 0.431373 0.576349
0.370901 0.417838 0.759625
0.46247 0.404303 0.942901
0.55404 0.390768 1
0.645594 0.377234 1
0.133745 0.554116 0
0.225299 0.540597 0
0.316869 0.527062 0.13344
0.408423 0.513527 0.316716
0.499992 0.499992 0.499992
0.591562 0.486458 0.683268
0.683116 0.472923 0.866545
0.774685 0.459388 1
0.866255 0.445869 1
0.354391 0.622736 0
0.445945 0.609216 0
0.537514 0.595682 0.057084
0.629084 0.582147 0.24036
0.720653 0.568612 0.423636
0.812207 0.555077 0.606912
0.903777 0.541543 0.790188
0.995346 0.528023 0.973465
1 0.514488 1
0.575051 0.691371 0
0.666606 0.677836 0
0.758175 0.664302 0
0.849729 0.650767 0.164004
0.941299 0.637232 0.34728
1 0.623697 0.530556
1 0.610178 0.713832
1 0.596643 0.897108
1 0.583108 1
0.795712 0.759991 0
0.887266 0.746456 0
0.978821 0.732921 0
1 0.719387 0.0876478
1 0.705852 0.270924
1 0.692332 0.4542
1 0.678798 0.637476
1 0.665263 0.820752
1 0.651728 1
1 0.828611 0
1 0.815076 0
1 0.801541 0
1 0.788006 0.0112917
1 0.774472 0.194568
1 0.760952 0.377844
1 0.747417 0.56112
1 0.733883 0.744396
1 0.720348 0.927672
0 0.349554 0.0904097
0 0.336019 0.273655
0 0.322484 0.456931
0 0.308965 0.640208
0 0.29543 0.823484
0 0.281895 1
0 0.26836 1
0 0.254826 1
0 0.241291 1
0 0.418173 0.0140536
0 0.404639 0.197314
0 0.391104 0.380591
0 0.377569 0.563867
0 0.364034 0.747143
0 0.350515 0.930419
0 0.33698 1
0 0.323445 1
0.0170748 0.309911 1
0 0.486793 0
0 0.473259 0.120958
0 0.459724 0.304234
0 0.446189 0.487511
0 0.432654 0.670787
0 0.419135 0.854063
0.0545968 0.4056 1
0.146166 0.392065 1
0.237736 0.378531 1
0 0.555413 0
0 0.541878 0.0446021
0 0.528344 0.227878
0.000564584 0.514809 0.411154
0.0921187 0.501289 0.59443
0.183688 0.487755 0.777707
0.275257 0.47422 0.960983
0.366812 0.460685 1
0.458381 0.44715 1
0 0.624033 0
0.0380865 0.610498 0
0.129641 0.596963 0.151522
0.22121 0.583444 0.334798
0.312779 0.569909 0.518074
0.404334 0.556374 0.70135
0.495903 0.54284 0.884627
0.587472 0.529305 1
0.679042 0.51577 1
0.167178 0.692653 0
0.258732 0.679118 0
0.350301 0.665599 0.0751659
0.441871 0.652064 0.258442
0.533425 0.638529 0.441718
0.624994 0.624994 0.624994
0.716564 0.61146 0.80827
0.808118 0.597925 0.991547
0.899687 0.58439 1
0.387839 0.761273 0
0.479393 0.747753 0
0.570947 0.734218 0
0.662516 0.720684 0.182086
0.754086 0.707149 0.365362
0.845655 0.693614 0.548638
0.937209 0.680079 0.731914
1 0.666545 0.91519
1 0.653025 1
0.608484 0.829892 0
0.700038 0.816373 0
0.791608 0.802838 0
0.883177 0.789303 0.10573
0.974731 0.775769 0.289006
1 0.762234 0.472282
1 0.748699 0.655558
1 0.73518 0.838834
1 0.721645 1
0.829145 0.898528 0
0.920699 0.884993 0
1 0.871458 0
1 0.857923 0.0293736
1 0.844388 0.21265
1 0.830854 0.395926
1 0.817334 0.579202
1 0.8038 0.762478
1 0.790265 0.945754
0 0.419471 0.108492
0 0.405936 0.291737
0 0.392401 0.475013
0 0.378866 0.658289
0 0.365347 0.841566
0 0.351812 1
0 0.338277 1
0 0.324742 1
0 0.311208 1
0 0.488075 0.0321355
0 0.474556 0.215396
0 0.461021 0.398672
0 0.447486 0.581949
0 0.433951 0.765225
0 0.420417 0.948501
0 0.406882 1
0 0.393362 1
0 0.379828 1
0 0.55671 0
0 0.543175 0.13904
0 0.529641 0.322316
0 0.516106 0.505592
0 0.502571 0.688869
0 0.489036 0.872145
0 0.475517 1
0 0.461982 1
0.0505074 0.448447 1
0 0.62533 0
0 0.611795 0.0626841
0 0.59826 0.24596
0 0.584726 0.429236
0 0.571191 0.612512
0 0.557656 0.795789
0.0880293 0.544137 0.979065
0.179599 0.530602 1
0.271168 0.517067 1
0 0.69395 0
0 0.680415 0
0 0.66688 0.169604
0.0339971 0.653346 0.35288
0.125566 0.639811 0.536156
0.217121 0.626291 0.719432
0.30869 0.612757 0.902708
0.400259 0.599222 1
0.491814 0.585687 1
0 0.76257 0
0.071519 0.749035 0
0.163088 0.7355 0.0932479
0.254643 0.721965 0.276524
0.346212 0.708446 0.4598
0.437781 0.694911 0.643076
0.529335 0.681376 0.826352
0.620905 0.667842 1
0.712474 0.654307 1
0.200626 0.831189 0
0.292165 0.817655 0
0.383734 0.80412 0.0168917
0.475303 0.7906 0.200168
0.566873 0.777066 0.383444
0.658427 0.763531 0.56672
0.749996 0.749996 0.749996
0.841566 0.736461 0.933272
0.93312 0.722927 1
0.421271 0.899809 0
0.512825 0.886275 0
0.604395 0.872755 0
0.695949 0.85922 0.123812
0.787518 0.845685 0.307088
0.879088 0.832151 0.490364
0.970657 0.818616 0.67364
1 0.805081 0.856916
1 0.791547 1
0.641932 0.968429 0
0.733486 0.95491 0
0.82504 0.941375 0
0.916609 0.92784 0.0474556
1 0.914305 0.230732
1 0.900771 0.414008
1 0.887236 0.597284
1 0.873701 0.78056
1 0.860182 0.963836
0 0.489387 0.126574
0 0.475853 0.309819
0 0.462318 0.493095
0 0.448783 0.676371
0 0.435248 0.859648
0 0.421714 1
0 0.408194 1
0 0.394659 1
0 0.381125 1
0 0.557992 0.0502174
0 0.544457 0.233478
0 0.530938 0.416754
0 0.517403 0.600031
0 0.503868 0.783307
0 0.490333 0.966583
0 0.476799 1
0 0.463264 1
0 0.449729 1
0 0.626612 0
0 0.613092 0.157122
0 0.599557 0.340398
0 0.586023 0.523674
0 0.572488 0.70695
0 0.558953 0.890227
0 0.545419 1
0 0.531884 1
0 0.518364 1
0 0.695232 0
0 0.681712 0.080766
0 0.668177 0.264042
0 0.654643 0.447318
0 0.641108 0.630594
0 0.627573 0.81387
0 0.614038 0.997147
0 0.600519 1
0.0839551 0.586984 1
0 0.763867 0
0 0.750332 0.00440986
0 0.736797 0.187686
0 0.723262 0.370962
0 0.709728 0.554238
0.0299077 0.696193 0.737514
0.121477 0.682658 0.92079
0.213031 0.669139 1
0.304601 0.655604 1
0 0.832486 0
0 0.818952 0
0 0.805417 0.11133
0.0674296 0.791882 0.294606
0.158999 0.778347 0.477882
0.250568 0.764813 0.661158
0.342123 0.751293 0.844434
0.433692 0.737758 1
0.525261 0.724224 1
0.0133974 0.901106 0
0.104952 0.887572 0
0.196521 0.874037 0.0349737
0.28809 0.860502 0.21825
0.379644 0.846967 0.401526
0.471214 0.833448 0.584802
0.562783 0.819913 0.768078
0.654337 0.806378 0.951354
0.745907 0.792844 1
0.234058 0.969726 0
0.325612 0.956191 0
0.417166 0.942657 0
0.508736 0.929122 0.141894
0.600305 0.915602 0.32517
0.691875 0.902068 0.508446
0.783429 0.888533 0.691722
0.874998 0.874998 0.874998
0.966567 0.861463 1
0.454704 1 0
0.546258 1 0
0.637827 1 0
0.729397 0.997757 0.0655375
0.820951 0.984222 0.248814
0.91252 0.970687 0.43209
1 0.957153 0.615366
1 0.943618 0.798642
1 0.930083 0.981918
0 0.559289 0.144656
0 0.545769 0.327901
0 0.532235 0.511177
0 0.5187 0.694453
0 0.505165 0.877729
0 0.49163 1
0 0.478096 1
0 0.464561 1
0 0.451041 1
0 0.627909 0.0682994
0 0.614374 0.25156
0 0.600839 0.434836
0 0.587304 0.618112
0 0.573785 0.801389
0 0.56025 0.984665
0 0.546715 1
0 0.533181 1
0 0.519646 1
0 0.696529 0
0 0.682994 0.175204
0 0.669459 0.35848
0 0.65594 0.541756
0 0.642405 0.725032
0 0.62887 0.908309
0 0.615335 1
0 0.601801 1
0 0.588266 1
0 0.765148 0
0 0.751614 0.0988479
0 0.738094 0.282124
0 0.724559 0.4654
0 0.711025 0.648676
0 0.69749 0.831952
0 0.683955 1
0 0.67042 1
0 0.656886 1
0 0.833768 0
0 0.820233 0.0224918
0 0.806714 0.205768
0 0.793179 0.389044
0 0.779644 0.57232
0 0.76611 0.755596
0 0.752575 0.938872
0.0258183 0.73904 1
0.117388 0.725521 1
0 0.902388 0
0 0.888869 0
0 0.875334 0.129412
0 0.861799 0.312688
0 0.848264 0.495964
0.0633402 0.83473 0.67924
0.15491 0.821195 0.862516
0.246479 0.80766 1
0.338033 0.794141 1
0 0.971008 0
0 0.957488 0
0.009308 0.943954 0.0530556
0.100862 0.930419 0.236332
0.192432 0.916884 0.419608
0.284001 0.903349 0.602884
0.37557 0.889815 0.78616
0.467124 0.876295 0.969436
0.558694 0.86276 1
0.0468452 1 0
0.138399 1 0
0.229953 1 0
0.321523 0.999039 0.159976
0.413092 0.985504 0.343252
0.504646 0.971969 0.526528
0.596216 0.95845 0.709804
0.687785 0.944915 0.89308
0.779339 0.93138 1
0.267491 1 0
0.359045 1 0
0.450614 1 0
0.542184 1 0.0836194
0.633738 1 0.266896
0.725307 1 0.450172
0.816876 1 0.633448
0.908431 1 0.816724
1 1 1
