public/LUTS/Color Shift/ColorShift_34.cube
TITLE "Generated by Resolve"
LUT_3D_SIZE 33
0 0 0
0.0190433 1.5259e-05 0.0282597
0.0381018 4.57771e-05 0.0565347
0.0571603 6.10361e-05 0.0848249
0.0762188 9.15541e-05 0.1131
0.0952773 0.000106813 0.141375
0.114336 0.000137331 0.16965
0.133394 0.00015259 0.197925
0.152453 0.000167849 0.226215
0.171511 0.000198367 0.25449
0.19057 0.000213626 0.282765
0.209628 0.000244144 0.31104
0.228687 0.000259403 0.339315
0.247761 0.000289921 0.36759
0.266819 0.00030518 0.39588
0.285878 0.000320439 0.424155
0.304936 0.000350958 0.45243
0.323995 0.000366217 0.480705
0.343053 0.000396735 0.50898
0.362112 0.000411994 0.53727
0.38117 0.000442512 0.565545
0.400229 0.000457771 0.59382
0.419287 0.000488289 0.622095
0.438346 0.000503548 0.65037
0.457404 0.000518807 0.678645
0.476463 0.000549325 0.706935
0.495521 0.000564584 0.73521
0.51458 0.000595102 0.763485
0.533639 0.000610361 0.79176
0.552697 0.000640879 0.820035
0.571756 0.000656138 0.848325
0.590814 0.000671397 0.8766
0.609873 0.000701915 0.904875
0.0382086 0.0203403 0
0.0572519 0.0203555 0.0238499
0.0763104 0.0203861 0.0521248
0.0953841 0.0204013 0.080415
0.114443 0.0204318 0.10869
0.133501 0.0204471 0.136965
0.15256 0.0204776 0.16524
0.171618 0.0204929 0.193515
0.190677 0.0205081 0.22179
0.209735 0.0205386 0.25008
0.228794 0.0205539 0.278355
0.247852 0.0205844 0.30663
0.266911 0.0205997 0.334905
0.285969 0.0206302 0.36318
0.305028 0.0206455 0.39147
0.324086 0.0206607 0.419745
0.343145 0.0206912 0.44802
0.362203 0.0207065 0.476295
0.381262 0.020737 0.50457
0.40032 0.0207523 0.53286
0.419379 0.0207828 0.561135
0.438437 0.020798 0.58941
0.457496 0.0208133 0.617685
0.476555 0.0208438 0.64596
0.495613 0.0208591 0.674235
0.514672 0.0208896 0.702525
0.53373 0.0209049 0.7308
0.552789 0.0209354 0.759075
0.571847 0.0209506 0.78735
0.590906 0.0209659 0.815625
0.609964 0.0209964 0.843915
0.629023 0.0210117 0.87219
0.648081 0.0210422 0.900465
0.0764324 0.0406958 0
0.095491 0.0407111 0.01944
0.114549 0.0407263 0.047715
0.133608 0.0407568 0.0759899
0.152667 0.0407721 0.10428
0.171725 0.0408026 0.132555
0.190784 0.0408179 0.16083
0.209842 0.0408484 0.189105
0.228901 0.0408637 0.21738
0.247959 0.0408789 0.245655
0.267018 0.0409094 0.273945
0.286076 0.0409247 0.30222
0.305135 0.0409552 0.330495
0.324193 0.0409705 0.35877
0.343252 0.041001 0.387045
0.36231 0.0410163 0.415335
0.381369 0.0410315 0.44361
0.400427 0.041062 0.471885
0.419486 0.0410773 0.50016
0.438544 0.0411078 0.528435
0.457603 0.0411231 0.55671
0.476661 0.0411536 0.585
0.49572 0.0411688 0.613275
0.514778 0.0411841 0.64155
0.533837 0.0412146 0.669825
0.552895 0.0412299 0.6981
0.571954 0.0412604 0.72639
0.591012 0.0412757 0.754665
0.610071 0.0413062 0.78294
0.629129 0.0413214 0.811215
0.648188 0.0413367 0.83949
0.667247 0.0413672 0.867765
0.686305 0.0413825 0.896056
0.114672 0.0610361 0
0.133715 0.0610666 0.0150301
0.152773 0.0610819 0.0433051
0.171832 0.0610971 0.0715801
0.19089 0.0611276 0.099855
0.209949 0.0611429 0.12813
0.229007 0.0611734 0.15642
0.248066 0.0611887 0.184695
0.267124 0.0612192 0.21297
0.286183 0.0612345 0.241245
0.305241 0.0612497 0.26952
0.3243 0.0612802 0.29781
0.343359 0.0612955 0.326085
0.362417 0.061326 0.35436
0.381476 0.0613413 0.382635
0.400534 0.0613718 0.41091
0.419593 0.061387 0.4392
0.438651 0.0614023 0.467475
0.45771 0.0614328 0.49575
0.476768 0.0614481 0.524025
0.495827 0.0614786 0.5523
0.514885 0.0614939 0.580575
0.533944 0.0615244 0.608865
0.553002 0.0615396 0.63714
0.572061 0.0615549 0.665415
0.591119 0.0615854 0.69369
0.610178 0.0616007 0.721965
0.629236 0.0616312 0.750256
0.648295 0.0616465 0.778531
0.667353 0.061677 0.806806
0.686412 0.0616922 0.835081
0.70547 0.0617227 0.863355
0.724529 0.061738 0.89163
0.152895 0.0813916 0
0.171939 0.0814069 0.0106203
0.190997 0.0814374 0.0388952
0.210056 0.0814527 0.0671702
0.229114 0.0814679 0.0954452
0.248173 0.0814984 0.12372
0.267231 0.0815137 0.151995
0.28629 0.0815442 0.180285
0.305348 0.0815595 0.20856
0.324407 0.08159 0.236835
0.343481 0.0816052 0.26511
0.362539 0.0816205 0.293385
0.381598 0.081651 0.321675
0.400656 0.0816663 0.34995
0.419715 0.0816968 0.378225
0.438773 0.0817121 0.4065
0.457832 0.0817426 0.434775
0.47689 0.0817578 0.46305
0.495949 0.0817731 0.491341
0.515007 0.0818036 0.519615
0.534066 0.0818189 0.54789
0.553124 0.0818494 0.576165
0.572183 0.0818647 0.60444
0.591241 0.0818952 0.632731
0.6103 0.0819104 0.661006
0.629358 0.0819257 0.689281
0.648417 0.0819562 0.717556
0.667475 0.0819715 0.74583
0.686534 0.082002 0.774105
0.705592 0.0820172 0.802396
0.724651 0.0820478 0.830671
0.743709 0.082063 0.858946
0.762768 0.0820935 0.887221
0.191119 0.101732 0
0.210178 0.101762 0.00619516
0.229236 0.101778 0.0344854
0.248295 0.101808 0.0627604
0.267353 0.101823 0.0910353
0.286412 0.101839 0.11931
0.30547 0.101869 0.147585
0.324529 0.101884 0.17586
0.343587 0.101915 0.20415
0.362646 0.10193 0.232425
0.381704 0.101961 0.2607
0.400763 0.101976 0.288975
0.419821 0.101991 0.31725
0.43888 0.102022 0.345541
0.457938 0.102037 0.373816
0.476997 0.102068 0.40209
0.496056 0.102083 0.430365
0.515114 0.102113 0.45864
0.534173 0.102129 0.486915
0.553231 0.102144 0.515206
0.57229 0.102174 0.543481
0.591348 0.10219 0.571756
0.610407 0.10222 0.600031
0.629465 0.102235 0.628305
0.648524 0.102266 0.656596
0.667582 0.102281 0.684871
0.686641 0.102312 0.713146
0.705699 0.102327 0.741421
0.724758 0.102342 0.769696
0.743816 0.102373 0.797971
0.762875 0.102388 0.826261
0.781933 0.102419 0.854536
0.800992 0.102434 0.882811
0.229358 0.122087 0
0.248402 0.122103 0.00178531
0.26746 0.122133 0.0300603
0.286519 0.122148 0.0583352
0.305577 0.122179 0.0866255
0.324636 0.122194 0.1149
0.343694 0.12221 0.143175
0.362753 0.12224 0.17145
0.381811 0.122255 0.199725
0.40087 0.122286 0.228016
0.419928 0.122301 0.256291
0.438987 0.122332 0.284566
0.458045 0.122347 0.31284
0.477104 0.122362 0.341115
0.496162 0.122393 0.36939
0.515221 0.122408 0.397681
0.534279 0.122438 0.425956
0.553338 0.122454 0.454231
0.572396 0.122484 0.482506
0.591455 0.122499 0.510781
0.610513 0.122515 0.539071
0.629572 0.122545 0.567346
0.64863 0.12256 0.595621
0.667689 0.122591 0.623896
0.686748 0.122606 0.652171
0.705806 0.122637 0.680461
0.724865 0.122652 0.708736
0.743923 0.122683 0.737011
0.762982 0.122698 0.765286
0.78204 0.122713 0.793561
0.801099 0.122744 0.821836
0.820157 0.122759 0.850126
0.839216 0.122789 0.878401
0.267582 0.142428 0
0.286625 0.142458 0
0.305684 0.142473 0.0256504
0.324742 0.142504 0.0539254
0.343801 0.142519 0.0822003
0.36286 0.14255 0.110491
0.381918 0.142565 0.138766
0.400977 0.14258 0.167041
0.420035 0.142611 0.195315
0.439094 0.142626 0.22359
0.458152 0.142657 0.251881
0.477211 0.142672 0.280156
0.496269 0.142702 0.308431
0.515328 0.142718 0.336706
0.534386 0.142733 0.364981
0.553445 0.142763 0.393256
0.572503 0.142779 0.421546
0.591577 0.142809 0.449821
0.610636 0.142824 0.478096
0.629694 0.142855 0.506371
0.648753 0.14287 0.534646
0.667811 0.142901 0.562936
0.68687 0.142916 0.591211
0.705928 0.142931 0.619486
0.724987 0.142962 0.647761
0.744045 0.142977 0.676036
0.763104 0.143008 0.704311
0.782162 0.143023 0.732601
0.801221 0.143053 0.760876
0.820279 0.143069 0.789151
0.839338 0.143084 0.817426
0.858396 0.143114 0.845701
0.877455 0.14313 0.873991
0.305806 0.162783 0
0.324865 0.162799 0
0.343923 0.162829 0.0212406
0.362982 0.162844 0.0495155
0.38204 0.162875 0.0777905
0.401099 0.16289 0.106065
0.420157 0.162921 0.134356
0.439216 0.162936 0.162631
0.458274 0.162951 0.190906
0.477333 0.162982 0.219181
0.496391 0.162997 0.247456
0.51545 0.163027 0.275746
0.534508 0.163043 0.304021
0.553567 0.163073 0.332296
0.572625 0.163088 0.360571
0.591684 0.163104 0.388846
0.610742 0.163134 0.417121
0.629801 0.163149 0.445411
0.648859 0.16318 0.473686
0.667918 0.163195 0.501961
0.686976 0.163226 0.530236
0.706035 0.163241 0.558511
0.725093 0.163272 0.586801
0.744152 0.163287 0.615076
0.76321 0.163302 0.643351
0.782269 0.163333 0.671626
0.801328 0.163348 0.699901
0.820386 0.163378 0.728176
0.839445 0.163394 0.756466
0.858503 0.163424 0.784741
0.877562 0.163439 0.813016
0.89662 0.163455 0.841291
0.915679 0.163485 0.869566
0.344045 0.183139 0
0.363088 0.183154 0
0.382147 0.183169 0.0168307
0.401205 0.1832 0.0451057
0.420264 0.183215 0.0733806
0.439323 0.183246 0.101656
0.458381 0.183261 0.129931
0.47744 0.183291 0.158221
0.496498 0.183307 0.186496
0.515557 0.183322 0.214771
0.534615 0.183352 0.243046
0.553674 0.183368 0.271321
0.572732 0.183398 0.299596
0.591791 0.183413 0.327886
0.610849 0.183444 0.356161
0.629908 0.183459 0.384436
0.648966 0.183474 0.412711
0.668025 0.183505 0.440986
0.687083 0.18352 0.469276
0.706142 0.183551 0.497551
0.7252 0.183566 0.525826
0.744259 0.183597 0.554101
0.763317 0.183612 0.582376
0.782376 0.183642 0.610651
0.801434 0.183658 0.638941
0.820493 0.183673 0.667216
0.839551 0.183703 0.695491
0.85861 0.183719 0.723766
0.877668 0.183749 0.752041
0.896727 0.183764 0.780331
0.915785 0.183795 0.808606
0.934844 0.18381 0.836881
0.953902 0.183825 0.865156
0.382269 0.203479 0
0.401312 0.20351 0
0.420371 0.203525 0.0124056
0.439429 0.20354 0.0406958
0.458488 0.203571 0.0689708
0.477546 0.203586 0.0972457
0.496605 0.203616 0.125521
0.515663 0.203632 0.153796
0.534722 0.203662 0.182086
0.55378 0.203677 0.210361
0.572839 0.203693 0.238636
0.591897 0.203723 0.266911
0.610956 0.203738 0.295186
0.630014 0.203769 0.323461
0.649073 0.203784 0.351751
0.668132 0.203815 0.380026
0.68719 0.20383 0.408301
0.706249 0.203861 0.436576
0.725307 0.203876 0.464851
0.744366 0.203891 0.493141
0.763424 0.203922 0.521416
0.782483 0.203937 0.549691
0.801541 0.203967 0.577966
0.8206 0.203983 0.606241
0.839673 0.204013 0.634516
0.858732 0.204028 0.662806
0.877791 0.204044 0.691081
0.896849 0.204074 0.719356
0.915908 0.204089 0.747631
0.934966 0.20412 0.775906
0.954025 0.204135 0.804196
0.973083 0.204166 0.832471
0.992142 0.204181 0.860746
0.420493 0.223835 0
0.439551 0.22385 0
0.45861 0.22388 0.00799573
0.477668 0.223896 0.0362707
0.496727 0.223911 0.0645609
0.515785 0.223941 0.0928359
0.534844 0.223957 0.121111
0.553903 0.223987 0.149386
0.572961 0.224002 0.177661
0.59202 0.224033 0.205936
0.611078 0.224048 0.234226
0.630137 0.224063 0.262501
0.649195 0.224094 0.290776
0.668254 0.224109 0.319051
0.687312 0.22414 0.347326
0.706371 0.224155 0.375616
0.725429 0.224186 0.403891
0.744488 0.224201 0.432166
0.763546 0.224231 0.460441
0.782605 0.224247 0.488716
0.801663 0.224262 0.516991
0.820722 0.224292 0.545281
0.83978 0.224308 0.573556
0.858839 0.224338 0.601831
0.877897 0.224353 0.630106
0.896956 0.224384 0.658381
0.916014 0.224399 0.686671
0.935073 0.224414 0.714946
0.954131 0.224445 0.743221
0.97319 0.22446 0.771496
0.992248 0.224491 0.799771
1 0.224506 0.828061
1 0.224537 0.856336
0.458732 0.244175 0
0.477775 0.244205 0
0.496834 0.244221 0.00358587
0.515892 0.244251 0.0318608
0.534951 0.244266 0.0601358
0.554009 0.244282 0.088426
0.573068 0.244312 0.116701
0.592126 0.244327 0.144976
0.611185 0.244358 0.173251
0.630243 0.244373 0.201526
0.649302 0.244404 0.229801
0.66836 0.244419 0.258091
0.687419 0.24445 0.286366
0.706477 0.244465 0.314641
0.725536 0.24448 0.342916
0.744595 0.244511 0.371191
0.763653 0.244526 0.399481
0.782712 0.244556 0.427756
0.80177 0.244572 0.456031
0.820829 0.244602 0.484306
0.839887 0.244617 0.512581
0.858946 0.244633 0.540856
0.878004 0.244663 0.569146
0.897063 0.244678 0.597421
0.916121 0.244709 0.625696
0.93518 0.244724 0.653971
0.954238 0.244755 0.682246
0.973297 0.24477 0.710536
0.992355 0.244785 0.738811
1 0.244816 0.767086
1 0.244831 0.795361
1 0.244862 0.823636
1 0.244877 0.851911
0.496956 0.26453 0
0.515999 0.264546 0
0.535058 0.264576 0
0.554116 0.264591 0.027451
0.573175 0.264622 0.0557259
0.592233 0.264637 0.0840009
0.611292 0.264652 0.112276
0.63035 0.264683 0.140566
0.649409 0.264698 0.168841
0.668467 0.264729 0.197116
0.687526 0.264744 0.225391
0.706584 0.264775 0.253666
0.725643 0.26479 0.281956
0.744701 0.26482 0.310231
0.76376 0.264836 0.338506
0.782818 0.264851 0.366781
0.801877 0.264881 0.395056
0.820935 0.264897 0.423346
0.839994 0.264927 0.451621
0.859052 0.264942 0.479896
0.878111 0.264973 0.508171
0.897169 0.264988 0.536446
0.916228 0.265003 0.564721
0.935286 0.265034 0.593011
0.954345 0.265049 0.621286
0.973404 0.26508 0.649561
0.992462 0.265095 0.677836
1 0.265126 0.706111
1 0.265141 0.734401
1 0.265156 0.762676
1 0.265187 0.790951
1 0.265202 0.819226
1 0.265232 0.847501
0.53518 0.284871 0
0.554238 0.284901 0
0.573297 0.284916 0
0.592355 0.284947 0.0230411
0.611414 0.284962 0.0513161
0.630472 0.284993 0.0795911
0.649531 0.285008 0.107866
0.668589 0.285039 0.136141
0.687648 0.285054 0.164431
0.706706 0.285069 0.192706
0.725765 0.2851 0.220981
0.744823 0.285115 0.249256
0.763882 0.285145 0.277531
0.78294 0.285161 0.305821
0.801999 0.285191 0.334096
0.821057 0.285206 0.362371
0.840116 0.285222 0.390646
0.859174 0.285252 0.418921
0.878233 0.285267 0.447196
0.897292 0.285298 0.475486
0.91635 0.285313 0.503761
0.935409 0.285344 0.532036
0.954467 0.285359 0.560311
0.973526 0.285374 0.588586
0.992584 0.285405 0.616876
1 0.28542 0.645151
1 0.285451 0.673426
1 0.285466 0.701701
1 0.285496 0.729976
1 0.285512 0.758251
1 0.285527 0.786542
1 0.285557 0.814817
1 0.285573 0.843091
0.573404 0.305226 0
0.592462 0.305241 0
0.611521 0.305272 0
0.630579 0.305287 0.0186313
0.649638 0.305318 0.0469062
0.668696 0.305333 0.0751812
0.687755 0.305364 0.103456
0.706813 0.305379 0.131731
0.725872 0.305409 0.160006
0.74493 0.305425 0.188296
0.763989 0.30544 0.216571
0.783047 0.30547 0.244846
0.802106 0.305486 0.273121
0.821164 0.305516 0.301396
0.840223 0.305531 0.329686
0.859281 0.305562 0.357961
0.87834 0.305577 0.386236
0.897398 0.305592 0.414511
0.916457 0.305623 0.442786
0.935515 0.305638 0.471061
0.954574 0.305669 0.499352
0.973632 0.305684 0.527626
0.992691 0.305715 0.555901
1 0.30573 0.584176
1 0.305745 0.612451
1 0.305776 0.640742
1 0.305791 0.669017
1 0.305821 0.697292
1 0.305837 0.725567
1 0.305867 0.753841
1 0.305882 0.782116
1 0.305898 0.810407
1 0.305928 0.838682
0.611643 0.325582 0
0.630686 0.325597 0
0.649744 0.325612 0
0.668803 0.325643 0.0142061
0.687861 0.325658 0.0424811
0.70692 0.325689 0.0707713
0.725978 0.325704 0.0990463
0.745037 0.325734 0.127321
0.764096 0.32575 0.155596
0.783154 0.32578 0.183871
0.802213 0.325795 0.212161
0.821271 0.325811 0.240436
0.84033 0.325841 0.268711
0.859388 0.325856 0.296986
0.878447 0.325887 0.325261
0.897505 0.325902 0.353536
0.916564 0.325933 0.381826
0.935622 0.325948 0.410101
0.954681 0.325963 0.438376
0.973739 0.325994 0.466651
0.992798 0.326009 0.494926
1 0.32604 0.523217
1 0.326055 0.551492
1 0.326085 0.579767
1 0.326101 0.608042
1 0.326116 0.636316
1 0.326146 0.664607
1 0.326162 0.692882
1 0.326192 0.721157
1 0.326207 0.749432
1 0.326238 0.777707
1 0.326253 0.805982
1 0.326268 0.834272
0.649866 0.345922 0
0.66891 0.345953 0
0.687968 0.345968 0
0.707042 0.345998 0.00979629
0.726101 0.346014 0.0380713
0.745159 0.346029 0.0663462
0.764218 0.346059 0.0946365
0.783276 0.346075 0.122911
0.802335 0.346105 0.151186
0.821393 0.34612 0.179461
0.840452 0.346151 0.207736
0.85951 0.346166 0.236027
0.878569 0.346181 0.264302
0.897627 0.346212 0.292576
0.916686 0.346227 0.320851
0.935744 0.346258 0.349126
0.954803 0.346273 0.377401
0.973861 0.346303 0.405692
0.99292 0.346319 0.433967
1 0.346334 0.462242
1 0.346365 0.490517
1 0.34638 0.518791
1 0.34641 0.547082
1 0.346426 0.575357
1 0.346456 0.603632
1 0.346471 0.631907
1 0.346487 0.660182
1 0.346517 0.688457
1 0.346532 0.716747
1 0.346563 0.745022
1 0.346578 0.773297
1 0.346609 0.801572
1 0.346624 0.829847
0.68809 0.366278 0
0.707149 0.366293 0
0.726207 0.366323 0
0.745266 0.366339 0.00538643
0.764324 0.366369 0.0336614
0.783383 0.366384 0.0619364
0.802441 0.3664 0.0902113
0.8215 0.36643 0.118502
0.840558 0.366445 0.146777
0.859617 0.366476 0.175051
0.878676 0.366491 0.203326
0.897734 0.366522 0.231601
0.916793 0.366537 0.259892
0.935851 0.366552 0.288167
0.95491 0.366583 0.316442
0.973968 0.366598 0.344717
0.993027 0.366629 0.372992
1 0.366644 0.401266
1 0.366674 0.429557
1 0.36669 0.457832
1 0.366705 0.486107
1 0.366735 0.514382
1 0.366751 0.542657
1 0.366781 0.570947
1 0.366796 0.599222
1 0.366827 0.627497
1 0.366842 0.655772
1 0.366857 0.684047
1 0.366888 0.712322
1 0.366903 0.740612
1 0.366934 0.768887
1 0.366949 0.797162
1 0.366979 0.825437
0.726329 0.386618 0
0.745373 0.386648 0
0.764431 0.386664 0
0.78349 0.386694 0.000976577
0.802548 0.386709 0.0292515
0.821607 0.38674 0.0575265
0.840665 0.386755 0.0858015
0.859724 0.38677 0.114076
0.878782 0.386801 0.142367
0.897841 0.386816 0.170642
0.916899 0.386847 0.198917
0.935958 0.386862 0.227192
0.955016 0.386892 0.255467
0.974075 0.386908 0.283742
0.993133 0.386923 0.312032
1 0.386954 0.340307
1 0.386969 0.368582
1 0.386999 0.396857
1 0.387015 0.425132
1 0.387045 0.453422
1 0.38706 0.481697
1 0.387076 0.509972
1 0.387106 0.538247
1 0.387121 0.566522
1 0.387152 0.594797
1 0.387167 0.623087
1 0.387198 0.651362
1 0.387213 0.679637
1 0.387228 0.707912
1 0.387259 0.736187
1 0.387274 0.764477
1 0.387304 0.792752
1 0.38732 0.821027
0.764553 0.406973 0
0.783597 0.406989 0
0.802655 0.407019 0
0.821714 0.407034 0
0.840772 0.407065 0.0248417
0.859831 0.40708 0.0531167
0.878889 0.407111 0.0813916
0.897948 0.407126 0.109667
0.917006 0.407141 0.137942
0.936065 0.407172 0.166232
0.955123 0.407187 0.194507
0.974197 0.407218 0.222782
0.993255 0.407233 0.251057
1 0.407263 0.279332
1 0.407279 0.307607
1 0.407294 0.335897
1 0.407324 0.364172
1 0.40734 0.392447
1 0.40737 0.420722
1 0.407385 0.448997
1 0.407416 0.477287
1 0.407431 0.505562
1 0.407446 0.533837
1 0.407477 0.562112
1 0.407492 0.590387
1 0.407523 0.618662
1 0.407538 0.646952
1 0.407568 0.675227
1 0.407584 0.703502
1 0.407614 0.731777
1 0.40763 0.760052
1 0.407645 0.788342
1 0.407675 0.816617
0.802777 0.427329 0
0.821836 0.427344 0
0.840894 0.427359 0
0.859953 0.42739 0
0.879011 0.427405 0.0204166
0.89807 0.427436 0.0487068
0.917128 0.427451 0.0769818
0.936187 0.427482 0.105257
0.955245 0.427497 0.133532
0.974304 0.427512 0.161807
0.993362 0.427543 0.190082
1 0.427558 0.218372
1 0.427588 0.246647
1 0.427604 0.274922
1 0.427634 0.303197
1 0.427649 0.331472
1 0.427665 0.359762
1 0.427695 0.388037
1 0.42771 0.416312
1 0.427741 0.444587
1 0.427756 0.472862
1 0.427787 0.501137
1 0.427802 0.529427
1 0.427817 0.557702
1 0.427848 0.585977
1 0.427863 0.614252
1 0.427893 0.642527
1 0.427909 0.670817
1 0.427939 0.699092
1 0.427955 0.727367
1 0.427985 0.755642
1 0.428 0.783917
1 0.428016 0.812207
0.841016 0.447669 0
0.860059 0.4477 0
0.879118 0.447715 0
0.898177 0.44773 0
0.917235 0.447761 0.0160067
0.936294 0.447776 0.0442817
0.955352 0.447807 0.0725719
0.974411 0.447822 0.100847
0.993469 0.447852 0.129122
1 0.447868 0.157397
1 0.447883 0.185672
1 0.447913 0.213947
1 0.447929 0.242237
1 0.447959 0.270512
1 0.447974 0.298787
1 0.448005 0.327062
1 0.44802 0.355337
1 0.448035 0.383627
1 0.448066 0.411902
1 0.448081 0.440177
1 0.448112 0.468452
1 0.448127 0.496727
1 0.448157 0.525002
1 0.448173 0.553292
1 0.448203 0.581567
1 0.448218 0.609842
1 0.448234 0.638117
1 0.448264 0.666392
1 0.44828 0.694682
1 0.44831 0.722957
1 0.448325 0.751232
1 0.448356 0.779507
1 0.448371 0.807782
0.87924 0.468025 0
0.898283 0.46804 0
0.917342 0.468071 0
0.9364 0.468086 0
0.955459 0.468101 0.0115969
0.974517 0.468132 0.0398718
0.993576 0.468147 0.0681468
1 0.468177 0.0964218
1 0.468193 0.124712
1 0.468223 0.152987
1 0.468238 0.181262
1 0.468254 0.209537
1 0.468284 0.237812
1 0.468299 0.266102
1 0.46833 0.294377
1 0.468345 0.322652
1 0.468376 0.350927
1 0.468391 0.379202
1 0.468406 0.407477
1 0.468437 0.435767
1 0.468452 0.464042
1 0.468482 0.492317
1 0.468498 0.520592
1 0.468528 0.548867
1 0.468544 0.577157
1 0.468574 0.605432
1 0.468589 0.633707
1 0.468605 0.661982
1 0.468635 0.690257
1 0.46865 0.718547
1 0.468681 0.746822
1 0.468696 0.775097
1 0.468727 0.803372
0.917464 0.488365 0
0.936522 0.488396 0
0.955581 0.488411 0
0.97464 0.488441 0
0.993698 0.488457 0.007187
1 0.488472 0.035462
1 0.488502 0.0637369
1 0.488518 0.0920119
1 0.488548 0.120287
1 0.488563 0.148577
1 0.488594 0.176852
1 0.488609 0.205127
1 0.488624 0.233402
1 0.488655 0.261677
1 0.48867 0.289967
1 0.488701 0.318242
1 0.488716 0.346517
1 0.488746 0.374792
1 0.488762 0.403067
1 0.488792 0.431342
1 0.488807 0.459632
1 0.488823 0.487907
1 0.488853 0.516182
1 0.488869 0.544457
1 0.488899 0.572732
1 0.488914 0.601022
1 0.488945 0.629297
1 0.48896 0.657572
1 0.488975 0.685847
1 0.489006 0.714122
1 0.489021 0.742397
1 0.489052 0.770687
1 0.489067 0.798962
0.955703 0.508721 0
0.974746 0.508736 0
0.993805 0.508766 0
1 0.508782 0
1 0.508812 0.00277714
1 0.508827 0.0310521
1 0.508843 0.0593271
1 0.508873 0.087602
1 0.508888 0.115877
1 0.508919 0.144152
1 0.508934 0.172442
1 0.508965 0.200717
1 0.50898 0.228992
1 0.508995 0.257267
1 0.509026 0.285542
1 0.509041 0.313832
1 0.509071 0.342107
1 0.509087 0.370382
1 0.509117 0.398657
1 0.509133 0.426932
1 0.509163 0.455207
1 0.509178 0.483497
1 0.509194 0.511772
1 0.509224 0.540047
1 0.509239 0.568322
1 0.50927 0.596597
1 0.509285 0.624887
1 0.509316 0.653162
1 0.509331 0.681437
1 0.509346 0.709712
1 0.509377 0.737987
1 0.509392 0.766262
1 0.509422 0.794553
0.993927 0.529061 0
1 0.529091 0
1 0.529107 0
1 0.529137 0
1 0.529152 0
1 0.529183 0.026627
1 0.529198 0.0549172
1 0.529213 0.0831922
1 0.529244 0.111467
1 0.529259 0.139742
1 0.52929 0.168017
1 0.529305 0.196307
1 0.529335 0.224582
1 0.529351 0.252857
1 0.529366 0.281132
1 0.529397 0.309407
1 0.529412 0.337682
1 0.529442 0.365972
1 0.529458 0.394247
1 0.529488 0.422522
1 0.529503 0.450797
1 0.529534 0.479072
1 0.529549 0.507362
1 0.529564 0.535637
1 0.529595 0.563912
1 0.52961 0.592187
1 0.529641 0.620462
1 0.529656 0.648753
1 0.529686 0.677028
1 0.529702 0.705303
1 0.529717 0.733577
1 0.529747 0.761852
1 0.529763 0.790127
1 0.549416 0
1 0.549432 0
1 0.549462 0
1 0.549477 0
1 0.549508 0
1 0.549523 0.0222171
1 0.549554 0.0504921
1 0.549569 0.0787823
1 0.549584 0.107057
