public/LUTS/Color Shift/ColorShift_79.cube
TITLE "Generated by Resolve"
LUT_3D_SIZE 5
0 0 0
0.368078 0 0.192676
0.736171 0 0.385367
1 0 0.578073
1 0 0.770764
0.14081 0.238697 0
0.508888 0.1785 0
0.876982 0.118303 0.144564
1 0.0580911 0.337255
1 0 0.529946
0.281651 0.477424 0
0.649714 0.417227 0
1 0.357015 0
1 0.296818 0.096437
1 0.236606 0.289128
0.422477 0.716136 0
0.790539 0.65594 0
1 0.595743 0
1 0.535531 0
1 0.475334 0.0482948
0.563302 0.954864 0
0.931365 0.894652 0
1 0.834455 0
1 0.774258 0
1 0.714046 0
0 0.0714885 0.298116
0.109178 0.0112917 0.490806
0.477272 0 0.683497
0.845365 0 0.876188
1 0 1
0 0.310185 0.0573129
0.249989 0.249989 0.249989
0.618082 0.189792 0.442679
0.986175 0.12958 0.63537
1 0.0693828 0.828061
0.0227359 0.548913 0
0.390814 0.488701 0.00917067
0.758907 0.428504 0.201862
1 0.368307 0.394553
1 0.308095 0.587243
0.163561 0.787625 0
0.53164 0.727428 0
0.899733 0.667216 0
1 0.607019 0.153719
1 0.546822 0.34641
0.304387 1 0
0.672465 0.96614 0
1 0.905943 0
1 0.845731 0
1 0.785534 0.105592
0 0.142977 0.596262
0 0.0827802 0.788937
0.218341 0.0225681 0.981628
0.58645 0 1
0.954543 0 1
0 0.381674 0.355444
0 0.321477 0.548119
0.359167 0.26128 0.74081
0.72726 0.201068 0.933516
1 0.140871 1
0 0.620401 0.114626
0.131899 0.560189 0.307301
0.499992 0.499992 0.499992
0.868086 0.439796 0.692683
1 0.379583 0.885374
0 0.859113 0
0.272725 0.798917 0.0664683
0.640818 0.738705 0.259174
1 0.678508 0.451865
1 0.618311 0.644556
0.0454719 1 0
0.41355 1 0
0.781643 0.977432 0.0183413
1 0.91722 0.211032
1 0.857023 0.403723
0 0.214466 0.894392
0 0.154269 1
0 0.0940566 1
0.32752 0.0338598 1
0.695628 0 1
0 0.453162 0.653574
0 0.392966 0.846265
0.100252 0.332769 1
0.468345 0.272557 1
0.836439 0.21236 1
0 0.69189 0.412757
0 0.631678 0.605432
0.241077 0.571481 0.798123
0.609171 0.511284 0.990814
0.977264 0.451072 1
0 0.930602 0.171923
0.0138094 0.870405 0.364614
0.381903 0.810193 0.557305
0.749996 0.749996 0.749996
1 0.689799 0.942687
0 1 0
0.154635 1 0.123781
0.522728 1 0.316472
0.890822 0.988708 0.509178
1 0.928512 0.701869
0 0.285954 1
0 0.225757 1
0 0.165545 1
0.0686046 0.105348 1
0.436698 0.0451514 1
0 0.524651 0.95172
0 0.464454 1
0 0.404257 1
0.20943 0.344045 1
0.577523 0.283848 1
0 0.763378 0.710887
0 0.703182 0.903578
0 0.642969 1
0.350256 0.582773 1
0.718349 0.52256 1
0 1 0.470069
0 0.941894 0.662745
0.122988 0.881682 0.855436
0.491081 0.821485 1
0.859174 0.761288 1
0 1 0.229236
0 1 0.421927
0.263813 1 0.614618
0.631907 1 0.807309
1 1 1
