public/LUTS/Color Shift/ColorShift_65.cube
TITLE "Generated by Resolve"
LUT_3D_SIZE 33
0 0 0
0.0169985 0.00872816 0
0.0339971 0.0174716 0
0.0510109 0.026215 0
0.0680095 0.0349432 0
0.0850233 0.0436866 0
0.102022 0.0524147 0
0.11902 0.0611582 0
0.136034 0.0699016 0
0.153033 0.0786297 0
0.170047 0.0873732 0
0.187045 0.0961013 0
0.204059 0.104845 0
0.221057 0.113588 0
0.238056 0.122316 0
0.25507 0.13106 0
0.272068 0.139803 0
0.289082 0.148531 0
0.306081 0.157275 0
0.323095 0.166003 0
0.340093 0.174746 0
0.357092 0.18349 0
0.374105 0.192218 0
0.391104 0.200961 0
0.408118 0.209689 0
0.425116 0.218433 0
0.44213 0.227176 0
0.459129 0.235904 0
0.476127 0.244648 0
0.493141 0.253391 0
0.51014 0.262119 0
0.527153 0.270863 0
0.544152 0.279591 0
0 0.035462 0.0360113
0 0.0442054 0.00129702
0.00445563 0.0529335 0
0.0214694 0.061677 0
0.038468 0.0704204 0
0.0554665 0.0791485 0
0.0724804 0.087892 0
0.0894789 0.0966354 0
0.106493 0.105364 0
0.123491 0.114107 0
0.14049 0.122835 0
0.157504 0.131579 0
0.174502 0.140322 0
0.191516 0.14905 0
0.208515 0.157794 0
0.225528 0.166522 0
0.242527 0.175265 0
0.259525 0.184009 0
0.276539 0.192737 0
0.293538 0.20148 0
0.310552 0.210224 0
0.32755 0.218952 0
0.344564 0.227695 0
0.361563 0.236423 0
0.378561 0.245167 0
0.395575 0.25391 0
0.412573 0.262638 0
0.429587 0.271382 0
0.446586 0.28011 0
0.4636 0.288853 0
0.480598 0.297597 0
0.497597 0.306325 0
0.514611 0.315068 0
0 0.0709544 0.0720378
0 0.0796826 0.0373236
0 0.088426 0.00260929
0 0.0971695 0
0.00891127 0.105898 0
0.0259098 0.114641 0
0.0429236 0.123384 0
0.0599222 0.132113 0
0.0769207 0.140856 0
0.0939345 0.149584 0
0.110933 0.158328 0
0.127947 0.167071 0
0.144945 0.175799 0
0.161959 0.184543 0
0.178958 0.193271 0
0.195956 0.202014 0
0.21297 0.210758 0
0.229969 0.219486 0
0.246983 0.228229 0
0.263981 0.236973 0
0.280995 0.245701 0
0.297993 0.254444 0
0.314992 0.263172 0
0.332006 0.271916 0
0.349004 0.280659 0
0.366018 0.289387 0
0.383017 0.298131 0
0.400031 0.306859 0
0.417029 0.315602 0
0.434028 0.324346 0
0.451041 0.333074 0
0.46804 0.341817 0
0.485054 0.350561 0
0 0.106447 0.108064
0 0.115175 0.0733501
0 0.123919 0.0386358
0 0.132647 0.00390631
0 0.14139 0
0 0.150134 0
0.0133516 0.158862 0
0.0303655 0.167605 0
0.047364 0.176333 0
0.0643778 0.185077 0
0.0813764 0.19382 0
0.0983902 0.202548 0
0.115389 0.211292 0
0.132387 0.22002 0
0.149401 0.228763 0
0.1664 0.237507 0
0.183413 0.246235 0
0.200412 0.254978 0
0.217426 0.263722 0
0.234424 0.27245 0
0.251423 0.281193 0
0.268437 0.289921 0
0.285435 0.298665 0
0.302449 0.307408 0
0.319448 0.316136 0
0.336461 0.32488 0
0.35346 0.333608 0
0.370459 0.342351 0
0.387472 0.351095 0
0.404471 0.359823 0
0.421485 0.368566 0
0.438483 0.37731 0
0.455497 0.386038 0
0 0.141924 0.144091
0 0.150668 0.109377
0 0.159396 0.0746624
0 0.168139 0.0399329
0 0.176883 0.00521859
0 0.185611 0
0 0.194354 0
0.000808728 0.203082 0
0.0178073 0.211826 0
0.0348211 0.220569 0
0.0518196 0.229297 0
0.0688182 0.238041 0
0.085832 0.246769 0
0.102831 0.255512 0
0.119844 0.264256 0
0.136843 0.272984 0
0.153857 0.281727 0
0.170855 0.290471 0
0.187854 0.299199 0
0.204868 0.307942 0
0.221866 0.31667 0
0.23888 0.325414 0
0.255879 0.334157 0
0.272892 0.342885 0
0.289891 0.351629 0
0.306889 0.360357 0
0.323903 0.3691 0
0.340902 0.377844 0
0.357916 0.386572 0
0.374914 0.395315 0
0.391928 0.404059 0
0.408927 0.412787 0
0.425925 0.42153 0
0 0.177417 0.180102
0 0.186145 0.145403
0 0.194888 0.110689
0 0.203632 0.0759594
0 0.21236 0.0412451
0 0.221103 0.0065156
0 0.229831 0
0 0.238575 0
0 0.247318 0
0.0052491 0.256046 0
0.0222629 0.26479 0
0.0392615 0.273518 0
0.0562753 0.282261 0
0.0732738 0.291005 0
0.0902876 0.299733 0
0.107286 0.308476 0
0.124285 0.31722 0
0.141299 0.325948 0
0.158297 0.334691 0
0.175311 0.34342 0
0.192309 0.352163 0
0.209308 0.360906 0
0.226322 0.369635 0
0.24332 0.378378 0
0.260334 0.387106 0
0.277333 0.39585 0
0.294347 0.404593 0
0.311345 0.413321 0
0.328344 0.422065 0
0.345357 0.430808 0
0.362356 0.439536 0
0.37937 0.44828 0
0.396368 0.457008 0
0 0.212909 0.216129
0 0.221637 0.18143
0 0.230381 0.146715
0 0.239109 0.111986
0 0.247852 0.0772717
0 0.25658 0.0425422
0 0.265324 0.00782788
0 0.274067 0
0 0.282795 0
0 0.291539 0
0 0.300267 0
0.00970474 0.30901 0
0.0267033 0.317754 0
0.0437171 0.326482 0
0.0607156 0.335225 0
0.0777295 0.343969 0
0.094728 0.352697 0
0.111742 0.36144 0
0.12874 0.370169 0
0.145739 0.378912 0
0.162753 0.387655 0
0.179751 0.396384 0
0.196765 0.405127 0
0.213764 0.413855 0
0.230777 0.422599 0
0.247776 0.431342 0
0.264775 0.44007 0
0.281788 0.448814 0
0.298787 0.457557 0
0.315801 0.466285 0
0.332799 0.475029 0
0.349813 0.483757 0
0.366812 0.4925 0
0 0.248386 0.252155
0 0.25713 0.217456
0 0.265858 0.182742
0 0.274601 0.148013
0 0.28333 0.113298
0 0.292073 0.0785687
0 0.300816 0.0438544
0 0.309545 0.0091249
0 0.318288 0
0 0.327016 0
0 0.33576 0
0 0.344503 0
0 0.353231 0
0.0141604 0.361975 0
0.0311589 0.370718 0
0.0481727 0.379446 0
0.0651713 0.38819 0
0.0821698 0.396918 0
0.0991836 0.405661 0
0.116182 0.414405 0
0.133196 0.423133 0
0.150195 0.431876 0
0.167208 0.440604 0
0.184207 0.449348 0
0.201205 0.458091 0
0.218219 0.466819 0
0.235218 0.475563 0
0.252232 0.484306 0
0.26923 0.493034 0
0.286244 0.501778 0
0.303243 0.510506 0
0.320241 0.519249 0
0.337255 0.527993 0
0 0.283879 0.288182
0 0.292607 0.253483
0 0.30135 0.218753
0 0.310079 0.184039
0 0.318822 0.149325
0 0.327565 0.114595
0 0.336294 0.079881
0 0.345037 0.0451514
0 0.35378 0.0104372
0 0.362509 0
0 0.371252 0
0 0.37998 0
0 0.388724 0
0 0.397467 0
0.0016022 0.406195 0
0.0186007 0.414939 0
0.0356146 0.423667 0
0.0526131 0.43241 0
0.0696269 0.441154 0
0.0866255 0.449882 0
0.103639 0.458625 0
0.120638 0.467369 0
0.137636 0.476097 0
0.15465 0.48484 0
0.171649 0.493568 0
0.188663 0.502312 0
0.205661 0.511055 0
0.222675 0.519783 0
0.239673 0.528527 0
0.256672 0.537255 0
0.273686 0.545998 0
0.290684 0.554742 0
0.307698 0.56347 0
0 0.319356 0.324208
0 0.328099 0.289509
0 0.336828 0.25478
0 0.345571 0.220066
0 0.354314 0.185336
0 0.363043 0.150622
0 0.371786 0.115908
0 0.380529 0.081178
0 0.389258 0.0464637
0 0.398001 0.0117342
0 0.406729 0
0 0.415473 0
0 0.424216 0
0 0.432944 0
0 0.441688 0
0 0.450416 0
0.00605783 0.459159 0
0.0230564 0.467903 0
0.0400702 0.476631 0
0.0570687 0.485374 0
0.0740673 0.494118 0
0.0910811 0.502846 0
0.10808 0.511589 0
0.125093 0.520317 0
0.142092 0.529061 0
0.159091 0.537804 0
0.176104 0.546532 0
0.193103 0.555276 0
0.210117 0.564004 0
0.227115 0.572747 0
0.244129 0.581491 0
0.261128 0.590219 0
0.278126 0.598962 0
0 0.354849 0.360235
0 0.363577 0.325536
0 0.37232 0.290806
0 0.381064 0.256092
0 0.389792 0.221363
0 0.398535 0.186648
0 0.407279 0.151934
0 0.416007 0.117205
0 0.42475 0.0824903
0 0.433478 0.0477607
0 0.442222 0.0130465
0 0.450965 0
0 0.459693 0
0 0.468437 0
0 0.477165 0
0 0.485908 0
0 0.494652 0
0 0.50338 0
0.0104982 0.512123 0
0.027512 0.520867 0
0.0445106 0.529595 0
0.0615244 0.538338 0
0.0785229 0.547066 0
0.0955215 0.55581 0
0.112535 0.564553 0
0.129534 0.573281 0
0.146548 0.582025 0
0.163546 0.590753 0
0.18056 0.599496 0
0.197559 0.60824 0
0.214557 0.616968 0
0.231571 0.625711 0
0.248569 0.634455 0
0 0.390341 0.396262
0 0.399069 0.361563
0 0.407813 0.326833
0 0.416541 0.292119
0 0.425284 0.257389
0 0.434028 0.222675
0 0.442756 0.187945
0 0.451499 0.153231
0 0.460227 0.118517
0 0.468971 0.0837873
0 0.477714 0.049073
0 0.486442 0.0143435
0 0.495186 0
0 0.503914 0
0 0.512657 0
0 0.521401 0
0 0.530129 0
0 0.538872 0
0 0.547616 0
0 0.556344 0
0.0149538 0.565087 0
0.0319524 0.573816 0
0.0489662 0.582559 0
0.0659648 0.591302 0
0.0829786 0.600031 0
0.0999771 0.608774 0
0.116991 0.617502 0
0.133989 0.626245 0
0.150988 0.634989 0
0.168002 0.643717 0
0.185 0.652461 0
0.202014 0.661204 0
0.219013 0.669932 0
0 0.425818 0.432288
0 0.434562 0.397589
0 0.44329 0.36286
0 0.452033 0.328145
0 0.460777 0.293416
0 0.469505 0.258701
0 0.478248 0.223972
0 0.486976 0.189258
0 0.49572 0.154528
0 0.504463 0.119814
0 0.513191 0.0850996
0 0.521935 0.05037
0 0.530663 0.0156558
0 0.539406 0
0 0.54815 0
0 0.556878 0
0 0.565621 0
0 0.574365 0
0 0.583093 0
0 0.591836 0
0 0.600565 0
0.00239567 0.609308 0
0.0194095 0.618051 0
0.036408 0.62678 0
0.0534218 0.635523 0
0.0704204 0.644251 0
0.0874189 0.652995 0
0.104433 0.661738 0
0.121431 0.670466 0
0.138445 0.67921 0
0.155444 0.687953 0
0.172457 0.696681 0
0.189456 0.705425 0
0 0.461311 0.468315
0 0.470039 0.433616
0 0.478782 0.398886
0 0.487526 0.364172
0 0.496254 0.329442
0 0.504997 0.294728
0 0.513726 0.259998
0 0.522469 0.225284
0 0.531212 0.190555
0 0.53994 0.15584
0 0.548684 0.121126
0 0.557412 0.0863966
0 0.566155 0.0516823
0 0.574899 0.0169528
0 0.583627 0
0 0.592371 0
0 0.601114 0
0 0.609842 0
0 0.618585 0
0 0.627314 0
0 0.636057 0
0 0.6448 0
0 0.653529 0
0.0068513 0.662272 0
0.0238499 0.671 0
0.0408637 0.679744 0
0.0578622 0.688487 0
0.074876 0.697215 0
0.0918746 0.705959 0
0.108888 0.714702 0
0.125887 0.72343 0
0.142885 0.732174 0
0.159899 0.740902 0
0 0.496803 0.504341
0 0.505531 0.469627
0 0.514275 0.434913
0 0.523003 0.400198
0 0.531746 0.365469
0 0.540475 0.330755
0 0.549218 0.296025
0 0.557961 0.261311
0 0.56669 0.226581
0 0.575433 0.191867
0 0.584161 0.157137
0 0.592905 0.122423
0 0.601648 0.0877089
0 0.610376 0.0529793
0 0.61912 0.018265
0 0.627863 0
0 0.636591 0
0 0.645335 0
0 0.654063 0
0 0.662806 0
0 0.67155 0
0 0.680278 0
0 0.689021 0
0 0.697749 0
0 0.706493 0
0.0113069 0.715236 0
0.0283055 0.723964 0
0.045304 0.732708 0
0.0623178 0.741451 0
0.0793164 0.750179 0
0.0963302 0.758923 0
0.113329 0.767651 0
0.130343 0.776394 0
0 0.53228 0.540368
0 0.541024 0.505653
0 0.549752 0.470939
0 0.558495 0.43621
0 0.567224 0.401495
0 0.575967 0.366781
0 0.58471 0.332052
0 0.593439 0.297337
0 0.602182 0.262608
0 0.61091 0.227893
0 0.619654 0.193164
0 0.628397 0.15845
0 0.637125 0.12372
0 0.645869 0.0890059
0 0.654612 0.0542916
0 0.66334 0.0195621
0 0.672084 0
0 0.680812 0
0 0.689555 0
0 0.698299 0
0 0.707027 0
0 0.71577 0
0 0.724498 0
0 0.733242 0
0 0.741985 0
0 0.750713 0
0 0.759457 0
0.0157473 0.7682 0
0.0327611 0.776928 0
0.0497597 0.785672 0
0.0667735 0.7944 0
0.083772 0.803143 0
0.100771 0.811887 0
0 0.567773 0.576394
0 0.576501 0.54168
0 0.585245 0.506966
0 0.593973 0.472236
0 0.602716 0.437522
0 0.61146 0.402808
0 0.620188 0.368078
0 0.628931 0.333364
0 0.637659 0.298634
0 0.646403 0.26392
0 0.655146 0.229191
0 0.663874 0.194476
0 0.672618 0.159747
0 0.681361 0.125032
0 0.690089 0.0903182
0 0.698833 0.0555886
0 0.707561 0.0208743
0 0.716304 0
0 0.725048 0
0 0.733776 0
0 0.742519 0
0 0.751247 0
0 0.759991 0
0 0.768734 0
0 0.777462 0
0 0.786206 0
0 0.794949 0
0 0.803677 0
0.00320439 0.812421 0
0.0202029 0.821149 0
0.0372015 0.829892 0
0.0542153 0.838636 0
0.0712139 0.847364 0
0 0.60325 0.612421
0 0.611994 0.577707
0 0.620722 0.542992
0 0.629465 0.508263
0 0.638209 0.473548
0 0.646937 0.438819
0 0.65568 0.404105
0 0.664408 0.36939
0 0.673152 0.334661
0 0.681895 0.299947
0 0.690623 0.265217
0 0.699367 0.230503
0 0.70811 0.195773
0 0.716838 0.161059
0 0.725582 0.126329
0 0.73431 0.0916152
0 0.743053 0.0569009
0 0.751797 0.0221714
0 0.760525 0
0 0.769268 0
0 0.777996 0
0 0.78674 0
0 0.795483 0
0 0.804211 0
0 0.812955 0
0 0.821698 0
0 0.830427 0
0 0.83917 0
0 0.847898 0
0 0.856641 0
0.00764477 0.865385 0
0.0246586 0.874113 0
0.0416571 0.882856 0
0 0.638743 0.648432
0 0.647471 0.613733
0 0.656214 0.579019
0 0.664958 0.544289
0 0.673686 0.509575
0 0.682429 0.474845
0 0.691173 0.440131
0 0.699901 0.405402
0 0.708644 0.370687
0 0.717372 0.335973
0 0.726116 0.301244
0 0.734859 0.266529
0 0.743587 0.2318
0 0.752331 0.197086
0 0.761059 0.162356
0 0.769802 0.127642
0 0.778546 0.0929122
0 0.787274 0.0581979
0 0.796017 0.0234836
0 0.804761 0
0 0.813489 0
0 0.822232 0
0 0.830961 0
0 0.839704 0
0 0.848447 0
0 0.857176 0
0 0.865919 0
0 0.874647 0
0 0.883391 0
0 0.892134 0
0 0.900862 0
0 0.909606 0
0.0121004 0.918349 0
0 0.674235 0.684459
0 0.682963 0.64976
0 0.691707 0.615045
0 0.700435 0.580316
0 0.709178 0.545602
0 0.717922 0.510872
0 0.72665 0.476158
0 0.735393 0.441428
0 0.744121 0.406714
0 0.752865 0.372
0 0.761608 0.33727
0 0.770336 0.302556
0 0.77908 0.267826
0 0.787808 0.233112
0 0.796551 0.198383
0 0.805295 0.163668
0 0.814023 0.128939
0 0.822766 0.0942245
0 0.83151 0.0595102
0 0.840238 0.0247807
0 0.848981 0
0 0.85771 0
0 0.866453 0
0 0.875196 0
0 0.883925 0
0 0.892668 0
0 0.901396 0
0 0.91014 0
0 0.918883 0
0 0.927611 0
0 0.936355 0
0 0.945098 0
0 0.953826 0
0 0.709712 0.720485
0 0.718456 0.685786
0 0.727184 0.651072
0 0.735927 0.616342
0 0.744671 0.581628
0 0.753399 0.546899
0 0.762142 0.512184
0 0.770871 0.477455
0 0.779614 0.442741
0 0.788357 0.408011
0 0.797086 0.373297
0 0.805829 0.338582
0 0.814557 0.303853
0 0.823301 0.269139
0 0.832044 0.234409
0 0.840772 0.199695
0 0.849515 0.164965
0 0.858259 0.130251
0 0.866987 0.0955215
0 0.875731 0.0608072
0 0.884459 0.0260929
0 0.893202 0
0 0.901946 0
0 0.910674 0
0 0.919417 0
0 0.928145 0
0 0.936889 0
0 0.945632 0
0 0.95436 0
0 0.963104 0
0 0.971847 0
0 0.980575 0
0 0.989319 0
0 0.745205 0.756512
0 0.753933 0.721813
0 0.762676 0.687083
0 0.77142 0.652369
0 0.780148 0.617655
0 0.788891 0.582925
0 0.79762 0.548211
0 0.806363 0.513481
0 0.815106 0.478767
0 0.823835 0.444038
0 0.832578 0.409323
0 0.841306 0.374594
0 0.85005 0.339879
0 0.858793 0.305165
0 0.867521 0.270436
0 0.876265 0.235721
0 0.885008 0.200992
0 0.893736 0.166278
0 0.90248 0.131548
0 0.911208 0.0968338
0 0.919951 0.0621042
0 0.928695 0.0273899
0 0.937423 0
0 0.946166 0
0 0.954894 0
0 0.963638 0
0 0.972381 0
0 0.981109 0
0 0.989853 0
0 0.998596 0
0 1 0
0 1 0
0 1 0
0 0.780697 0.792538
0 0.789425 0.757839
0 0.798169 0.72311
0 0.806897 0.688396
0 0.815641 0.653681
0 0.824369 0.618952
0 0.833112 0.584237
0 0.841856 0.549508
0 0.850584 0.514794
0 0.859327 0.480064
0 0.868055 0.44535
0 0.876799 0.41062
0 0.885542 0.375906
0 0.89427 0.341192
0 0.903014 0.306462
0 0.911757 0.271748
0 0.920485 0.237018
0 0.929229 0.202304
0 0.937957 0.167575
0 0.9467 0.13286
0 0.955444 0.0981308
0 0.964172 0.0634165
0 0.972915 0.028687
0 0.981643 0
0 0.990387 0
0 0.99913 0
0 1 0
0 1 0
0 1 0
0 1 0
0 1 0
0 1 0
0 1 0
0 0.816175 0.828565
0 0.824918 0.793866
0 0.833646 0.759136
0 0.84239 0.724422
0 0.851118 0.689693
0 0.859861 0.654978
0 0.868605 0.620264
0 0.877333 0.585534
0 0.886076 0.55082
0 0.894804 0.516091
0 0.903548 0.481376
0 0.912291 0.446647
0 0.921019 0.411933
0 0.929763 0.377203
0 0.938506 0.342489
0 0.947234 0.307774
0 0.955978 0.273045
0 0.964706 0.238331
0 0.973449 0.203601
0 0.982193 0.168887
0 0.990921 0.134157
0 0.999664 0.099443
0 1 0.0647135
0 1 0.0299992
0 1 0
0 1 0
0 1 0
0 1 0
0 1 0
0 1 0
0 1 0
0 1 0
0 1 0
0 0.851667 0.864591
0 0.860395 0.829892
0 0.869139 0.795163
0 0.877867 0.760449
0 0.88661 0.725719
0 0.895354 0.691005
0 0.904082 0.656275
0 0.912825 0.621561
0 0.921553 0.586847
0 0.930297 0.552117
0 0.93904 0.517403
0 0.947768 0.482673
0 0.956512 0.447959
0 0.965255 0.41323
0 0.973983 0.378515
0 0.982727 0.343786
0 0.991455 0.309071
0 1 0.274357
0 1 0.239628
0 1 0.204913
0 1 0.170184
0 1 0.13547
0 1 0.10074
0 1 0.0660258
0 1 0.0312963
0 1 0
0 1 0
0 1 0
0 1 0
0 1 0
0 1 0
0 1 0
0 1 0
0 0.887144 0.900618
0 0.895888 0.865919
0 0.904616 0.831189
0 0.913359 0.796475
0 0.922103 0.761746
0 0.930831 0.727031
0 0.939574 0.692302
0 0.948302 0.657588
0 0.957046 0.622858
0 0.965789 0.588144
0 0.974517 0.553429
0 0.983261 0.5187
0 0.992004 0.483986
0 1 0.449256
0 1 0.414542
0 1 0.379812
0 1 0.345098
0 1 0.310369
0 1 0.275654
0 1 0.24094
0 1 0.20621
0 1 0.171496
0 1 0.136767
0 1 0.102052
0 1 0.0673228
0 1 0.0326085
0 1 0
0 1 0
0 1 0
0 1 0
0 1 0
0 1 0
0 1 0
0 0.922637 0.936645
0 0.931365 0.901946
0 0.940108 0.867216
0 0.948852 0.832502
0 0.95758 0.797772
0 0.966323 0.763058
0 0.975052 0.728328
0 0.983795 0.693614
0 0.992538 0.658885
0 1 0.62417
0 1 0.589456
0 1 0.554726
0 1 0.520012
0 1 0.485283
0 1 0.450568
0 1 0.415839
0 1 0.381125
0 1 0.346395
0 1 0.311681
0 1 0.276967
0 1 0.242237
0 1 0.207523
0 1 0.172793
0 1 0.138079
0 1 0.103349
0 1 0.0686351
0 1 0.0339055
0 1 0
0 1 0
0 1 0
0 1 0
0 1 0
0 1 0
0 0.958129 0.972671
0 0.966857 0.937957
0 0.975601 0.903243
0 0.984329 0.868528
0 0.993072 0.833799
0 1 0.799084
0 1 0.764355
0 1 0.729641
0 1 0.694911
