public/LUTS/Color Shift/ColorShift_07.cube
TITLE "Generated by Resolve"
LUT_3D_SIZE 33
0 0 0
0 0.0147402 0
0 0.0294957 0
0 0.0442359 0
0 0.0589914 0
0 0.0737469 0
0 0.0884871 0
0 0.103243 0
0 0.117983 0
0 0.132738 0
0 0.147494 0
0 0.162234 0
0 0.176989 0
0 0.19173 0
0 0.206485 0
0 0.221241 0
0 0.235981 0
0 0.250736 0
0 0.265476 0
0 0.280232 0
0 0.294987 0
0 0.309728 0
0 0.324483 0
0 0.339223 0
0 0.353979 0
0 0.368734 0
0 0.383474 0
0 0.39823 0
0 0.41297 0
0 0.427726 0
0 0.442481 0
0 0.457221 0
0 0.471977 0
0.0204318 0.0183566 0.0525216
0.0053254 0.0330968 0.0460059
0 0.047837 0.0394903
0 0.0625925 0.0329747
0 0.077348 0.0264591
0 0.0920882 0.0199435
0 0.106844 0.0134127
0 0.121584 0.00689708
0 0.136339 0.000381476
0 0.151095 0
0 0.165835 0
0 0.180591 0
0 0.195331 0
0 0.210086 0
0 0.224842 0
0 0.239582 0
0 0.254337 0
0 0.269078 0
0 0.283833 0
0 0.298589 0
0 0.313329 0
0 0.328084 0
0 0.342824 0
0 0.35758 0
0 0.372335 0
0 0.387076 0
0 0.401831 0
0 0.416587 0
0 0.431327 0
0 0.446082 0
0 0.460822 0
0 0.475578 0
0 0.490333 0
0.0408789 0.0367132 0.105058
0.0257725 0.0514534 0.0985428
0.0106508 0.0662089 0.0920272
0 0.0809491 0.0855116
0 0.0957046 0.078996
0 0.11046 0.0724804
0 0.1252 0.0659648
0 0.139956 0.0594492
0 0.154696 0.0529335
0 0.169451 0.0464179
0 0.184207 0.0399023
0 0.198947 0.0333715
0 0.213703 0.0268559
0 0.228443 0.0203403
0 0.243198 0.0138247
0 0.257954 0.00730907
0 0.272694 0.000793469
0 0.287449 0
0 0.30219 0
0 0.316945 0
0 0.331701 0
0 0.346441 0
0 0.361196 0
0 0.375937 0
0 0.390692 0
0 0.405447 0
0 0.420188 0
0 0.434943 0
0 0.449683 0
0 0.464439 0
0 0.479194 0
0 0.493935 0
0 0.50869 0
0.0613413 0.0550698 0.157595
0.0462196 0.06981 0.15108
0.0310979 0.0845655 0.144564
0.0159762 0.099321 0.138048
0.000854505 0.114061 0.131533
0 0.128817 0.125017
0 0.143557 0.118502
0 0.158312 0.111986
0 0.173068 0.10547
0 0.187808 0.0989548
0 0.202564 0.0924392
0 0.217304 0.0859236
0 0.232059 0.079408
0 0.246815 0.0728923
0 0.261555 0.0663767
0 0.27631 0.0598611
0 0.291051 0.0533303
0 0.305806 0.0468147
0 0.320562 0.0402991
0 0.335302 0.0337835
0 0.350057 0.0272679
0 0.364797 0.0207523
0 0.379553 0.0142367
0 0.394308 0.00772107
0 0.409049 0.00120546
0 0.423804 0
0 0.438544 0
0 0.4533 0
0 0.468055 0
0 0.482795 0
0 0.497551 0
0 0.512291 0
0 0.527047 0
0.0817884 0.0734417 0.210132
0.0666667 0.0881819 0.203632
0.051545 0.102922 0.197101
0.0364233 0.117678 0.190585
0.0213016 0.132418 0.18407
0.0061799 0.147173 0.177554
0 0.161929 0.171038
0 0.176669 0.164523
0 0.191424 0.158007
0 0.20618 0.151492
0 0.22092 0.144976
0 0.235676 0.13846
0 0.250416 0.131945
0 0.265171 0.125429
0 0.279927 0.118914
0 0.294667 0.112398
0 0.309422 0.105882
0 0.324163 0.0993668
0 0.338918 0.0928511
0 0.353674 0.0863355
0 0.368414 0.0798199
0 0.383169 0.0732891
0 0.39791 0.0667735
0 0.412665 0.0602579
0 0.42742 0.0537423
0 0.442161 0.0472267
0 0.456916 0.0407111
0 0.471656 0.0341955
0 0.486412 0.0276799
0 0.501167 0.0211643
0 0.515908 0.0146487
0 0.530663 0.00813306
0 0.545403 0.00161746
0.102235 0.0917983 0.262684
0.0871138 0.106538 0.256168
0.0719921 0.121294 0.249653
0.0568704 0.136034 0.243137
0.0417487 0.15079 0.236622
0.026627 0.16553 0.230106
0.0115053 0.180285 0.22359
0 0.195041 0.21706
0 0.209781 0.210544
0 0.224537 0.204028
0 0.239277 0.197513
0 0.254032 0.190997
0 0.268788 0.184482
0 0.283528 0.177966
0 0.298283 0.17145
0 0.313024 0.164935
0 0.327779 0.158419
0 0.342535 0.151904
0 0.357275 0.145388
0 0.37203 0.138872
0 0.38677 0.132357
0 0.401526 0.125841
0 0.416281 0.119326
0 0.431022 0.11281
0 0.445777 0.106294
0 0.460517 0.0997787
0 0.475273 0.0932479
0 0.490028 0.0867323
0 0.504768 0.0802167
0 0.519524 0.0737011
0 0.534264 0.0671855
0 0.54902 0.0606699
0 0.563775 0.0541543
0.122683 0.110155 0.315221
0.107561 0.124895 0.308705
0.0924392 0.139651 0.30219
0.0773175 0.154391 0.295674
0.0621958 0.169146 0.289158
0.0470741 0.183902 0.282643
0.0319524 0.198642 0.276127
0.0168307 0.213397 0.269612
0.00170901 0.228138 0.263096
0 0.242893 0.25658
0 0.257649 0.250065
0 0.272389 0.243549
0 0.287144 0.237018
0 0.301885 0.230503
0 0.31664 0.223987
0 0.331395 0.217472
0 0.346136 0.210956
0 0.360891 0.20444
0 0.375647 0.197925
0 0.390387 0.191409
0 0.405142 0.184894
0 0.419883 0.178378
0 0.434638 0.171862
0 0.449393 0.165347
0 0.464134 0.158831
0 0.478889 0.152316
0 0.493629 0.1458
0 0.508385 0.139284
0 0.52314 0.132769
0 0.537881 0.126253
0 0.552636 0.119738
0 0.567376 0.113207
0 0.582132 0.106691
0.14313 0.128511 0.367758
0.128008 0.143267 0.361242
0.112886 0.158007 0.354726
0.0977646 0.172763 0.348211
0.0826429 0.187503 0.341695
0.0675212 0.202258 0.33518
0.0523995 0.217014 0.328664
0.0372778 0.231754 0.322148
0.0221561 0.246509 0.315633
0.00703441 0.26125 0.309117
0 0.276005 0.302602
0 0.290761 0.296086
0 0.305501 0.28957
0 0.320256 0.283055
0 0.334997 0.276539
0 0.349752 0.270024
0 0.364508 0.263508
0 0.379248 0.256977
0 0.394003 0.250462
0 0.408743 0.243946
0 0.423499 0.23743
0 0.438254 0.230915
0 0.452995 0.224399
0 0.46775 0.217884
0 0.48249 0.211368
0 0.497246 0.204852
0 0.512001 0.198337
0 0.526741 0.191821
0 0.541497 0.185306
0 0.556237 0.17879
0 0.570993 0.172274
0 0.585748 0.165759
0 0.600488 0.159243
0.163577 0.146883 0.420294
0.148455 0.161624 0.413794
0.133333 0.176364 0.407279
0.118212 0.191119 0.400748
0.10309 0.205875 0.394232
0.0879683 0.220615 0.387717
0.0728466 0.23537 0.381201
0.0577249 0.250111 0.374685
0.0426032 0.264866 0.36817
0.0274968 0.279622 0.361654
0.0123751 0.294362 0.355138
0 0.309117 0.348623
0 0.323857 0.342107
0 0.338613 0.335592
0 0.353368 0.329076
0 0.368109 0.32256
0 0.382864 0.316045
0 0.397604 0.309529
0 0.41236 0.303014
0 0.427115 0.296498
0 0.441855 0.289982
0 0.456611 0.283467
0 0.471351 0.276936
0 0.486107 0.27042
0 0.500862 0.263905
0 0.515602 0.257389
0 0.530358 0.250874
0 0.545113 0.244358
0 0.559853 0.237842
0 0.574609 0.231327
0 0.589349 0.224811
0 0.604105 0.218296
0 0.61886 0.21178
0.184024 0.16524 0.472847
0.168902 0.17998 0.466331
0.15378 0.194736 0.459815
0.138659 0.209476 0.4533
0.123537 0.224231 0.446784
0.108415 0.238987 0.440269
0.0932937 0.253727 0.433753
0.0781872 0.268482 0.427237
0.0630655 0.283223 0.420706
0.0479438 0.297978 0.414191
0.0328222 0.312734 0.407675
0.0177005 0.327474 0.40116
0.00257877 0.342229 0.394644
0 0.35697 0.388128
0 0.371725 0.381613
0 0.386481 0.375097
0 0.401221 0.368582
0 0.415976 0.362066
0 0.430716 0.35555
0 0.445472 0.349035
0 0.460227 0.342519
0 0.474968 0.336004
0 0.489723 0.329488
0 0.504463 0.322972
0 0.519219 0.316457
0 0.533974 0.309941
0 0.548714 0.303426
0 0.56347 0.296895
0 0.57821 0.290379
0 0.592966 0.283864
0 0.607721 0.277348
0 0.622461 0.270832
0 0.637217 0.264317
0.204471 0.183597 0.525383
0.189349 0.198337 0.518868
0.174228 0.213092 0.512352
0.159106 0.227848 0.505837
0.143999 0.242588 0.499321
0.128878 0.257343 0.492805
0.113756 0.272084 0.48629
0.0986343 0.286839 0.479774
0.0835126 0.301595 0.473259
0.0683909 0.316335 0.466743
0.0532692 0.33109 0.460227
0.0381476 0.34583 0.453712
0.0230259 0.360586 0.447196
0.00790417 0.375341 0.440665
0 0.390082 0.43415
0 0.404837 0.427634
0 0.419577 0.421118
0 0.434333 0.414603
0 0.449088 0.408087
0 0.463828 0.401572
0 0.478584 0.395056
0 0.493324 0.38854
0 0.50808 0.382025
0 0.522835 0.375509
0 0.537575 0.368994
0 0.552331 0.362478
0 0.567071 0.355962
0 0.581827 0.349447
0 0.596582 0.342931
0 0.611322 0.336416
0 0.626078 0.3299
0 0.640818 0.323384
0 0.655573 0.316854
0.224918 0.201968 0.57792
0.209812 0.216709 0.571405
0.19469 0.231449 0.564889
0.179568 0.246204 0.558373
0.164446 0.260945 0.551858
0.149325 0.2757 0.545342
0.134203 0.290455 0.538827
0.119081 0.305196 0.532311
0.10396 0.319951 0.525795
0.088838 0.334707 0.51928
0.0737163 0.349447 0.512764
0.0585946 0.364202 0.506249
0.043473 0.378943 0.499733
0.0283513 0.393698 0.493217
0.0132296 0.408453 0.486702
0 0.423194 0.480186
0 0.437949 0.473671
0 0.452689 0.467155
0 0.467445 0.460624
0 0.4822 0.454109
0 0.496941 0.447593
0 0.511696 0.441077
0 0.526436 0.434562
0 0.541192 0.428046
0 0.555947 0.42153
0 0.570687 0.415015
0 0.585443 0.408499
0 0.600183 0.401984
0 0.614939 0.395468
0 0.629694 0.388952
0 0.644434 0.382437
0 0.65919 0.375921
0 0.67393 0.369406
0.245365 0.220325 0.630457
0.230259 0.235065 0.623957
0.215137 0.249821 0.617441
0.200015 0.264561 0.610925
0.184894 0.279316 0.604395
0.169772 0.294057 0.597879
0.15465 0.308812 0.591363
0.139528 0.323568 0.584848
0.124407 0.338308 0.578332
0.109285 0.353063 0.571817
0.0941634 0.367803 0.565301
0.0790417 0.382559 0.558785
0.06392 0.397314 0.55227
0.0487984 0.412055 0.545754
0.0336767 0.42681 0.539239
0.018555 0.44155 0.532723
0.00343328 0.456306 0.526207
0 0.471061 0.519692
0 0.485801 0.513176
0 0.500557 0.506661
0 0.515297 0.500145
0 0.530053 0.493629
0 0.544808 0.487114
0 0.559548 0.480583
0 0.574304 0.474067
0 0.589044 0.467552
0 0.6038 0.461036
0 0.618555 0.45452
0 0.633295 0.448005
0 0.648051 0.441489
0 0.662791 0.434974
0 0.677546 0.428458
0 0.692302 0.421942
0.265812 0.238682 0.683009
0.250706 0.253422 0.676493
0.235584 0.268177 0.669978
0.220462 0.282918 0.663462
0.205341 0.297673 0.656947
0.190219 0.312428 0.650431
0.175097 0.327169 0.643915
0.159976 0.341924 0.6374
0.144854 0.356664 0.630884
0.129732 0.37142 0.624353
0.114611 0.386175 0.617838
0.0994888 0.400916 0.611322
0.0843671 0.415671 0.604807
0.0692454 0.430411 0.598291
0.0541238 0.445167 0.591775
0.0390021 0.459922 0.58526
0.0238804 0.474662 0.578744
0.00875868 0.489418 0.572229
0 0.504173 0.565713
0 0.518914 0.559197
0 0.533669 0.552682
0 0.548409 0.546166
0 0.563165 0.539651
0 0.57792 0.533135
0 0.59266 0.526619
0 0.607416 0.520104
0 0.622156 0.513588
0 0.636912 0.507073
0 0.651667 0.500542
0 0.666407 0.494026
0 0.681163 0.487511
0 0.695903 0.480995
0 0.710658 0.474479
0.286259 0.257038 0.735546
0.271153 0.271794 0.72903
0.256031 0.286534 0.722515
0.240909 0.301289 0.715999
0.225788 0.31603 0.709484
0.210666 0.330785 0.702968
0.195544 0.345541 0.696452
0.180423 0.360281 0.689937
0.165301 0.375036 0.683421
0.150179 0.389776 0.676905
0.135058 0.404532 0.67039
0.119936 0.419287 0.663874
0.104814 0.434028 0.657359
0.0896925 0.448783 0.650843
0.0745708 0.463523 0.644312
0.0594492 0.478279 0.637797
0.0443275 0.493034 0.631281
0.0292058 0.507774 0.624765
0.0140841 0.52253 0.61825
0 0.53727 0.611734
0 0.552026 0.605219
0 0.566781 0.598703
0 0.581521 0.592187
0 0.596277 0.585672
0 0.611017 0.579156
0 0.625772 0.572641
0 0.640528 0.566125
0 0.655268 0.559609
0 0.670024 0.553094
0 0.684764 0.546578
0 0.699519 0.540063
0 0.714275 0.533547
0 0.729015 0.527031
0.306706 0.27541 0.788083
0.2916 0.29015 0.781567
0.276478 0.304891 0.775051
0.261357 0.319646 0.768536
0.246235 0.334401 0.76202
0.231113 0.349142 0.755505
0.215991 0.363897 0.748989
0.20087 0.378637 0.742473
0.185748 0.393393 0.735958
0.170626 0.408148 0.729442
0.155505 0.422889 0.722927
0.140383 0.437644 0.716411
0.125261 0.452384 0.709895
0.11014 0.46714 0.70338
0.0950179 0.481895 0.696864
0.0798962 0.496635 0.690349
0.0647746 0.511391 0.683833
0.0496529 0.526131 0.677317
0.0345312 0.540887 0.670802
0.0194095 0.555642 0.664271
0.00428779 0.570382 0.657755
0 0.585138 0.65124
0 0.599878 0.644724
0 0.614633 0.638209
0 0.629389 0.631693
0 0.644129 0.625177
0 0.658885 0.618662
0 0.67364 0.612146
0 0.68838 0.605631
0 0.703136 0.599115
0 0.717876 0.592599
0 0.732631 0.586084
0 0.747387 0.579568
0.327153 0.293767 0.840635
0.312047 0.308507 0.834119
0.296925 0.323262 0.827604
0.281804 0.338003 0.821088
0.266682 0.352758 0.814572
0.25156 0.367514 0.808042
0.236439 0.382254 0.801526
0.221317 0.397009 0.79501
0.206195 0.411749 0.788495
0.191073 0.426505 0.781979
0.175952 0.44126 0.775464
0.16083 0.456001 0.768948
0.145708 0.470756 0.762432
0.130587 0.485496 0.755917
0.115465 0.500252 0.749401
0.100343 0.515007 0.742885
0.0852216 0.529747 0.73637
0.0700999 0.544503 0.729854
0.0549783 0.559243 0.723339
0.0398566 0.573999 0.716823
0.0247349 0.588754 0.710307
0.00961318 0.603494 0.703792
0 0.61825 0.697276
0 0.63299 0.690761
0 0.647745 0.68423
0 0.662501 0.677714
0 0.677241 0.671199
0 0.691997 0.664683
0 0.706737 0.658167
0 0.721492 0.651652
0 0.736248 0.645136
0 0.750988 0.638621
0 0.765743 0.632105
0.347601 0.312123 0.893172
0.332494 0.326863 0.886656
0.317372 0.341619 0.88014
0.302251 0.356374 0.873625
0.287129 0.371115 0.867109
0.272007 0.38587 0.860594
0.256886 0.40061 0.854078
0.241764 0.415366 0.847562
0.226642 0.430121 0.841047
0.211521 0.444862 0.834531
0.196399 0.459617 0.828
0.181277 0.474357 0.821485
0.166155 0.489113 0.814969
0.151034 0.503868 0.808454
0.135912 0.518608 0.801938
0.12079 0.533364 0.795422
0.105669 0.548104 0.788907
0.090547 0.56286 0.782391
0.0754253 0.577615 0.775876
0.0603037 0.592355 0.76936
0.045182 0.607111 0.762844
0.0300603 0.621851 0.756329
0.0149386 0.636606 0.749813
0 0.651362 0.743297
0 0.666102 0.736782
0 0.680858 0.730266
0 0.695598 0.723751
0 0.710353 0.717235
0 0.725109 0.710719
0 0.739849 0.704189
0 0.754604 0.697673
0 0.769345 0.691157
0 0.7841 0.684642
0.368048 0.330495 0.945708
0.352941 0.345235 0.939193
0.337819 0.359976 0.932677
0.322698 0.374731 0.926162
0.307576 0.389471 0.919646
0.292454 0.404227 0.91313
0.277333 0.418982 0.906615
0.262211 0.433722 0.900099
0.247089 0.448478 0.893584
0.231968 0.463233 0.887068
0.216846 0.477974 0.880552
0.201724 0.492729 0.874037
0.186603 0.507469 0.867521
0.171481 0.522225 0.861006
0.156359 0.53698 0.85449
0.141238 0.55172 0.847959
0.126116 0.566476 0.841443
0.110994 0.581216 0.834928
0.0958724 0.595972 0.828412
0.0807507 0.610727 0.821897
0.0656291 0.625467 0.815381
0.0505074 0.640223 0.808865
0.0353857 0.654963 0.80235
0.020264 0.669718 0.795834
0.00514229 0.684474 0.789319
0 0.699214 0.782803
0 0.71397 0.776287
0 0.72871 0.769772
0 0.743465 0.763256
0 0.758221 0.756741
0 0.772961 0.750225
0 0.787717 0.743709
0 0.802457 0.737194
0.388495 0.348852 0.998245
0.373388 0.363592 0.99173
0.358267 0.378347 0.985214
0.343145 0.393088 0.978698
0.328023 0.407843 0.972183
0.312901 0.422583 0.965667
0.29778 0.437339 0.959152
0.282658 0.452094 0.952636
0.267536 0.466835 0.94612
0.252415 0.48159 0.939605
0.237293 0.49633 0.933089
0.222171 0.511086 0.926574
0.20705 0.525841 0.920058
0.191928 0.540581 0.913542
0.176806 0.555337 0.907027
0.161685 0.570077 0.900511
0.146563 0.584833 0.893996
0.131441 0.599588 0.88748
0.11632 0.614328 0.880964
0.101198 0.629084 0.874449
0.0860761 0.643824 0.867918
0.0709544 0.658579 0.861402
0.0558328 0.673335 0.854887
0.0407111 0.688075 0.848371
0.0255894 0.702831 0.841856
0.0104829 0.717571 0.83534
0 0.732326 0.828824
0 0.747082 0.822309
0 0.761822 0.815793
0 0.776577 0.809277
0 0.791318 0.802762
0 0.806073 0.796246
0 0.820829 0.789731
0.408957 0.367208 1
0.393835 0.381949 1
0.378714 0.396704 1
0.363592 0.411444 1
0.34847 0.4262 1
0.333349 0.440955 1
0.318227 0.455695 1
0.303105 0.470451 1
0.287984 0.485191 0.998657
0.272862 0.499947 0.992142
0.25774 0.514702 0.985626
0.242618 0.529442 0.97911
0.227497 0.544198 0.972595
0.212375 0.558938 0.966079
0.197253 0.573693 0.959564
0.182132 0.588449 0.953048
0.16701 0.603189 0.946532
0.151888 0.617945 0.940017
0.136767 0.6327 0.933501
0.121645 0.64744 0.926986
0.106523 0.662196 0.92047
0.0914015 0.676936 0.913954
0.0762951 0.691691 0.907439
0.0611734 0.706447 0.900923
0.0460517 0.721187 0.894408
0.03093 0.735943 0.887877
0.0158083 0.750683 0.881361
0.000686656 0.765438 0.874846
0 0.780194 0.86833
0 0.794934 0.861814
0 0.809689 0.855299
0 0.82443 0.848783
0 0.839185 0.842268
0.429404 0.385565 1
0.414282 0.40032 1
0.399161 0.415061 1
0.384039 0.429816 1
0.368917 0.444556 1
0.353796 0.459312 1
0.338674 0.474067 1
0.323552 0.488807 1
0.308431 0.503563 1
0.293309 0.518303 1
0.278187 0.533059 1
0.263066 0.547814 1
0.247944 0.562554 1
0.232822 0.57731 1
0.2177 0.59205 1
0.202579 0.606806 1
0.187457 0.621561 0.999069
0.172335 0.636301 0.992554
0.157214 0.651057 0.986038
0.142107 0.665797 0.979522
0.126986 0.680552 0.973007
0.111864 0.695308 0.966491
0.0967422 0.710048 0.959976
0.0816205 0.724804 0.95346
0.0664988 0.739544 0.946944
0.0513771 0.754299 0.940429
0.0362554 0.769055 0.933913
0.0211337 0.783795 0.927398
0.00601205 0.79855 0.920882
0 0.813291 0.914366
0 0.828046 0.907835
0 0.842802 0.90132
0 0.857542 0.894804
0.449851 0.403937 1
0.43473 0.418677 1
0.419608 0.433417 1
0.404486 0.448173 1
0.389364 0.462928 1
0.374243 0.477668 1
0.359121 0.492424 1
0.343999 0.507164 1
0.328878 0.52192 1
0.313756 0.536675 1
0.298634 0.551415 1
0.283513 0.566171 1
0.268391 0.580911 1
0.253269 0.595666 1
0.238148 0.610422 1
0.223026 0.625162 1
0.207904 0.639918 1
0.192798 0.654658 1
0.177676 0.669413 1
0.162554 0.684169 1
0.147433 0.698909 1
0.132311 0.713664 1
0.117189 0.728405 1
0.102068 0.74316 1
0.0869459 0.757916 0.999481
0.0718242 0.772656 0.992966
0.0567025 0.787411 0.98645
0.0415808 0.802167 0.979934
0.0264591 0.816907 0.973419
0.0113375 0.831662 0.966903
0 0.846403 0.960388
0 0.861158 0.953872
0 0.875914 0.947356
0.470298 0.422293 1
0.455177 0.437034 1
0.440055 0.451789 1
0.424933 0.466529 1
0.409812 0.481285 1
0.39469 0.49604 1
0.379568 0.510781 1
0.364446 0.525536 1
0.349325 0.540276 1
0.334203 0.555032 1
0.319081 0.569787 1
0.30396 0.584527 1
0.288838 0.599283 1
0.273716 0.614023 1
0.25861 0.628779 1
0.243488 0.643534 1
0.228367 0.658274 1
0.213245 0.67303 1
0.198123 0.68777 1
0.183001 0.702525 1
0.16788 0.717281 1
0.152758 0.732021 1
0.137636 0.746777 1
0.122515 0.761517 1
0.107393 0.776272 1
0.0922713 0.791028 1
0.0771496 0.805768 1
0.0620279 0.820523 1
0.0469062 0.835264 1
0.0317845 0.850019 1
0.0166629 0.864775 1
0.00154116 0.879515 1
0 0.89427 0.999893
0.490745 0.44065 1
0.475624 0.45539 1
0.460502 0.470146 1
0.44538 0.484901 1
0.430259 0.499641 1
0.415137 0.514397 1
0.400015 0.529137 1
0.384894 0.543893 1
0.369772 0.558648 1
0.35465 0.573388 1
0.339529 0.588144 1
0.324407 0.602884 1
0.3093 0.617639 1
0.294179 0.632395 1
0.279057 0.647135 1
0.263935 0.661891 1
0.248814 0.676631 1
0.233692 0.691386 1
0.21857 0.706142 1
0.203449 0.720882 1
0.188327 0.735637 1
0.173205 0.750378 1
0.158083 0.765133 1
0.142962 0.779889 1
0.12784 0.794629 1
0.112718 0.809384 1
0.0975967 0.824125 1
0.082475 0.83888 1
0.0673533 0.853635 1
0.0522316 0.868376 1
0.0371099 0.883131 1
0.0219883 0.897871 1
0.00686656 0.912627 1
0.511193 0.459022 1
0.496071 0.473762 1
0.480949 0.488502 1
0.465827 0.503258 1
0.450706 0.517998 1
0.435584 0.532753 1
0.420462 0.547509 1
0.405341 0.562249 1
0.390219 0.577005 1
0.375113 0.59176 1
0.359991 0.6065 1
0.344869 0.621256 1
0.329747 0.635996 1
0.314626 0.650752 1
0.299504 0.665507 1
0.284382 0.680247 1
0.269261 0.695003 1
0.254139 0.709743 1
0.239017 0.724498 1
0.223896 0.739254 1
0.208774 0.753994 1
0.193652 0.76875 1
0.178531 0.78349 1
0.163409 0.798245 1
0.148287 0.813001 1
0.133165 0.827741 1
0.118044 0.842496 1
0.102922 0.857237 1
0.0878004 0.871992 1
0.0726787 0.886748 1
0.057557 0.901488 1
0.0424353 0.916243 1
0.0273136 0.930983 1
0.53164 0.477378 1
0.516518 0.492119 1
0.501396 0.506874 1
0.486275 0.521614 1
0.471153 0.53637 1
0.456031 0.55111 1
0.440909 0.565866 1
0.425803 0.580621 1
0.410681 0.595361 1
0.39556 0.610117 1
0.380438 0.624857 1
0.365316 0.639612 1
0.350195 0.654368 1
0.335073 0.669108 1
0.319951 0.683864 1
0.304829 0.698604 1
0.289708 0.713359 1
0.274586 0.728115 1
0.259464 0.742855 1
0.244343 0.75761 1
0.229221 0.772351 1
0.214099 0.787106 1
0.198978 0.801862 1
0.183856 0.816602 1
0.168734 0.831357 1
0.153613 0.846098 1
0.138491 0.860853 1
0.123369 0.875608 1
0.108248 0.890349 1
0.0931258 0.905104 1
0.0780041 0.919844 1
0.0628824 0.9346 1
0.0477607 0.949355 1
0.552087 0.495735 1
0.536965 0.510475 1
0.521843 0.525231 1
0.506722 0.539971 1
0.491615 0.554726 1
0.476493 0.569482 1
0.461372 0.584222 1
0.44625 0.598978 1
0.431128 0.613718 1
