public/LUTS/Color Shift/ColorShift_17.cube
TITLE "Generated by Resolve"
LUT_3D_SIZE 33
0 0 0
0.0126955 0.00784314 0
0.0254063 0.0156863 0
0.038117 0.0235294 0
0.0508125 0.0313573 0
0.0635233 0.0392004 0
0.0762188 0.0470436 0
0.0889296 0.0548867 0
0.10164 0.0627298 0
0.114336 0.070573 0
0.127047 0.0784161 0
0.139757 0.0862593 0
0.152453 0.0941024 0
0.165164 0.101946 0
0.177874 0.109789 0
0.19057 0.117632 0
0.203281 0.125475 0
0.215976 0.133303 0
0.228687 0.141146 0
0.241398 0.148989 0
0.254093 0.156832 0
0.266804 0.164675 0
0.279515 0.172519 0
0.29221 0.180362 0
0.304921 0.188205 0
0.317632 0.196048 0
0.330327 0.203891 0
0.343038 0.211734 0
0.355734 0.219577 0
0.368444 0.22742 0
0.381155 0.235248 0
0.393851 0.243091 0
0.406561 0.250935 0
0 0.0298619 0.0301823
0.0043183 0.037705 0.0124666
0.0170291 0.0455482 0
0.0297398 0.0533913 0
0.0424353 0.0612345 0
0.0551461 0.0690776 0
0.0678416 0.0769207 0
0.0805524 0.0847639 0
0.0932631 0.092607 0
0.105959 0.100435 0
0.118669 0.108278 0
0.13138 0.116121 0
0.144076 0.123964 0
0.156786 0.131807 0
0.169497 0.139651 0
0.182193 0.147494 0
0.194903 0.155337 0
0.207599 0.16318 0
0.22031 0.171023 0
0.233021 0.178866 0
0.245716 0.186709 0
0.258427 0.194553 0
0.271138 0.20238 0
0.283833 0.210224 0
0.296544 0.218067 0
0.309255 0.22591 0
0.32195 0.233753 0
0.334661 0.241596 0
0.347356 0.249439 0
0.360067 0.257282 0
0.372778 0.265126 0
0.385473 0.272969 0
0.398184 0.280812 0
0 0.0597543 0.0603799
0 0.0675822 0.0426642
0.00865187 0.0754253 0.0249485
0.0213474 0.0832685 0.00723278
0.0340581 0.0911116 0
0.0467689 0.0989548 0
0.0594644 0.106798 0
0.0721752 0.114641 0
0.0848859 0.122484 0
0.0975814 0.130327 0
0.110292 0.13817 0
0.122988 0.146014 0
0.135698 0.153857 0
0.148409 0.161685 0
0.161105 0.169528 0
0.173816 0.177371 0
0.186526 0.185214 0
0.199222 0.193057 0
0.211933 0.2009 0
0.224643 0.208743 0
0.237339 0.216587 0
0.25005 0.22443 0
0.262745 0.232273 0
0.275456 0.240116 0
0.288167 0.247959 0
0.300862 0.255802 0
0.313573 0.26363 0
0.326284 0.271473 0
0.338979 0.279316 0
0.35169 0.28716 0
0.364401 0.295003 0
0.377096 0.302846 0
0.389807 0.310689 0
0 0.0896315 0.0905776
0 0.0974746 0.0728618
0.000274662 0.105318 0.0551461
0.0129702 0.113161 0.0374304
0.0256809 0.120989 0.0196994
0.0383764 0.128832 0.00198367
0.0510872 0.136675 0
0.063798 0.144518 0
0.0764935 0.152361 0
0.0892042 0.160204 0
0.101915 0.168048 0
0.114611 0.175891 0
0.127321 0.183734 0
0.140032 0.191577 0
0.152728 0.19942 0
0.165438 0.207263 0
0.178134 0.215106 0
0.190845 0.222934 0
0.203555 0.230777 0
0.216251 0.238621 0
0.228962 0.246464 0
0.241672 0.254307 0
0.254368 0.26215 0
0.267079 0.269993 0
0.279789 0.277836 0
0.292485 0.285679 0
0.305196 0.293523 0
0.317891 0.301366 0
0.330602 0.309209 0
0.343313 0.317052 0
0.356008 0.32488 0
0.368719 0.332723 0
0.38143 0.340566 0
0 0.119509 0.120775
0 0.127352 0.103075
0 0.135195 0.0853437
0.00459297 0.143038 0.067628
0.0173037 0.150881 0.049897
0.0299992 0.158724 0.0321813
0.04271 0.166567 0.0144656
0.0554055 0.174411 0
0.0681163 0.182239 0
0.080827 0.190082 0
0.0935225 0.197925 0
0.106233 0.205768 0
0.118944 0.213611 0
0.13164 0.221454 0
0.14435 0.229297 0
0.157061 0.23714 0
0.169757 0.244984 0
0.182467 0.252827 0
0.195163 0.26067 0
0.207874 0.268513 0
0.220584 0.276356 0
0.23328 0.284184 0
0.245991 0.292027 0
0.258701 0.29987 0
0.271397 0.307713 0
0.284108 0.315557 0
0.296818 0.3234 0
0.309514 0.331243 0
0.322225 0.339086 0
0.33492 0.346929 0
0.347631 0.354772 0
0.360342 0.362615 0
0.373037 0.370459 0
0 0.149401 0.150973
0 0.157229 0.133272
0 0.165072 0.115541
0 0.172915 0.0978256
0.00891127 0.180758 0.0800946
0.021622 0.188602 0.0623789
0.0343328 0.196445 0.0446632
0.0470283 0.204288 0.0269322
0.0597391 0.212131 0.00921645
0.0724498 0.219974 0
0.0851453 0.227817 0
0.0978561 0.23566 0
0.110552 0.243488 0
0.123262 0.251331 0
0.135973 0.259174 0
0.148669 0.267018 0
0.161379 0.274861 0
0.17409 0.282704 0
0.186786 0.290547 0
0.199496 0.29839 0
0.212207 0.306233 0
0.224903 0.314076 0
0.237613 0.32192 0
0.250309 0.329763 0
0.26302 0.337606 0
0.275731 0.345449 0
0.288426 0.353277 0
0.301137 0.36112 0
0.313848 0.368963 0
0.326543 0.376806 0
0.339254 0.384649 0
0.351965 0.392493 0
0.36466 0.400336 0
0 0.179278 0.181186
0 0.187121 0.16347
0 0.194965 0.145739
0 0.202792 0.128023
0.000534066 0.210636 0.110292
0.0132448 0.218479 0.0925765
0.0259403 0.226322 0.0748608
0.0386511 0.234165 0.0571298
0.0513619 0.242008 0.0394141
0.0640574 0.249851 0.0216831
0.0767681 0.257694 0.00396735
0.0894789 0.265538 0
0.102174 0.273381 0
0.114885 0.281224 0
0.127596 0.289067 0
0.140291 0.29691 0
0.153002 0.304753 0
0.165698 0.312581 0
0.178408 0.320424 0
0.191119 0.328267 0
0.203815 0.33611 0
0.216526 0.343954 0
0.229236 0.351797 0
0.241932 0.35964 0
0.254643 0.367483 0
0.267353 0.375326 0
0.280049 0.383169 0
0.29276 0.391012 0
0.305455 0.398856 0
0.318166 0.406699 0
0.330877 0.414527 0
0.343572 0.42237 0
0.356283 0.430213 0
0 0.209155 0.211383
0 0.216999 0.193668
0 0.224842 0.175937
0 0.232685 0.158221
0 0.240528 0.140505
0.00486763 0.248371 0.122774
0.0175631 0.256214 0.105058
0.0302739 0.264057 0.0873274
0.0429694 0.271885 0.0696117
0.0556802 0.279728 0.0518959
0.0683909 0.287572 0.034165
0.0810864 0.295415 0.0164492
0.0937972 0.303258 0
0.106508 0.311101 0
0.119203 0.318944 0
0.131914 0.326787 0
0.144625 0.33463 0
0.157321 0.342473 0
0.170031 0.350317 0
0.182742 0.35816 0
0.195438 0.366003 0
0.208148 0.373831 0
0.220844 0.381674 0
0.233555 0.389517 0
0.246265 0.39736 0
0.258961 0.405203 0
0.271672 0.413046 0
0.284382 0.42089 0
0.297078 0.428733 0
0.309789 0.436576 0
0.322499 0.444419 0
0.335195 0.452262 0
0.347906 0.460105 0
0 0.239048 0.241581
0 0.246876 0.223865
0 0.254719 0.206134
0 0.262562 0.188418
0 0.270405 0.170703
0 0.278248 0.152972
0.00918593 0.286091 0.135256
0.0218967 0.293935 0.117525
0.0345922 0.301778 0.0998093
0.047303 0.309621 0.0820935
0.0600137 0.317464 0.0643626
0.0727092 0.325307 0.0466468
0.08542 0.333135 0.0289158
0.0981155 0.340978 0.0112001
0.110826 0.348821 0
0.123537 0.356664 0
0.136233 0.364508 0
0.148943 0.372351 0
0.161654 0.380194 0
0.17435 0.388037 0
0.18706 0.39588 0
0.199771 0.403723 0
0.212467 0.411566 0
0.225177 0.419409 0
0.237873 0.427253 0
0.250584 0.43508 0
0.263294 0.442924 0
0.27599 0.450767 0
0.288701 0.45861 0
0.301411 0.466453 0
0.314107 0.474296 0
0.326818 0.482139 0
0.339529 0.489982 0
0 0.268925 0.271778
0 0.276768 0.254063
0 0.284611 0.236347
0 0.292439 0.218616
0 0.300282 0.2009
0 0.308125 0.183169
0.000808728 0.315969 0.165454
0.0135042 0.323812 0.147738
0.026215 0.331655 0.130007
0.0389258 0.339498 0.112291
0.0516213 0.347341 0.0945602
0.064332 0.355184 0.0768444
0.0770428 0.363027 0.0591135
0.0897383 0.370871 0.0413977
0.102449 0.378714 0.023682
0.11516 0.386557 0.00595102
0.127855 0.394385 0
0.140566 0.402228 0
0.153262 0.410071 0
0.165972 0.417914 0
0.178683 0.425757 0
0.191379 0.4336 0
0.204089 0.441444 0
0.2168 0.449287 0
0.229496 0.45713 0
0.242206 0.464973 0
0.254917 0.472816 0
0.267613 0.480659 0
0.280324 0.488502 0
0.293019 0.49633 0
0.30573 0.504173 0
0.318441 0.512016 0
0.331136 0.51986 0
0 0.298802 0.301976
0 0.306645 0.28426
0 0.314488 0.266545
0 0.322332 0.248814
0 0.330175 0.231098
0 0.338018 0.213367
0 0.345861 0.195651
0.00512703 0.353689 0.177935
0.0178378 0.361532 0.160204
0.0305486 0.369375 0.142489
0.0432441 0.377218 0.124758
0.0559548 0.385061 0.107042
0.0686503 0.392905 0.0893263
0.0813611 0.400748 0.0715953
0.0940719 0.408591 0.0538796
0.106767 0.416434 0.0361486
0.119478 0.424277 0.0184329
0.132189 0.43212 0.000717174
0.144884 0.439963 0
0.157595 0.447807 0
0.170306 0.455634 0
0.183001 0.463478 0
0.195712 0.471321 0
0.208408 0.479164 0
0.221118 0.487007 0
0.233829 0.49485 0
0.246525 0.502693 0
0.259236 0.510536 0
0.271946 0.51838 0
0.284642 0.526223 0
0.297353 0.534066 0
0.310063 0.541909 0
0.322759 0.549752 0
0 0.328695 0.332174
0 0.336522 0.314458
0 0.344366 0.296742
0 0.352209 0.279011
0 0.360052 0.261295
0 0.367895 0.24358
0 0.375738 0.225849
0 0.383581 0.208133
0.00946059 0.391424 0.190402
0.0221561 0.399268 0.172686
0.0348669 0.407111 0.154955
0.0475776 0.414939 0.13724
0.0602731 0.422782 0.119524
0.0729839 0.430625 0.101793
0.0856794 0.438468 0.0840772
0.0983902 0.446311 0.0663462
0.111101 0.454154 0.0486305
0.123796 0.461997 0.0309148
0.136507 0.469841 0.0131838
0.149218 0.477684 0
0.161913 0.485527 0
0.174624 0.49337 0
0.187335 0.501213 0
0.200031 0.509056 0
0.212741 0.516899 0
0.225437 0.524727 0
0.238148 0.53257 0
0.250858 0.540413 0
0.263554 0.548257 0
0.276265 0.5561 0
0.288975 0.563943 0
0.301671 0.571786 0
0.314382 0.579629 0
0 0.358572 0.362371
0 0.366415 0.344656
0 0.374243 0.32694
0 0.382086 0.309209
0 0.389929 0.291493
0 0.397772 0.273777
0 0.405615 0.256046
0 0.413458 0.238331
0.00106813 0.421302 0.2206
0.0137789 0.429145 0.202884
0.0264897 0.436988 0.185168
0.0391852 0.444831 0.167437
0.0518959 0.452674 0.149722
0.0646067 0.460517 0.131991
0.0773022 0.46836 0.114275
0.090013 0.476188 0.0965591
0.102724 0.484031 0.0788281
0.115419 0.491875 0.0611124
0.12813 0.499718 0.0433814
0.140826 0.507561 0.0256657
0.153536 0.515404 0.00794995
0.166247 0.523247 0
0.178943 0.53109 0
0.191653 0.538933 0
0.204364 0.546777 0
0.21706 0.55462 0
0.22977 0.562463 0
0.242481 0.570306 0
0.255177 0.578149 0
0.267887 0.585977 0
0.280583 0.59382 0
0.293294 0.601663 0
0.306004 0.609506 0
0 0.388449 0.392569
0 0.396292 0.374853
0 0.404135 0.357137
0 0.411978 0.339406
0 0.419821 0.321691
0 0.427665 0.303975
0 0.435492 0.286244
0 0.443336 0.268528
0 0.451179 0.250797
0.00540169 0.459022 0.233082
0.0181125 0.466865 0.215366
0.030808 0.474708 0.197635
0.0435187 0.482551 0.179919
0.0562142 0.490394 0.162188
0.068925 0.498238 0.144472
0.0816358 0.506081 0.126757
0.0943313 0.513924 0.109026
0.107042 0.521767 0.09131
0.119753 0.52961 0.073579
0.132448 0.537453 0.0558633
0.145159 0.545281 0.0381476
0.15787 0.553124 0.0204166
0.170565 0.560967 0.00270085
0.183276 0.568811 0
0.195972 0.576654 0
0.208682 0.584497 0
0.221393 0.59234 0
0.234089 0.600183 0
0.246799 0.608026 0
0.25951 0.615869 0
0.272206 0.623713 0
0.284916 0.631556 0
0.297627 0.639399 0
0 0.418341 0.422766
0 0.426169 0.405051
0 0.434012 0.387335
0 0.441855 0.369619
0 0.449699 0.351888
0 0.457542 0.334173
0 0.465385 0.316442
0 0.473228 0.298726
0 0.481071 0.28101
0 0.488914 0.263279
0.00972 0.496757 0.245563
0.0224308 0.504585 0.227832
0.0351415 0.512428 0.210117
0.047837 0.520272 0.192401
0.0605478 0.528115 0.17467
0.0732433 0.535958 0.156954
0.0859541 0.543801 0.139223
0.0986648 0.551644 0.121508
0.11136 0.559487 0.103777
0.124071 0.56733 0.0860609
0.136782 0.575174 0.0683452
0.149477 0.583017 0.0506142
0.162188 0.59086 0.0328985
0.174899 0.598703 0.0151675
0.187594 0.606531 0
0.200305 0.614374 0
0.213001 0.622217 0
0.225711 0.63006 0
0.238422 0.637903 0
0.251118 0.645747 0
0.263828 0.65359 0
0.276539 0.661433 0
0.289235 0.669276 0
0 0.448218 0.452964
0 0.456062 0.435248
0 0.46389 0.417533
0 0.471733 0.399817
0 0.479576 0.382086
0 0.487419 0.36437
0 0.495262 0.346639
0 0.503105 0.328923
0 0.510948 0.311208
0 0.518791 0.293477
0.00134279 0.526635 0.275761
0.0140536 0.534478 0.25803
0.0267491 0.542321 0.240314
0.0394598 0.550164 0.222599
0.0521706 0.558007 0.204868
0.0648661 0.565835 0.187152
0.0775769 0.573678 0.169421
0.0902876 0.581521 0.151705
0.102983 0.589364 0.133989
0.115694 0.597208 0.116258
0.128389 0.605051 0.0985428
0.1411 0.612894 0.0808118
0.153811 0.620737 0.0630961
0.166506 0.62858 0.0453803
0.179217 0.636423 0.0276493
0.191928 0.644266 0.00993362
0.204623 0.65211 0
0.217334 0.659953 0
0.230045 0.667781 0
0.242741 0.675624 0
0.255451 0.683467 0
0.268147 0.69131 0
0.280858 0.699153 0
0 0.478096 0.483162
0 0.485939 0.465461
0 0.493782 0.44773
0 0.501625 0.430014
0 0.509468 0.412284
0 0.517311 0.394568
0 0.525139 0.376852
0 0.532982 0.359121
0 0.540825 0.341405
0 0.548669 0.323674
0 0.556512 0.305959
0.00567636 0.564355 0.288243
0.0183719 0.572198 0.270512
0.0310826 0.580041 0.252796
0.0437781 0.587884 0.235065
0.0564889 0.595728 0.21735
0.0691997 0.603571 0.199619
0.0818952 0.611414 0.181903
0.0946059 0.619257 0.164187
0.107317 0.627085 0.146456
0.120012 0.634928 0.12874
0.132723 0.642771 0.111009
0.145434 0.650614 0.0932937
0.158129 0.658457 0.0755779
0.17084 0.6663 0.057847
0.183536 0.674144 0.0401312
0.196246 0.681987 0.0224002
0.208957 0.68983 0.00468452
0.221653 0.697673 0
0.234363 0.705516 0
0.247074 0.713359 0
0.25977 0.721202 0
0.27248 0.72903 0
0 0.507973 0.513359
0 0.515816 0.495659
0 0.523659 0.477928
0 0.531502 0.460212
0 0.539345 0.442481
0 0.547189 0.424765
0 0.555032 0.40705
0 0.562875 0.389319
0 0.570718 0.371603
0 0.578561 0.353872
0 0.586389 0.336156
0 0.594232 0.318441
0.00999466 0.602075 0.30071
0.0227054 0.609918 0.282994
0.0354009 0.617761 0.265263
0.0481117 0.625605 0.247547
0.0608225 0.633448 0.229831
0.073518 0.641291 0.2121
0.0862287 0.649134 0.194385
0.0989242 0.656977 0.176654
0.111635 0.66482 0.158938
0.124346 0.672663 0.141222
0.137041 0.680507 0.123491
0.149752 0.688334 0.105776
0.162463 0.696178 0.0880446
0.175158 0.704021 0.0703288
0.187869 0.711864 0.0526131
0.20058 0.719707 0.0348821
0.213275 0.72755 0.0171664
0.225986 0.735393 0
0.238682 0.743236 0
0.251392 0.75108 0
0.264103 0.758923 0
0 0.537865 0.543572
0 0.545693 0.525856
0 0.553536 0.508125
0 0.561379 0.49041
0 0.569223 0.472694
0 0.577066 0.454963
0 0.584909 0.437247
0 0.592752 0.419516
0 0.600595 0.401801
0 0.608438 0.38407
0 0.616281 0.366354
0 0.624125 0.348638
0.00161746 0.631968 0.330907
0.014313 0.639811 0.313191
0.0270237 0.647639 0.29546
0.0397345 0.655482 0.277745
0.05243 0.663325 0.260029
0.0651408 0.671168 0.242298
0.0778515 0.679011 0.224582
0.090547 0.686854 0.206851
0.103258 0.694697 0.189136
0.115953 0.702541 0.17142
0.128664 0.710384 0.153689
0.141375 0.718227 0.135973
0.15407 0.72607 0.118242
0.166781 0.733913 0.100526
0.179492 0.741756 0.0828107
0.192187 0.749599 0.0650797
0.204898 0.757427 0.047364
0.217609 0.76527 0.029633
0.230304 0.773114 0.0119173
0.243015 0.780957 0
0.255711 0.7888 0
0 0.567742 0.57377
0 0.575586 0.556054
0 0.583429 0.538323
0 0.591272 0.520607
0 0.599115 0.502892
0 0.606943 0.485161
0 0.614786 0.467445
0 0.622629 0.449714
0 0.630472 0.431998
0 0.638315 0.414282
0 0.646159 0.396551
0 0.654002 0.378836
0 0.661845 0.361105
0.00593576 0.669688 0.343389
0.0186465 0.677531 0.325673
0.031342 0.685374 0.307942
0.0440528 0.693217 0.290227
0.0567636 0.70106 0.272496
0.0694591 0.708904 0.25478
0.0821698 0.716731 0.237064
0.0948806 0.724575 0.219333
0.107576 0.732418 0.201617
0.120287 0.740261 0.183886
0.132998 0.748104 0.166171
0.145693 0.755947 0.14844
0.158404 0.76379 0.130724
0.171099 0.771634 0.113008
0.18381 0.779477 0.0952773
0.196521 0.78732 0.0775616
0.209216 0.795163 0.0598306
0.221927 0.803006 0.0421149
0.234638 0.810849 0.0243992
0.247333 0.818677 0.00666819
0 0.59762 0.603967
0 0.605463 0.586252
0 0.613306 0.568521
0 0.621149 0.550805
0 0.628992 0.533089
0 0.636835 0.515358
0 0.644678 0.497642
0 0.652522 0.479912
0 0.660365 0.462196
0 0.668208 0.44448
0 0.676036 0.426749
0 0.683879 0.409033
0 0.691722 0.391302
0 0.699565 0.373587
0.0102693 0.707408 0.355871
0.0229648 0.715251 0.33814
0.0356756 0.723095 0.320424
0.0483864 0.730938 0.302693
0.0610819 0.738781 0.284977
0.0737926 0.746624 0.267262
0.0864881 0.754467 0.249531
0.0991989 0.76231 0.231815
0.11191 0.770153 0.214084
0.124605 0.777981 0.196368
0.137316 0.785824 0.178653
0.150027 0.793667 0.160922
0.162722 0.801511 0.143206
0.175433 0.809354 0.125475
0.188144 0.817197 0.107759
0.200839 0.82504 0.0900435
0.21355 0.832883 0.0723125
0.226246 0.840726 0.0545968
0.238956 0.848569 0.0368658
0 0.627512 0.634165
0 0.63534 0.616449
0 0.643183 0.598733
0 0.651026 0.581003
0 0.658869 0.563287
0 0.666712 0.545556
0 0.674556 0.52784
0 0.682399 0.510124
0 0.690242 0.492393
0 0.698085 0.474678
0 0.705928 0.456947
0 0.713771 0.439231
0 0.721614 0.421515
0 0.729458 0.403784
0.00187686 0.737285 0.386069
0.0145876 0.745129 0.368338
0.0272984 0.752972 0.350622
0.0399939 0.760815 0.332891
0.0527047 0.768658 0.315175
0.0654154 0.776501 0.297459
0.0781109 0.784344 0.279728
0.0908217 0.792187 0.262013
0.103517 0.800031 0.244282
0.116228 0.807874 0.226566
0.128939 0.815717 0.20885
0.141634 0.82356 0.191119
0.154345 0.831403 0.173404
0.167056 0.839231 0.155673
0.179751 0.847074 0.137957
0.192462 0.854917 0.120241
0.205173 0.86276 0.10251
0.217868 0.870604 0.0847944
0.230579 0.878447 0.0670634
0 0.657389 0.664363
0 0.665232 0.646647
0 0.673075 0.628931
0 0.680919 0.6112
0 0.688762 0.593484
0 0.69659 0.575753
0 0.704433 0.558038
0 0.712276 0.540322
0 0.720119 0.522591
0 0.727962 0.504875
0 0.735805 0.487144
0 0.743648 0.469429
0 0.751492 0.451713
0 0.759335 0.433982
0 0.767178 0.416266
0.00621042 0.775021 0.398535
0.0189059 0.782864 0.380819
0.0316167 0.790707 0.363104
0.0443275 0.798535 0.345373
0.057023 0.806378 0.327657
0.0697337 0.814221 0.309926
0.0824445 0.822065 0.29221
0.09514 0.829908 0.274495
0.107851 0.837751 0.256764
0.120562 0.845594 0.239048
0.133257 0.853437 0.221317
0.145968 0.86128 0.203601
0.158663 0.869123 0.185885
0.171374 0.876967 0.168154
0.184085 0.88481 0.150439
0.19678 0.892653 0.132708
0.209491 0.900481 0.114992
0.222202 0.908324 0.097261
0 0.687266 0.69456
0 0.695109 0.676844
0 0.702953 0.659129
0 0.710796 0.641398
0 0.718639 0.623682
0 0.726482 0.605966
0 0.734325 0.588235
0 0.742168 0.57052
0 0.750011 0.552789
0 0.757839 0.535073
0 0.765682 0.517342
0 0.773526 0.499626
0 0.781369 0.48191
0 0.789212 0.464179
0 0.797055 0.446464
0 0.804898 0.428733
0.0105287 0.812741 0.411017
0.0232395 0.820584 0.393301
0.0359503 0.828428 0.37557
0.0486458 0.836271 0.357855
0.0613565 0.844114 0.340124
0.074052 0.851957 0.322408
0.0867628 0.859785 0.304692
0.0994736 0.867628 0.286961
0.112169 0.875471 0.269245
0.12488 0.883314 0.251514
0.137591 0.891157 0.233799
0.150286 0.899001 0.216083
0.162997 0.906844 0.198352
0.175708 0.914687 0.180636
0.188403 0.92253 0.162905
0.201114 0.930373 0.14519
0.213809 0.938216 0.127474
0 0.717159 0.724758
0 0.724987 0.707042
0 0.73283 0.689326
0 0.740673 0.671595
0 0.748516 0.65388
0 0.756359 0.636164
0 0.764202 0.618433
0 0.772045 0.600717
0 0.779889 0.582986
0 0.787732 0.56527
0 0.795575 0.547555
0 0.803418 0.529824
0 0.811261 0.512108
0 0.819089 0.494377
0 0.826932 0.476661
0 0.834775 0.458946
0.00215152 0.842618 0.441215
0.0148623 0.850462 0.423499
0.0275578 0.858305 0.405768
0.0402686 0.866148 0.388052
0.0529793 0.873991 0.370336
0.0656748 0.881834 0.352605
0.0783856 0.889677 0.33489
0.0910811 0.89752 0.317159
0.103792 0.905364 0.299443
0.116503 0.913207 0.281727
0.129198 0.921035 0.263996
0.141909 0.928878 0.246281
0.15462 0.936721 0.22855
0.167315 0.944564 0.210834
0.180026 0.952407 0.193103
0.192737 0.96025 0.175387
0.205432 0.968093 0.157671
0 0.747036 0.754955
0 0.754879 0.73724
0 0.762722 0.719524
0 0.770565 0.701793
0 0.778393 0.684077
0 0.786236 0.666362
0 0.794079 0.64863
0 0.801923 0.630915
0 0.809766 0.613184
0 0.817609 0.595468
0 0.825452 0.577752
0 0.833295 0.560021
0 0.841138 0.542306
0 0.848981 0.524575
0 0.856825 0.506859
0 0.864668 0.489143
0 0.872511 0.471412
0.00646983 0.880354 0.453696
0.0191806 0.888182 0.435966
0.0318914 0.896025 0.41825
0.0445869 0.903868 0.400534
0.0572976 0.911711 0.382803
0.0700084 0.919554 0.365087
0.0827039 0.927398 0.347356
0.0954147 0.935241 0.329641
0.108125 0.943084 0.311925
0.120821 0.950927 0.294194
0.133532 0.95877 0.276478
0.146227 0.966613 0.258747
0.158938 0.974456 0.241032
0.171649 0.9823 0.223316
0.184344 0.990127 0.205585
0.197055 0.997971 0.187869
0 0.776913 0.785153
0 0.784756 0.767437
0 0.792599 0.749722
0 0.800443 0.732006
0 0.808286 0.714275
0 0.816129 0.696559
0 0.823972 0.678828
0 0.831815 0.661112
0 0.839658 0.643397
0 0.847486 0.625666
0 0.855329 0.60795
0 0.863172 0.590219
0 0.871015 0.572503
0 0.878859 0.554788
0 0.886702 0.537057
0 0.894545 0.519341
0 0.902388 0.50161
0 0.910231 0.483894
0.0108034 0.918074 0.466178
0.0235142 0.925917 0.448447
0.0362097 0.933761 0.430732
0.0489204 0.941604 0.413001
0.0616159 0.949432 0.395285
0.0743267 0.957275 0.377554
0.0870375 0.965118 0.359838
0.099733 0.972961 0.342123
0.112444 0.980804 0.324392
0.125154 0.988647 0.306676
0.13785 0.99649 0.288945
0.150561 1 0.271229
0.163272 1 0.253513
0.175967 1 0.235782
0.188678 1 0.218067
0 0.806806 0.815351
0 0.814633 0.797635
0 0.822477 0.779919
0 0.83032 0.762203
0 0.838163 0.744472
0 0.846006 0.726757
0 0.853849 0.709026
0 0.861692 0.69131
0 0.869535 0.673594
