public/LUTS/Color Shift/ColorShift_54.cube
TITLE "Generated by Resolve"
LUT_3D_SIZE 33
0 0 0
0 0.0206455 0
0 0.0412909 0
0 0.0619364 0
0 0.0825971 0
0 0.103243 0
0 0.123888 0
0 0.144549 0
0 0.165194 0
0 0.18584 0
0 0.2065 0
0 0.227146 0
0 0.247791 0
0 0.268452 0
0 0.289097 0
0 0.309743 0
0 0.330404 0
0 0.351049 0
0 0.371695 0
0 0.392355 0
0 0.413001 0
0 0.433646 0
0 0.454307 0
0 0.474952 0
0 0.495598 0
0 0.516258 0
0 0.536904 0
0 0.557549 0
0 0.57821 0
0 0.598856 0
0 0.619501 0
0 0.640162 0
0 0.660807 0
0.0261387 0.013901 0.0738231
0 0.0345464 0.0628672
0 0.0551919 0.0518959
0 0.0758526 0.04094
0 0.0964981 0.029984
0 0.117144 0.0190127
0 0.137804 0.00805676
0 0.15845 0
0 0.179095 0
0 0.199756 0
0 0.220401 0
0 0.241047 0
0 0.261707 0
0 0.282353 0
0 0.302998 0
0 0.323659 0
0 0.344305 0
0 0.36495 0
0 0.385611 0
0 0.406256 0
0 0.426902 0
0 0.447562 0
0 0.468208 0
0 0.488853 0
0 0.509514 0
0 0.530159 0
0 0.550805 0
0 0.571466 0
0 0.592111 0
0 0.612757 0
0 0.633417 0
0 0.654063 0
0 0.674708 0
0.0522774 0.0278172 0.147677
0.0194095 0.0484627 0.136721
0 0.0691081 0.12575
0 0.0897536 0.114794
0 0.110414 0.103838
0 0.13106 0.0928664
0 0.151705 0.0819104
0 0.172366 0.0709544
0 0.193011 0.0599832
0 0.213657 0.0490272
0 0.234318 0.038056
0 0.254963 0.0271
0 0.275608 0.016144
0 0.296269 0.00517281
0 0.316915 0
0 0.33756 0
0 0.358221 0
0 0.378866 0
0 0.399512 0
0 0.420172 0
0 0.440818 0
0 0.461463 0
0 0.482124 0
0 0.50277 0
0 0.523415 0
0 0.544076 0
0 0.564721 0
0 0.585367 0
0 0.606027 0
0 0.626673 0
0 0.647318 0
0 0.667979 0
0 0.688624 0
0.0784314 0.0417334 0.22153
0.0455634 0.0623636 0.210575
0.012665 0.0830243 0.199603
0 0.10367 0.188647
0 0.124315 0.177691
0 0.144976 0.16672
0 0.165621 0.155764
0 0.186267 0.144808
0 0.206928 0.133837
0 0.227573 0.122881
0 0.248219 0.11191
0 0.268879 0.100954
0 0.289525 0.0899977
0 0.31017 0.0790265
0 0.330831 0.0680705
0 0.351476 0.0571145
0 0.372122 0.0461433
0 0.392782 0.0351873
0 0.413428 0.0242313
0 0.434073 0.0132601
0 0.454734 0.00230411
0 0.47538 0
0 0.496025 0
0 0.516686 0
0 0.537331 0
0 0.557977 0
0 0.578637 0
0 0.599283 0
0 0.619928 0
0 0.640589 0
0 0.661234 0
0 0.68188 0
0 0.702541 0
0.10457 0.0556344 0.295384
0.0717021 0.0762798 0.284428
0.038819 0.0969253 0.273457
0.00593576 0.117586 0.262501
0 0.138231 0.251545
0 0.158877 0.240574
0 0.179538 0.229618
0 0.200183 0.218662
0 0.220829 0.207691
0 0.241489 0.196735
0 0.262135 0.185763
0 0.28278 0.174807
0 0.303441 0.163851
0 0.324086 0.15288
0 0.344732 0.141924
0 0.365393 0.130968
0 0.386038 0.119997
0 0.406683 0.109041
0 0.427344 0.098085
0 0.44799 0.0871138
0 0.468635 0.0761578
0 0.489296 0.0652018
0 0.509941 0.0542306
0 0.530587 0.0432746
0 0.551247 0.0323186
0 0.571893 0.0213474
0 0.592538 0.0103914
0 0.613199 0
0 0.633844 0
0 0.65449 0
0 0.675151 0
0 0.695796 0
0 0.716442 0
0.130724 0.0695506 0.369238
0.0978561 0.0901961 0.358282
0.0649729 0.110842 0.347311
0.0320745 0.131487 0.336355
0 0.152148 0.325399
0 0.172793 0.314427
0 0.193439 0.303471
0 0.214099 0.292515
0 0.234745 0.281544
0 0.25539 0.270588
0 0.276051 0.259632
0 0.296696 0.248661
0 0.317342 0.237705
0 0.338003 0.226734
0 0.358648 0.215778
0 0.379294 0.204822
0 0.399954 0.193851
0 0.4206 0.182895
0 0.441245 0.171939
0 0.461906 0.160967
0 0.482551 0.150011
0 0.503197 0.139055
0 0.523857 0.128084
0 0.544503 0.117128
0 0.565148 0.106172
0 0.585809 0.095201
0 0.606455 0.0842451
0 0.6271 0.0732891
0 0.647761 0.0623178
0 0.668406 0.0513619
0 0.689052 0.0403906
0 0.709712 0.0294347
0 0.730358 0.0184787
0.156878 0.0834516 0.443091
0.123995 0.104097 0.432135
0.0911116 0.124743 0.421164
0.0582284 0.145403 0.410208
0.0253452 0.166049 0.399252
0 0.186709 0.388281
0 0.207355 0.377325
0 0.228 0.366369
0 0.248661 0.355398
0 0.269306 0.344442
0 0.289952 0.333486
0 0.310613 0.322515
0 0.331258 0.311559
0 0.351904 0.300587
0 0.372564 0.289631
0 0.39321 0.278676
0 0.413855 0.267704
0 0.434516 0.256748
0 0.455161 0.245792
0 0.475807 0.234821
0 0.496468 0.223865
0 0.517113 0.212909
0 0.537758 0.201938
0 0.558419 0.190982
0 0.579065 0.180026
0 0.59971 0.169055
0 0.620371 0.158099
0 0.641016 0.147143
0 0.661662 0.136172
0 0.682322 0.125216
0 0.702968 0.114244
0 0.723613 0.103288
0 0.744274 0.0923323
0.183017 0.0973678 0.516945
0.150149 0.118013 0.505989
0.117266 0.138659 0.495018
0.0843824 0.159304 0.484062
0.0514839 0.179965 0.473106
0.0186007 0.20061 0.462135
0 0.221256 0.451179
0 0.241917 0.440223
0 0.262562 0.429252
0 0.283223 0.418296
0 0.303868 0.40734
0 0.324514 0.396368
0 0.345174 0.385412
0 0.36582 0.374441
0 0.386465 0.363485
0 0.407126 0.352529
0 0.427771 0.341558
0 0.448417 0.330602
0 0.469078 0.319646
0 0.489723 0.308675
0 0.510369 0.297719
0 0.531029 0.286763
0 0.551675 0.275792
0 0.57232 0.264836
0 0.592981 0.25388
0 0.613626 0.242908
0 0.634272 0.231952
0 0.654932 0.220996
0 0.675578 0.210025
0 0.696223 0.199069
0 0.716884 0.188098
0 0.73753 0.177142
0 0.758175 0.166186
0.209171 0.111284 0.590799
0.176303 0.131914 0.579843
0.143404 0.152575 0.568872
0.110521 0.17322 0.557916
0.0776379 0.193866 0.54696
0.0447547 0.214527 0.535988
0.0118563 0.235172 0.525032
0 0.255818 0.514076
0 0.276478 0.503105
0 0.297124 0.492149
0 0.317769 0.481193
0 0.33843 0.470222
0 0.359075 0.459266
0 0.379736 0.448295
0 0.400381 0.437339
0 0.421027 0.426383
0 0.441688 0.415412
0 0.462333 0.404456
0 0.482979 0.3935
0 0.503639 0.382528
0 0.524285 0.371572
0 0.54493 0.360616
0 0.565591 0.349645
0 0.586236 0.338689
0 0.606882 0.327733
0 0.627543 0.316762
0 0.648188 0.305806
0 0.668833 0.29485
0 0.689494 0.283879
0 0.71014 0.272923
0 0.730785 0.261952
0 0.751446 0.250996
0 0.772091 0.24004
0.235309 0.125185 0.664652
0.202441 0.14583 0.653696
0.169558 0.166476 0.642725
0.136675 0.187137 0.631769
0.103777 0.207782 0.620813
0.0708934 0.228428 0.609842
0.0380102 0.249088 0.598886
0.00512703 0.269734 0.58793
0 0.290379 0.576959
0 0.31104 0.566003
0 0.331685 0.555047
0 0.352331 0.544076
0 0.372992 0.53312
0 0.393637 0.522148
0 0.414282 0.511193
0 0.434943 0.500237
0 0.455589 0.489265
0 0.476249 0.478309
0 0.496895 0.467353
0 0.51754 0.456382
0 0.538201 0.445426
0 0.558846 0.43447
0 0.579492 0.423499
0 0.600153 0.412543
0 0.620798 0.401587
0 0.641443 0.390616
0 0.662104 0.37966
0 0.68275 0.368704
0 0.703395 0.357733
0 0.724056 0.346777
0 0.744701 0.335805
0 0.765347 0.324849
0 0.786007 0.313893
0.261463 0.139101 0.738506
0.228595 0.159747 0.72755
0.195697 0.180392 0.716579
0.162814 0.201038 0.705623
0.129931 0.221698 0.694667
0.0970474 0.242344 0.683696
0.0641642 0.262989 0.67274
0.0312657 0.28365 0.661784
0 0.304295 0.650813
0 0.324941 0.639857
0 0.345602 0.628901
0 0.366247 0.617929
0 0.386892 0.606973
0 0.407553 0.596002
0 0.428199 0.585046
0 0.448844 0.57409
0 0.469505 0.563119
0 0.49015 0.552163
0 0.510796 0.541207
0 0.531456 0.530236
0 0.552102 0.51928
0 0.572763 0.508324
0 0.593408 0.497353
0 0.614054 0.486397
0 0.634714 0.475441
0 0.65536 0.464469
0 0.676005 0.453513
0 0.696666 0.442557
0 0.717311 0.431586
0 0.737957 0.42063
0 0.758618 0.409674
0 0.779263 0.398703
0 0.799908 0.387747
0.287602 0.153017 0.81236
0.254734 0.173648 0.801404
0.221851 0.194308 0.790433
0.188968 0.214954 0.779477
0.156085 0.235599 0.768521
0.123186 0.25626 0.757549
0.0903029 0.276905 0.746593
0.0574197 0.297551 0.735637
0.0245365 0.318212 0.724666
0 0.338857 0.71371
0 0.359503 0.702754
0 0.380163 0.691783
0 0.400809 0.680827
0 0.421454 0.669871
0 0.442115 0.6589
0 0.46276 0.647944
0 0.483406 0.636973
0 0.504067 0.626017
0 0.524712 0.615061
0 0.545357 0.604089
0 0.566018 0.593133
0 0.586664 0.582177
0 0.607309 0.571206
0 0.62797 0.56025
0 0.648615 0.549294
0 0.669276 0.538323
0 0.689921 0.527367
0 0.710567 0.516411
0 0.731228 0.50544
0 0.751873 0.494484
0 0.772519 0.483528
0 0.793179 0.472557
0 0.813825 0.461601
0.313756 0.166918 0.886213
0.280888 0.187564 0.875257
0.248005 0.208209 0.864286
0.215106 0.22887 0.85333
0.182223 0.249516 0.842374
0.14934 0.270161 0.831403
0.116457 0.290822 0.820447
0.0835584 0.311467 0.809491
0.0506752 0.332113 0.79852
0.017792 0.352773 0.787564
0 0.373419 0.776608
0 0.394064 0.765637
0 0.414725 0.754681
0 0.43537 0.743725
0 0.456016 0.732754
0 0.476677 0.721798
0 0.497322 0.710826
0 0.517968 0.69987
0 0.538628 0.688914
0 0.559274 0.677943
0 0.579919 0.666987
0 0.60058 0.656031
0 0.621225 0.64506
0 0.641871 0.634104
0 0.662531 0.623148
0 0.683177 0.612177
0 0.703822 0.601221
0 0.724483 0.590265
0 0.745129 0.579293
0 0.765789 0.568338
0 0.786435 0.557382
0 0.80708 0.54641
0 0.827741 0.535454
0.33991 0.180835 0.960067
0.307027 0.20148 0.949111
0.274144 0.222126 0.93814
0.24126 0.242771 0.927184
0.208377 0.263432 0.916228
0.175479 0.284077 0.905257
0.142596 0.304723 0.894301
0.109712 0.325383 0.883345
0.0768292 0.346029 0.872374
0.043946 0.366674 0.861418
0.0110475 0.387335 0.850462
0 0.40798 0.83949
0 0.428626 0.828534
0 0.449287 0.817578
0 0.469932 0.806607
0 0.490578 0.795651
0 0.511238 0.78468
0 0.531884 0.773724
0 0.552529 0.762768
0 0.57319 0.751797
0 0.593835 0.740841
0 0.614481 0.729885
0 0.635142 0.718914
0 0.655787 0.707958
0 0.676432 0.697002
0 0.697093 0.68603
0 0.717739 0.675074
0 0.738384 0.664118
0 0.759045 0.653147
0 0.77969 0.642191
0 0.800336 0.631235
0 0.820996 0.620264
0 0.841642 0.609308
0.366049 0.194751 1
0.333181 0.215381 1
0.300298 0.236042 1
0.267399 0.256687 1
0.234516 0.277333 0.990082
0.201633 0.297993 0.97911
0.16875 0.318639 0.968154
0.135866 0.339284 0.957198
0.102968 0.359945 0.946227
0.0700847 0.380591 0.935271
0.0372015 0.401236 0.924315
0.0043183 0.421897 0.913344
0 0.442542 0.902388
0 0.463188 0.891432
0 0.483848 0.880461
0 0.504494 0.869505
0 0.525139 0.858534
0 0.5458 0.847578
0 0.566445 0.836622
0 0.587091 0.82565
0 0.607752 0.814694
0 0.628397 0.803738
0 0.649042 0.792767
0 0.669703 0.781811
0 0.690349 0.770855
0 0.710994 0.759884
0 0.731655 0.748928
0 0.7523 0.737972
0 0.772946 0.727001
0 0.793606 0.716045
0 0.814252 0.705089
0 0.834897 0.694118
0 0.855558 0.683162
0.392203 0.208652 1
0.359335 0.229297 1
0.326436 0.249943 1
0.293553 0.270604 1
0.26067 0.291249 1
0.227787 0.311894 1
0.194888 0.332555 1
0.162005 0.353201 1
0.129122 0.373846 1
0.0962387 0.394507 1
0.0633402 0.415152 0.998169
0.030457 0.435798 0.987198
0 0.456458 0.976242
0 0.477104 0.965286
0 0.497749 0.954314
0 0.51841 0.943358
0 0.539055 0.932387
0 0.559701 0.921431
0 0.580362 0.910475
0 0.601007 0.899504
0 0.621653 0.888548
0 0.642313 0.877592
0 0.662959 0.866621
0 0.683604 0.855665
0 0.704265 0.844709
0 0.72491 0.833738
0 0.745556 0.822782
0 0.766217 0.811826
0 0.786862 0.800855
0 0.807507 0.789899
0 0.828168 0.778943
0 0.848814 0.767971
0 0.869459 0.757015
0.418341 0.222568 1
0.385473 0.243214 1
0.35259 0.263859 1
0.319707 0.284504 1
0.286809 0.305165 1
0.253925 0.325811 1
0.221042 0.346456 1
0.188159 0.367117 1
0.155261 0.387762 1
0.122377 0.408408 1
0.0894942 0.429068 1
0.056611 0.449714 1
0.0237278 0.470359 1
0 0.49102 1
0 0.511666 1
0 0.532311 1
0 0.552972 1
0 0.573617 0.995285
0 0.594263 0.984329
0 0.614923 0.973358
0 0.635569 0.962402
0 0.656214 0.951446
0 0.676875 0.940475
0 0.69752 0.929519
0 0.718166 0.918563
0 0.738827 0.907591
0 0.759472 0.896635
0 0.780118 0.885679
0 0.800778 0.874708
0 0.821424 0.863752
0 0.842069 0.852796
0 0.86273 0.841825
0 0.883375 0.830869
0.444495 0.236484 1
0.411627 0.257115 1
0.378729 0.277775 1
0.345846 0.298421 1
0.312963 0.319066 1
0.280079 0.339727 1
0.247181 0.360372 1
0.214298 0.381018 1
0.181415 0.401679 1
0.148531 0.422324 1
0.115648 0.442969 1
0.0827497 0.46363 1
0.0498665 0.484276 1
0.0169833 0.504921 1
0 0.525582 1
0 0.546227 1
0 0.566873 1
0 0.587533 1
0 0.608179 1
0 0.628824 1
0 0.649485 1
0 0.67013 1
0 0.690776 1
0 0.711437 1
0 0.732082 0.992416
0 0.752728 0.981445
0 0.773388 0.970489
0 0.794034 0.959533
0 0.814679 0.948562
0 0.83534 0.937606
0 0.855985 0.92665
0 0.876631 0.915679
0 0.897292 0.904723
0.470634 0.250385 1
0.437766 0.271031 1
0.404883 0.291676 1
0.372 0.312337 1
0.339117 0.332982 1
0.306218 0.353628 1
0.273335 0.374289 1
0.240452 0.394934 1
0.207568 0.415579 1
0.17467 0.43624 1
0.141787 0.456886 1
0.108904 0.477531 1
0.0760204 0.498192 1
0.043122 0.518837 1
0.0102388 0.539483 1
0 0.560143 1
0 0.580789 1
0 0.601434 1
0 0.622095 1
0 0.642741 1
0 0.663386 1
0 0.684047 1
0 0.704692 1
0 0.725338 1
0 0.745998 1
0 0.766644 1
0 0.787289 1
0 0.80795 1
0 0.828595 1
0 0.849241 1
0 0.869902 1
0 0.890547 0.989532
0 0.911192 0.978576
0.496788 0.264302 1
0.46392 0.284947 1
0.431037 0.305592 1
0.398138 0.326238 1
0.365255 0.346899 1
0.332372 0.367544 1
0.299489 0.38819 1
0.26659 0.40885 1
0.233707 0.429496 1
0.200824 0.450141 1
0.167941 0.470802 1
0.135042 0.491447 1
0.102159 0.512093 1
0.069276 0.532753 1
0.0363928 0.553399 1
0.00350958 0.574044 1
0 0.594705 1
0 0.615351 1
0 0.635996 1
0 0.656657 1
0 0.677302 1
0 0.697948 1
0 0.718608 1
0 0.739254 1
0 0.759899 1
0 0.78056 1
0 0.801205 1
0 0.821851 1
0 0.842512 1
0 0.863157 1
0 0.883803 1
0 0.904463 1
0 0.925109 1
0.522942 0.278218 1
0.490059 0.298848 1
0.457176 0.319509 1
0.424292 0.340154 1
0.391409 0.3608 1
0.358511 0.38146 1
0.325628 0.402106 1
0.292744 0.422751 1
0.259861 0.443412 1
0.226978 0.464057 1
0.19408 0.484703 1
0.161196 0.505364 1
0.128313 0.526009 1
0.0954299 0.546654 1
0.0625315 0.567315 1
0.0296483 0.587961 1
0 0.608606 1
0 0.629267 1
0 0.649912 1
0 0.670558 1
0 0.691218 1
0 0.711864 1
0 0.732509 1
0 0.75317 1
0 0.773816 1
0 0.794461 1
0 0.815122 1
0 0.835767 1
0 0.856413 1
0 0.877073 1
0 0.897719 1
0 0.918364 1
0 0.939025 1
0.549081 0.292119 1
0.516213 0.312764 1
0.48333 0.33341 1
0.450431 0.35407 1
0.417548 0.374716 1
0.384665 0.395361 1
0.351781 0.416022 1
0.318898 0.436667 1
0.286 0.457313 1
0.253117 0.477974 1
0.220233 0.498619 1
0.18735 0.519265 1
0.154452 0.539925 1
0.121569 0.560571 1
0.0886854 0.581216 1
0.0558022 0.601877 1
0.0229038 0.622522 1
0 0.643168 1
0 0.663828 1
0 0.684474 1
0 0.705119 1
0 0.72578 1
0 0.746426 1
0 0.767071 1
0 0.787732 1
0 0.808377 1
0 0.829023 1
0 0.849683 1
0 0.870329 1
0 0.890974 1
0 0.911635 1
0 0.93228 1
0 0.952926 1
0.575235 0.306035 1
0.542351 0.32668 1
0.509468 0.347326 1
0.476585 0.367971 1
0.443702 0.388632 1
0.410819 0.409277 1
0.37792 0.429923 1
0.345037 0.450584 1
0.312154 0.471229 1
0.279271 0.491875 1
0.246372 0.512535 1
0.213489 0.533181 1
0.180606 0.553826 1
0.147723 0.574487 1
0.114824 0.595132 1
0.0819409 0.615778 1
0.0490578 0.636439 1
0.0161746 0.657084 1
0 0.677729 1
0 0.69839 1
0 0.719036 1
0 0.739681 1
0 0.760342 1
0 0.780987 1
0 0.801633 1
0 0.822293 1
0 0.842939 1
0 0.863584 1
0 0.884245 1
0 0.904891 1
0 0.925536 1
0 0.946197 1
0 0.966842 1
0.601373 0.319951 1
0.568505 0.340581 1
0.535622 0.361242 1
0.502739 0.381888 1
0.469841 0.402533 1
0.436957 0.423194 1
0.404074 0.443839 1
0.371191 0.464485 1
0.338293 0.485145 1
0.305409 0.505791 1
0.272526 0.526436 1
0.239643 0.547097 1
0.20676 0.567742 1
0.173861 0.588388 1
0.140978 0.609049 1
0.108095 0.629694 1
0.0752117 0.650339 1
0.0423133 0.671 1
0.00943008 0.691646 1
0 0.712291 1
0 0.732952 1
0 0.753597 1
0 0.774243 1
0 0.794903 1
0 0.815549 1
0 0.836194 1
0 0.856855 1
0 0.877501 1
0 0.898146 1
0 0.918807 1
0 0.939452 1
0 0.960098 1
0 0.980758 1
0.627527 0.333852 1
0.594659 0.354498 1
0.561761 0.375143 1
0.528878 0.395804 1
0.495995 0.416449 1
0.463111 0.437095 1
0.430213 0.457755 1
0.39733 0.478401 1
0.364446 0.499046 1
0.331563 0.519707 1
0.29868 0.540352 1
0.265782 0.560998 1
0.232898 0.581659 1
0.200015 0.602304 1
0.167132 0.62295 1
0.134234 0.64361 1
0.10135 0.664256 1
0.0684672 0.684901 1
0.035584 0.705562 1
0.00268559 0.726207 1
0 0.746853 1
0 0.767514 1
0 0.788159 1
0 0.808804 1
0 0.829465 1
0 0.850111 1
0 0.870756 1
0 0.891417 1
0 0.912062 1
0 0.932708 1
0 0.953368 1
0 0.974014 1
0 0.994659 1
0.653666 0.347768 1
0.620798 0.368414 1
0.587915 0.389059 1
0.555032 0.409705 1
0.522148 0.430365 1
0.48925 0.451011 1
0.456367 0.471656 1
0.423484 0.492317 1
0.3906 0.512963 1
0.357702 0.533608 1
0.324819 0.554269 1
0.291936 0.574914 1
0.259052 0.59556 1
0.226154 0.61622 1
0.193271 0.636866 1
0.160388 0.657511 1
0.127504 0.678172 1
0.0946059 0.698817 1
0.0617227 0.719463 1
0.0288396 0.740124 1
0 0.760769 1
0 0.781415 1
0 0.802075 1
0 0.822721 1
0 0.843366 1
0 0.864027 1
0 0.884672 1
0 0.905318 1
0 0.925978 1
0 0.946624 1
0 0.967269 1
0 0.98793 1
0 1 1
0.67982 0.361685 1
0.646952 0.382315 1
0.614069 0.402975 1
0.58117 0.423621 1
0.548287 0.444266 1
0.515404 0.464927 1
0.482521 0.485573 1
0.449622 0.506218 1
0.416739 0.526879 1
0.383856 0.547524 1
0.350973 0.56817 1
0.318074 0.58883 1
0.285191 0.609476 1
0.252308 0.630121 1
0.219425 0.650782 1
0.186542 0.671427 1
0.153643 0.692073 1
0.12076 0.712734 1
0.0878767 0.733379 1
0.0549935 0.754025 1
0.0220951 0.774685 1
0 0.795331 1
0 0.815976 1
0 0.836637 1
0 0.857282 1
0 0.877928 1
0 0.898589 1
0 0.919234 1
0 0.939879 1
0 0.96054 1
0 0.981186 1
0 1 1
0 1 1
0.705974 0.375586 1
0.673091 0.396231 1
0.640208 0.416876 1
0.607324 0.437537 1
0.574441 0.458183 1
0.541543 0.478828 1
0.508659 0.499489 1
0.475776 0.520134 1
0.442893 0.54078 1
