public/LUTS/Color Shift/ColorShift_97.cube
TITLE "Generated by Resolve"
LUT_3D_SIZE 9
0 0 0
0 0.0636149 0.100786
0 0.127245 0.201587
0 0.190875 0.302388
0 0.254505 0.403189
0 0.318135 0.50399
0 0.381765 0.604791
0 0.445396 0.705577
0 0.509026 0.806378
0.262257 0.0198062 0.206165
0.131975 0.0834211 0.30695
0.00169375 0.147051 0.407752
0 0.210681 0.508553
0 0.274311 0.609354
0 0.337942 0.710155
0 0.401572 0.810956
0 0.465202 0.911757
0 0.528832 1
0.524544 0.0396124 0.41236
0.394263 0.103227 0.513146
0.263981 0.166857 0.613947
0.133684 0.230488 0.714748
0.0033875 0.294118 0.815549
0 0.357748 0.91635
0 0.421378 1
0 0.485008 1
0 0.548638 1
0.786831 0.0594186 0.618555
0.656565 0.123033 0.719341
0.526268 0.186664 0.820142
0.395972 0.250294 0.920943
0.26569 0.313924 1
0.135393 0.377554 1
0.00509651 0.441184 1
0 0.504814 1
0 0.568429 1
1 0.0792096 0.82475
0.918853 0.14284 0.925536
0.788556 0.20647 1
0.658259 0.2701 1
0.527977 0.33373 1
0.397681 0.39736 1
0.267384 0.460975 1
0.137102 0.524605 1
0.00680552 0.588235 1
1 0.0990158 1
1 0.162646 1
1 0.226276 1
0.920546 0.289906 1
0.790265 0.353536 1
0.659968 0.417151 1
0.529671 0.480781 1
0.39939 0.544411 1
0.269093 0.608042 1
1 0.118822 1
1 0.182452 1
1 0.246082 1
1 0.309697 1
1 0.373327 1
0.922255 0.436957 1
0.791959 0.500587 1
0.661677 0.564218 1
0.53138 0.627848 1
1 0.138628 1
1 0.202243 1
1 0.265873 1
1 0.329503 1
1 0.393133 1
1 0.456764 1
1 0.520394 1
0.923964 0.584024 1
0.793667 0.647654 1
1 0.158434 1
1 0.222049 1
1 0.285679 1
1 0.34931 1
1 0.41294 1
1 0.47657 1
1 0.5402 1
1 0.60383 1
1 0.66746 1
0 0.0415656 0
0 0.10518 0
0 0.168811 0.0196231
0 0.232441 0.120424
0 0.296071 0.221225
0 0.359701 0.322011
0 0.423331 0.422812
0 0.486961 0.523613
0 0.550591 0.624414
0.255268 0.0613718 0.0242008
0.124987 0.124987 0.124987
0 0.188617 0.225788
0 0.252247 0.326589
0 0.315877 0.42739
0 0.379507 0.528191
0 0.443137 0.628992
0 0.506767 0.729778
0 0.570397 0.830579
0.517555 0.0811627 0.230396
0.387274 0.144793 0.331182
0.256977 0.208423 0.431983
0.126696 0.272053 0.532784
0 0.335683 0.633585
0 0.399313 0.734371
0 0.462943 0.835172
0 0.526558 0.935973
0 0.590188 1
0.779843 0.100969 0.436591
0.649561 0.164599 0.537377
0.51928 0.228229 0.638178
0.388983 0.291859 0.738964
0.258686 0.355489 0.839765
0.128405 0.41912 0.940566
0 0.482734 1
0 0.546365 1
0 0.609995 1
1 0.120775 0.642771
0.911849 0.184405 0.743572
0.781567 0.248035 0.844358
0.65127 0.311666 0.945159
0.520974 0.37528 1
0.390692 0.438911 1
0.260395 0.502541 1
0.130098 0.566171 1
0 0.629801 1
1 0.140581 0.848966
1 0.204211 0.949752
1 0.267826 1
0.913558 0.331456 1
0.783261 0.395087 1
0.652979 0.458717 1
0.522683 0.522347 1
0.392386 0.585977 1
0.262104 0.649607 1
1 0.160388 1
1 0.224002 1
1 0.287633 1
1 0.351263 1
1 0.414893 1
0.915267 0.478523 1
0.78497 0.542153 1
0.654673 0.605783 1
0.524392 0.669413 1
1 0.180194 1
1 0.243809 1
1 0.307439 1
1 0.371069 1
1 0.434699 1
1 0.498329 1
1 0.561959 1
0.916976 0.625589 1
0.786679 0.689219 1
1 0.2 1
1 0.263615 1
1 0.327245 1
1 0.390875 1
1 0.454505 1
1 0.518135 1
1 0.581765 1
1 0.645396 1
1 0.709026 1
0 0.0831311 0
0 0.146746 0
0 0.210376 0
0 0.274006 0
0 0.337636 0.0392309
0 0.401266 0.140032
0 0.464897 0.240833
0 0.528527 0.341619
0 0.592157 0.44242
0.248264 0.102937 0
0.117998 0.166552 0
0 0.230182 0.0437934
0 0.293812 0.144594
0 0.357443 0.245396
0 0.421073 0.346197
0 0.484703 0.446998
0 0.548333 0.547799
0 0.611963 0.6486
0.510552 0.122744 0.0484016
0.380285 0.186358 0.149187
0.249989 0.249989 0.249989
0.119692 0.313619 0.35079
0 0.377249 0.451591
0 0.440879 0.552392
0 0.504509 0.653193
0 0.568139 0.753994
0 0.631769 0.85478
0.772839 0.14255 0.254597
0.642573 0.206165 0.355383
0.512276 0.269795 0.456184
0.381979 0.333425 0.556985
0.251698 0.397055 0.657786
0.121401 0.460685 0.758587
0 0.524315 0.859373
0 0.587945 0.960174
0 0.65156 1
1 0.162341 0.460792
0.90486 0.225971 0.561578
0.774563 0.289601 0.662379
0.644282 0.353231 0.76318
0.513985 0.416861 0.863981
0.383688 0.480491 0.964767
0.253407 0.544121 1
0.12311 0.607736 1
0 0.671366 1
1 0.182147 0.666987
1 0.245777 0.767773
1 0.309407 0.868574
0.906569 0.373037 0.96936
0.776272 0.436667 1
0.645975 0.500282 1
0.515694 0.563912 1
0.385397 0.627543 1
0.2551 0.691173 1
1 0.201953 0.873167
1 0.265583 0.973953
1 0.329213 1
1 0.392828 1
1 0.456458 1
0.908263 0.520088 1
0.777981 0.583719 1
0.647684 0.647349 1
0.517388 0.710979 1
1 0.221759 1
1 0.285389 1
1 0.349004 1
1 0.412634 1
1 0.476265 1
1 0.539895 1
1 0.603525 1
0.909972 0.667155 1
0.779675 0.730785 1
1 0.241566 1
1 0.30518 1
1 0.368811 1
1 0.432441 1
1 0.496071 1
1 0.559701 1
1 0.623331 1
1 0.686961 1
1 0.750591 1
0 0.124697 0
0 0.188327 0
0 0.251957 0
0 0.315572 0
0 0.379202 0
0 0.442832 0
0 0.506462 0.0588388
0 0.570092 0.15964
0 0.633722 0.260441
0.241276 0.144503 0
0.110994 0.208118 0
0 0.271748 0
0 0.335378 0
0 0.399008 0.0634012
0 0.462638 0.164202
0 0.526268 0.265003
0 0.589899 0.365805
0 0.653529 0.466606
0.503563 0.164309 0
0.373281 0.227924 0
0.243 0.291554 0.0679942
0.112703 0.355184 0.168795
0 0.418814 0.269596
0 0.482444 0.370398
0 0.546075 0.471199
0 0.609705 0.572
0 0.673335 0.672801
0.76585 0.184115 0.0726024
0.635569 0.24773 0.173388
0.505287 0.31136 0.274189
0.37499 0.37499 0.37499
0.244694 0.438621 0.475792
0.114412 0.502251 0.576593
0 0.565881 0.677394
0 0.629511 0.778195
0 0.693141 0.878996
1 0.203922 0.278798
0.897856 0.267536 0.379583
0.767575 0.331167 0.480385
0.637278 0.394797 0.581186
0.506981 0.458427 0.681987
0.376699 0.522057 0.782788
0.246403 0.585687 0.883589
0.116106 0.649317 0.984375
0 0.712947 1
1 0.223713 0.484993
1 0.287343 0.585779
1 0.350973 0.68658
0.899565 0.414603 0.787381
0.769284 0.478233 0.888182
0.638987 0.541863 0.988968
0.50869 0.605493 1
0.378408 0.669123 1
0.248112 0.732738 1
1 0.243519 0.691188
1 0.307149 0.791974
1 0.370779 0.892775
1 0.434409 0.993576
1 0.498039 1
0.901274 0.561669 1
0.770977 0.625284 1
0.640696 0.688914 1
0.510399 0.752544 1
1 0.263325 0.897368
1 0.326955 0.998169
1 0.390585 1
1 0.454215 1
1 0.51783 1
1 0.58146 1
1 0.64509 1
0.902983 0.708721 1
0.772686 0.772351 1
1 0.283131 1
1 0.346761 1
1 0.410391 1
1 0.474006 1
1 0.537636 1
1 0.601267 1
1 0.664897 1
1 0.728527 1
1 0.792157 1
0 0.166262 0
0 0.229892 0
0 0.293523 0
0 0.357153 0
0 0.420783 0
0 0.484413 0
0 0.548028 0
0 0.611658 0
0 0.675288 0.0784466
0.234272 0.186069 0
0.104005 0.249699 0
0 0.313313 0
0 0.376944 0
0 0.440574 0
0 0.504204 0
0 0.567834 0.0830091
0 0.631464 0.18381
0 0.695094 0.284611
0.496559 0.205875 0
0.366293 0.26949 0
0.235996 0.33312 0
0.105699 0.39675 0
0 0.46038 0.087602
0 0.52401 0.188403
0 0.58764 0.289204
0 0.65127 0.390005
0 0.7149 0.490806
0.758862 0.225681 0
0.62858 0.289296 0
0.498283 0.352926 0.092195
0.368002 0.416556 0.192996
0.237705 0.480186 0.293797
0.107408 0.543816 0.394598
0 0.607446 0.495399
0 0.671077 0.596201
0 0.734707 0.697002
1 0.245487 0.0968032
0.890867 0.309102 0.197589
0.760571 0.372732 0.29839
0.630289 0.436362 0.399191
0.499992 0.499992 0.499992
0.369696 0.563622 0.600793
0.239414 0.627253 0.701595
0.109117 0.690883 0.802396
0 0.754513 0.903197
1 0.265293 0.302998
1 0.328908 0.403784
1 0.392538 0.504585
0.892576 0.456168 0.605386
0.76228 0.519799 0.706188
0.631983 0.583429 0.806989
0.501701 0.647059 0.90779
0.371405 0.710689 1
0.241108 0.774319 1
1 0.2851 0.509194
1 0.348714 0.609979
1 0.412345 0.710781
1 0.475975 0.811582
1 0.539605 0.912383
0.894286 0.603235 1
0.763989 0.666865 1
0.633692 0.730495 1
0.50341 0.794125 1
1 0.304891 0.715389
1 0.368521 0.816175
1 0.432151 0.916976
1 0.495781 1
1 0.559411 1
1 0.623041 1
1 0.686671 1
0.895979 0.750286 1
0.765698 0.813916 1
1 0.324697 0.921584
1 0.388327 1
1 0.451957 1
1 0.515587 1
1 0.579217 1
1 0.642832 1
1 0.706462 1
1 0.770092 1
1 0.833722 1
0 0.207843 0
0 0.271458 0
0 0.335088 0
0 0.398718 0
0 0.462348 0
0 0.525979 0
0 0.589609 0
0 0.653239 0
0 0.716869 0
0.227283 0.227634 0
0.0970016 0.291264 0
0 0.354894 0
0 0.418524 0
0 0.482155 0
0 0.545769 0
0 0.6094 0
0 0.67303 0.00181582
0 0.73666 0.102617
0.48957 0.24744 0
0.359289 0.31107 0
0.229007 0.374701 0
0.0987106 0.438315 0
0 0.501945 0
0 0.565576 0.00640879
0 0.629206 0.10721
0 0.692836 0.208011
0 0.756466 0.308812
0.751858 0.267247 0
0.621576 0.330861 0
0.491295 0.394491 0
0.360998 0.458122 0.011017
0.230716 0.521752 0.111803
0.10042 0.585382 0.212604
0 0.649012 0.313405
0 0.712642 0.414206
0 0.776272 0.515007
1 0.287053 0
0.883879 0.350668 0.01561
0.753582 0.414298 0.116396
0.623285 0.477928 0.217197
0.493004 0.541558 0.317998
0.362707 0.605188 0.418799
0.23241 0.668818 0.5196
0.102129 0.732448 0.620401
0 0.796078 0.721202
1 0.306859 0.121004
1 0.370474 0.22179
1 0.434104 0.322591
0.885573 0.497734 0.423392
0.755291 0.561364 0.524193
0.624994 0.624994 0.624994
0.494697 0.688624 0.725795
0.364416 0.752255 0.826596
0.234119 0.815885 0.927398
1 0.326665 0.327199
1 0.39028 0.427985
1 0.45391 0.528786
1 0.51754 0.629587
1 0.58117 0.730388
0.887282 0.6448 0.831189
0.756985 0.708431 0.931991
0.626703 0.772061 1
0.496406 0.835691 1
1 0.346471 0.533394
1 0.410086 0.63418
1 0.473716 0.734981
1 0.537346 0.835782
1 0.600977 0.936584
1 0.664607 1
1 0.728237 1
0.888991 0.791867 1
0.758694 0.855497 1
1 0.366278 0.73959
1 0.429892 0.840375
1 0.493523 0.941176
1 0.557153 1
1 0.620783 1
1 0.684413 1
1 0.748043 1
1 0.811673 1
1 0.875288 1
0 0.249409 0
0 0.313024 0
0 0.376654 0
0 0.440284 0
0 0.503914 0
0 0.567544 0
0 0.631174 0
0 0.694804 0
0 0.758434 0
0.220279 0.2692 0
0.090013 0.33283 0
0 0.39646 0
0 0.46009 0
0 0.52372 0
0 0.58735 0
0 0.65098 0
0 0.714595 0
0 0.778225 0
0.482582 0.289006 0
0.3523 0.352636 0
0.222004 0.416266 0
0.091722 0.479896 0
0 0.543526 0
0 0.607156 0
0 0.670771 0
0 0.734401 0.0260319
0 0.798032 0.126818
0.744869 0.308812 0
0.614588 0.372442 0
0.484291 0.436072 0
0.354009 0.499702 0
0.223713 0.563317 0
0.0934157 0.626947 0.0306249
0 0.690578 0.131411
0 0.754208 0.232212
0 0.817838 0.333013
1 0.328618 0
0.876875 0.392248 0
0.746578 0.455863 0
0.616297 0.519493 0.0352178
0.486 0.583124 0.136019
0.355718 0.646754 0.236805
0.225422 0.710384 0.337606
0.0951247 0.774014 0.438407
0 0.837644 0.539208
1 0.348424 0
1 0.412039 0.0398108
1 0.47567 0.140612
0.878584 0.5393 0.241398
0.748287 0.60293 0.342199
0.618006 0.66656 0.443
0.487709 0.73019 0.543801
0.357412 0.79382 0.644602
0.227131 0.85745 0.745403
1 0.368231 0.145205
1 0.431846 0.245991
1 0.495476 0.346792
1 0.559106 0.447593
1 0.622736 0.548394
0.880293 0.686366 0.649195
0.749996 0.749996 0.749996
0.619699 0.813626 0.850797
0.489418 0.877256 0.951598
1 0.388037 0.3514
1 0.451652 0.452186
1 0.515282 0.552987
1 0.578912 0.653788
1 0.642542 0.754589
1 0.706172 0.85539
1 0.769802 0.956191
0.881987 0.833432 1
0.751705 0.897063 1
1 0.407843 0.557595
1 0.471458 0.658381
1 0.535088 0.759182
1 0.598718 0.859983
1 0.662348 0.960784
1 0.725978 1
1 0.789609 1
1 0.853239 1
1 0.916869 1
0 0.290974 0
0 0.354589 0
0 0.418219 0
0 0.481849 0
0 0.54548 0
0 0.60911 0
0 0.67274 0
0 0.73637 0
0 0.8 0
0.213291 0.31078 0
0.0830091 0.374395 0
0 0.438025 0
0 0.501656 0
0 0.565286 0
0 0.628916 0
0 0.692546 0
0 0.756176 0
0 0.819806 0
0.475578 0.330587 0
0.345312 0.394202 0
0.215015 0.457832 0
0.0847181 0.521462 0
0 0.585092 0
0 0.648722 0
0 0.712352 0
0 0.775982 0
0 0.839597 0
0.737865 0.350378 0
0.607599 0.414008 0
0.477302 0.477638 0
0.347005 0.541268 0
0.216724 0.604898 0
0.0864271 0.668528 0
0 0.732158 0
0 0.795773 0.0502327
0 0.859403 0.151034
1 0.370184 0
0.869886 0.433814 0
0.73959 0.497444 0
0.609293 0.561074 0
0.479011 0.624704 0
0.348714 0.688319 0.0548257
0.218418 0.751949 0.155627
0.0881361 0.815579 0.256413
0 0.87921 0.357214
1 0.38999 0
1 0.45362 0
1 0.51725 0
0.87158 0.580865 0.0594186
0.741299 0.644495 0.16022
0.611002 0.708125 0.261021
0.480705 0.771756 0.361807
0.350423 0.835386 0.462608
0.220127 0.899016 0.563409
1 0.409796 0
1 0.473426 0.0640116
1 0.537041 0.164813
1 0.600671 0.265614
1 0.664302 0.3664
0.873289 0.727932 0.467201
0.743008 0.791562 0.568002
0.612711 0.855192 0.668803
0.482414 0.918822 0.769604
1 0.429603 0.169421
1 0.493217 0.270207
1 0.556848 0.370993
1 0.620478 0.471794
1 0.684108 0.572595
1 0.747738 0.673396
1 0.811368 0.774197
0.874998 0.874998 0.874998
0.744701 0.938628 0.975799
1 0.449409 0.375601
1 0.513024 0.476387
1 0.576654 0.577188
1 0.640284 0.677989
1 0.703914 0.77879
1 0.767544 0.879591
1 0.831174 0.980392
1 0.894804 1
1 0.958434 1
0 0.33254 0
0 0.39617 0
0 0.459785 0
0 0.523415 0
0 0.587045 0
0 0.650675 0
0 0.714305 0
0 0.777935 0
0 0.841566 0
0.206302 0.352346 0
0.0760204 0.415961 0
0 0.479591 0
0 0.543221 0
0 0.606851 0
0 0.670481 0
0 0.734112 0
0 0.797742 0
0 0.861372 0
0.468589 0.372152 0
0.338308 0.435767 0
0.208011 0.499397 0
0.0777295 0.563027 0
0 0.626657 0
0 0.690288 0
0 0.753918 0
0 0.817548 0
0 0.881178 0
0.730877 0.391959 0
0.600595 0.455573 0
0.470314 0.519203 0
0.340017 0.582834 0
0.20972 0.646464 0
0.0794385 0.710094 0
0 0.773724 0
0 0.837354 0
0 0.900984 0
0.993164 0.411749 0
0.862882 0.47538 0
0.732601 0.53901 0
0.602304 0.60264 0
0.472007 0.66627 0
0.341726 0.7299 0
0.211429 0.79353 0
0.0811322 0.85716 0.0744335
0 0.920775 0.175235
1 0.431556 0
1 0.495186 0
0.994888 0.558816 0
0.864591 0.622446 0
0.734295 0.686076 0
0.604013 0.749706 0.0790265
0.473716 0.813321 0.179828
0.34342 0.876951 0.280629
0.213138 0.940581 0.381415
1 0.451362 0
1 0.514992 0
1 0.578622 0
1 0.642252 0.0836194
0.996582 0.705867 0.184421
0.8663 0.769497 0.285222
0.736004 0.833127 0.386023
0.605722 0.896757 0.486809
0.475425 0.960388 0.58761
1 0.471168 0
1 0.534798 0.0882124
1 0.598428 0.189014
1 0.662043 0.289815
1 0.725673 0.390616
1 0.789303 0.491402
0.998291 0.852934 0.592203
0.868009 0.916564 0.693004
0.737713 0.980194 0.793805
1 0.490974 0.193622
1 0.554589 0.294408
1 0.618219 0.395209
1 0.681849 0.495995
1 0.74548 0.596796
1 0.80911 0.697597
1 0.87274 0.798398
1 0.93637 0.899199
1 1 1
