public/LUTS/Color Loss/Color Loss_02.cube
TITLE "Generated by Resolve"
LUT_3D_SIZE 9
0 0 0
0.105241 0.0052491 0.0052491
0.210483 0.0104982 0.0104982
0.31574 0.0157473 0.0157473
0.420996 0.0209964 0.0209964
0.526238 0.0262455 0.0262455
0.631495 0.0314946 0.0314946
0.736751 0.0367437 0.0367437
0.841993 0.0419928 0.0419928
0.0175021 0.117494 0.0175021
0.122744 0.122744 0.0227512
0.227985 0.127993 0.0280003
0.333242 0.133242 0.0332494
0.438499 0.138491 0.0384985
0.54374 0.14374 0.0437476
0.648997 0.148989 0.0489967
0.754253 0.154238 0.0542458
0.859495 0.159487 0.0594949
0.0350042 0.234989 0.0350042
0.14023 0.240238 0.0402533
0.245487 0.245487 0.0455024
0.350744 0.250736 0.0507515
0.455985 0.255985 0.0560006
0.561242 0.261234 0.0612497
0.666499 0.266484 0.0664988
0.77174 0.271733 0.0717479
0.876997 0.276982 0.076997
0.0525063 0.352499 0.052491
0.157733 0.357748 0.0577401
0.262989 0.362997 0.0630045
0.368246 0.368246 0.0682536
0.473487 0.373495 0.0735027
0.578744 0.378744 0.0787518
0.684001 0.383993 0.0840009
0.789242 0.389242 0.08925
0.894499 0.394491 0.0944991
0.0699931 0.469993 0.0699931
0.175235 0.475242 0.0752422
0.280491 0.480491 0.0804913
0.385748 0.48574 0.0857404
0.49099 0.49099 0.0910048
0.596246 0.496239 0.0962539
0.701503 0.501488 0.101503
0.806745 0.506737 0.106752
0.912001 0.511986 0.112001
0.0874952 0.587488 0.0874952
0.192737 0.592737 0.0927443
0.297993 0.598001 0.0979934
0.403235 0.60325 0.103243
0.508492 0.608499 0.108492
0.613748 0.613748 0.113741
0.71899 0.618997 0.11899
0.824247 0.624247 0.124254
0.929503 0.629496 0.129503
0.104997 0.704997 0.104997
0.210239 0.710246 0.110246
0.315496 0.715496 0.115496
0.420737 0.720745 0.120745
0.525994 0.725994 0.125994
0.631251 0.731243 0.131243
0.736492 0.736492 0.136492
0.841749 0.741741 0.141741
0.947005 0.74699 0.14699
0.122499 0.822492 0.122499
0.227741 0.827741 0.127749
0.332998 0.83299 0.132998
0.438239 0.838254 0.138247
0.543496 0.843503 0.143496
0.648737 0.848753 0.148745
0.753994 0.854002 0.153994
0.859251 0.859251 0.159243
0.964492 0.8645 0.164492
0.140002 0.940002 0.140002
0.245243 0.945251 0.145251
0.350484 0.9505 0.1505
0.455741 0.955749 0.155749
0.560998 0.960998 0.160998
0.666239 0.966247 0.166247
0.771496 0.971496 0.171496
0.876753 0.976745 0.176745
0.981994 0.981994 0.181994
0.00224308 0.00224308 0.102235
0.107485 0.00749218 0.107485
0.212741 0.0127413 0.112734
0.317998 0.0180056 0.117983
0.423239 0.0232548 0.123232
0.528496 0.0285039 0.128496
0.633753 0.033753 0.133745
0.738994 0.0390021 0.138994
0.844251 0.0442512 0.144244
0.0197452 0.119738 0.119738
0.124987 0.124987 0.124987
0.230243 0.130236 0.130236
0.335485 0.135485 0.135485
0.440742 0.140734 0.140734
0.545998 0.145983 0.145983
0.65124 0.151232 0.151232
0.756497 0.156481 0.156481
0.861753 0.16173 0.16173
0.0372473 0.237232 0.13724
0.142489 0.242481 0.142489
0.247745 0.247745 0.147738
0.352987 0.252995 0.152987
0.458244 0.258244 0.158236
0.5635 0.263493 0.163485
0.668742 0.268742 0.168734
0.773999 0.273991 0.173983
0.879255 0.27924 0.179232
0.0547494 0.354742 0.154742
0.159991 0.359991 0.159991
0.265232 0.36524 0.16524
0.370489 0.370489 0.170489
0.475746 0.375738 0.175738
0.580987 0.380987 0.180987
0.686244 0.386236 0.186236
0.791501 0.391485 0.191485
0.896742 0.396735 0.196735
0.0722515 0.472236 0.172244
0.177493 0.477485 0.177493
0.282734 0.482734 0.182742
0.387991 0.487999 0.187991
0.493248 0.493248 0.19324
0.598489 0.498497 0.198489
0.703746 0.503746 0.203738
0.809003 0.508995 0.208988
0.914244 0.514244 0.214237
0.0897536 0.589746 0.189731
0.194995 0.594995 0.19498
0.300237 0.600244 0.200244
0.405493 0.605493 0.205493
0.51075 0.610742 0.210742
0.615991 0.615991 0.215991
0.721248 0.621241 0.221241
0.826505 0.62649 0.22649
0.931746 0.631739 0.231739
0.107256 0.70724 0.207233
0.212482 0.712489 0.212482
0.317739 0.717739 0.217731
0.422995 0.722988 0.22298
0.528237 0.728252 0.228229
0.633494 0.733501 0.233494
0.73875 0.73875 0.238743
0.843992 0.743999 0.243992
0.949248 0.749249 0.249241
0.124743 0.82475 0.224735
0.229984 0.829999 0.229984
0.335241 0.835248 0.235233
0.440497 0.840497 0.240482
0.545739 0.845747 0.245731
0.650996 0.850996 0.25098
0.756252 0.856245 0.256229
0.861494 0.861494 0.261494
0.966751 0.866743 0.266743
0.142245 0.942245 0.242237
0.247486 0.947494 0.247486
0.352743 0.952743 0.252735
0.457984 0.957992 0.257984
0.563241 0.963241 0.263233
0.668498 0.968505 0.268482
0.773739 0.973754 0.273732
0.878996 0.979004 0.278981
0.984253 0.984253 0.28423
0.00450141 0.00450141 0.204486
0.109743 0.00975052 0.209735
0.214984 0.0149996 0.214984
0.320241 0.0202487 0.220233
0.425498 0.0254978 0.225498
0.530739 0.0307469 0.230747
0.635996 0.035996 0.235996
0.741253 0.0412451 0.241245
0.846494 0.0464942 0.246494
0.0220035 0.121981 0.221988
0.12723 0.12723 0.227237
0.232486 0.132494 0.232486
0.337743 0.137743 0.237736
0.442985 0.142992 0.242985
0.548241 0.148241 0.248234
0.653498 0.15349 0.253483
0.75874 0.15874 0.258732
0.863996 0.163989 0.263981
0.0395056 0.23949 0.23949
0.144732 0.244739 0.244739
0.249989 0.249989 0.249989
0.355245 0.255238 0.255238
0.460487 0.260487 0.260487
0.565744 0.265736 0.265736
0.671 0.270985 0.270985
0.776242 0.276234 0.276234
0.881498 0.281483 0.281483
0.0569924 0.356985 0.256992
0.162234 0.362234 0.262242
0.267491 0.367483 0.267491
0.372747 0.372747 0.27274
0.477989 0.377997 0.277989
0.583246 0.383246 0.283238
0.688502 0.388495 0.288487
0.793744 0.393744 0.293736
0.899001 0.398993 0.298985
0.0744945 0.474495 0.274495
0.179736 0.479744 0.279744
0.284993 0.484993 0.284993
0.390234 0.490242 0.290242
0.495491 0.495491 0.295491
0.600748 0.50074 0.30074
0.705989 0.505989 0.305989
0.811246 0.511238 0.311238
0.916503 0.516487 0.316487
0.0919966 0.591989 0.291997
0.197238 0.597238 0.297246
0.302495 0.602487 0.302495
0.407736 0.607736 0.307744
0.512993 0.613001 0.312993
0.61825 0.61825 0.318242
0.723491 0.623499 0.323491
0.828748 0.628748 0.32874
0.934005 0.633997 0.333989
0.109499 0.709499 0.309483
0.21474 0.714748 0.314733
0.319997 0.719997 0.319982
0.425238 0.725246 0.325246
0.530495 0.730495 0.330495
0.635752 0.735744 0.335744
0.740993 0.740993 0.340993
0.84625 0.746242 0.346242
0.951507 0.751492 0.351492
0.127001 0.826993 0.326986
0.232242 0.832242 0.332235
0.337484 0.837491 0.337484
0.442741 0.842741 0.342733
0.547997 0.84799 0.347982
0.653239 0.853254 0.353246
0.758495 0.858503 0.358495
0.863752 0.863752 0.363745
0.968994 0.869001 0.368994
0.144503 0.944503 0.344488
0.249744 0.949752 0.349737
0.354986 0.955001 0.354986
0.460243 0.96025 0.360235
0.565499 0.965499 0.365484
0.670741 0.970748 0.370733
0.775998 0.975998 0.375982
0.881254 0.981247 0.381231
0.986496 0.986496 0.386496
0.00674449 0.00674449 0.306737
0.111986 0.0119936 0.311986
0.217243 0.0172427 0.317235
0.322499 0.0224918 0.322499
0.427741 0.0277562 0.327749
0.532998 0.0330053 0.332998
0.638239 0.0382544 0.338247
0.743496 0.0435035 0.343496
0.848753 0.0487526 0.348745
0.0242466 0.124239 0.324239
0.129488 0.129488 0.329488
0.234745 0.134737 0.334737
0.339986 0.139986 0.339986
0.445243 0.145235 0.345235
0.5505 0.150484 0.350484
0.655741 0.155734 0.355734
0.760998 0.160983 0.360998
0.866255 0.166232 0.366247
0.0417487 0.241733 0.341741
0.14699 0.246983 0.34699
0.252232 0.252232 0.352239
0.357488 0.257496 0.357488
0.462745 0.262745 0.362737
0.567987 0.267994 0.367987
0.673243 0.273243 0.373236
0.7785 0.278492 0.378485
0.883741 0.283742 0.383734
0.0592508 0.359243 0.359243
0.164492 0.364492 0.364492
0.269734 0.369741 0.369741
0.37499 0.37499 0.37499
0.480247 0.38024 0.38024
0.585489 0.385489 0.385489
0.690745 0.390738 0.390738
0.796002 0.395987 0.395987
0.901244 0.401236 0.401236
0.0767529 0.476738 0.376745
0.181994 0.481987 0.381994
0.287236 0.487236 0.387243
0.392493 0.492485 0.392493
0.497749 0.497749 0.397742
0.602991 0.502998 0.402991
0.708247 0.508247 0.40824
0.813504 0.513497 0.413489
0.918746 0.518746 0.418738
0.094255 0.594247 0.394247
0.199481 0.599496 0.399496
0.304738 0.604746 0.404746
0.409995 0.609995 0.409995
0.515236 0.615244 0.415244
0.620493 0.620493 0.420493
0.72575 0.625742 0.425742
0.830991 0.630991 0.430991
0.936248 0.63624 0.43624
0.111742 0.711742 0.411734
0.216983 0.716991 0.416983
0.32224 0.72224 0.422248
0.427497 0.727489 0.427497
0.532738 0.732738 0.432746
0.637995 0.738003 0.437995
0.743252 0.743252 0.443244
0.848493 0.748501 0.448493
0.95375 0.75375 0.453742
0.129244 0.829252 0.429236
0.234485 0.834501 0.434485
0.339742 0.83975 0.439734
0.444999 0.844999 0.444984
0.55024 0.850248 0.450248
0.655497 0.855497 0.455497
0.760754 0.860746 0.460746
0.865995 0.865995 0.465995
0.971252 0.871244 0.471244
0.146746 0.946746 0.446738
0.251987 0.951995 0.451987
0.357244 0.957244 0.457237
0.462486 0.962493 0.462486
0.567742 0.967742 0.467735
0.672999 0.972992 0.472984
0.778241 0.978256 0.478233
0.883497 0.983505 0.483497
0.988754 0.988754 0.488746
0.00900282 0.00900282 0.408988
0.114244 0.0142519 0.414252
0.219486 0.019501 0.419501
0.324742 0.0247501 0.42475
0.429999 0.0299992 0.429999
0.535241 0.0352483 0.435248
0.640497 0.0404974 0.440497
0.745754 0.0457465 0.445747
0.850996 0.0509957 0.450996
0.0265049 0.126482 0.42649
0.131731 0.131731 0.431739
0.236988 0.13698 0.436988
0.342245 0.142245 0.442237
0.447486 0.147494 0.447486
0.552743 0.152743 0.452735
0.658 0.157992 0.458
0.763241 0.163241 0.463249
0.868498 0.16849 0.468498
0.0439918 0.243992 0.443992
0.149233 0.249241 0.449241
0.25449 0.25449 0.45449
0.359747 0.259739 0.459739
0.464988 0.264988 0.464988
0.570245 0.270237 0.470237
0.675502 0.275486 0.475486
0.780743 0.280735 0.480735
0.886 0.285985 0.486
0.0614939 0.361486 0.461494
0.166735 0.366735 0.466743
0.271992 0.371984 0.471992
0.377234 0.377234 0.477241
0.48249 0.382498 0.48249
0.587747 0.387747 0.487739
0.692988 0.392996 0.492988
0.798245 0.398245 0.498238
0.903502 0.403494 0.503487
0.078996 0.478996 0.478996
0.184237 0.484245 0.484245
0.289494 0.489494 0.489494
0.394736 0.494743 0.494743
0.499992 0.499992 0.499992
0.605249 0.505241 0.505241
0.710491 0.510491 0.510491
0.815747 0.51574 0.51574
0.921004 0.520989 0.520989
0.0964981 0.59649 0.496498
0.20174 0.60174 0.501747
0.306996 0.606989 0.506996
0.412238 0.612238 0.512245
0.517494 0.617487 0.517494
0.622751 0.622751 0.522744
0.727993 0.628 0.527993
0.833249 0.633249 0.533242
0.938506 0.638498 0.538491
0.114 0.714 0.514
0.219242 0.719249 0.519249
0.324483 0.724498 0.524498
0.42974 0.729747 0.529747
0.534997 0.734997 0.534997
0.640238 0.740246 0.540246
0.745495 0.745495 0.545495
0.850752 0.750744 0.550744
0.955993 0.755993 0.555993
0.131502 0.831495 0.531487
0.236744 0.836744 0.536736
0.341985 0.841993 0.541985
0.447242 0.847242 0.54725
0.552499 0.852491 0.552499
0.65774 0.85774 0.557748
0.762997 0.863005 0.562997
0.868254 0.868254 0.568246
0.973495 0.873503 0.573495
0.149004 0.949004 0.548989
0.254246 0.954253 0.554238
0.359487 0.959503 0.559487
0.464744 0.964752 0.564736
0.570001 0.970001 0.569986
0.675242 0.97525 0.57525
0.780499 0.980499 0.580499
0.885756 0.985748 0.585748
0.990997 0.990997 0.590997
0.0112459 0.0112459 0.511254
0.116487 0.016495 0.516503
0.221744 0.0217441 0.521752
0.326986 0.0269932 0.527001
0.432242 0.0322423 0.53225
0.537499 0.0375067 0.537499
0.642741 0.0427558 0.542748
0.747997 0.0480049 0.547997
0.853254 0.053254 0.553246
0.028748 0.12874 0.52874
0.133989 0.133989 0.533989
0.239231 0.139239 0.539239
0.344488 0.144488 0.544488
0.449744 0.149737 0.549737
0.554986 0.154986 0.555001
0.660243 0.160235 0.56025
0.765499 0.165484 0.565499
0.870741 0.170733 0.570748
0.0462501 0.246235 0.546242
0.151492 0.251484 0.551492
0.256733 0.256733 0.556741
0.36199 0.261982 0.56199
0.467247 0.267247 0.567239
0.572488 0.272496 0.572488
0.677745 0.277745 0.577737
0.783001 0.282994 0.583001
0.888243 0.288243 0.588251
0.0637522 0.363745 0.563745
0.168994 0.368994 0.568994
0.274235 0.374243 0.574243
0.379492 0.379492 0.579492
0.484749 0.384741 0.584741
0.58999 0.38999 0.58999
0.695247 0.395239 0.595239
0.800504 0.400488 0.600488
0.905745 0.405737 0.605737
0.0812543 0.481239 0.581247
0.186481 0.486488 0.586496
0.291737 0.491737 0.591745
0.396994 0.496986 0.596994
0.502235 0.502235 0.602243
0.607492 0.5075 0.607492
0.712749 0.512749 0.612741
0.81799 0.517998 0.61799
0.923247 0.523247 0.62324
0.0987564 0.598749 0.598749
0.203983 0.603998 0.603998
0.309239 0.609247 0.609247
0.414496 0.614496 0.614496
0.519738 0.619745 0.619745
0.624994 0.624994 0.624994
0.730251 0.630243 0.630243
0.835492 0.635493 0.635493
0.940749 0.640742 0.640742
0.116243 0.716243 0.616251
0.221485 0.721492 0.6215
0.326741 0.726741 0.626749
0.431998 0.731991 0.631998
0.53724 0.73724 0.637247
0.642496 0.742489 0.642496
0.747753 0.747753 0.647745
0.852995 0.753002 0.652995
0.958251 0.758251 0.658244
0.133745 0.833753 0.633738
0.238987 0.839002 0.638987
0.344244 0.844251 0.644251
0.449485 0.8495 0.6495
0.554742 0.854749 0.654749
0.659998 0.859998 0.659998
0.76524 0.865248 0.665248
0.870497 0.870497 0.670497
0.975753 0.875746 0.675746
0.151247 0.951247 0.65124
0.256489 0.956497 0.656489
0.361746 0.961746 0.661738
0.466987 0.966995 0.666987
0.572244 0.972244 0.672251
0.677501 0.977493 0.677501
0.782742 0.982742 0.68275
0.887999 0.988006 0.687999
0.993255 0.993255 0.693248
0.0135042 0.0135042 0.613504
0.118746 0.0187533 0.618753
0.223987 0.0240024 0.624002
0.329244 0.0292515 0.629252
0.434501 0.0345006 0.634501
0.539742 0.0397498 0.63975
0.644999 0.0449989 0.644999
0.750256 0.050248 0.650248
0.855497 0.0554971 0.655497
0.0309911 0.130983 0.630991
0.136233 0.136233 0.63624
0.241489 0.141482 0.641489
0.346746 0.146731 0.646754
0.451987 0.151995 0.652003
0.557244 0.157244 0.657252
0.662501 0.162493 0.662501
0.767742 0.167742 0.66775
0.872999 0.172992 0.672999
0.0484932 0.248493 0.648493
0.153735 0.253742 0.653742
0.258991 0.258991 0.658991
0.364233 0.26424 0.66424
0.46949 0.26949 0.66949
0.574746 0.274739 0.674739
0.679988 0.279988 0.680003
0.785245 0.285237 0.685252
0.890501 0.290486 0.690501
0.0659953 0.365988 0.665995
0.171237 0.371237 0.671244
0.276493 0.376486 0.676493
0.381735 0.381735 0.681743
0.486992 0.386984 0.686992
0.592248 0.392248 0.692241
0.69749 0.397498 0.69749
0.802747 0.402747 0.702739
0.908003 0.407996 0.708003
0.0834974 0.483497 0.683497
0.188739 0.488746 0.688746
0.293996 0.493996 0.693996
0.399237 0.499245 0.699245
0.504494 0.504494 0.704494
0.609751 0.509743 0.709743
0.714992 0.514992 0.714992
0.820249 0.520241 0.720241
0.925505 0.52549 0.72549
0.100999 0.600992 0.700999
0.206241 0.606241 0.706249
0.311482 0.61149 0.711498
0.416739 0.616739 0.716747
0.521996 0.621988 0.721996
0.627237 0.627237 0.727245
0.732494 0.632502 0.732494
0.837751 0.637751 0.737743
0.942992 0.643 0.742992
0.118502 0.718502 0.718502
0.223743 0.723751 0.723751
0.328984 0.729 0.729
0.434241 0.734249 0.734249
0.539498 0.739498 0.739498
0.644739 0.744747 0.744747
0.749996 0.749996 0.749996
0.855253 0.755245 0.755245
0.960494 0.760494 0.760494
0.136004 0.835996 0.736004
0.241245 0.841245 0.741253
0.346487 0.846494 0.746502
0.451743 0.851743 0.751751
0.557 0.856992 0.757
0.662242 0.862242 0.762249
0.767498 0.867491 0.767498
0.872755 0.872755 0.772747
0.977996 0.878004 0.777996
0.153506 0.953506 0.753491
0.258732 0.958755 0.75874
0.363989 0.964004 0.763989
0.469245 0.969253 0.769253
0.574487 0.974502 0.774502
0.679744 0.979751 0.779751
0.785 0.985 0.785
0.890242 0.99025 0.790249
0.995499 0.995499 0.795499
0.0157473 0.0157473 0.715755
0.120989 0.0209964 0.721004
0.226246 0.0262455 0.726253
0.331487 0.0314946 0.731502
0.436744 0.0367437 0.736751
0.542 0.0419928 0.742
0.647242 0.0472572 0.74725
0.752499 0.0525063 0.752499
0.857755 0.0577554 0.757748
0.0332494 0.133242 0.733242
0.138491 0.138491 0.738491
0.243732 0.14374 0.743755
0.348989 0.148989 0.749004
0.454246 0.154238 0.754253
0.559487 0.159487 0.759503
0.664744 0.164736 0.764752
0.770001 0.169986 0.770001
0.875242 0.175235 0.77525
0.0507515 0.250736 0.750744
0.155993 0.255985 0.755993
0.261234 0.261234 0.761242
0.366491 0.266484 0.766491
0.471748 0.271733 0.77174
0.576989 0.276997 0.777005
0.682246 0.282246 0.782254
0.787503 0.287495 0.787503
0.892744 0.292744 0.792752
0.0682536 0.368246 0.768246
0.17348 0.373495 0.773495
0.278737 0.378744 0.778744
0.383993 0.383993 0.783993
0.489235 0.389242 0.789242
0.594491 0.394491 0.794491
0.699748 0.399741 0.799741
0.80499 0.40499 0.805005
0.910246 0.410239 0.810254
0.0857557 0.48574 0.785748
0.190982 0.49099 0.790997
0.296239 0.496239 0.796246
0.401495 0.501488 0.801495
0.506737 0.506737 0.806745
0.611994 0.511986 0.811994
0.71725 0.51725 0.817243
0.822492 0.522499 0.822492
0.927749 0.527749 0.827741
0.103243 0.60325 0.80325
0.208484 0.608499 0.808499
0.313741 0.613748 0.813748
0.418997 0.618997 0.818998
0.524239 0.624247 0.824247
0.629496 0.629496 0.829496
0.734752 0.634745 0.834745
0.839994 0.639994 0.839994
0.945251 0.645243 0.845243
0.120745 0.720745 0.820752
0.225986 0.725994 0.826001
0.331243 0.731243 0.83125
0.436484 0.736492 0.8365
0.541741 0.741741 0.841749
0.646998 0.74699 0.846998
0.752239 0.752239 0.852247
0.857496 0.757504 0.857496
0.962753 0.762753 0.862745
0.138247 0.838254 0.838254
0.243488 0.843503 0.843503
0.348745 0.848753 0.848753
0.453986 0.854002 0.854002
0.559243 0.859251 0.859251
0.6645 0.8645 0.8645
0.769741 0.869749 0.869749
0.874998 0.874998 0.874998
0.980255 0.880247 0.880247
0.155749 0.955749 0.855741
0.26099 0.960998 0.861006
0.366247 0.966247 0.866255
0.471489 0.971496 0.871504
0.576745 0.976745 0.876753
0.682002 0.981994 0.882002
0.787243 0.987243 0.887251
0.8925 0.992493 0.8925
0.997757 0.997757 0.897749
0.0180056 0.0180056 0.818006
0.123232 0.0232548 0.823255
0.228489 0.0285039 0.828504
0.333745 0.033753 0.833753
0.438987 0.0390021 0.839002
0.544244 0.0442512 0.844251
0.6495 0.0495003 0.8495
0.754742 0.0547494 0.854749
0.859998 0.0599985 0.859998
0.0354925 0.135485 0.835508
0.140734 0.140734 0.840757
0.245991 0.145983 0.846006
0.351247 0.151232 0.851255
0.456489 0.156481 0.856504
0.561746 0.161746 0.861753
0.667002 0.166995 0.867002
0.772244 0.172244 0.872251
0.877501 0.177493 0.877501
0.0529946 0.252995 0.852995
0.158236 0.258244 0.858244
0.263493 0.263493 0.863493
0.368734 0.268742 0.868757
0.473991 0.273991 0.874006
0.579248 0.27924 0.879255
0.684489 0.284489 0.884504
0.789746 0.289738 0.889754
0.895003 0.294987 0.895003
0.0704967 0.370489 0.870497
0.175738 0.375738 0.875746
0.280995 0.380987 0.880995
0.386236 0.386236 0.886244
0.491493 0.391485 0.891493
0.59675 0.396735 0.896742
0.701991 0.401999 0.902007
0.807248 0.407248 0.907256
0.912505 0.412497 0.912505
0.0879988 0.487999 0.887999
0.19324 0.493248 0.893248
0.298482 0.498497 0.898497
0.403738 0.503746 0.903746
0.508995 0.508995 0.908995
0.614237 0.514244 0.914244
0.719493 0.519493 0.919493
0.82475 0.524742 0.924743
0.929992 0.529992 0.930007
0.105501 0.605493 0.905501
0.210742 0.610742 0.91075
0.315984 0.615991 0.915999
0.421241 0.621241 0.921248
0.526497 0.62649 0.926497
0.631739 0.631739 0.931746
0.736996 0.636988 0.936996
0.842252 0.642252 0.942245
0.947494 0.647501 0.947494
0.123003 0.723003 0.923003
0.228244 0.728252 0.928252
0.333486 0.733501 0.933501
0.438743 0.73875 0.93875
0.543999 0.743999 0.943999
0.649241 0.749249 0.949248
0.754498 0.754498 0.954498
0.859754 0.759747 0.959747
0.964996 0.764996 0.964996
0.140505 0.840497 0.940505
0.245731 0.845747 0.945754
0.350988 0.850996 0.951003
0.456245 0.856245 0.956252
0.561486 0.861494 0.961501
0.666743 0.866743 0.966751
0.772 0.871992 0.972
0.877241 0.877241 0.977249
0.982498 0.882506 0.982498
0.158007 0.958007 0.958007
0.263233 0.963256 0.963256
0.36849 0.968505 0.968505
0.473747 0.973754 0.973754
0.578988 0.979004 0.979004
0.684245 0.984253 0.984253
0.789502 0.989502 0.989502
0.894743 0.994751 0.994751
1 1 1
