public/LUTS/Color Loss/Color Loss_04.cube
TITLE "Generated by Resolve"
LUT_3D_SIZE 33
0 0 0
0.0213626 0.00262455 0.00262455
0.0427405 0.0052491 0.0052491
0.0641184 0.00787366 0.00787366
0.0854963 0.0104982 0.0104982
0.106859 0.0131228 0.0131228
0.128237 0.0157473 0.0157473
0.149615 0.0183719 0.0183719
0.170993 0.0209964 0.0209964
0.19237 0.023621 0.023621
0.213748 0.0262455 0.0262455
0.235111 0.0288701 0.0288701
0.256489 0.0314946 0.0314946
0.277867 0.0341192 0.0341192
0.299245 0.0367437 0.0367437
0.320623 0.0393683 0.0393683
0.342 0.0419928 0.0419928
0.363363 0.0446174 0.0446174
0.384741 0.0472419 0.0472419
0.406119 0.0498665 0.0498817
0.427497 0.052491 0.0525063
0.448875 0.0551156 0.0551308
0.470253 0.0577554 0.0577554
0.491615 0.0603799 0.0603799
0.512993 0.0630045 0.0630045
0.534371 0.0656291 0.0656291
0.555749 0.0682536 0.0682536
0.577127 0.0708782 0.0708782
0.598505 0.0735027 0.0735027
0.619867 0.0761273 0.0761273
0.641245 0.0787518 0.0787518
0.662623 0.0813764 0.0813764
0.684001 0.0840009 0.0840009
0.00874342 0.0274815 0.00874342
0.0301061 0.0301061 0.011368
0.0514839 0.0327306 0.0139925
0.0728618 0.0353552 0.0166171
0.0942397 0.0379797 0.0192416
0.115618 0.0406043 0.0218662
0.13698 0.0432288 0.0244907
0.158358 0.0458534 0.0271153
0.179736 0.0484779 0.0297398
0.201114 0.0511177 0.0323644
0.222492 0.0537423 0.0349889
0.24387 0.0563668 0.0376135
0.265232 0.0589914 0.040238
0.28661 0.0616159 0.0428626
0.307988 0.0642405 0.0455024
0.329366 0.066865 0.048127
0.350744 0.0694896 0.0507515
0.372122 0.0721141 0.0533761
0.393484 0.0747387 0.0560006
0.414862 0.0773632 0.0586252
0.43624 0.0799878 0.0612497
0.457618 0.0826123 0.0638743
0.478996 0.0852369 0.0664988
0.500374 0.0878614 0.0691234
0.521737 0.090486 0.0717479
0.543114 0.0931106 0.0743725
0.564492 0.0957351 0.076997
0.58587 0.0983597 0.0796216
0.607248 0.100984 0.0822461
0.628626 0.103609 0.0848707
0.649989 0.106233 0.0874952
0.671366 0.108858 0.0901198
0.692744 0.111482 0.0927443
0.0175021 0.0549935 0.0175021
0.0388647 0.0576181 0.0201267
0.0602426 0.0602426 0.0227512
0.0816052 0.0628672 0.0253758
0.102983 0.0654917 0.0280003
0.124361 0.0681163 0.0306249
0.145739 0.0707408 0.0332494
0.167117 0.0733654 0.035874
0.188495 0.0759899 0.0384985
0.209857 0.0786145 0.0411231
0.231235 0.081239 0.0437476
0.252613 0.0838636 0.0463722
0.273991 0.0864881 0.0489967
0.295369 0.0891127 0.0516213
0.316747 0.0917372 0.0542458
0.338109 0.0943618 0.0568704
0.359487 0.0969863 0.0594949
0.380865 0.0996109 0.0621195
0.402243 0.102235 0.064744
0.423621 0.10486 0.0673686
0.444999 0.107485 0.0699931
0.466361 0.110109 0.0726177
0.487739 0.112734 0.0752422
0.509117 0.115358 0.0778668
0.530495 0.117983 0.0804913
0.551873 0.120607 0.0831159
0.573251 0.123232 0.0857404
0.594614 0.125856 0.088365
0.615991 0.128481 0.0909895
0.637369 0.131106 0.0936141
0.658747 0.13373 0.0962387
0.680125 0.136355 0.0988632
0.701503 0.138979 0.101503
0.0262455 0.0824903 0.0262455
0.0476081 0.0851148 0.0288701
0.068986 0.0877394 0.0314946
0.0903639 0.0903639 0.0341192
0.111742 0.0929885 0.0367437
0.13312 0.095613 0.0393683
0.154482 0.0982376 0.0419928
0.17586 0.100862 0.0446174
0.197238 0.103487 0.0472419
0.218616 0.106111 0.0498665
0.239994 0.108736 0.052491
0.261372 0.11136 0.0551156
0.282734 0.113985 0.0577401
0.304112 0.116609 0.0603647
0.32549 0.119234 0.0629892
0.346868 0.121859 0.0656138
0.368246 0.124483 0.0682383
0.389624 0.127108 0.0708629
0.410986 0.129732 0.0735027
0.432364 0.132357 0.0761273
0.453742 0.134981 0.0787518
0.47512 0.137606 0.0813764
0.496498 0.14023 0.0840009
0.517861 0.142855 0.0866255
0.539239 0.14548 0.08925
0.560616 0.148104 0.0918746
0.581994 0.150729 0.0944991
0.603372 0.153353 0.0971237
0.62475 0.155993 0.0997482
0.646113 0.158618 0.102373
0.667491 0.161242 0.104997
0.688869 0.163867 0.107622
0.710246 0.166491 0.110246
0.0349889 0.109987 0.0349889
0.0563668 0.112612 0.0376135
0.0777295 0.115236 0.040238
0.0991073 0.117861 0.0428626
0.120485 0.120485 0.0455024
0.141863 0.12311 0.048127
0.163241 0.125734 0.0507515
0.184619 0.128359 0.0533761
0.205982 0.130983 0.0560006
0.227359 0.133608 0.0586252
0.248737 0.136233 0.0612497
0.270115 0.138857 0.0638743
0.291493 0.141482 0.0664988
0.312871 0.144106 0.0691234
0.334234 0.146731 0.0717479
0.355612 0.149355 0.0743725
0.376989 0.15198 0.076997
0.398367 0.154604 0.0796216
0.419745 0.157229 0.0822461
0.441123 0.159869 0.0848707
0.462486 0.162493 0.0874952
0.483864 0.165118 0.0901198
0.505241 0.167742 0.0927443
0.526619 0.170367 0.0953689
0.547997 0.172992 0.0979934
0.569375 0.175616 0.100618
0.590738 0.178241 0.103243
0.612116 0.180865 0.105867
0.633494 0.18349 0.108492
0.654871 0.186114 0.111116
0.676249 0.188739 0.113741
0.697627 0.191363 0.116365
0.71899 0.193988 0.11899
0.0437476 0.137484 0.0437476
0.0651102 0.140108 0.0463722
0.0864881 0.142733 0.0489967
0.107866 0.145357 0.0516213
0.129244 0.147982 0.0542458
0.150607 0.150607 0.0568704
0.171984 0.153231 0.0594949
0.193362 0.155856 0.0621195
0.21474 0.15848 0.064744
0.236118 0.161105 0.0673686
0.257496 0.163745 0.0699931
0.278859 0.166369 0.0726177
0.300237 0.168994 0.0752422
0.321614 0.171618 0.0778668
0.342992 0.174243 0.0804913
0.36437 0.176867 0.0831159
0.385748 0.179492 0.0857404
0.407111 0.182116 0.088365
0.428489 0.184741 0.0909895
0.449866 0.187366 0.0936141
0.471244 0.18999 0.0962387
0.492622 0.192615 0.0988632
0.514 0.195239 0.101503
0.535363 0.197864 0.104128
0.556741 0.200488 0.106752
0.578119 0.203113 0.109377
0.599496 0.205737 0.112001
0.620874 0.208362 0.114626
0.642252 0.210986 0.11725
0.663615 0.213611 0.119875
0.684993 0.216236 0.122499
0.706371 0.21886 0.125124
0.727749 0.221485 0.127749
0.052491 0.164996 0.052491
0.0738689 0.16762 0.0551156
0.0952316 0.170245 0.0577401
0.116609 0.172869 0.0603647
0.137987 0.175494 0.0629892
0.159365 0.178119 0.0656138
0.180743 0.180743 0.0682383
0.202121 0.183368 0.0708629
0.223484 0.185992 0.0735027
0.244862 0.188617 0.0761273
0.266239 0.191241 0.0787518
0.287617 0.193866 0.0813764
0.308995 0.19649 0.0840009
0.330358 0.199115 0.0866255
0.351736 0.20174 0.08925
0.373114 0.204364 0.0918746
0.394491 0.206989 0.0944991
0.415869 0.209613 0.0971237
0.437247 0.212238 0.0997482
0.45861 0.214862 0.102373
0.479988 0.217487 0.104997
0.501366 0.220111 0.107622
0.522744 0.222736 0.110246
0.544121 0.22536 0.112871
0.565499 0.227985 0.115496
0.586862 0.23061 0.11812
0.60824 0.233234 0.120745
0.629618 0.235859 0.123369
0.650996 0.238483 0.125994
0.672374 0.241108 0.128618
0.693751 0.243732 0.131243
0.715114 0.246357 0.133867
0.736492 0.248981 0.136492
0.0612497 0.192493 0.0612497
0.0826123 0.195117 0.0638743
0.10399 0.197742 0.0664988
0.125368 0.200366 0.0691234
0.146731 0.202991 0.0717479
0.168109 0.205615 0.0743725
0.189487 0.20824 0.076997
0.210864 0.210864 0.0796216
0.232242 0.213489 0.0822461
0.25362 0.216114 0.0848707
0.274983 0.218738 0.0874952
0.296361 0.221363 0.0901198
0.317739 0.223987 0.0927443
0.339117 0.226612 0.0953689
0.360494 0.229236 0.0979934
0.381872 0.231861 0.100618
0.403235 0.234485 0.103243
0.424613 0.23711 0.105867
0.445991 0.239734 0.108492
0.467369 0.242359 0.111116
0.488746 0.244984 0.113741
0.510124 0.247608 0.116365
0.531487 0.250233 0.11899
0.552865 0.252857 0.121614
0.574243 0.255482 0.124239
0.595621 0.258106 0.126864
0.616999 0.260731 0.129503
0.638376 0.263355 0.132128
0.659739 0.26598 0.134752
0.681117 0.268605 0.137377
0.702495 0.271244 0.140002
0.723873 0.273869 0.142626
0.745251 0.276493 0.145251
0.0699931 0.219989 0.0699931
0.0913558 0.222614 0.0726177
0.112734 0.225238 0.0752422
0.134112 0.227863 0.0778668
0.155489 0.230488 0.0804913
0.176867 0.233112 0.0831159
0.198245 0.235737 0.0857404
0.219608 0.238361 0.088365
0.240986 0.240986 0.0909895
0.262364 0.24361 0.0936141
0.283742 0.246235 0.0962387
0.305119 0.248859 0.0988632
0.326497 0.251484 0.101503
0.34786 0.254108 0.104128
0.369238 0.256733 0.106752
0.390616 0.259358 0.109377
0.411994 0.261982 0.112001
0.433371 0.264607 0.114626
0.454749 0.267231 0.11725
0.476112 0.269856 0.119875
0.49749 0.27248 0.122499
0.518868 0.27512 0.125124
0.540246 0.277745 0.127749
0.561624 0.280369 0.130373
0.583001 0.282994 0.132998
0.604364 0.285618 0.135622
0.625742 0.288243 0.138247
0.64712 0.290867 0.140871
0.668498 0.293492 0.143496
0.689876 0.296117 0.14612
0.711254 0.298741 0.148745
0.732616 0.301366 0.151369
0.753994 0.30399 0.153994
0.0787518 0.247486 0.0787518
0.100114 0.250111 0.0813764
0.121492 0.252735 0.0840009
0.142855 0.25536 0.0866255
0.164233 0.257984 0.08925
0.185611 0.260609 0.0918746
0.206989 0.263233 0.0944991
0.228367 0.265858 0.0971237
0.249744 0.268482 0.0997482
0.271107 0.271107 0.102373
0.292485 0.273732 0.104997
0.313863 0.276356 0.107622
0.335241 0.278996 0.110246
0.356619 0.281621 0.112871
0.377997 0.284245 0.115496
0.399359 0.28687 0.11812
0.420737 0.289494 0.120745
0.442115 0.292119 0.123369
0.463493 0.294743 0.125994
0.484871 0.297368 0.128618
0.506249 0.299992 0.131243
0.527611 0.302617 0.133867
0.548989 0.305241 0.136492
0.570367 0.307866 0.139116
0.591745 0.310491 0.141741
0.613123 0.313115 0.144366
0.634501 0.31574 0.14699
0.655863 0.318364 0.149615
0.677241 0.320989 0.152239
0.698619 0.323613 0.154864
0.719997 0.326238 0.157504
0.741375 0.328862 0.160128
0.762753 0.331487 0.162753
0.0874952 0.274998 0.0874952
0.108858 0.277607 0.0901198
0.130236 0.280232 0.0927443
0.151614 0.282872 0.0953689
0.172992 0.285496 0.0979934
0.194369 0.288121 0.100618
0.215732 0.290745 0.103243
0.23711 0.29337 0.105867
0.258488 0.295995 0.108492
0.279866 0.298619 0.111116
0.301244 0.301244 0.113741
0.322621 0.303868 0.116365
0.343984 0.306493 0.11899
0.365362 0.309117 0.121614
0.38674 0.311742 0.124239
0.408118 0.314366 0.126864
0.429496 0.316991 0.129503
0.450874 0.319615 0.132128
0.472236 0.32224 0.134752
0.493614 0.324865 0.137377
0.514992 0.327489 0.140002
0.53637 0.330114 0.142626
0.557748 0.332738 0.145251
0.579126 0.335363 0.147875
0.600488 0.337987 0.1505
0.621866 0.340612 0.153124
0.643244 0.343236 0.155749
0.664622 0.345861 0.158373
0.686 0.348486 0.160998
0.707378 0.35111 0.163622
0.72874 0.353735 0.166247
0.750118 0.356359 0.168872
0.771496 0.358984 0.171496
0.0962539 0.302495 0.0962539
0.117617 0.305119 0.0988632
0.138994 0.307744 0.101503
0.160357 0.310369 0.104128
0.181735 0.312993 0.106752
0.203113 0.315618 0.109377
0.224491 0.318242 0.112001
0.245869 0.320867 0.114626
0.267247 0.323491 0.11725
0.288609 0.326116 0.119875
0.309987 0.32874 0.122499
0.331365 0.331365 0.125124
0.352743 0.333989 0.127749
0.374121 0.336614 0.130373
0.395499 0.339239 0.132998
0.416861 0.341863 0.135622
0.438239 0.344488 0.138247
0.459617 0.347112 0.140871
0.480995 0.349737 0.143496
0.502373 0.352361 0.14612
0.523751 0.354986 0.148745
0.545113 0.35761 0.151369
0.566491 0.360235 0.153994
0.587869 0.36286 0.156619
0.609247 0.365484 0.159243
0.630625 0.368109 0.161868
0.652003 0.370733 0.164492
0.673365 0.373358 0.167117
0.694743 0.375982 0.169741
0.716121 0.378607 0.172366
0.737499 0.381231 0.17499
0.758877 0.383871 0.177615
0.780255 0.386496 0.18024
0.104997 0.329992 0.104997
0.12636 0.332616 0.107622
0.147738 0.335241 0.110246
0.169116 0.337865 0.112871
0.190494 0.34049 0.115496
0.211856 0.343114 0.11812
0.233234 0.345739 0.120745
0.254612 0.348363 0.123369
0.27599 0.350988 0.125994
0.297368 0.353613 0.128618
0.318746 0.356237 0.131243
0.340108 0.358862 0.133867
0.361486 0.361486 0.136492
0.382864 0.364111 0.139116
0.404242 0.366735 0.141741
0.42562 0.36936 0.144366
0.446998 0.371984 0.14699
0.46836 0.374609 0.149615
0.489738 0.377234 0.152239
0.511116 0.379858 0.154864
0.532494 0.382483 0.157504
0.553872 0.385107 0.160128
0.57525 0.387747 0.162753
0.596613 0.390372 0.165377
0.61799 0.392996 0.168002
0.639368 0.395621 0.170626
0.660746 0.398245 0.173251
0.682124 0.40087 0.175875
0.703502 0.403494 0.1785
0.724865 0.406119 0.181125
0.746242 0.408743 0.183749
0.76762 0.411368 0.186374
0.788998 0.413993 0.188998
0.113741 0.357488 0.113741
0.135119 0.360113 0.116365
0.156481 0.362737 0.11899
0.177859 0.365362 0.121614
0.199237 0.367987 0.124239
0.220615 0.370611 0.126864
0.241993 0.373236 0.129503
0.263371 0.37586 0.132128
0.284733 0.378485 0.134752
0.306111 0.381109 0.137377
0.327489 0.383734 0.140002
0.348867 0.386358 0.142626
0.370245 0.388983 0.145251
0.391623 0.391623 0.147875
0.412985 0.394247 0.1505
0.434363 0.396872 0.153124
0.455741 0.399496 0.155749
0.477119 0.402121 0.158373
0.498497 0.404746 0.160998
0.519875 0.40737 0.163622
0.541238 0.409995 0.166247
0.562615 0.412619 0.168872
0.583993 0.415244 0.171496
0.605371 0.417868 0.174121
0.626749 0.420493 0.176745
0.648127 0.423117 0.17937
0.66949 0.425742 0.181994
0.690867 0.428367 0.184619
0.712245 0.430991 0.187243
0.733623 0.433616 0.189868
0.755001 0.43624 0.192493
0.776379 0.438865 0.195117
0.797742 0.441489 0.197742
0.122499 0.384985 0.122499
0.143862 0.38761 0.125124
0.16524 0.390234 0.127749
0.186618 0.392859 0.130373
0.207996 0.395499 0.132998
0.229358 0.398123 0.135622
0.250736 0.400748 0.138247
0.272114 0.403372 0.140871
0.293492 0.405997 0.143496
0.31487 0.408621 0.14612
0.336248 0.411246 0.148745
0.35761 0.41387 0.151369
0.378988 0.416495 0.153994
0.400366 0.41912 0.156619
0.421744 0.421744 0.159243
0.443122 0.424369 0.161868
0.4645 0.426993 0.164492
0.485863 0.429618 0.167117
0.50724 0.432242 0.169741
0.528618 0.434867 0.172366
0.549996 0.437491 0.17499
0.571374 0.440116 0.177615
0.592752 0.442741 0.18024
0.614115 0.445365 0.182864
0.635493 0.44799 0.185504
0.65687 0.450614 0.188128
0.678248 0.453239 0.190753
0.699626 0.455863 0.193378
0.720989 0.458488 0.196002
0.742367 0.461112 0.198627
0.763745 0.463737 0.201251
0.785122 0.466361 0.203876
0.8065 0.468986 0.2065
0.131243 0.412497 0.131243
0.152605 0.415122 0.133867
0.173983 0.417746 0.136492
0.195361 0.420371 0.139116
0.216739 0.422995 0.141741
0.238117 0.42562 0.144366
0.259495 0.428244 0.14699
0.280858 0.430869 0.149615
0.302235 0.433494 0.152239
0.323613 0.436118 0.154864
0.344991 0.438743 0.157504
0.366369 0.441367 0.160128
0.387747 0.443992 0.162753
0.40911 0.446616 0.165377
0.430488 0.449241 0.168002
0.451865 0.451865 0.170626
0.473243 0.45449 0.173251
0.494621 0.457115 0.175875
0.515999 0.459739 0.1785
0.537362 0.462364 0.181125
0.55874 0.464988 0.183749
0.580118 0.467613 0.186374
0.601495 0.470237 0.188998
0.622873 0.472862 0.191623
0.644251 0.475486 0.194247
0.665614 0.478111 0.196872
0.686992 0.480735 0.199496
0.70837 0.48336 0.202121
0.729747 0.485985 0.204746
0.751125 0.488609 0.20737
0.772503 0.491234 0.209995
0.793866 0.493858 0.212619
0.815244 0.496498 0.215244
0.140002 0.439994 0.140002
0.161364 0.442618 0.142626
0.182742 0.445243 0.145251
0.20412 0.447868 0.147875
0.225483 0.450492 0.1505
0.24686 0.453117 0.153124
0.268238 0.455741 0.155749
0.289616 0.458366 0.158373
0.310994 0.46099 0.160998
0.332372 0.463615 0.163622
0.353735 0.466239 0.166247
0.375113 0.468864 0.168872
0.39649 0.471489 0.171496
0.417868 0.474113 0.174121
0.439246 0.476738 0.176745
0.460624 0.479362 0.17937
0.481987 0.481987 0.181994
0.503365 0.484611 0.184619
0.524742 0.487236 0.187243
0.54612 0.48986 0.189868
0.567498 0.492485 0.192493
0.588876 0.495109 0.195117
0.610239 0.497734 0.197742
0.631617 0.500374 0.200366
0.652995 0.502998 0.202991
0.674372 0.505623 0.205615
0.69575 0.508247 0.20824
0.717128 0.510872 0.210864
0.738491 0.513497 0.213504
0.759869 0.516121 0.216129
0.781247 0.518746 0.218753
0.802625 0.52137 0.221378
0.824002 0.523995 0.224002
0.148745 0.467491 0.148745
0.170108 0.470115 0.151369
0.191485 0.47274 0.153994
0.212863 0.475364 0.156619
0.234241 0.477989 0.159243
0.255619 0.480613 0.161868
0.276997 0.483238 0.164492
0.29836 0.485863 0.167117
0.319738 0.488487 0.169741
0.341115 0.491112 0.172366
0.362493 0.493736 0.17499
0.383871 0.496361 0.177615
0.405249 0.498985 0.18024
0.426612 0.50161 0.182864
0.44799 0.50425 0.185504
0.469368 0.506874 0.188128
0.490745 0.509499 0.190753
0.512123 0.512123 0.193378
0.533486 0.514748 0.196002
0.554864 0.517372 0.198627
0.576242 0.519997 0.201251
0.59762 0.522622 0.203876
0.618997 0.525246 0.2065
0.640375 0.527871 0.209125
0.661738 0.530495 0.211749
0.683116 0.53312 0.214374
0.704494 0.535744 0.216999
0.725872 0.538369 0.219623
0.74725 0.540993 0.222248
0.768627 0.543618 0.224872
0.78999 0.546242 0.227497
0.811368 0.548867 0.230121
0.832746 0.551492 0.232746
0.157504 0.494987 0.157504
0.178866 0.497612 0.160128
0.200244 0.500237 0.162753
0.221607 0.502861 0.165377
0.242985 0.505486 0.168002
0.264363 0.508125 0.170626
0.28574 0.51075 0.173251
0.307118 0.513375 0.175875
0.328496 0.515999 0.1785
0.349859 0.518624 0.181125
0.371237 0.521248 0.183749
0.392615 0.523873 0.186374
0.413993 0.526497 0.188998
0.43537 0.529122 0.191623
0.456748 0.531746 0.194247
0.478111 0.534371 0.196872
0.499489 0.536995 0.199496
0.520867 0.53962 0.202121
0.542245 0.542245 0.204746
0.563622 0.544869 0.20737
0.585 0.547494 0.209995
0.606363 0.550118 0.212619
0.627741 0.552743 0.215244
0.649119 0.555367 0.217868
0.670497 0.557992 0.220493
0.691875 0.560616 0.223117
0.713252 0.563241 0.225742
0.734615 0.565866 0.228367
0.755993 0.56849 0.230991
0.777371 0.571115 0.233616
0.798749 0.573739 0.23624
0.820127 0.576364 0.238865
0.841505 0.578988 0.241505
0.166247 0.522499 0.166247
0.18761 0.525124 0.168872
0.208988 0.527749 0.171496
0.230365 0.530373 0.174121
0.251743 0.532998 0.176745
0.273121 0.535622 0.17937
0.294484 0.538247 0.181994
0.315862 0.540871 0.184619
0.33724 0.543496 0.187243
0.358618 0.54612 0.189868
0.379995 0.548745 0.192493
0.401373 0.551369 0.195117
0.422736 0.553994 0.197742
0.444114 0.556619 0.200366
0.465492 0.559243 0.202991
0.48687 0.561868 0.205615
0.508247 0.564492 0.20824
0.529625 0.567117 0.210864
0.550988 0.569741 0.213504
0.572366 0.572366 0.216129
0.593744 0.57499 0.218753
0.615122 0.577615 0.221378
0.6365 0.58024 0.224002
0.657877 0.582864 0.226627
0.67924 0.585489 0.229252
0.700618 0.588113 0.231876
0.721996 0.590738 0.234501
0.743374 0.593362 0.237125
0.764752 0.595987 0.23975
0.78613 0.598611 0.242374
0.807492 0.601236 0.244999
0.82887 0.603861 0.247623
0.850248 0.606485 0.250248
0.175006 0.549996 0.17499
0.196368 0.552621 0.177615
0.217731 0.555245 0.18024
0.239109 0.55787 0.182864
0.260487 0.560494 0.185504
0.281865 0.563119 0.188128
0.303243 0.565744 0.190753
0.32462 0.568368 0.193378
0.345983 0.570993 0.196002
0.367361 0.573617 0.198627
0.388739 0.576242 0.201251
0.410117 0.578866 0.203876
0.431495 0.581491 0.2065
0.452873 0.584115 0.209125
0.474235 0.58674 0.211749
0.495613 0.589364 0.214374
0.516991 0.591989 0.216999
0.538369 0.594614 0.219623
0.559747 0.597238 0.222248
0.581125 0.599863 0.224872
0.602487 0.602487 0.227497
0.623865 0.605112 0.230121
0.645243 0.607736 0.232746
0.666621 0.610361 0.23537
0.687999 0.612985 0.237995
0.709377 0.615625 0.24062
0.730739 0.61825 0.243244
0.752117 0.620874 0.245869
0.773495 0.623499 0.248493
0.794873 0.626123 0.251118
0.816251 0.628748 0.253742
0.837629 0.631373 0.256367
0.858991 0.633997 0.258991
0.183749 0.577493 0.183749
0.205112 0.580118 0.186374
0.22649 0.582742 0.188998
0.247868 0.585367 0.191623
0.269245 0.587991 0.194247
0.290608 0.590616 0.196872
0.311986 0.59324 0.199496
0.333364 0.595865 0.202121
0.354742 0.598489 0.204746
0.37612 0.601114 0.20737
0.397498 0.603738 0.209995
0.41886 0.606363 0.212619
0.440238 0.608988 0.215244
0.461616 0.611612 0.217868
0.482994 0.614237 0.220493
0.504372 0.616876 0.223117
0.52575 0.619501 0.225742
0.547112 0.622126 0.228367
0.56849 0.62475 0.230991
0.589868 0.627375 0.233616
0.611246 0.629999 0.23624
0.632624 0.632624 0.238865
0.654002 0.635248 0.241505
0.675364 0.637873 0.244129
0.696742 0.640497 0.246754
0.71812 0.643122 0.249378
0.739498 0.645747 0.252003
0.760876 0.648371 0.254627
0.782254 0.650996 0.257252
0.803616 0.65362 0.259876
0.824994 0.656245 0.262501
0.846372 0.658869 0.265126
0.86775 0.661494 0.26775
0.192493 0.60499 0.192493
0.21387 0.607614 0.195117
0.235233 0.610239 0.197742
0.256611 0.612863 0.200366
0.277989 0.615488 0.202991
0.299367 0.618112 0.205615
0.320745 0.620737 0.20824
0.342123 0.623377 0.210864
0.363485 0.626001 0.213504
0.384863 0.628626 0.216129
0.406241 0.631251 0.218753
0.427619 0.633875 0.221378
0.448997 0.6365 0.224002
0.470375 0.639124 0.226627
0.491737 0.641749 0.229252
0.513115 0.644373 0.231876
0.534493 0.646998 0.234501
0.555871 0.649622 0.237125
0.577249 0.652247 0.23975
0.598627 0.654871 0.242374
0.619989 0.657496 0.244999
0.641367 0.660121 0.247623
0.662745 0.662745 0.250248
0.684123 0.66537 0.252872
0.705501 0.667994 0.255497
0.726879 0.670619 0.258122
0.748241 0.673243 0.260746
0.769619 0.675868 0.263371
0.790997 0.678492 0.265995
0.812375 0.681117 0.26862
0.833753 0.683742 0.271244
0.855131 0.686366 0.273869
0.876493 0.688991 0.276493
0.201251 0.632502 0.201251
0.222614 0.635126 0.203876
0.243992 0.637751 0.2065
0.26537 0.640375 0.209125
0.286732 0.643 0.211749
0.30811 0.645624 0.214374
0.329488 0.648249 0.216999
0.350866 0.650874 0.219623
0.372244 0.653498 0.222248
0.393622 0.656123 0.224872
0.414984 0.658747 0.227497
0.436362 0.661372 0.230121
0.45774 0.663996 0.232746
0.479118 0.666621 0.23537
0.500496 0.669245 0.237995
0.521874 0.67187 0.24062
0.543236 0.674495 0.243244
0.564614 0.677119 0.245869
0.585992 0.679744 0.248493
0.60737 0.682368 0.251118
0.628748 0.684993 0.253742
0.650126 0.687617 0.256367
0.671489 0.690242 0.258991
0.692866 0.692866 0.261616
0.714244 0.695491 0.26424
0.735622 0.698116 0.266865
0.757 0.70074 0.26949
0.778378 0.703365 0.272129
0.799741 0.705989 0.274754
0.821118 0.708614 0.277378
0.842496 0.711238 0.280003
0.863874 0.713863 0.282628
0.885252 0.716487 0.285252
0.209995 0.659998 0.209995
0.231357 0.662623 0.212619
0.252735 0.665248 0.215244
0.274113 0.667872 0.217868
0.295491 0.670497 0.220493
0.316869 0.673121 0.223117
0.338247 0.675746 0.225742
0.359609 0.67837 0.228367
0.380987 0.680995 0.230991
0.402365 0.683619 0.233616
0.423743 0.686244 0.23624
0.445121 0.688869 0.238865
0.466499 0.691493 0.241489
0.487861 0.694118 0.244129
0.509239 0.696742 0.246754
0.530617 0.699367 0.249378
0.551995 0.701991 0.252003
0.573373 0.704616 0.254627
0.594751 0.70724 0.257252
0.616114 0.709865 0.259876
0.637491 0.712489 0.262501
0.658869 0.715114 0.265126
0.680247 0.717739 0.26775
0.701625 0.720363 0.270375
0.723003 0.722988 0.272999
0.744366 0.725612 0.275624
0.765743 0.728252 0.278248
0.787121 0.730877 0.280873
0.808499 0.733501 0.283497
0.829877 0.736126 0.286122
0.851255 0.73875 0.288746
0.872618 0.741375 0.291371
0.893996 0.743999 0.293996
0.218753 0.687495 0.218753
0.240116 0.69012 0.221378
0.261494 0.692744 0.224002
0.282872 0.695369 0.226627
0.304234 0.697993 0.229252
0.325612 0.700618 0.231876
0.34699 0.703243 0.234501
0.368368 0.705867 0.237125
0.389746 0.708492 0.23975
0.411124 0.711116 0.242374
0.432486 0.713741 0.244999
0.453864 0.716365 0.247623
0.475242 0.71899 0.250248
0.49662 0.721614 0.252872
0.517998 0.724239 0.255497
0.539376 0.726864 0.258122
0.560739 0.729488 0.260746
0.582116 0.732128 0.263371
0.603494 0.734752 0.265995
0.624872 0.737377 0.26862
0.64625 0.740001 0.271244
0.667628 0.742626 0.273869
0.688991 0.745251 0.276493
0.710369 0.747875 0.279118
0.731746 0.7505 0.281743
0.753124 0.753124 0.284367
0.774502 0.755749 0.286992
0.795865 0.758373 0.289616
0.817243 0.760998 0.292241
0.838621 0.763622 0.294865
0.859998 0.766247 0.29749
0.881376 0.768872 0.30013
0.902754 0.771496 0.302754
0.227497 0.714992 0.227497
0.248859 0.717617 0.230121
0.270237 0.720241 0.232746
0.291615 0.722866 0.23537
0.312993 0.72549 0.237995
0.334371 0.728115 0.24062
0.355734 0.730739 0.243244
0.377111 0.733364 0.245869
0.398489 0.736004 0.248493
0.419867 0.738628 0.251118
0.441245 0.741253 0.253742
0.462623 0.743877 0.256367
0.483986 0.746502 0.258991
0.505364 0.749126 0.261616
0.526741 0.751751 0.26424
0.548119 0.754376 0.266865
0.569497 0.757 0.26949
0.590875 0.759625 0.272129
0.612238 0.762249 0.274754
0.633616 0.764874 0.277378
0.654994 0.767498 0.280003
0.676371 0.770123 0.282628
0.697749 0.772747 0.285252
0.719127 0.775372 0.287877
0.74049 0.777996 0.290501
0.761868 0.780621 0.293126
0.783246 0.783246 0.29575
