public/LUTS/Color Loss/Color Loss_03.cube
TITLE "Generated by Resolve"
LUT_3D_SIZE 9
0 0 0
0.0953689 0.00787366 0.00787366
0.190738 0.0157473 0.0157473
0.286122 0.023621 0.023621
0.381491 0.0314946 0.0314946
0.476875 0.0393683 0.0393683
0.572244 0.0472419 0.0472419
0.667628 0.0551156 0.0551308
0.762997 0.0630045 0.0630045
0.0262455 0.113741 0.0262455
0.121614 0.121614 0.0341192
0.216983 0.129488 0.0419928
0.312367 0.137362 0.0498665
0.407736 0.145235 0.0577401
0.50312 0.153109 0.0656138
0.598489 0.160983 0.0735027
0.693874 0.168856 0.0813764
0.789242 0.17673 0.08925
0.052491 0.227497 0.052491
0.14786 0.23537 0.0603647
0.243244 0.243244 0.0682536
0.338613 0.251118 0.0761273
0.433997 0.258991 0.0840009
0.529366 0.266865 0.0918746
0.62475 0.274739 0.0997482
0.720119 0.282612 0.107622
0.815503 0.290486 0.115496
0.0787518 0.341238 0.0787518
0.174105 0.349111 0.0866255
0.26949 0.356985 0.0944991
0.364858 0.364858 0.102373
0.460243 0.372732 0.110246
0.555611 0.380621 0.11812
0.650996 0.388495 0.125994
0.746365 0.396368 0.133867
0.841749 0.404242 0.141741
0.104997 0.454994 0.104997
0.200366 0.462867 0.112871
0.295735 0.470741 0.120745
0.391119 0.478614 0.128618
0.486488 0.486488 0.136492
0.581872 0.494362 0.144366
0.677241 0.502235 0.152255
0.772625 0.510109 0.160128
0.867994 0.517983 0.168002
0.131243 0.56875 0.131243
0.226612 0.576623 0.139116
0.321996 0.584497 0.14699
0.417365 0.592371 0.154879
0.512749 0.600244 0.162753
0.608118 0.608118 0.170626
0.703502 0.615991 0.1785
0.798871 0.623865 0.186374
0.894255 0.631739 0.194247
0.157504 0.68249 0.157504
0.252857 0.690364 0.165377
0.348241 0.698253 0.173251
0.44361 0.706127 0.181125
0.538994 0.714 0.188998
0.634363 0.721874 0.196872
0.729747 0.729747 0.204746
0.825116 0.737621 0.212619
0.920501 0.745495 0.220493
0.183749 0.796246 0.183749
0.279118 0.80412 0.191623
0.374487 0.811994 0.199496
0.469871 0.819867 0.20737
0.56524 0.827741 0.215244
0.660624 0.835615 0.223117
0.755993 0.843503 0.230991
0.851377 0.851377 0.23888
0.946746 0.859251 0.246754
0.209995 0.910002 0.209995
0.305364 0.917876 0.217868
0.400748 0.92575 0.225742
0.496117 0.933623 0.233616
0.591501 0.941497 0.241505
0.68687 0.949371 0.249378
0.782254 0.957244 0.257252
0.877623 0.965118 0.265126
0.973007 0.972992 0.272999
0.00337224 0.00337224 0.0908675
0.0987411 0.0112459 0.0987411
0.19411 0.0191196 0.106615
0.289494 0.0269932 0.114488
0.384863 0.0348669 0.122362
0.480247 0.0427405 0.130236
0.575616 0.0506294 0.138109
0.671 0.0585031 0.145983
0.766369 0.0663767 0.153872
0.0296178 0.117113 0.117113
0.124987 0.124987 0.124987
0.220356 0.13286 0.13286
0.31574 0.140734 0.140734
0.411109 0.148608 0.148608
0.506493 0.156481 0.156481
0.601862 0.164355 0.164355
0.697246 0.172229 0.172244
0.792615 0.180117 0.180117
0.0558785 0.230869 0.143359
0.151232 0.238743 0.151232
0.246616 0.246616 0.159106
0.341985 0.25449 0.166979
0.437369 0.262364 0.174868
0.532738 0.270237 0.182742
0.628122 0.278111 0.190616
0.723491 0.285985 0.198489
0.818875 0.293858 0.206363
0.0821241 0.34461 0.169619
0.177493 0.352483 0.177493
0.272862 0.360372 0.185367
0.368246 0.368246 0.19324
0.463615 0.37612 0.201114
0.558999 0.383993 0.208988
0.654368 0.391867 0.216861
0.749752 0.399741 0.224735
0.845121 0.407614 0.232609
0.10837 0.458366 0.195865
0.203738 0.466239 0.203738
0.299107 0.474113 0.211612
0.394491 0.481987 0.219486
0.48986 0.48986 0.227359
0.585245 0.497734 0.235233
0.680613 0.505623 0.243107
0.775998 0.513497 0.25098
0.871366 0.52137 0.258869
0.13463 0.572122 0.22211
0.229984 0.579995 0.229984
0.325368 0.587869 0.237858
0.420737 0.595743 0.245731
0.516121 0.603616 0.25362
0.61149 0.61149 0.261494
0.706874 0.619364 0.269368
0.802243 0.627237 0.277241
0.897627 0.635111 0.285115
0.160876 0.685878 0.248371
0.256245 0.693751 0.256245
0.351614 0.701625 0.264118
0.446998 0.709499 0.271992
0.542367 0.717372 0.279866
0.637751 0.725246 0.287739
0.73312 0.73312 0.295613
0.828504 0.740993 0.303487
0.923873 0.748867 0.31136
0.187121 0.799619 0.274617
0.28249 0.807492 0.28249
0.377859 0.815366 0.290364
0.473243 0.82324 0.298238
0.568612 0.831128 0.306111
0.663996 0.839002 0.313985
0.759365 0.846876 0.321859
0.854749 0.854749 0.329732
0.950118 0.862623 0.337606
0.213382 0.913375 0.300862
0.308736 0.921248 0.308736
0.40412 0.929122 0.316609
0.499489 0.936996 0.324483
0.594873 0.944869 0.332357
0.690242 0.952743 0.340246
0.785626 0.960616 0.348119
0.880995 0.96849 0.355993
0.976379 0.976379 0.363867
0.00674449 0.00674449 0.181735
0.102113 0.0146181 0.189624
0.197498 0.0224918 0.197498
0.292866 0.0303807 0.205371
0.388251 0.0382544 0.213245
0.483619 0.046128 0.221118
0.579004 0.0540017 0.228992
0.674372 0.0618753 0.236866
0.769757 0.069749 0.244739
0.03299 0.120485 0.207996
0.128359 0.128359 0.215869
0.223743 0.136233 0.223743
0.319112 0.144106 0.231617
0.414496 0.15198 0.23949
0.509865 0.159854 0.247364
0.605249 0.167742 0.255238
0.700618 0.175616 0.263111
0.796002 0.18349 0.270985
0.0592508 0.234241 0.234241
0.15462 0.242115 0.242115
0.249989 0.249989 0.249989
0.345357 0.257862 0.257862
0.440742 0.265736 0.265736
0.53611 0.27361 0.27361
0.631495 0.281483 0.281483
0.726864 0.289357 0.289357
0.822248 0.29723 0.297246
0.0854963 0.347997 0.260487
0.180865 0.355871 0.26836
0.276234 0.363745 0.276234
0.371618 0.371618 0.284108
0.466987 0.379492 0.291981
0.562371 0.387366 0.29987
0.65774 0.395239 0.307744
0.753124 0.403113 0.315618
0.848493 0.410986 0.323491
0.111742 0.461738 0.286732
0.207111 0.469612 0.294621
0.302495 0.477485 0.302495
0.397864 0.485374 0.310369
0.493248 0.493248 0.318242
0.588617 0.501122 0.326116
0.684001 0.508995 0.333989
0.77937 0.516869 0.341863
0.874754 0.524742 0.349737
0.138003 0.575494 0.312993
0.233356 0.583368 0.320867
0.32874 0.591241 0.32874
0.424109 0.599115 0.336614
0.519493 0.606989 0.344488
0.614862 0.614862 0.352361
0.710246 0.622736 0.360235
0.805615 0.630625 0.368109
0.900999 0.638498 0.375982
0.164248 0.68925 0.339239
0.259617 0.697124 0.347112
0.354986 0.704997 0.354986
0.45037 0.712871 0.36286
0.545739 0.720745 0.370733
0.641123 0.728618 0.378622
0.736492 0.736492 0.386496
0.831876 0.744366 0.394369
0.927245 0.752239 0.402243
0.190494 0.803006 0.365484
0.285863 0.81088 0.373358
0.381247 0.818753 0.381247
0.476616 0.826627 0.38912
0.572 0.834501 0.396994
0.667369 0.842374 0.404868
0.762753 0.850248 0.412741
0.858122 0.858122 0.420615
0.953506 0.865995 0.428489
0.216754 0.916747 0.391745
0.312108 0.92462 0.399619
0.407492 0.932494 0.407492
0.502861 0.940368 0.415366
0.598245 0.948241 0.423239
0.693614 0.95613 0.431113
0.788998 0.964004 0.438987
0.884367 0.971878 0.44686
0.979751 0.979751 0.454734
0.010132 0.010132 0.272618
0.105486 0.0180056 0.280491
0.20087 0.0258793 0.288365
0.296239 0.033753 0.296239
0.391623 0.0416266 0.304112
0.486992 0.0495003 0.311986
0.582376 0.0573739 0.319875
0.677745 0.0652476 0.327749
0.773129 0.0731212 0.335622
0.0363775 0.123857 0.298863
0.131731 0.131731 0.306737
0.227115 0.139605 0.314611
0.322484 0.147494 0.322484
0.417868 0.155367 0.330358
0.513237 0.163241 0.338247
0.608621 0.171115 0.34612
0.70399 0.178988 0.353994
0.799374 0.186862 0.361868
0.062623 0.237613 0.325109
0.157992 0.245487 0.332998
0.253361 0.253361 0.340871
0.348745 0.261234 0.348745
0.444114 0.269108 0.356619
0.539498 0.276982 0.364492
0.634867 0.284855 0.372366
0.730251 0.292744 0.38024
0.82562 0.300618 0.388113
0.0888685 0.35137 0.35137
0.184237 0.359243 0.359243
0.279622 0.367117 0.367117
0.37499 0.37499 0.37499
0.470359 0.382864 0.382864
0.565744 0.390738 0.390738
0.661112 0.398611 0.398611
0.756497 0.406485 0.406485
0.851865 0.414359 0.414359
0.115129 0.465126 0.377615
0.210483 0.472999 0.385489
0.305867 0.480873 0.393362
0.401236 0.488746 0.401236
0.49662 0.49662 0.40911
0.591989 0.504494 0.416983
0.687373 0.512367 0.424872
0.782742 0.520241 0.432746
0.878126 0.528115 0.44062
0.141375 0.578866 0.403861
0.236744 0.58674 0.411734
0.332113 0.594614 0.419623
0.427497 0.602487 0.427497
0.522866 0.610376 0.43537
0.61825 0.61825 0.443244
0.713619 0.626123 0.451118
0.809003 0.633997 0.458991
0.904372 0.641871 0.466865
0.16762 0.692622 0.430121
0.262989 0.700496 0.437995
0.358358 0.70837 0.445869
0.453742 0.716243 0.453742
0.549111 0.724117 0.461616
0.644495 0.731991 0.46949
0.739864 0.739864 0.477363
0.835248 0.747738 0.485237
0.930617 0.755627 0.493111
0.193881 0.806378 0.456367
0.289235 0.814252 0.46424
0.384619 0.822126 0.472114
0.479988 0.829999 0.479988
0.575372 0.837873 0.487861
0.670741 0.845747 0.495735
0.766125 0.85362 0.503624
0.861494 0.861494 0.511498
0.956878 0.869368 0.519371
0.220127 0.920119 0.482612
0.315496 0.927993 0.490486
0.410864 0.935882 0.49836
0.506249 0.943755 0.506249
0.601617 0.951629 0.514122
0.697002 0.959503 0.521996
0.79237 0.967376 0.52987
0.887755 0.97525 0.537743
0.983124 0.983124 0.545617
0.0135042 0.0135042 0.3635
0.108858 0.0213779 0.371374
0.204242 0.0292515 0.379248
0.299611 0.0371252 0.387121
0.394995 0.0449989 0.394995
0.490364 0.0528725 0.402869
0.585748 0.0607462 0.410742
0.681117 0.0686198 0.418616
0.776501 0.0764935 0.42649
0.0397498 0.127245 0.389746
0.135119 0.135119 0.39762
0.230488 0.142992 0.405493
0.325872 0.150866 0.413367
0.421241 0.15874 0.421241
0.516625 0.166613 0.429114
0.611994 0.174487 0.436988
0.707378 0.182361 0.444862
0.802747 0.190234 0.452735
0.0659953 0.240986 0.415991
0.161364 0.248859 0.423865
0.256733 0.256733 0.431739
0.352117 0.264607 0.439612
0.447486 0.272496 0.447486
0.54287 0.280369 0.45536
0.638239 0.288243 0.463249
0.733623 0.296117 0.471122
0.828992 0.30399 0.478996
0.0922408 0.354742 0.442237
0.18761 0.362615 0.450111
0.282994 0.370489 0.458
0.378363 0.378363 0.465873
0.473747 0.386236 0.473747
0.569116 0.39411 0.481621
0.6645 0.401984 0.489494
0.759869 0.409857 0.497368
0.855253 0.417746 0.505241
0.118502 0.468498 0.468498
0.21387 0.476371 0.476371
0.309239 0.484245 0.484245
0.404623 0.492119 0.492119
0.499992 0.499992 0.499992
0.595376 0.507866 0.507866
0.690745 0.51574 0.51574
0.786114 0.523613 0.523613
0.881498 0.531487 0.531487
0.144747 0.582238 0.494743
0.240116 0.590127 0.502617
0.335485 0.598001 0.510491
0.430869 0.605875 0.518364
0.526238 0.613748 0.526238
0.621622 0.621622 0.534112
0.716991 0.629496 0.541985
0.812375 0.637369 0.549874
0.907744 0.645243 0.557748
0.170993 0.695994 0.520989
0.266361 0.703868 0.528862
0.361746 0.711742 0.536736
0.457115 0.719615 0.544625
0.552499 0.727489 0.552499
0.647868 0.735378 0.560372
0.743252 0.743252 0.568246
0.838621 0.751125 0.57612
0.934005 0.758999 0.583993
0.197253 0.80975 0.54725
0.292607 0.817624 0.555123
0.387991 0.825498 0.562997
0.48336 0.833371 0.570871
0.578744 0.841245 0.578744
0.674113 0.849119 0.586618
0.769497 0.856992 0.594491
0.864866 0.864866 0.602365
0.96025 0.87274 0.610239
0.223499 0.923506 0.573495
0.318868 0.93138 0.581369
0.414237 0.939254 0.589242
0.509621 0.947127 0.597116
0.60499 0.955001 0.60499
0.700374 0.962875 0.612863
0.795743 0.970748 0.620737
0.891127 0.978622 0.628626
0.986496 0.986496 0.6365
0.0168765 0.0168765 0.454368
0.112245 0.0247501 0.462242
0.207614 0.0326238 0.470115
0.302998 0.0404974 0.477989
0.398367 0.0483711 0.485878
0.493751 0.0562448 0.493751
0.58912 0.0641184 0.501625
0.684504 0.0719921 0.509499
0.779873 0.079881 0.517372
0.043122 0.130617 0.480613
0.138491 0.138491 0.488487
0.23386 0.146365 0.496376
0.329244 0.154238 0.50425
0.424613 0.162112 0.512123
0.519997 0.169986 0.519997
0.615366 0.177859 0.527871
0.71075 0.185733 0.535744
0.806119 0.193606 0.543618
0.0693675 0.244373 0.506874
0.164736 0.252247 0.514748
0.260121 0.260121 0.522622
0.355489 0.267994 0.530495
0.450874 0.275868 0.538369
0.546242 0.283742 0.546242
0.641627 0.291615 0.554116
0.736996 0.299489 0.56199
0.83238 0.307362 0.569863
0.0956283 0.358114 0.53312
0.190982 0.365988 0.540993
0.286366 0.373861 0.548867
0.381735 0.381735 0.556741
0.477119 0.389609 0.564614
0.572488 0.397498 0.572488
0.667872 0.405371 0.580362
0.763241 0.413245 0.588251
0.858625 0.421118 0.596124
0.121874 0.47187 0.559365
0.217243 0.479744 0.567239
0.312612 0.487617 0.575113
0.407996 0.495491 0.583001
0.503365 0.503365 0.590875
0.598749 0.511238 0.598749
0.694118 0.519112 0.606622
0.789502 0.526986 0.614496
0.884871 0.534859 0.62237
0.148119 0.585626 0.585626
0.243488 0.5935 0.5935
0.338872 0.601373 0.601373
0.434241 0.609247 0.609247
0.529625 0.617121 0.617121
0.624994 0.624994 0.624994
0.720363 0.632868 0.632868
0.815747 0.640742 0.640742
0.911116 0.648615 0.648615
0.17438 0.699367 0.611872
0.269734 0.70724 0.619745
0.365118 0.715129 0.627619
0.460487 0.723003 0.635493
0.555871 0.730877 0.643366
0.65124 0.73875 0.65124
0.746624 0.746624 0.659113
0.841993 0.754498 0.666987
0.937377 0.762371 0.674876
0.200626 0.813123 0.638117
0.295995 0.820996 0.645991
0.391363 0.82887 0.653864
0.486748 0.836744 0.661738
0.582116 0.844617 0.669627
0.677501 0.852491 0.677501
0.772869 0.86038 0.685374
0.868254 0.868254 0.693248
0.963623 0.876127 0.701122
0.226871 0.926879 0.664378
0.32224 0.934752 0.672251
0.417609 0.942626 0.680125
0.512993 0.9505 0.687999
0.608362 0.958373 0.695872
0.703746 0.966247 0.703746
0.799115 0.974121 0.71162
0.894499 0.981994 0.719493
0.989868 0.989868 0.727367
0.0202487 0.0202487 0.545251
0.115618 0.0281224 0.553124
0.210986 0.035996 0.560998
0.306371 0.0438697 0.568872
0.40174 0.0517433 0.576745
0.497124 0.059617 0.584619
0.592493 0.0675059 0.592493
0.687877 0.0753796 0.600366
0.783246 0.0832532 0.608255
0.0464942 0.133989 0.571496
0.141863 0.141863 0.57937
0.237232 0.149737 0.587243
0.332616 0.15761 0.595117
0.427985 0.165484 0.602991
0.523369 0.173358 0.610864
0.618738 0.181231 0.618738
0.714122 0.189105 0.626627
0.809491 0.196994 0.634501
0.072755 0.247745 0.597742
0.168109 0.255619 0.605615
0.263493 0.263493 0.613489
0.358862 0.271366 0.621378
0.454246 0.27924 0.629252
0.549615 0.287114 0.637125
0.644999 0.294987 0.644999
0.740368 0.302861 0.652873
0.835752 0.310735 0.660746
0.0990005 0.361486 0.624002
0.194369 0.36936 0.631876
0.289738 0.377249 0.63975
0.385122 0.385122 0.647623
0.480491 0.392996 0.655497
0.575875 0.40087 0.663371
0.671244 0.408743 0.671244
0.766629 0.416617 0.679118
0.861997 0.424491 0.686992
0.125246 0.475242 0.650248
0.220615 0.483116 0.658122
0.315984 0.49099 0.665995
0.411368 0.498863 0.673869
0.506737 0.506737 0.681743
0.602121 0.514611 0.689616
0.69749 0.522499 0.69749
0.792874 0.530373 0.705364
0.888243 0.538247 0.713252
0.151492 0.588998 0.676493
0.24686 0.596872 0.684367
0.342245 0.604746 0.692241
0.437613 0.612619 0.700114
0.532998 0.620493 0.708003
0.628367 0.628367 0.715877
0.723751 0.63624 0.723751
0.81912 0.644114 0.731624
0.914504 0.651987 0.739498
0.177752 0.702754 0.702754
0.273121 0.710628 0.710628
0.36849 0.718502 0.718502
0.463874 0.726375 0.726375
0.559243 0.734249 0.734249
0.654627 0.742123 0.742123
0.749996 0.749996 0.749996
0.84538 0.75787 0.75787
0.940749 0.765743 0.765743
0.203998 0.816495 0.729
0.299367 0.824369 0.736873
0.394736 0.832242 0.744747
0.49012 0.840131 0.752621
0.585489 0.848005 0.760494
0.680873 0.855879 0.768368
0.776242 0.863752 0.776242
0.871626 0.871626 0.784115
0.966995 0.879499 0.792004
0.230243 0.930251 0.755245
0.325612 0.938125 0.763119
0.420996 0.945998 0.770993
0.516365 0.953872 0.778866
0.611749 0.961746 0.78674
0.707118 0.969619 0.794629
0.802502 0.977493 0.802502
0.897871 0.985382 0.810376
0.993255 0.993255 0.81825
0.023621 0.023621 0.636118
0.11899 0.0314946 0.644007
0.214359 0.0393683 0.651881
0.309743 0.0472572 0.659754
0.405112 0.0551308 0.667628
0.500496 0.0630045 0.675502
0.595865 0.0708782 0.683375
0.691249 0.0787518 0.691249
0.786618 0.0866255 0.699123
0.0498665 0.137362 0.662379
0.145235 0.145235 0.670253
0.24062 0.153109 0.678126
0.335988 0.160983 0.686
0.431373 0.168856 0.693874
0.526741 0.176745 0.701747
0.622126 0.184619 0.709621
0.717494 0.192493 0.717494
0.812879 0.200366 0.725368
0.0761273 0.251118 0.688624
0.171481 0.258991 0.696498
0.266865 0.266865 0.704372
0.362234 0.274739 0.712245
0.457618 0.282612 0.720119
0.552987 0.290486 0.727993
0.648371 0.29836 0.735866
0.74374 0.306233 0.74374
0.839124 0.314107 0.751629
0.102373 0.364874 0.71487
0.197742 0.372747 0.722744
0.293111 0.380621 0.730617
0.388495 0.388495 0.738491
0.483864 0.396368 0.74638
0.579248 0.404242 0.754253
0.674617 0.412116 0.762127
0.770001 0.419989 0.770001
0.86537 0.427863 0.777874
0.128618 0.478614 0.741131
0.223987 0.486488 0.749004
0.319371 0.494362 0.756878
0.41474 0.502251 0.764752
0.510124 0.510124 0.772625
0.605493 0.517998 0.780499
0.700877 0.525872 0.788373
0.796246 0.533745 0.796246
0.89163 0.541619 0.80412
0.154879 0.592371 0.767376
0.250233 0.600244 0.77525
0.345617 0.608118 0.783123
0.440986 0.615991 0.790997
0.53637 0.623865 0.798871
0.631739 0.631739 0.806745
0.727123 0.639612 0.814618
0.822492 0.647501 0.822492
0.917876 0.655375 0.830365
0.181125 0.706127 0.793622
0.276493 0.714 0.801495
0.371862 0.721874 0.809369
0.467247 0.729747 0.817243
0.562615 0.737621 0.825116
0.658 0.745495 0.833005
0.753368 0.753368 0.840879
0.848753 0.761242 0.848753
0.944121 0.769116 0.856626
0.20737 0.819883 0.819867
0.302739 0.827756 0.827741
0.398123 0.83563 0.83563
0.493492 0.843503 0.843503
0.588876 0.851377 0.851377
0.684245 0.859251 0.859251
0.779629 0.867124 0.867124
0.874998 0.874998 0.874998
0.970382 0.882872 0.882872
0.233631 0.933623 0.846128
0.328984 0.941497 0.854002
0.424369 0.949371 0.861875
0.519738 0.957244 0.869749
0.615122 0.965133 0.877623
0.710491 0.973007 0.885496
0.805875 0.98088 0.89337
0.901244 0.988754 0.901244
0.996628 0.996628 0.909117
0.0269932 0.0270085 0.727001
0.122362 0.0348821 0.734874
0.217746 0.0427558 0.742748
0.313115 0.0506294 0.750622
0.408499 0.0585031 0.758495
0.503868 0.0663767 0.766369
0.599252 0.0742504 0.774258
0.694621 0.0821241 0.782132
0.790005 0.0899977 0.790005
0.053254 0.140734 0.753246
0.148608 0.148608 0.76112
0.243992 0.156497 0.768994
0.339361 0.16437 0.776867
0.434745 0.172244 0.784741
0.530114 0.180117 0.79263
0.625498 0.187991 0.800504
0.720867 0.195865 0.808377
0.816251 0.203738 0.816251
0.0794995 0.25449 0.779492
0.174868 0.262364 0.787381
0.270237 0.270237 0.795254
0.365621 0.278111 0.803128
0.46099 0.285985 0.811002
0.556374 0.293858 0.818875
0.651743 0.301747 0.826749
0.747127 0.309621 0.834623
0.842496 0.317494 0.842496
0.105745 0.368246 0.805753
0.201114 0.37612 0.813626
0.296483 0.383993 0.8215
0.391867 0.391867 0.829374
0.487236 0.399741 0.837247
0.58262 0.407614 0.845121
0.677989 0.415488 0.852995
0.773373 0.423362 0.860868
0.868742 0.431235 0.868742
0.132006 0.482002 0.831998
0.227359 0.489876 0.839872
0.322744 0.497749 0.847745
0.418112 0.505623 0.855619
0.513497 0.513497 0.863493
0.608865 0.52137 0.871382
0.70425 0.529244 0.879255
0.799619 0.537118 0.887129
0.895003 0.544991 0.895003
0.158251 0.595743 0.858244
0.25362 0.603616 0.866117
0.348989 0.61149 0.874006
0.444373 0.619364 0.88188
0.539742 0.627253 0.889754
0.635126 0.635126 0.897627
0.730495 0.643 0.905501
0.825879 0.650874 0.913375
0.921248 0.658747 0.921248
0.184497 0.709499 0.884504
0.279866 0.717372 0.892378
0.375235 0.725246 0.900252
0.470619 0.73312 0.908125
0.565988 0.740993 0.915999
0.661372 0.748867 0.923873
0.756741 0.756741 0.931746
0.852125 0.764614 0.93962
0.947494 0.772503 0.947494
0.210742 0.823255 0.91075
0.306111 0.831128 0.918624
0.401495 0.839002 0.926497
0.496864 0.846876 0.934371
0.592248 0.854749 0.942245
0.687617 0.862623 0.950118
0.783001 0.870497 0.958007
0.87837 0.87837 0.965881
0.973754 0.886244 0.973754
0.237003 0.936996 0.936996
0.332372 0.944869 0.944869
0.427741 0.952758 0.952743
0.523125 0.960632 0.960632
0.618494 0.968505 0.968505
0.713878 0.976379 0.976379
0.809247 0.984253 0.984253
0.904631 0.992126 0.992126
1 1 1
