public/LUTS/Color Loss/Color Loss_07.cube
TITLE "Generated by Resolve"
LUT_3D_SIZE 5
0 0 0
0.111742 0.0367437 0.0367437
0.223499 0.0735027 0.0735027
0.335256 0.110246 0.110246
0.446998 0.147005 0.147005
0.122499 0.197498 0.122499
0.234241 0.234241 0.159243
0.345998 0.270985 0.195987
0.45774 0.307744 0.232746
0.569497 0.344488 0.26949
0.244999 0.394995 0.244999
0.356741 0.431739 0.281743
0.468498 0.468498 0.318502
0.58024 0.505241 0.355245
0.691997 0.541985 0.391989
0.367498 0.592493 0.367498
0.47924 0.629252 0.404242
0.590997 0.665995 0.441001
0.702739 0.702739 0.477745
0.814496 0.739498 0.514504
0.489998 0.790005 0.489998
0.60174 0.826749 0.526741
0.713497 0.863493 0.5635
0.825254 0.900252 0.600244
0.936996 0.936996 0.637003
0.0157473 0.0157473 0.0907454
0.127489 0.052491 0.127489
0.239246 0.08925 0.164248
0.351003 0.125994 0.200992
0.462745 0.162753 0.237751
0.138247 0.213245 0.213245
0.249989 0.249989 0.249989
0.361746 0.286732 0.286732
0.473487 0.323491 0.323491
0.585245 0.360235 0.360235
0.260746 0.410742 0.335744
0.372488 0.447486 0.372488
0.484245 0.484245 0.409247
0.595987 0.520989 0.445991
0.707744 0.557748 0.482734
0.383246 0.60824 0.458244
0.494987 0.644999 0.494987
0.606744 0.681743 0.531746
0.718502 0.718502 0.56849
0.830243 0.755245 0.605249
0.505745 0.805753 0.580743
0.617487 0.842496 0.617487
0.729244 0.879255 0.654246
0.841001 0.915999 0.69099
0.952743 0.952743 0.727749
0.0314946 0.0314946 0.181491
0.143252 0.0682536 0.21825
0.254994 0.104997 0.254994
0.366751 0.141741 0.291752
0.478492 0.1785 0.328496
0.153994 0.228992 0.30399
0.265736 0.265736 0.340734
0.377493 0.302495 0.377493
0.489235 0.339239 0.414237
0.600992 0.375982 0.450996
0.276493 0.42649 0.42649
0.388235 0.463249 0.463249
0.499992 0.499992 0.499992
0.611749 0.536736 0.536736
0.723491 0.573495 0.573495
0.398993 0.624002 0.548989
0.51075 0.660746 0.585748
0.622492 0.69749 0.622492
0.734249 0.734249 0.659251
0.845991 0.770993 0.695994
0.521492 0.8215 0.671504
0.633249 0.858244 0.708247
0.744991 0.895003 0.744991
0.856748 0.931746 0.78175
0.968505 0.968505 0.818494
0.0472572 0.0472572 0.272251
0.158999 0.0840009 0.308995
0.270741 0.120745 0.345754
0.382498 0.157504 0.382498
0.494255 0.194247 0.419242
0.169741 0.244739 0.394751
0.281483 0.281483 0.431495
0.39324 0.318242 0.468238
0.504997 0.354986 0.504997
0.616739 0.391745 0.541741
0.292241 0.442252 0.51725
0.403998 0.478996 0.553994
0.51574 0.51574 0.590738
0.627497 0.552499 0.627497
0.739239 0.589242 0.66424
0.414755 0.63975 0.63975
0.526497 0.676493 0.676493
0.638239 0.713252 0.713252
0.749996 0.749996 0.749996
0.861753 0.78674 0.78674
0.537255 0.837247 0.762249
0.648997 0.874006 0.798993
0.760754 0.91075 0.835752
0.872496 0.947494 0.872496
0.984253 0.984253 0.909255
0.0630045 0.0630045 0.362997
0.174746 0.0997482 0.399756
0.286503 0.136492 0.4365
0.398245 0.173251 0.473243
0.510002 0.209995 0.510002
0.185489 0.260487 0.485496
0.297246 0.297246 0.52224
0.408988 0.333989 0.558999
0.520745 0.370733 0.595743
0.632502 0.407492 0.632502
0.308003 0.458 0.607996
0.419745 0.494743 0.644739
0.531487 0.531487 0.681498
0.643244 0.568246 0.718242
0.755001 0.60499 0.755001
0.430503 0.655497 0.730495
0.542245 0.692241 0.767254
0.654002 0.729 0.803998
0.765743 0.765743 0.840742
0.877501 0.802502 0.877501
0.553002 0.852995 0.852995
0.664744 0.889754 0.889754
0.776501 0.926497 0.926497
0.888243 0.963256 0.963256
1 1 1
