public/LUTS/Color Loss/Color Loss_04.cube
TITLE "Generated by Resolve"
LUT_3D_SIZE 5
0 0 0
0.170993 0.0209964 0.0209964
0.342 0.0419928 0.0419928
0.512993 0.0630045 0.0630045
0.684001 0.0840009 0.0840009
0.0699931 0.219989 0.0699931
0.240986 0.240986 0.0909895
0.411994 0.261982 0.112001
0.583001 0.282994 0.132998
0.753994 0.30399 0.153994
0.140002 0.439994 0.140002
0.310994 0.46099 0.160998
0.481987 0.481987 0.181994
0.652995 0.502998 0.202991
0.824002 0.523995 0.224002
0.209995 0.659998 0.209995
0.380987 0.680995 0.230991
0.551995 0.701991 0.252003
0.723003 0.722988 0.272999
0.893996 0.743999 0.293996
0.280003 0.880003 0.280003
0.450996 0.900999 0.300999
0.621988 0.921996 0.321996
0.792996 0.942992 0.342992
0.964004 0.964004 0.364004
0.00900282 0.00900282 0.158999
0.179995 0.0299992 0.179995
0.350988 0.0509957 0.200992
0.521996 0.0719921 0.221988
0.693004 0.0930037 0.243
0.078996 0.228992 0.228992
0.249989 0.249989 0.249989
0.420996 0.270985 0.270985
0.591989 0.291981 0.291981
0.762997 0.312993 0.312993
0.149004 0.448997 0.298985
0.319997 0.469993 0.319982
0.49099 0.49099 0.340993
0.661997 0.511986 0.36199
0.83299 0.532998 0.382986
0.218997 0.669001 0.368994
0.38999 0.689998 0.38999
0.560998 0.710994 0.410986
0.731991 0.731991 0.431983
0.902998 0.753002 0.452995
0.289006 0.889006 0.438987
0.459998 0.910002 0.459983
0.630991 0.930999 0.480995
0.801999 0.951995 0.501991
0.973007 0.972992 0.522988
0.0180056 0.0180056 0.317998
0.188998 0.0390021 0.338994
0.359991 0.0599985 0.359991
0.530999 0.0809949 0.381003
0.702007 0.101991 0.401999
0.0879988 0.237995 0.387991
0.258991 0.258991 0.408988
0.429984 0.279988 0.429999
0.600992 0.300984 0.450996
0.772 0.321996 0.471992
0.157992 0.458 0.458
0.328984 0.478996 0.478996
0.499992 0.499992 0.499992
0.671 0.520989 0.520989
0.841993 0.541985 0.541985
0.228 0.678004 0.527993
0.398993 0.699001 0.548989
0.570001 0.719997 0.569986
0.740993 0.740993 0.590997
0.912001 0.76199 0.611994
0.297993 0.898009 0.598001
0.468986 0.919005 0.618997
0.639994 0.940002 0.639994
0.811002 0.960998 0.66099
0.981994 0.981994 0.681987
0.0269932 0.0270085 0.476997
0.197986 0.0480049 0.497993
0.368994 0.0690013 0.519005
0.540002 0.0899977 0.540002
0.710994 0.110994 0.560998
0.0970016 0.246998 0.54699
0.267994 0.267994 0.568002
0.438987 0.288991 0.588998
0.609995 0.309987 0.609995
0.781003 0.330983 0.630991
0.166995 0.467002 0.616999
0.337987 0.487999 0.637995
0.508995 0.508995 0.658991
0.679988 0.529992 0.680003
0.850996 0.550988 0.700999
0.237003 0.686992 0.686992
0.407996 0.708003 0.708003
0.578988 0.729 0.729
0.749996 0.749996 0.749996
0.921004 0.770993 0.770993
0.306996 0.906996 0.757
0.477989 0.927993 0.777996
0.648997 0.949004 0.798993
0.820005 0.970001 0.819989
0.990997 0.990997 0.841001
0.035996 0.035996 0.635996
0.206989 0.0570077 0.657008
0.377997 0.0780041 0.678004
0.549004 0.0990005 0.699001
0.719997 0.119997 0.719997
0.106004 0.255985 0.706004
0.276982 0.276997 0.727001
0.44799 0.297993 0.747997
0.618997 0.31899 0.768994
0.78999 0.339986 0.790005
0.175998 0.47599 0.775998
0.34699 0.497002 0.796994
0.517998 0.517998 0.818006
0.688991 0.538994 0.839002
0.859998 0.559991 0.859998
0.246006 0.695994 0.846006
0.416999 0.716991 0.867002
0.587991 0.738003 0.887999
0.758999 0.758999 0.908995
0.929992 0.779995 0.930007
0.315999 0.915999 0.915999
0.486992 0.936996 0.936996
0.658 0.958007 0.958007
0.828992 0.979004 0.979004
1 1 1
