public/LUTS/Color Loss/Color Loss_08.cube
TITLE "Generated by Resolve"
LUT_3D_SIZE 9
0 0 0
0.0459907 0.0209964 0.0209964
0.0919966 0.0419928 0.0419928
0.138003 0.0630045 0.0630045
0.183993 0.0840009 0.0840009
0.229999 0.104997 0.104997
0.276005 0.125994 0.125994
0.321996 0.147005 0.147005
0.368002 0.168002 0.168002
0.0699931 0.0949874 0.0699931
0.115984 0.115984 0.0909895
0.16199 0.13698 0.111986
0.207996 0.157992 0.132998
0.253986 0.178988 0.153994
0.299992 0.199985 0.17499
0.345998 0.220981 0.195987
0.391989 0.241993 0.216999
0.437995 0.262989 0.237995
0.139986 0.18999 0.139986
0.185992 0.210986 0.160998
0.231983 0.231983 0.181994
0.277989 0.252995 0.202991
0.323995 0.273991 0.223987
0.369985 0.294987 0.244999
0.415991 0.315984 0.265995
0.461997 0.336996 0.286992
0.507988 0.357992 0.307988
0.209995 0.284993 0.209995
0.255985 0.305989 0.230991
0.301991 0.326986 0.251987
0.347997 0.347997 0.272999
0.393988 0.368994 0.293996
0.439994 0.38999 0.314992
0.486 0.410986 0.335988
0.531991 0.431998 0.357
0.577996 0.452995 0.377997
0.280003 0.379995 0.280003
0.325994 0.400992 0.300999
0.371984 0.421988 0.321996
0.41799 0.443 0.342992
0.463996 0.463996 0.363989
0.509987 0.484993 0.385
0.555993 0.505989 0.405997
0.601999 0.527001 0.426993
0.64799 0.547997 0.44799
0.349996 0.474998 0.349996
0.395987 0.495995 0.370993
0.441993 0.516991 0.391989
0.487999 0.537987 0.413001
0.533989 0.558999 0.433997
0.579995 0.579995 0.454994
0.626001 0.600992 0.47599
0.671992 0.621988 0.497002
0.717998 0.643 0.517998
0.420005 0.570001 0.420005
0.465995 0.590997 0.441001
0.512001 0.611994 0.461997
0.557992 0.63299 0.482994
0.603998 0.654002 0.50399
0.649989 0.674998 0.525002
0.695994 0.695994 0.545998
0.742 0.716991 0.566995
0.787991 0.738003 0.587991
0.489998 0.665003 0.489998
0.535988 0.686 0.510994
0.581994 0.706996 0.531991
0.628 0.727993 0.553002
0.673991 0.749004 0.573999
0.719997 0.770001 0.594995
0.766003 0.790997 0.615991
0.811994 0.811994 0.637003
0.858 0.833005 0.658
0.560006 0.760006 0.560006
0.605997 0.781003 0.581003
0.652003 0.801999 0.601999
0.697993 0.822995 0.622995
0.743999 0.843992 0.643992
0.790005 0.865003 0.665003
0.835996 0.886 0.686
0.882002 0.906996 0.706996
0.927993 0.927993 0.727993
0.00900282 0.00900282 0.0339971
0.0549935 0.0299992 0.0549935
0.100999 0.0509957 0.0759899
0.14699 0.0719921 0.0970016
0.192996 0.0930037 0.117998
0.239002 0.114 0.138994
0.284993 0.134997 0.159991
0.330999 0.155993 0.181003
0.377005 0.177005 0.201999
0.078996 0.10399 0.10399
0.124987 0.124987 0.124987
0.170993 0.145983 0.145983
0.216983 0.166979 0.166995
0.262989 0.187991 0.187991
0.308995 0.208988 0.208988
0.354986 0.229984 0.229984
0.400992 0.25098 0.250996
0.446998 0.271992 0.271992
0.148989 0.198993 0.173983
0.194995 0.219989 0.194995
0.240986 0.240986 0.215991
0.286992 0.261982 0.236988
0.332982 0.282994 0.257984
0.378988 0.30399 0.278996
0.424994 0.324987 0.299992
0.470985 0.345983 0.320989
0.516991 0.366995 0.341985
0.218997 0.293996 0.243992
0.264988 0.314992 0.264988
0.310994 0.335988 0.285985
0.356985 0.356985 0.306996
0.402991 0.377997 0.327993
0.448997 0.398993 0.348989
0.494987 0.419989 0.369985
0.540993 0.440986 0.390997
0.586999 0.461997 0.411994
0.288991 0.388998 0.313985
0.334997 0.409995 0.334997
0.380987 0.430991 0.355993
0.426993 0.451987 0.376989
0.472999 0.472999 0.397986
0.51899 0.493996 0.418997
0.564996 0.514992 0.439994
0.611002 0.535988 0.46099
0.656992 0.557 0.481987
0.358999 0.484001 0.383993
0.40499 0.504997 0.40499
0.450996 0.525994 0.425986
0.496986 0.54699 0.446998
0.542992 0.567987 0.467994
0.588998 0.588998 0.488991
0.634989 0.609995 0.509987
0.680995 0.630991 0.530999
0.727001 0.651987 0.551995
0.428992 0.579004 0.453986
0.474998 0.6 0.474998
0.520989 0.620996 0.495995
0.566995 0.641993 0.516991
0.613001 0.662989 0.537987
0.658991 0.684001 0.558999
0.704997 0.704997 0.579995
0.751003 0.725994 0.600992
0.796994 0.74699 0.621988
0.499001 0.673991 0.523995
0.544991 0.695003 0.544991
0.590997 0.715999 0.565988
0.636988 0.736996 0.586999
0.682994 0.757992 0.607996
0.729 0.779004 0.628992
0.77499 0.8 0.649989
0.820996 0.820996 0.671
0.867002 0.841993 0.691997
0.568994 0.768994 0.594003
0.615 0.78999 0.615
0.66099 0.811002 0.635996
0.706996 0.831998 0.656992
0.753002 0.852995 0.677989
0.798993 0.873991 0.699001
0.844999 0.895003 0.719997
0.891005 0.915999 0.740993
0.936996 0.936996 0.76199
0.0180056 0.0180056 0.0679942
0.0639963 0.0390021 0.0889906
0.110002 0.0599985 0.110002
0.155993 0.0809949 0.130999
0.201999 0.101991 0.151995
0.24799 0.123003 0.172992
0.293996 0.143999 0.194003
0.340002 0.164996 0.215
0.385992 0.185992 0.235996
0.0879988 0.112993 0.137987
0.133989 0.133989 0.158984
0.17998 0.154986 0.17998
0.225986 0.175982 0.200992
0.271992 0.196994 0.221988
0.317983 0.21799 0.242985
0.363989 0.238987 0.263996
0.409995 0.259983 0.284993
0.455985 0.280995 0.305989
0.157992 0.207996 0.207996
0.203983 0.228992 0.228992
0.249989 0.249989 0.249989
0.295995 0.270985 0.270985
0.341985 0.291997 0.291997
0.387991 0.312993 0.312993
0.433997 0.333989 0.333989
0.479988 0.354986 0.354986
0.525994 0.375982 0.375998
0.228 0.302998 0.277989
0.273991 0.323995 0.298985
0.319997 0.344991 0.319997
0.365988 0.365988 0.340993
0.411994 0.386984 0.36199
0.457984 0.407996 0.382986
0.50399 0.428992 0.403998
0.549996 0.449989 0.424994
0.595987 0.470985 0.445991
0.297993 0.398001 0.347997
0.343984 0.418997 0.368994
0.38999 0.439994 0.38999
0.435996 0.46099 0.410986
0.481987 0.481987 0.431998
0.527993 0.502998 0.452995
0.573999 0.523995 0.473991
0.619989 0.544991 0.494987
0.665995 0.565988 0.515999
0.368002 0.492988 0.41799
0.413993 0.514 0.438987
0.459998 0.534997 0.459998
0.505989 0.555993 0.480995
0.551995 0.576989 0.501991
0.598001 0.598001 0.522988
0.643992 0.618997 0.543999
0.689998 0.639994 0.564996
0.736004 0.66099 0.585992
0.437995 0.587991 0.487999
0.483986 0.608988 0.508995
0.529992 0.629999 0.529992
0.575998 0.650996 0.550988
0.621988 0.671992 0.572
0.667994 0.692988 0.592996
0.714 0.714 0.613993
0.759991 0.734997 0.634989
0.805997 0.755993 0.656001
0.508003 0.682994 0.557992
0.553994 0.70399 0.578988
0.6 0.725002 0.6
0.645991 0.745998 0.620996
0.691997 0.766995 0.641993
0.738003 0.787991 0.662989
0.783993 0.809003 0.684001
0.829999 0.829999 0.704997
0.876005 0.850996 0.725994
0.577996 0.777996 0.628
0.623987 0.798993 0.648997
0.669993 0.820005 0.669993
0.715999 0.841001 0.69099
0.76199 0.861997 0.712001
0.807996 0.882994 0.732998
0.854002 0.904005 0.753994
0.899992 0.925002 0.77499
0.945998 0.945998 0.796002
0.0269932 0.0269932 0.101991
0.0729992 0.0479896 0.123003
0.11899 0.0690013 0.143999
0.164996 0.0899977 0.164996
0.211002 0.110994 0.185992
0.256992 0.131991 0.207004
0.302998 0.153002 0.228
0.349004 0.173999 0.248997
0.394995 0.194995 0.269993
0.0969863 0.121996 0.171984
0.142992 0.142992 0.192981
0.188983 0.163989 0.213993
0.234989 0.184985 0.234989
0.280995 0.205982 0.255985
0.326986 0.226993 0.276982
0.372992 0.24799 0.297993
0.418997 0.268986 0.31899
0.464988 0.289982 0.339986
0.166995 0.216999 0.241993
0.212985 0.237995 0.262989
0.258991 0.258991 0.283986
0.304982 0.279988 0.304982
0.350988 0.300984 0.325994
0.396994 0.321996 0.34699
0.442985 0.342992 0.367987
0.488991 0.363989 0.388998
0.534997 0.384985 0.409995
0.236988 0.311986 0.311986
0.282994 0.332998 0.332982
0.328984 0.353994 0.353994
0.37499 0.37499 0.37499
0.420996 0.395987 0.395987
0.466987 0.416983 0.416999
0.512993 0.437995 0.437995
0.558999 0.458991 0.458991
0.60499 0.479988 0.479988
0.306996 0.406989 0.381994
0.352987 0.427985 0.402991
0.398993 0.448997 0.423987
0.444999 0.469993 0.444999
0.49099 0.49099 0.465995
0.536995 0.511986 0.486992
0.582986 0.532998 0.507988
0.628992 0.553994 0.529
0.674998 0.57499 0.549996
0.376989 0.501991 0.451987
0.422995 0.522988 0.472999
0.468986 0.543999 0.493996
0.514992 0.564996 0.514992
0.560998 0.585992 0.535988
0.606989 0.606989 0.557
0.652995 0.628 0.577996
0.699001 0.648997 0.598993
0.744991 0.669993 0.619989
0.446998 0.596994 0.521996
0.492988 0.61799 0.542992
0.538994 0.639002 0.563989
0.585 0.659998 0.585
0.630991 0.680995 0.605997
0.676997 0.701991 0.626993
0.723003 0.723003 0.64799
0.768994 0.743999 0.669001
0.815 0.764996 0.689998
0.516991 0.691997 0.591989
0.562997 0.712993 0.613001
0.608988 0.733989 0.633997
0.654994 0.755001 0.654994
0.700999 0.775998 0.67599
0.74699 0.796994 0.697002
0.792996 0.81799 0.717998
0.839002 0.839002 0.738994
0.884993 0.859998 0.759991
0.586999 0.786999 0.661997
0.63299 0.807996 0.682994
0.678996 0.828992 0.70399
0.725002 0.850004 0.725002
0.770993 0.871 0.745998
0.816999 0.891997 0.766995
0.863005 0.912993 0.787991
0.908995 0.934005 0.809003
0.955001 0.955001 0.829999
0.035996 0.035996 0.136004
0.082002 0.0569924 0.157
0.127993 0.0780041 0.177996
0.173999 0.0990005 0.198993
0.219989 0.119997 0.219989
0.265995 0.140993 0.241001
0.312001 0.162005 0.261997
0.357992 0.183001 0.282994
0.403998 0.203998 0.304006
0.105989 0.130983 0.205997
0.15198 0.15198 0.226993
0.197986 0.172992 0.24799
0.243992 0.193988 0.268986
0.289982 0.214984 0.289982
0.335988 0.235981 0.310994
0.381994 0.256992 0.331991
0.427985 0.277989 0.352987
0.473991 0.298985 0.373983
0.175998 0.225986 0.27599
0.221988 0.246983 0.296986
0.267994 0.267994 0.317983
0.313985 0.288991 0.338994
0.359991 0.309987 0.359991
0.405997 0.330983 0.380987
0.451987 0.351995 0.401984
0.497993 0.372992 0.422995
0.543999 0.393988 0.443992
0.245991 0.320989 0.345998
0.291997 0.341985 0.366995
0.337987 0.362997 0.387991
0.383993 0.383993 0.408988
0.429984 0.40499 0.429984
0.47599 0.425986 0.450996
0.521996 0.446998 0.471992
0.567987 0.467994 0.492988
0.613993 0.488991 0.513985
0.315999 0.415991 0.415991
0.36199 0.436988 0.436988
0.407996 0.458 0.457984
0.453986 0.478996 0.478996
0.499992 0.499992 0.499992
0.545998 0.520989 0.520989
0.591989 0.541985 0.542
0.637995 0.562997 0.562997
0.684001 0.583993 0.583993
0.385992 0.510994 0.486
0.431998 0.531991 0.506996
0.477989 0.552987 0.527993
0.523995 0.573999 0.548989
0.570001 0.594995 0.570001
0.615991 0.615991 0.590997
0.661997 0.636988 0.611994
0.707988 0.658 0.63299
0.753994 0.678996 0.654002
0.456001 0.605997 0.555993
0.501991 0.626993 0.576989
0.547997 0.64799 0.598001
0.593988 0.669001 0.618997
0.639994 0.689998 0.639994
0.686 0.710994 0.66099
0.731991 0.731991 0.682002
0.777996 0.753002 0.702998
0.824002 0.773999 0.723995
0.525994 0.700999 0.626001
0.572 0.721996 0.646998
0.61799 0.742992 0.667994
0.663996 0.764004 0.688991
0.710002 0.785 0.710002
0.755993 0.805997 0.730999
0.801999 0.826993 0.751995
0.848005 0.848005 0.772992
0.893996 0.869001 0.794003
0.596002 0.796002 0.695994
0.641993 0.816999 0.716991
0.687999 0.837995 0.738003
0.733989 0.858991 0.758999
0.779995 0.880003 0.779995
0.826001 0.900999 0.800992
0.871992 0.921996 0.822003
0.917998 0.942992 0.843
0.964004 0.964004 0.863996
0.0449989 0.0449989 0.170001
0.0909895 0.0659953 0.190997
0.136995 0.0869917 0.211994
0.183001 0.108003 0.23299
0.228992 0.129 0.254002
0.274998 0.149996 0.274998
0.321004 0.170993 0.295995
0.366995 0.192004 0.316991
0.413001 0.213001 0.338003
0.114992 0.139986 0.239994
0.160983 0.160983 0.26099
0.206989 0.181994 0.281987
0.252995 0.202991 0.302983
0.298985 0.223987 0.323995
0.344991 0.244984 0.344991
0.390997 0.265995 0.365988
0.436988 0.286992 0.386984
0.482994 0.307988 0.407996
0.185 0.234989 0.309987
0.230991 0.255985 0.330983
0.276982 0.276982 0.351995
0.322988 0.297993 0.372992
0.368994 0.31899 0.393988
0.414984 0.339986 0.414984
0.46099 0.360983 0.435996
0.506996 0.381994 0.456992
0.552987 0.402991 0.477989
0.254994 0.329992 0.379995
0.300984 0.350988 0.400992
0.34699 0.371984 0.421988
0.392996 0.392996 0.442985
0.438987 0.413993 0.463996
0.484993 0.434989 0.484993
0.530999 0.455985 0.505989
0.576989 0.476997 0.526986
0.622995 0.497993 0.547997
0.325002 0.424994 0.449989
0.370993 0.445991 0.470985
0.416999 0.466987 0.491997
0.462989 0.487999 0.512993
0.508995 0.508995 0.533989
0.554986 0.529992 0.554986
0.600992 0.550988 0.575998
0.646998 0.572 0.596994
0.692988 0.592996 0.61799
0.394995 0.519997 0.519997
0.440986 0.540993 0.540993
0.486992 0.56199 0.56199
0.532998 0.582986 0.582986
0.578988 0.603998 0.603998
0.624994 0.624994 0.624994
0.671 0.645991 0.645991
0.716991 0.667002 0.667002
0.762997 0.687999 0.687999
0.465003 0.615 0.58999
0.510994 0.635996 0.611002
0.557 0.656992 0.631998
0.602991 0.677989 0.652995
0.648997 0.699001 0.673991
0.695003 0.719997 0.695003
0.740993 0.740993 0.715999
0.786999 0.76199 0.736996
0.83299 0.783001 0.757992
0.534997 0.710002 0.659998
0.580987 0.730999 0.680995
0.626993 0.751995 0.701991
0.672999 0.772992 0.723003
0.71899 0.794003 0.743999
0.764996 0.815 0.764996
0.811002 0.835996 0.785992
0.856992 0.856992 0.807004
0.902998 0.878004 0.828
0.605005 0.805005 0.729992
0.650996 0.826001 0.751003
0.697002 0.846998 0.772
0.742992 0.867994 0.792996
0.788998 0.889006 0.813993
0.835004 0.910002 0.835004
0.880995 0.930999 0.856001
0.927001 0.951995 0.876997
0.973007 0.973007 0.897993
0.0540017 0.0540017 0.203998
0.0999924 0.0749981 0.224994
0.145998 0.0959945 0.245991
0.191989 0.116991 0.267002
0.237995 0.138003 0.287999
0.284001 0.158999 0.308995
0.329992 0.179995 0.329992
0.375998 0.200992 0.351003
0.422004 0.222004 0.372
0.123995 0.148989 0.273991
0.169986 0.169986 0.294987
0.215991 0.190982 0.315984
0.261982 0.211994 0.336996
0.307988 0.23299 0.357992
0.353994 0.253986 0.378988
0.399985 0.274983 0.399985
0.445991 0.295995 0.420996
0.491997 0.316991 0.441993
0.193988 0.243992 0.343999
0.239994 0.264988 0.364996
0.285985 0.285985 0.385992
0.331991 0.306996 0.406989
0.377997 0.327993 0.427985
0.423987 0.348989 0.448997
0.469993 0.369985 0.469993
0.515999 0.390997 0.49099
0.56199 0.411994 0.511986
0.263996 0.338994 0.413993
0.309987 0.359991 0.434989
0.355993 0.380987 0.455985
0.401984 0.401984 0.476997
0.44799 0.422995 0.497993
0.493996 0.443992 0.51899
0.539986 0.464988 0.539986
0.585992 0.485985 0.560998
0.631998 0.506996 0.581994
0.333989 0.433997 0.484001
0.379995 0.454994 0.504997
0.425986 0.47599 0.525994
0.471992 0.496986 0.54699
0.517998 0.517998 0.567987
0.563989 0.538994 0.588998
0.609995 0.559991 0.609995
0.656001 0.580987 0.630991
0.701991 0.601999 0.651987
0.403998 0.529 0.553994
0.449989 0.549996 0.57499
0.495995 0.570993 0.595987
0.542 0.591989 0.616999
0.587991 0.613001 0.637995
0.633997 0.633997 0.658991
0.679988 0.654994 0.679988
0.725994 0.67599 0.700999
0.772 0.697002 0.721996
0.473991 0.624002 0.624002
0.519997 0.644999 0.644999
0.565988 0.665995 0.665995
0.611994 0.686992 0.686992
0.658 0.707988 0.707988
0.70399 0.729 0.729
0.749996 0.749996 0.749996
0.796002 0.770993 0.770993
0.841993 0.791989 0.792004
0.543999 0.719005 0.693996
0.58999 0.740001 0.714992
0.635996 0.760998 0.736004
0.682002 0.781994 0.757
0.727993 0.802991 0.777996
0.773999 0.824002 0.798993
0.820005 0.844999 0.820005
0.865995 0.865995 0.841001
0.912001 0.886992 0.861997
0.613993 0.814008 0.764004
0.659998 0.835004 0.785
0.705989 0.856001 0.805997
0.751995 0.876997 0.826993
0.798001 0.897993 0.848005
0.843992 0.919005 0.869001
0.889998 0.940002 0.889998
0.936004 0.960998 0.910994
0.981994 0.981994 0.932006
0.0630045 0.0630045 0.237995
0.108995 0.0840009 0.258991
0.155001 0.104997 0.280003
0.200992 0.125994 0.300999
0.246998 0.147005 0.321996
0.293004 0.168002 0.342992
0.338994 0.188998 0.364004
0.385 0.209995 0.385
0.431006 0.231006 0.405997
0.132998 0.157992 0.307988
0.178988 0.178988 0.328984
0.224994 0.199985 0.349996
0.270985 0.220981 0.370993
0.316991 0.241993 0.391989
0.362997 0.262989 0.412985
0.408988 0.283986 0.433997
0.454994 0.304982 0.454994
0.500999 0.325994 0.47599
0.202991 0.252995 0.377997
0.248981 0.273991 0.398993
0.294987 0.294987 0.419989
0.340993 0.315984 0.440986
0.386984 0.336996 0.461997
0.43299 0.357992 0.482994
0.478996 0.378988 0.50399
0.524987 0.399985 0.524987
0.570993 0.420996 0.545998
0.272999 0.347997 0.44799
0.31899 0.368994 0.468986
0.364996 0.38999 0.489998
0.410986 0.410986 0.510994
0.456992 0.431998 0.531991
0.502998 0.452995 0.552987
0.548989 0.473991 0.573999
0.594995 0.494987 0.594995
0.641001 0.515999 0.615991
0.342992 0.443 0.517998
0.388998 0.463996 0.538994
0.434989 0.484993 0.559991
0.480995 0.505989 0.580987
0.526986 0.526986 0.601999
0.572992 0.547997 0.622995
0.618997 0.568994 0.643992
0.664988 0.58999 0.664988
0.710994 0.610986 0.686
0.413001 0.538003 0.587991
0.458991 0.558999 0.608988
0.504997 0.579995 0.629999
0.550988 0.600992 0.650996
0.596994 0.621988 0.671992
0.643 0.643 0.692988
0.688991 0.663996 0.714
0.734997 0.684993 0.734997
0.781003 0.705989 0.755993
0.482994 0.633005 0.658
0.529 0.654002 0.678996
0.57499 0.674998 0.699992
0.620996 0.695994 0.720989
0.667002 0.716991 0.742
0.712993 0.738003 0.762997
0.758999 0.758999 0.783993
0.80499 0.779995 0.80499
0.850996 0.800992 0.826001
0.553002 0.727993 0.727993
0.598993 0.749004 0.748989
0.644999 0.770001 0.770001
0.69099 0.790997 0.790997
0.736996 0.811994 0.811994
0.783001 0.833005 0.83299
0.828992 0.854002 0.854002
0.874998 0.874998 0.874998
0.921004 0.895994 0.895994
0.622995 0.822995 0.798001
0.669001 0.843992 0.818998
0.714992 0.865003 0.839994
0.760998 0.886 0.86099
0.807004 0.906996 0.882002
0.852995 0.927993 0.902998
0.899001 0.949004 0.923995
0.945006 0.970001 0.945006
0.990997 0.990997 0.966003
0.0720073 0.0720073 0.272007
0.117998 0.0930037 0.293004
0.163989 0.114 0.314
0.209995 0.134997 0.334997
0.256001 0.155993 0.355993
0.301991 0.177005 0.377005
0.347997 0.198001 0.398001
0.394003 0.218997 0.418997
0.439994 0.239994 0.439994
0.141985 0.166995 0.342
0.187991 0.187991 0.362997
0.233982 0.208988 0.383993
0.279988 0.229984 0.40499
0.325994 0.250996 0.425986
0.371984 0.271992 0.446998
0.41799 0.292988 0.467994
0.463996 0.313985 0.488991
0.509987 0.334997 0.509987
0.211994 0.261997 0.411994
0.257984 0.282994 0.43299
0.30399 0.30399 0.453986
0.349996 0.324987 0.474998
0.395987 0.345983 0.495995
0.441993 0.366995 0.516991
0.487999 0.387991 0.537987
0.533989 0.408988 0.558999
0.579995 0.429984 0.579995
0.282002 0.357 0.482002
0.327993 0.377997 0.502998
0.373983 0.398993 0.523995
0.419989 0.419989 0.544991
0.465995 0.440986 0.565988
0.511986 0.461997 0.586999
0.557992 0.482994 0.607996
0.603998 0.50399 0.628992
0.649989 0.524987 0.649989
0.351995 0.451987 0.551995
0.397986 0.472999 0.572992
0.443992 0.493996 0.593988
0.489998 0.514992 0.615
0.535988 0.535988 0.635996
0.581994 0.557 0.656992
0.628 0.577996 0.677989
0.673991 0.598993 0.699001
0.719997 0.619989 0.719997
0.422004 0.54699 0.622003
0.467994 0.568002 0.643
0.514 0.588998 0.663996
0.559991 0.609995 0.684993
0.605997 0.630991 0.705989
0.651987 0.651987 0.727001
0.697993 0.672999 0.747997
0.743999 0.693996 0.768994
0.78999 0.714992 0.78999
0.491997 0.641993 0.691997
0.537987 0.662989 0.712993
0.583993 0.684001 0.733989
0.629999 0.704997 0.755001
0.67599 0.725994 0.775998
0.721996 0.74699 0.796994
0.768002 0.768002 0.81799
0.813993 0.788998 0.839002
0.859998 0.809995 0.859998
0.562005 0.736996 0.762005
0.607996 0.757992 0.783001
0.654002 0.779004 0.803998
0.699992 0.8 0.824994
0.745998 0.820996 0.845991
0.792004 0.841993 0.867002
0.837995 0.863005 0.887999
0.884001 0.884001 0.908995
0.929992 0.904997 0.929992
0.631998 0.831998 0.831998
0.677989 0.852995 0.852995
0.723995 0.874006 0.873991
0.770001 0.895003 0.895003
0.815991 0.915999 0.915999
0.861997 0.936996 0.936996
0.908003 0.957992 0.957992
0.953994 0.979004 0.979004
1 1 1
