public/LUTS/Color Loss/Color Loss_06.cube
TITLE "Generated by Resolve"
LUT_3D_SIZE 5
0 0 0
0.131487 0.0314946 0.0314946
0.262989 0.0630045 0.0630045
0.394491 0.0944991 0.0944991
0.525994 0.125994 0.125994
0.104997 0.20499 0.104997
0.236484 0.236484 0.136492
0.367987 0.267994 0.167987
0.499489 0.299489 0.199496
0.630991 0.330983 0.230991
0.209995 0.409995 0.209995
0.341497 0.441489 0.241489
0.472999 0.472999 0.272999
0.604501 0.504494 0.304494
0.736004 0.535988 0.336004
0.314992 0.615 0.314992
0.446494 0.646494 0.346502
0.577996 0.677989 0.377997
0.709499 0.709499 0.409491
0.841001 0.740993 0.441001
0.420005 0.820005 0.420005
0.551492 0.851499 0.451499
0.682994 0.882994 0.482994
0.814496 0.914504 0.514504
0.945998 0.945998 0.545998
0.0135042 0.0135042 0.113497
0.144991 0.0449989 0.144991
0.276493 0.0764935 0.176501
0.407996 0.108003 0.207996
0.539498 0.139498 0.23949
0.118502 0.218494 0.218494
0.249989 0.249989 0.249989
0.381491 0.281483 0.281483
0.512993 0.312993 0.312993
0.644495 0.344488 0.344488
0.223499 0.423499 0.323491
0.354986 0.454994 0.354986
0.486488 0.486488 0.386496
0.61799 0.517998 0.41799
0.749493 0.549493 0.449485
0.328496 0.628504 0.428489
0.459998 0.659998 0.459998
0.591501 0.691493 0.491493
0.723003 0.722988 0.522988
0.854505 0.754498 0.554498
0.433494 0.833494 0.533501
0.564996 0.865003 0.564996
0.696498 0.896498 0.59649
0.828 0.927993 0.628
0.959503 0.959503 0.659495
0.0269932 0.0269932 0.226993
0.158495 0.0585031 0.258503
0.289998 0.0899977 0.289998
0.4215 0.121492 0.321492
0.553002 0.153002 0.353002
0.131991 0.231998 0.331991
0.263493 0.263493 0.363485
0.394995 0.294987 0.394995
0.526497 0.326482 0.42649
0.658 0.357992 0.457984
0.237003 0.436988 0.436988
0.36849 0.468498 0.468498
0.499992 0.499992 0.499992
0.631495 0.531487 0.531487
0.762997 0.562997 0.562997
0.342 0.641993 0.542
0.473487 0.673503 0.573495
0.60499 0.704997 0.60499
0.736492 0.736492 0.6365
0.867994 0.768002 0.667994
0.446998 0.846998 0.646998
0.5785 0.878492 0.678492
0.710002 0.910002 0.710002
0.841505 0.941497 0.741497
0.973007 0.972992 0.772992
0.0404974 0.0404974 0.340505
0.172 0.0719921 0.372
0.303502 0.103502 0.403494
0.435004 0.134997 0.435004
0.566506 0.166506 0.466499
0.145495 0.245487 0.445487
0.276982 0.276997 0.476997
0.408484 0.308492 0.508492
0.539986 0.339986 0.539986
0.671489 0.371496 0.571496
0.250492 0.450492 0.5505
0.381994 0.481987 0.581994
0.513497 0.513497 0.613489
0.644999 0.544991 0.644999
0.776501 0.576486 0.676493
0.355505 0.655497 0.655497
0.486992 0.686992 0.686992
0.618494 0.718502 0.718502
0.749996 0.749996 0.749996
0.881498 0.781491 0.781491
0.460502 0.860502 0.760494
0.591989 0.891997 0.792004
0.723491 0.923506 0.823499
0.854994 0.955001 0.854994
0.986496 0.986496 0.886503
0.0540017 0.0540017 0.454002
0.185489 0.0854963 0.485496
0.316991 0.117006 0.517006
0.448493 0.148501 0.548501
0.579995 0.179995 0.579995
0.158999 0.258991 0.558999
0.290486 0.290486 0.590494
0.421988 0.321996 0.621988
0.553491 0.353491 0.653498
0.684993 0.384985 0.684993
0.263996 0.463996 0.663996
0.395483 0.495491 0.695491
0.526986 0.527001 0.727001
0.658488 0.558495 0.758495
0.78999 0.58999 0.78999
0.368994 0.669001 0.768994
0.500496 0.700496 0.800504
0.631998 0.731991 0.831998
0.7635 0.7635 0.863493
0.895003 0.794995 0.895003
0.474006 0.874006 0.874006
0.605493 0.905501 0.905501
0.736996 0.936996 0.936996
0.868498 0.968505 0.968505
1 1 1
