public/LUTS/Color Loss/Color Loss_06.cube
TITLE "Generated by Resolve"
LUT_3D_SIZE 33
0 0 0
0.016434 0.00393683 0.00393683
0.0328679 0.00787366 0.00787366
0.0493019 0.0118105 0.0118105
0.0657359 0.0157473 0.0157473
0.0821851 0.0196841 0.0196841
0.0986191 0.023621 0.023621
0.115053 0.0275578 0.0275578
0.131487 0.0314946 0.0314946
0.147936 0.0354314 0.0354314
0.16437 0.0393683 0.0393683
0.180804 0.0433051 0.0433051
0.197238 0.0472419 0.0472419
0.213687 0.0511788 0.0511788
0.230121 0.0551156 0.0551308
0.246555 0.0590677 0.0590677
0.262989 0.0630045 0.0630045
0.279438 0.0669413 0.0669413
0.295872 0.0708782 0.0708782
0.312306 0.074815 0.074815
0.32874 0.0787518 0.0787518
0.34519 0.0826886 0.0826886
0.361624 0.0866255 0.0866255
0.378058 0.0905623 0.0905623
0.394491 0.0944991 0.0944991
0.410941 0.098436 0.098436
0.427375 0.102373 0.102373
0.443809 0.10631 0.10631
0.460243 0.110246 0.110246
0.476692 0.114183 0.114183
0.493126 0.11812 0.11812
0.50956 0.122057 0.122057
0.525994 0.125994 0.125994
0.0131228 0.0256199 0.0131228
0.0295415 0.0295415 0.0170596
0.0459907 0.0334936 0.0209964
0.0624247 0.0374304 0.0249332
0.0788586 0.0413672 0.0288701
0.0952926 0.045304 0.0328069
0.111742 0.0492409 0.0367437
0.128176 0.0531777 0.0406806
0.14461 0.0571145 0.0446174
0.161044 0.0610513 0.0485542
0.177493 0.0649882 0.052491
0.193927 0.068925 0.0564279
0.210361 0.0728618 0.0603647
0.226795 0.0767987 0.0643015
0.243244 0.0807355 0.0682383
0.259678 0.0846723 0.0721752
0.276112 0.0886091 0.076112
0.292546 0.092546 0.0800488
0.308995 0.0964828 0.0839857
0.325429 0.10042 0.0879377
0.341863 0.104356 0.0918746
0.358297 0.108293 0.0958114
0.374746 0.11223 0.0997482
0.39118 0.116167 0.103685
0.407614 0.120104 0.107622
0.424048 0.124056 0.111559
0.440497 0.127993 0.115496
0.456931 0.13193 0.119432
0.473365 0.135866 0.123369
0.489799 0.139803 0.127306
0.506249 0.14374 0.131243
0.522683 0.147677 0.13518
0.539117 0.151614 0.139116
0.0262455 0.0512398 0.0262455
0.0426795 0.0551766 0.0301823
0.0591135 0.0591135 0.0341192
0.0755474 0.0630503 0.038056
0.0919814 0.0669871 0.0419928
0.108431 0.0709239 0.0459297
0.124865 0.0748608 0.0498665
0.141299 0.0787976 0.0538033
0.157733 0.0827344 0.0577401
0.174182 0.0866712 0.061677
0.190616 0.0906081 0.0656138
0.20705 0.0945449 0.0695506
0.223484 0.0984817 0.0734875
0.239933 0.102419 0.0774243
0.256367 0.106355 0.0813611
0.272801 0.110292 0.0852979
0.289235 0.114229 0.08925
0.305684 0.118181 0.0931868
0.322118 0.122118 0.0971237
0.338552 0.126055 0.101061
0.354986 0.129992 0.104997
0.371435 0.133928 0.108934
0.387869 0.137865 0.112871
0.404303 0.141802 0.116808
0.420737 0.145739 0.120745
0.437186 0.149676 0.124681
0.45362 0.153613 0.128618
0.470054 0.157549 0.132555
0.486488 0.161486 0.136492
0.502937 0.165423 0.140429
0.519371 0.16936 0.144366
0.535805 0.173297 0.148302
0.552239 0.177234 0.152239
0.0393683 0.0768597 0.0393683
0.0558022 0.0807965 0.0433051
0.0722362 0.0847334 0.0472419
0.0886702 0.0886702 0.0511788
0.105119 0.092607 0.0551156
0.121553 0.0965438 0.0590524
0.137987 0.100481 0.0629892
0.154421 0.104417 0.0669261
0.170871 0.108354 0.0708629
0.187304 0.112306 0.0747997
0.203738 0.116243 0.0787366
0.220172 0.12018 0.0826734
0.236622 0.124117 0.0866102
0.253056 0.128054 0.0905623
0.26949 0.131991 0.0944991
0.285924 0.135927 0.098436
0.302373 0.139864 0.102373
0.318807 0.143801 0.10631
0.335241 0.147738 0.110246
0.351675 0.151675 0.114183
0.368109 0.155612 0.11812
0.384558 0.159548 0.122057
0.400992 0.163485 0.125994
0.417426 0.167422 0.129931
0.43386 0.171359 0.133867
0.450309 0.175296 0.137804
0.466743 0.179232 0.141741
0.483177 0.183169 0.145678
0.499611 0.187106 0.149615
0.51606 0.191043 0.153552
0.532494 0.19498 0.157488
0.548928 0.198932 0.161425
0.565362 0.202869 0.165362
0.052491 0.102495 0.052491
0.068925 0.106432 0.0564279
0.085359 0.110369 0.0603647
0.101793 0.114305 0.0643015
0.118242 0.118242 0.0682383
0.134676 0.122179 0.0721752
0.15111 0.126116 0.076112
0.167544 0.130053 0.0800488
0.183993 0.133989 0.0839857
0.200427 0.137926 0.0879377
0.216861 0.141863 0.0918746
0.233295 0.1458 0.0958114
0.249744 0.149737 0.0997482
0.266178 0.153674 0.103685
0.282612 0.15761 0.107622
0.299046 0.161547 0.111559
0.315496 0.165484 0.115496
0.33193 0.169421 0.119432
0.348363 0.173358 0.123369
0.364797 0.177295 0.127306
0.381247 0.181231 0.131243
0.397681 0.185168 0.13518
0.414115 0.189105 0.139116
0.430549 0.193057 0.143053
0.446998 0.196994 0.14699
0.463432 0.200931 0.150927
0.479866 0.204868 0.154864
0.4963 0.208804 0.158801
0.512749 0.212741 0.162737
0.529183 0.216678 0.166674
0.545617 0.220615 0.170626
0.562051 0.224552 0.174563
0.5785 0.228489 0.1785
0.0656138 0.128115 0.0656138
0.0820478 0.132052 0.0695506
0.0984817 0.135988 0.0734875
0.114931 0.139925 0.0774243
0.131365 0.143862 0.0813611
0.147799 0.147799 0.0852979
0.164233 0.151736 0.08925
0.180682 0.155673 0.0931868
0.197116 0.159609 0.0971237
0.21355 0.163546 0.101061
0.229984 0.167483 0.104997
0.246433 0.17142 0.108934
0.262867 0.175357 0.112871
0.279301 0.179294 0.116808
0.295735 0.18323 0.120745
0.312184 0.187182 0.124681
0.328618 0.191119 0.128618
0.345052 0.195056 0.132555
0.361486 0.198993 0.136492
0.377935 0.20293 0.140429
0.394369 0.206867 0.144366
0.410803 0.210803 0.148302
0.427237 0.21474 0.152239
0.443687 0.218677 0.156176
0.460121 0.222614 0.160113
0.476555 0.226551 0.16405
0.492988 0.230488 0.167987
0.509438 0.234424 0.171939
0.525872 0.238361 0.175875
0.542306 0.242298 0.179812
0.55874 0.246235 0.183749
0.575189 0.250172 0.187686
0.591623 0.254108 0.191623
0.0787518 0.153735 0.0787518
0.0951705 0.157671 0.0826734
0.11162 0.161608 0.0866102
0.128054 0.165545 0.0905623
0.144488 0.169482 0.0944991
0.160922 0.173419 0.098436
0.177371 0.177356 0.102373
0.193805 0.181308 0.10631
0.210239 0.185245 0.110246
0.226673 0.189181 0.114183
0.243107 0.193118 0.11812
0.259556 0.197055 0.122057
0.27599 0.200992 0.125994
0.292424 0.204929 0.129931
0.308858 0.208865 0.133867
0.325307 0.212802 0.137804
0.341741 0.216739 0.141741
0.358175 0.220676 0.145678
0.374609 0.224613 0.149615
0.391058 0.22855 0.153552
0.407492 0.232486 0.157488
0.423926 0.236423 0.161425
0.44036 0.24036 0.165362
0.456809 0.244297 0.169299
0.473243 0.248234 0.173251
0.489677 0.252171 0.177188
0.506111 0.256107 0.181125
0.52256 0.260044 0.185061
0.538994 0.263981 0.188998
0.555428 0.267933 0.192935
0.571862 0.27187 0.196872
0.588312 0.275807 0.200809
0.604746 0.279744 0.204746
0.0918746 0.17937 0.0918746
0.108293 0.183307 0.0958114
0.124743 0.187243 0.0997482
0.141176 0.19118 0.103685
0.15761 0.195117 0.107622
0.174044 0.199054 0.111559
0.190494 0.202991 0.115496
0.206928 0.206928 0.119432
0.223362 0.210864 0.123369
0.239796 0.214801 0.127306
0.256245 0.218738 0.131243
0.272679 0.222675 0.13518
0.289113 0.226612 0.139116
0.305547 0.230549 0.143053
0.321996 0.234485 0.14699
0.33843 0.238422 0.150927
0.354864 0.242359 0.154864
0.371298 0.246296 0.158801
0.387747 0.250233 0.162737
0.404181 0.25417 0.166674
0.420615 0.258106 0.170626
0.437049 0.262058 0.174563
0.453498 0.265995 0.1785
0.469932 0.269932 0.182437
0.486366 0.273869 0.186374
0.5028 0.277806 0.190311
0.519249 0.281743 0.194247
0.535683 0.285679 0.198184
0.552117 0.289616 0.202121
0.568551 0.293553 0.206058
0.585 0.29749 0.209995
0.601434 0.301427 0.213931
0.617868 0.305364 0.217868
0.104997 0.20499 0.104997
0.121431 0.208927 0.108934
0.137865 0.212863 0.112871
0.154299 0.2168 0.116808
0.170733 0.220737 0.120745
0.187182 0.224674 0.124681
0.203616 0.228611 0.128618
0.22005 0.232547 0.132555
0.236484 0.236484 0.136492
0.252934 0.240421 0.140429
0.269368 0.244358 0.144366
0.285801 0.248295 0.148302
0.302235 0.252232 0.152239
0.318685 0.256184 0.156176
0.335119 0.260121 0.160113
0.351553 0.264057 0.16405
0.367987 0.267994 0.167987
0.384436 0.271931 0.171939
0.40087 0.275868 0.175875
0.417304 0.279805 0.179812
0.433738 0.283742 0.183749
0.450187 0.287678 0.187686
0.466621 0.291615 0.191623
0.483055 0.295552 0.19556
0.499489 0.299489 0.199496
0.515938 0.303426 0.203433
0.532372 0.307362 0.20737
0.548806 0.311299 0.211307
0.56524 0.315236 0.215244
0.581689 0.319173 0.219181
0.598123 0.32311 0.223117
0.614557 0.327047 0.227054
0.630991 0.330983 0.230991
0.11812 0.23061 0.11812
0.134554 0.234546 0.122057
0.150988 0.238483 0.125994
0.167422 0.24242 0.129931
0.183856 0.246357 0.133867
0.200305 0.250309 0.137804
0.216739 0.254246 0.141741
0.233173 0.258183 0.145678
0.249607 0.262119 0.149615
0.266056 0.266056 0.153552
0.28249 0.269993 0.157488
0.298924 0.27393 0.161425
0.315358 0.277867 0.165362
0.331807 0.281804 0.169299
0.348241 0.28574 0.173251
0.364675 0.289677 0.177188
0.381109 0.293614 0.181125
0.397559 0.297551 0.185061
0.413993 0.301488 0.188998
0.430426 0.305425 0.192935
0.44686 0.309361 0.196872
0.46331 0.313298 0.200809
0.479744 0.317235 0.204746
0.496178 0.321172 0.208682
0.512612 0.325109 0.212619
0.529061 0.329046 0.216556
0.545495 0.332982 0.220493
0.561929 0.336934 0.22443
0.578363 0.340871 0.228367
0.594812 0.344808 0.232303
0.611246 0.348745 0.23624
0.62768 0.352682 0.240177
0.644114 0.356619 0.244114
0.131243 0.256245 0.131243
0.147677 0.260182 0.13518
0.164111 0.264118 0.139116
0.180545 0.268055 0.143053
0.196994 0.271992 0.14699
0.213428 0.275929 0.150927
0.229862 0.279866 0.154864
0.246296 0.283803 0.158801
0.262745 0.287739 0.162737
0.279179 0.291676 0.166674
0.295613 0.295613 0.170626
0.312047 0.29955 0.174563
0.328496 0.303487 0.1785
0.34493 0.307424 0.182437
0.361364 0.31136 0.186374
0.377798 0.315297 0.190311
0.394247 0.319234 0.194247
0.410681 0.323171 0.198184
0.427115 0.327108 0.202121
0.443549 0.33106 0.206058
0.459998 0.334997 0.209995
0.476432 0.338933 0.213931
0.492866 0.34287 0.217868
0.5093 0.346807 0.221805
0.52575 0.350744 0.225742
0.542184 0.354681 0.229679
0.558618 0.358618 0.233616
0.575051 0.362554 0.237552
0.591501 0.366491 0.241489
0.607935 0.370428 0.245426
0.624369 0.374365 0.249363
0.640803 0.378302 0.253315
0.657252 0.382239 0.257252
0.144366 0.281865 0.144366
0.1608 0.285801 0.148302
0.177234 0.289738 0.152239
0.193683 0.293675 0.156176
0.210117 0.297612 0.160113
0.226551 0.301549 0.16405
0.242985 0.305486 0.167987
0.259434 0.309422 0.171939
0.275868 0.313359 0.175875
0.292302 0.317296 0.179812
0.308736 0.321233 0.183749
0.325185 0.325185 0.187686
0.341619 0.329122 0.191623
0.358053 0.333059 0.19556
0.374487 0.336996 0.199496
0.390936 0.340932 0.203433
0.40737 0.344869 0.20737
0.423804 0.348806 0.211307
0.440238 0.352743 0.215244
0.456687 0.35668 0.219181
0.473121 0.360616 0.223117
0.489555 0.364553 0.227054
0.505989 0.36849 0.230991
0.522438 0.372427 0.234928
0.538872 0.376364 0.238865
0.555306 0.380301 0.242802
0.57174 0.384237 0.246738
0.58819 0.388174 0.250675
0.604623 0.392111 0.254627
0.621057 0.396048 0.258564
0.637491 0.399985 0.262501
0.653941 0.403922 0.266438
0.670375 0.407858 0.270375
0.157504 0.3075 0.157488
0.173922 0.311421 0.161425
0.190356 0.315358 0.165362
0.206806 0.31931 0.169299
0.223239 0.323247 0.173251
0.239673 0.327184 0.177188
0.256107 0.331121 0.181125
0.272557 0.335058 0.185061
0.288991 0.338994 0.188998
0.305425 0.342931 0.192935
0.321859 0.346868 0.196872
0.338308 0.350805 0.200809
0.354742 0.354742 0.204746
0.371176 0.358679 0.208682
0.38761 0.362615 0.212619
0.404059 0.366552 0.216556
0.420493 0.370489 0.220493
0.436927 0.374426 0.22443
0.453361 0.378363 0.228367
0.46981 0.3823 0.232303
0.486244 0.386236 0.23624
0.502678 0.390173 0.240177
0.519112 0.39411 0.244114
0.535561 0.398047 0.248051
0.551995 0.401984 0.251987
0.568429 0.405921 0.25594
0.584863 0.409873 0.259876
0.601312 0.413809 0.263813
0.617746 0.417746 0.26775
0.63418 0.421683 0.271687
0.650614 0.42562 0.275624
0.667063 0.429557 0.279561
0.683497 0.433494 0.283497
0.170626 0.33312 0.170626
0.187045 0.337057 0.174563
0.203494 0.340993 0.1785
0.219928 0.34493 0.182437
0.236362 0.348867 0.186374
0.252796 0.352804 0.190311
0.269245 0.356741 0.194247
0.285679 0.360678 0.198184
0.302113 0.364614 0.202121
0.318547 0.368551 0.206058
0.334997 0.372488 0.209995
0.351431 0.376425 0.213931
0.367864 0.380362 0.217868
0.384298 0.384298 0.221805
0.400748 0.388235 0.225742
0.417182 0.392172 0.229679
0.433616 0.396109 0.233616
0.45005 0.400046 0.237552
0.466499 0.403998 0.241489
0.482933 0.407935 0.245426
0.499367 0.411872 0.249363
0.515801 0.415808 0.253315
0.53225 0.419745 0.257252
0.548684 0.423682 0.261189
0.565118 0.427619 0.265126
0.581552 0.431556 0.269062
0.598001 0.435492 0.272999
0.614435 0.439429 0.276936
0.630869 0.443366 0.280873
0.647303 0.447303 0.28481
0.663752 0.45124 0.288746
0.680186 0.455177 0.292683
0.69662 0.459113 0.29662
0.183749 0.35874 0.183749
0.200183 0.362676 0.187686
0.216617 0.366613 0.191623
0.233051 0.37055 0.19556
0.249485 0.374487 0.199496
0.265934 0.378424 0.203433
0.282368 0.382361 0.20737
0.298802 0.386297 0.211307
0.315236 0.390234 0.215244
0.331685 0.394186 0.219181
0.348119 0.398123 0.223117
0.364553 0.40206 0.227054
0.380987 0.405997 0.230991
0.397436 0.409934 0.234928
0.41387 0.41387 0.238865
0.430304 0.417807 0.242802
0.446738 0.421744 0.246738
0.463188 0.425681 0.250675
0.479622 0.429618 0.254627
0.496056 0.433555 0.258564
0.512489 0.437491 0.262501
0.528939 0.441428 0.266438
0.545373 0.445365 0.270375
0.561807 0.449302 0.274311
0.578241 0.453239 0.278248
0.594675 0.457176 0.282185
0.611124 0.461112 0.286122
0.627558 0.465049 0.290059
0.643992 0.468986 0.293996
0.660426 0.472923 0.297932
0.676875 0.47686 0.301869
0.693309 0.480797 0.305806
0.709743 0.484749 0.309743
0.196872 0.384375 0.196872
0.213306 0.388312 0.200809
0.22974 0.392248 0.204746
0.246174 0.396185 0.208682
0.262608 0.400122 0.212619
0.279057 0.404059 0.216556
0.295491 0.407996 0.220493
0.311925 0.411933 0.22443
0.328359 0.415869 0.228367
0.344808 0.419806 0.232303
0.361242 0.423743 0.23624
0.377676 0.42768 0.240177
0.39411 0.431617 0.244114
0.410559 0.435554 0.248051
0.426993 0.43949 0.251987
0.443427 0.443427 0.25594
0.459861 0.447364 0.259876
0.47631 0.451301 0.263813
0.492744 0.455238 0.26775
0.509178 0.459174 0.271687
0.525612 0.463111 0.275624
0.542062 0.467048 0.279561
0.558495 0.470985 0.283497
0.574929 0.474922 0.287434
0.591363 0.478874 0.291371
0.607813 0.482811 0.295308
0.624247 0.486748 0.299245
0.640681 0.490684 0.303181
0.657115 0.494621 0.307118
0.673564 0.498558 0.311055
0.689998 0.502495 0.314992
0.706432 0.506432 0.318929
0.722866 0.510369 0.322866
0.209995 0.409995 0.209995
0.226429 0.413931 0.213931
0.242863 0.417868 0.217868
0.259297 0.421805 0.221805
0.275746 0.425742 0.225742
0.29218 0.429679 0.229679
0.308614 0.433616 0.233616
0.325048 0.437552 0.237552
0.341497 0.441489 0.241489
0.357931 0.445426 0.245426
0.374365 0.449363 0.249363
0.390799 0.4533 0.253315
0.407248 0.457237 0.257252
0.423682 0.461173 0.261189
0.440116 0.46511 0.265126
0.45655 0.469047 0.269062
0.472999 0.472999 0.272999
0.489433 0.476936 0.276936
0.505867 0.480873 0.280873
0.522301 0.48481 0.28481
0.53875 0.488746 0.288746
0.555184 0.492683 0.292683
0.571618 0.49662 0.29662
0.588052 0.500557 0.300557
0.604501 0.504494 0.304494
0.620935 0.508431 0.308431
0.637369 0.512367 0.312367
0.653803 0.516304 0.316304
0.670253 0.520241 0.320241
0.686687 0.524178 0.324178
0.70312 0.528115 0.328115
0.719554 0.532052 0.332052
0.736004 0.535988 0.336004
0.223117 0.435615 0.223117
0.239551 0.439551 0.227054
0.255985 0.443488 0.230991
0.272435 0.447425 0.234928
0.288869 0.451362 0.238865
0.305303 0.455299 0.242802
0.321736 0.459236 0.246738
0.338186 0.463172 0.250675
0.35462 0.467124 0.254627
0.371054 0.471061 0.258564
0.387488 0.474998 0.262501
0.403937 0.478935 0.266438
0.420371 0.482872 0.270375
0.436805 0.486809 0.274311
0.453239 0.490745 0.278248
0.469673 0.494682 0.282185
0.486122 0.498619 0.286122
0.502556 0.502556 0.290059
0.51899 0.506493 0.293996
0.535424 0.51043 0.297932
0.551873 0.514366 0.301869
0.568307 0.518303 0.305806
0.584741 0.52224 0.309743
0.601175 0.526177 0.31368
0.617624 0.530114 0.317617
0.634058 0.534051 0.321553
0.650492 0.537987 0.32549
0.666926 0.541924 0.329427
0.683375 0.545861 0.333364
0.699809 0.549798 0.337316
0.716243 0.55375 0.341253
0.732677 0.557687 0.34519
0.749126 0.561624 0.349126
0.23624 0.46125 0.23624
0.252674 0.465187 0.240177
0.269108 0.469123 0.244114
0.285557 0.47306 0.248051
0.301991 0.476997 0.251987
0.318425 0.480934 0.25594
0.334859 0.484871 0.259876
0.351308 0.488807 0.263813
0.367742 0.492744 0.26775
0.384176 0.496681 0.271687
0.40061 0.500618 0.275624
0.41706 0.504555 0.279561
0.433494 0.508492 0.283497
0.449928 0.512428 0.287434
0.466361 0.516365 0.291371
0.482811 0.520302 0.295308
0.499245 0.524239 0.299245
0.515679 0.528176 0.303181
0.532113 0.532113 0.307118
0.548562 0.536049 0.311055
0.564996 0.539986 0.314992
0.58143 0.543923 0.318929
0.597864 0.547875 0.322866
0.614313 0.551812 0.326802
0.630747 0.555749 0.330739
0.647181 0.559686 0.334676
0.663615 0.563622 0.338628
0.680064 0.567559 0.342565
0.696498 0.571496 0.346502
0.712932 0.575433 0.350439
0.729366 0.57937 0.354376
0.745815 0.583307 0.358312
0.762249 0.587243 0.362249
0.249378 0.48687 0.249378
0.265797 0.490806 0.253315
0.282246 0.494743 0.257252
0.29868 0.49868 0.261189
0.315114 0.502617 0.265126
0.331548 0.506554 0.269062
0.347997 0.510491 0.272999
0.364431 0.514427 0.276936
0.380865 0.518364 0.280873
0.397299 0.522301 0.28481
0.413748 0.526238 0.288746
0.430182 0.530175 0.292683
0.446616 0.534112 0.29662
0.46305 0.538048 0.300557
0.4795 0.542 0.304494
0.495933 0.545937 0.308431
0.512367 0.549874 0.312367
0.528801 0.553811 0.316304
0.545251 0.557748 0.320241
0.561685 0.561685 0.324178
0.578119 0.565621 0.328115
0.594553 0.569558 0.332052
0.611002 0.573495 0.336004
0.627436 0.577432 0.33994
0.64387 0.581369 0.343877
0.660304 0.585306 0.347814
0.676753 0.589242 0.351751
0.693187 0.593179 0.355688
0.709621 0.597116 0.359625
0.726055 0.601053 0.363561
0.742504 0.60499 0.367498
0.758938 0.608927 0.371435
0.775372 0.612863 0.375372
0.262501 0.512489 0.262501
0.278935 0.516426 0.266438
0.295369 0.520363 0.270375
0.311803 0.5243 0.274311
0.328237 0.528237 0.278248
0.344671 0.532174 0.282185
0.36112 0.536126 0.286122
0.377554 0.540063 0.290059
0.393988 0.543999 0.293996
0.410422 0.547936 0.297932
0.426871 0.551873 0.301869
0.443305 0.55581 0.305806
0.459739 0.559747 0.309743
0.476173 0.563684 0.31368
0.492622 0.56762 0.317617
0.509056 0.571557 0.321553
0.52549 0.575494 0.32549
0.541924 0.579431 0.329427
0.558373 0.583368 0.333364
0.574807 0.587304 0.337316
0.591241 0.591241 0.341253
0.607675 0.595178 0.34519
0.624125 0.599115 0.349126
0.640558 0.603052 0.353063
0.656992 0.606989 0.357
0.673426 0.610925 0.360937
0.689876 0.614862 0.364874
0.70631 0.618799 0.368811
0.722744 0.622751 0.372747
0.739178 0.626688 0.376684
0.755627 0.630625 0.380621
0.772061 0.634562 0.384558
0.788495 0.638498 0.388495
0.275624 0.538125 0.275624
0.292058 0.542062 0.279561
0.308492 0.545998 0.283497
0.324926 0.549935 0.287434
0.34136 0.553872 0.291371
0.357809 0.557809 0.295308
0.374243 0.561746 0.299245
0.390677 0.565682 0.303181
0.407111 0.569619 0.307118
0.42356 0.573556 0.311055
0.439994 0.577493 0.314992
0.456428 0.58143 0.318929
0.472862 0.585367 0.322866
0.489311 0.589303 0.326802
0.505745 0.59324 0.330739
0.522179 0.597177 0.334676
0.538613 0.601114 0.338628
0.555062 0.605051 0.342565
0.571496 0.608988 0.346502
0.58793 0.612924 0.350439
0.604364 0.616876 0.354376
0.620813 0.620813 0.358312
0.637247 0.62475 0.362249
0.653681 0.628687 0.366186
0.670115 0.632624 0.370123
0.686564 0.636561 0.37406
0.702998 0.640497 0.377997
0.719432 0.644434 0.381933
0.735866 0.648371 0.38587
0.752316 0.652308 0.389807
0.76875 0.656245 0.393744
0.785183 0.660182 0.397681
0.801617 0.664118 0.401617
0.288746 0.563745 0.288746
0.30518 0.567681 0.292683
0.321614 0.571618 0.29662
0.338048 0.575555 0.300557
0.354498 0.579492 0.304494
0.370932 0.583429 0.308431
0.387366 0.587366 0.312367
0.4038 0.591302 0.316304
0.420249 0.595239 0.320241
0.436683 0.599176 0.324178
0.453117 0.603113 0.328115
0.469551 0.60705 0.332052
0.486 0.611002 0.336004
0.502434 0.614939 0.33994
0.518868 0.618875 0.343877
0.535302 0.622812 0.347814
0.551751 0.626749 0.351751
0.568185 0.630686 0.355688
0.584619 0.634623 0.359625
0.601053 0.63856 0.363561
0.617502 0.642496 0.367498
0.633936 0.646433 0.371435
0.65037 0.65037 0.375372
0.666804 0.654307 0.379309
0.683253 0.658244 0.383246
0.699687 0.662181 0.387182
0.716121 0.666117 0.391119
0.732555 0.670054 0.395056
0.749004 0.673991 0.398993
0.765438 0.677928 0.40293
0.781872 0.681865 0.406867
0.798306 0.685802 0.410803
0.814755 0.689738 0.41474
0.301869 0.589364 0.301869
0.318303 0.593301 0.305806
0.334737 0.597238 0.309743
0.351171 0.601175 0.31368
0.36762 0.605127 0.317617
0.384054 0.609064 0.321553
0.400488 0.613001 0.32549
0.416922 0.616938 0.329427
0.433371 0.620874 0.333364
0.449805 0.624811 0.337316
0.466239 0.628748 0.341253
0.482673 0.632685 0.34519
0.499123 0.636622 0.349126
0.515557 0.640558 0.353063
0.531991 0.644495 0.357
0.548424 0.648432 0.360937
0.564874 0.652369 0.364874
0.581308 0.656306 0.368811
0.597742 0.660243 0.372747
0.614176 0.664179 0.376684
0.630625 0.668116 0.380621
0.647059 0.672053 0.384558
0.663493 0.67599 0.388495
0.679927 0.679927 0.392432
0.696376 0.683864 0.396368
0.71281 0.6878 0.400305
0.729244 0.691752 0.404242
0.745678 0.695689 0.408179
0.762127 0.699626 0.412116
0.778561 0.703563 0.416052
0.794995 0.7075 0.420005
0.811429 0.711437 0.423941
0.827878 0.715373 0.427878
0.314992 0.615 0.314992
0.331426 0.618936 0.318929
0.34786 0.622873 0.322866
0.364309 0.62681 0.326802
0.380743 0.630747 0.330739
0.397177 0.634684 0.334676
0.413611 0.638621 0.338628
0.43006 0.642557 0.342565
0.446494 0.646494 0.346502
0.462928 0.650431 0.350439
0.479362 0.654368 0.354376
0.495811 0.658305 0.358312
0.512245 0.662242 0.362249
0.528679 0.666178 0.366186
0.545113 0.670115 0.370123
0.561563 0.674052 0.37406
0.577996 0.677989 0.377997
0.59443 0.681926 0.381933
0.610864 0.685878 0.38587
0.627314 0.689815 0.389807
0.643748 0.693751 0.393744
0.660182 0.697688 0.397681
0.676616 0.701625 0.401617
0.693065 0.705562 0.405554
0.709499 0.709499 0.409491
0.725933 0.713436 0.413428
0.742367 0.717372 0.417365
0.758816 0.721309 0.421317
0.77525 0.725246 0.425254
0.791684 0.729183 0.429191
0.808118 0.73312 0.433127
0.824567 0.737057 0.437064
0.841001 0.740993 0.441001
0.32813 0.64062 0.32813
0.344549 0.644556 0.332052
0.360998 0.648493 0.336004
0.377432 0.65243 0.33994
0.393866 0.656367 0.343877
0.4103 0.660304 0.347814
0.426749 0.66424 0.351751
0.443183 0.668177 0.355688
0.459617 0.672114 0.359625
0.476051 0.676051 0.363561
0.4925 0.680003 0.367498
0.508934 0.68394 0.371435
0.525368 0.687877 0.375372
0.541802 0.691814 0.379309
0.558251 0.69575 0.383246
0.574685 0.699687 0.387182
0.591119 0.703624 0.391119
0.607553 0.707561 0.395056
0.624002 0.711498 0.398993
0.640436 0.715434 0.40293
0.65687 0.719371 0.406867
0.673304 0.723308 0.410803
0.689754 0.727245 0.41474
0.706188 0.731182 0.418677
0.722622 0.735119 0.422629
0.739055 0.739055 0.426566
0.755505 0.742992 0.430503
0.771939 0.746929 0.43444
0.788373 0.750866 0.438376
0.804807 0.754803 0.442313
0.821241 0.75874 0.44625
0.83769 0.762676 0.450187
0.854124 0.766613 0.454124
0.341253 0.666255 0.341253
0.357671 0.670176 0.34519
0.374121 0.674128 0.349126
0.390555 0.678065 0.353063
0.406989 0.682002 0.357
0.423423 0.685939 0.360937
0.439872 0.689876 0.364874
0.456306 0.693812 0.368811
0.47274 0.697749 0.372747
0.489174 0.701686 0.376684
0.505623 0.705623 0.380621
0.522057 0.70956 0.384558
0.538491 0.713497 0.388495
0.554925 0.717433 0.392432
0.571374 0.72137 0.396368
0.587808 0.725307 0.400305
0.604242 0.729244 0.404242
0.620676 0.733181 0.408179
0.637125 0.737118 0.412116
0.653559 0.741054 0.416052
0.669993 0.744991 0.420005
0.686427 0.748928 0.423941
0.702876 0.752865 0.427878
0.71931 0.756802 0.431815
0.735744 0.760739 0.435752
0.752178 0.764691 0.439689
0.768627 0.768627 0.443626
0.785061 0.772564 0.447562
0.801495 0.776501 0.451499
0.817929 0.780438 0.455436
0.834379 0.784375 0.459373
0.850813 0.788312 0.46331
0.867247 0.792248 0.467247
