public/LUTS/Color Loss/Color Loss_04.cube
TITLE "Generated by Resolve"
LUT_3D_SIZE 9
0 0 0
0.0854963 0.0104982 0.0104982
0.170993 0.0209964 0.0209964
0.256489 0.0314946 0.0314946
0.342 0.0419928 0.0419928
0.427497 0.052491 0.0525063
0.512993 0.0630045 0.0630045
0.598505 0.0735027 0.0735027
0.684001 0.0840009 0.0840009
0.0349889 0.109987 0.0349889
0.120485 0.120485 0.0455024
0.205982 0.130983 0.0560006
0.291493 0.141482 0.0664988
0.376989 0.15198 0.076997
0.462486 0.162493 0.0874952
0.547997 0.172992 0.0979934
0.633494 0.18349 0.108492
0.71899 0.193988 0.11899
0.0699931 0.219989 0.0699931
0.155489 0.230488 0.0804913
0.240986 0.240986 0.0909895
0.326497 0.251484 0.101503
0.411994 0.261982 0.112001
0.49749 0.27248 0.122499
0.583001 0.282994 0.132998
0.668498 0.293492 0.143496
0.753994 0.30399 0.153994
0.104997 0.329992 0.104997
0.190494 0.34049 0.115496
0.27599 0.350988 0.125994
0.361486 0.361486 0.136492
0.446998 0.371984 0.14699
0.532494 0.382483 0.157504
0.61799 0.392996 0.168002
0.703502 0.403494 0.1785
0.788998 0.413993 0.188998
0.140002 0.439994 0.140002
0.225483 0.450492 0.1505
0.310994 0.46099 0.160998
0.39649 0.471489 0.171496
0.481987 0.481987 0.181994
0.567498 0.492485 0.192493
0.652995 0.502998 0.202991
0.738491 0.513497 0.213504
0.824002 0.523995 0.224002
0.175006 0.549996 0.17499
0.260487 0.560494 0.185504
0.345983 0.570993 0.196002
0.431495 0.581491 0.2065
0.516991 0.591989 0.216999
0.602487 0.602487 0.227497
0.687999 0.612985 0.237995
0.773495 0.623499 0.248493
0.858991 0.633997 0.258991
0.209995 0.659998 0.209995
0.295491 0.670497 0.220493
0.380987 0.680995 0.230991
0.466499 0.691493 0.241489
0.551995 0.701991 0.252003
0.637491 0.712489 0.262501
0.723003 0.722988 0.272999
0.808499 0.733501 0.283497
0.893996 0.743999 0.293996
0.244999 0.770001 0.244999
0.330495 0.780499 0.255497
0.415991 0.790997 0.265995
0.501488 0.801495 0.276493
0.586999 0.811994 0.286992
0.672496 0.822492 0.29749
0.757992 0.83299 0.308003
0.843503 0.843503 0.318502
0.929 0.854002 0.329
0.280003 0.880003 0.280003
0.365484 0.890501 0.290501
0.450996 0.900999 0.300999
0.536492 0.911498 0.311498
0.621988 0.921996 0.321996
0.7075 0.932494 0.332494
0.792996 0.942992 0.342992
0.878492 0.95349 0.353491
0.964004 0.964004 0.364004
0.00450141 0.00450141 0.0794842
0.0899977 0.0149996 0.0899977
0.175494 0.0254978 0.100496
0.26099 0.035996 0.110994
0.346502 0.0464942 0.121492
0.431998 0.0569924 0.131991
0.517494 0.0674907 0.142489
0.602991 0.0780041 0.152987
0.688502 0.0885023 0.163485
0.0394903 0.114488 0.114488
0.124987 0.124987 0.124987
0.210483 0.135485 0.135485
0.295995 0.145983 0.145983
0.381491 0.156481 0.156481
0.466987 0.166979 0.166979
0.552499 0.177493 0.177493
0.637995 0.187991 0.187991
0.723491 0.198489 0.198489
0.0744945 0.224491 0.149493
0.159991 0.234989 0.159991
0.245487 0.245487 0.170489
0.330983 0.255985 0.180987
0.416495 0.266484 0.191485
0.501991 0.276982 0.201984
0.587488 0.287495 0.212482
0.672999 0.297993 0.22298
0.758495 0.308492 0.233494
0.109499 0.334493 0.184482
0.194995 0.344991 0.19498
0.280491 0.355489 0.205493
0.365988 0.365988 0.215991
0.451499 0.376486 0.22649
0.536995 0.386984 0.236988
0.622492 0.397482 0.247486
0.707988 0.407996 0.257984
0.7935 0.418494 0.268482
0.144503 0.444495 0.219486
0.229984 0.454994 0.229984
0.315496 0.465492 0.240482
0.400992 0.47599 0.25098
0.486488 0.486488 0.261494
0.572 0.496986 0.271992
0.657496 0.507485 0.28249
0.742992 0.517998 0.292988
0.828504 0.528496 0.303487
0.179492 0.554498 0.25449
0.264988 0.564996 0.264988
0.350484 0.575494 0.275486
0.435996 0.585992 0.285985
0.521492 0.59649 0.296483
0.606989 0.606989 0.306981
0.6925 0.617487 0.317494
0.777996 0.627985 0.327993
0.863493 0.638498 0.338491
0.214496 0.6645 0.289494
0.299992 0.674998 0.299992
0.385489 0.685496 0.310491
0.470985 0.695994 0.320989
0.556497 0.706493 0.331487
0.641993 0.716991 0.341985
0.727489 0.727489 0.352483
0.813001 0.737987 0.362982
0.898497 0.748501 0.373495
0.2495 0.774502 0.324483
0.334997 0.785 0.334981
0.420493 0.795499 0.345495
0.505989 0.805997 0.355993
0.591501 0.816495 0.366491
0.676997 0.826993 0.376989
0.762493 0.837491 0.387488
0.848005 0.84799 0.397986
0.933501 0.858503 0.408484
0.284504 0.884504 0.359487
0.369985 0.895003 0.369985
0.455497 0.905501 0.380484
0.540993 0.915999 0.390982
0.62649 0.926497 0.401495
0.712001 0.936996 0.411994
0.797498 0.947494 0.422492
0.882994 0.957992 0.43299
0.968505 0.96849 0.443488
0.00900282 0.00900282 0.158999
0.0944839 0.019501 0.169497
0.179995 0.0299992 0.179995
0.265492 0.0404974 0.190494
0.350988 0.0509957 0.200992
0.4365 0.0614939 0.21149
0.521996 0.0719921 0.221988
0.607492 0.0824903 0.232486
0.693004 0.0930037 0.243
0.0439918 0.11899 0.193988
0.129488 0.129488 0.204486
0.214984 0.139986 0.214984
0.300496 0.150484 0.225483
0.385992 0.160983 0.235996
0.471489 0.171481 0.246494
0.557 0.181979 0.256992
0.642496 0.192493 0.267491
0.727993 0.202991 0.277989
0.078996 0.228992 0.228992
0.164492 0.23949 0.23949
0.249989 0.249989 0.249989
0.335485 0.260487 0.260487
0.420996 0.270985 0.270985
0.506493 0.281483 0.281483
0.591989 0.291981 0.291981
0.677501 0.302495 0.302495
0.762997 0.312993 0.312993
0.114 0.338994 0.263996
0.199481 0.349493 0.274495
0.284993 0.359991 0.284993
0.370489 0.370489 0.295491
0.455985 0.380987 0.305989
0.541497 0.391485 0.316487
0.626993 0.401984 0.326986
0.712489 0.412482 0.337484
0.798001 0.422995 0.347982
0.149004 0.448997 0.298985
0.234485 0.459495 0.309483
0.319997 0.469993 0.319982
0.405493 0.480491 0.330495
0.49099 0.49099 0.340993
0.576501 0.501488 0.351492
0.661997 0.511986 0.36199
0.747494 0.522484 0.372488
0.83299 0.532998 0.382986
0.183993 0.558999 0.333989
0.26949 0.569497 0.344488
0.354986 0.579995 0.354986
0.440497 0.590494 0.365484
0.525994 0.600992 0.375982
0.61149 0.61149 0.386496
0.697002 0.621988 0.396994
0.782498 0.632486 0.407492
0.867994 0.643 0.41799
0.218997 0.669001 0.368994
0.304494 0.6795 0.379492
0.38999 0.689998 0.38999
0.475486 0.700496 0.400488
0.560998 0.710994 0.410986
0.646494 0.721492 0.421485
0.731991 0.731991 0.431983
0.817502 0.742489 0.442496
0.902998 0.753002 0.452995
0.254002 0.779004 0.403998
0.339483 0.789502 0.414496
0.424994 0.8 0.424994
0.510491 0.810498 0.435492
0.595987 0.820996 0.445991
0.681498 0.831495 0.456489
0.766995 0.841993 0.466987
0.852491 0.852491 0.477485
0.938003 0.862989 0.487984
0.289006 0.889006 0.438987
0.374487 0.899504 0.449485
0.459998 0.910002 0.459983
0.545495 0.920501 0.470497
0.630991 0.930999 0.480995
0.716503 0.941497 0.491493
0.801999 0.951995 0.501991
0.887495 0.962493 0.512489
0.973007 0.972992 0.522988
0.0135042 0.0135042 0.238499
0.0989853 0.0240024 0.248997
0.184497 0.0345006 0.259495
0.269993 0.0449989 0.269993
0.355489 0.0554971 0.280491
0.441001 0.0659953 0.29099
0.526497 0.0764935 0.301488
0.611994 0.0869917 0.312001
0.697505 0.0975052 0.322499
0.0484932 0.123491 0.273487
0.133989 0.133989 0.283986
0.219486 0.144488 0.294484
0.304982 0.154986 0.304997
0.390494 0.165484 0.315496
0.47599 0.175982 0.325994
0.561486 0.186481 0.336492
0.646998 0.196994 0.34699
0.732494 0.207492 0.357488
0.0834974 0.233494 0.308492
0.168994 0.243992 0.31899
0.25449 0.25449 0.329488
0.339986 0.264988 0.339986
0.425498 0.275486 0.350484
0.510994 0.285985 0.360998
0.59649 0.296483 0.371496
0.682002 0.306981 0.381994
0.767498 0.317494 0.392493
0.118502 0.343496 0.343496
0.203983 0.353994 0.353994
0.289494 0.364492 0.364492
0.37499 0.37499 0.37499
0.460487 0.385489 0.385489
0.545998 0.395987 0.395987
0.631495 0.406485 0.406485
0.716991 0.416983 0.416999
0.802502 0.427497 0.427497
0.15349 0.453498 0.378485
0.238987 0.463996 0.388998
0.324483 0.474495 0.399496
0.409995 0.484993 0.409995
0.495491 0.495491 0.420493
0.580987 0.505989 0.430991
0.666499 0.516487 0.441489
0.751995 0.526986 0.451987
0.837491 0.537484 0.462486
0.188495 0.5635 0.413489
0.273991 0.573999 0.423987
0.359487 0.584497 0.434485
0.444999 0.594995 0.444984
0.530495 0.605493 0.455497
0.615991 0.615991 0.465995
0.701503 0.62649 0.476493
0.786999 0.636988 0.486992
0.872496 0.647486 0.49749
0.223499 0.673503 0.448493
0.308995 0.684001 0.458991
0.394491 0.694499 0.46949
0.479988 0.704997 0.479988
0.565499 0.715496 0.490486
0.650996 0.725994 0.500984
0.736492 0.736492 0.511498
0.822003 0.74699 0.521996
0.9075 0.757488 0.532494
0.258503 0.783505 0.483497
0.343984 0.794003 0.493996
0.429496 0.804501 0.504494
0.514992 0.815 0.514992
0.600488 0.825498 0.52549
0.686 0.835996 0.535988
0.771496 0.846494 0.546487
0.856992 0.856992 0.556985
0.942504 0.867491 0.567498
0.293492 0.893507 0.518486
0.378988 0.904005 0.528984
0.464485 0.914504 0.539498
0.549996 0.925002 0.549996
0.635493 0.9355 0.560494
0.720989 0.945998 0.570993
0.8065 0.956497 0.581491
0.891997 0.966995 0.591989
0.977493 0.977493 0.602487
0.0180056 0.0180056 0.317998
0.103487 0.0285039 0.328496
0.188998 0.0390021 0.338994
0.274495 0.0495003 0.349493
0.359991 0.0599985 0.359991
0.445502 0.0704967 0.370489
0.530999 0.0809949 0.381003
0.616495 0.0914931 0.391501
0.702007 0.101991 0.401999
0.0529946 0.127993 0.352987
0.138491 0.138491 0.363485
0.223987 0.148989 0.373999
0.309483 0.159487 0.384497
0.394995 0.169986 0.394995
0.480491 0.180484 0.405493
0.565988 0.190982 0.415991
0.651499 0.20148 0.42649
0.736996 0.211994 0.436988
0.0879988 0.237995 0.387991
0.17348 0.248493 0.398489
0.258991 0.258991 0.408988
0.344488 0.26949 0.419486
0.429984 0.279988 0.429999
0.515496 0.290486 0.440497
0.600992 0.300984 0.450996
0.686488 0.311482 0.461494
0.772 0.321996 0.471992
0.123003 0.347997 0.422995
0.208484 0.358495 0.433494
0.293996 0.368994 0.443992
0.379492 0.379492 0.45449
0.464988 0.38999 0.464988
0.5505 0.400488 0.475486
0.635996 0.410986 0.485985
0.721492 0.421485 0.496498
0.807004 0.431983 0.506996
0.157992 0.458 0.458
0.243488 0.468498 0.468498
0.328984 0.478996 0.478996
0.414496 0.489494 0.489494
0.499992 0.499992 0.499992
0.585489 0.510491 0.510491
0.671 0.520989 0.520989
0.756497 0.531487 0.531487
0.841993 0.541985 0.541985
0.192996 0.568002 0.492988
0.278492 0.5785 0.503487
0.363989 0.588998 0.514
0.449485 0.599496 0.524498
0.534997 0.609995 0.534997
0.620493 0.620493 0.545495
0.705989 0.630991 0.555993
0.791501 0.641489 0.566491
0.876997 0.651987 0.576989
0.228 0.678004 0.527993
0.313497 0.688502 0.538491
0.398993 0.699001 0.548989
0.484489 0.709499 0.559487
0.570001 0.719997 0.569986
0.655497 0.730495 0.580499
0.740993 0.740993 0.590997
0.82649 0.751492 0.601495
0.912001 0.76199 0.611994
0.263005 0.788006 0.562997
0.348486 0.798505 0.573495
0.433997 0.809003 0.583993
0.519493 0.819501 0.594491
0.60499 0.829999 0.60499
0.690501 0.840497 0.615488
0.775998 0.850996 0.625986
0.861494 0.861494 0.6365
0.947005 0.871992 0.646998
0.297993 0.898009 0.598001
0.38349 0.908507 0.608499
0.468986 0.919005 0.618997
0.554498 0.929503 0.629496
0.639994 0.940002 0.639994
0.72549 0.9505 0.650492
0.811002 0.960998 0.66099
0.896498 0.971496 0.671489
0.981994 0.981994 0.681987
0.0225071 0.0225071 0.397498
0.107988 0.0330053 0.407996
0.193484 0.0435035 0.418494
0.278996 0.0540017 0.428992
0.364492 0.0644999 0.43949
0.449989 0.0749981 0.450004
0.5355 0.0854963 0.460502
0.620996 0.0959945 0.471
0.706493 0.106493 0.481498
0.057496 0.132494 0.432486
0.142992 0.142992 0.443
0.228489 0.15349 0.453498
0.313985 0.163989 0.463996
0.399496 0.174487 0.474495
0.484993 0.184985 0.484993
0.570489 0.195483 0.495491
0.656001 0.205982 0.505989
0.741497 0.21648 0.516487
0.0925002 0.242496 0.467491
0.177981 0.252995 0.477989
0.263493 0.263493 0.488487
0.348989 0.273991 0.499001
0.434485 0.284489 0.509499
0.519997 0.294987 0.519997
0.605493 0.305486 0.530495
0.69099 0.315984 0.540993
0.776501 0.326482 0.551492
0.127504 0.352499 0.502495
0.212985 0.362997 0.512993
0.298482 0.373495 0.523491
0.383993 0.383993 0.533989
0.46949 0.394491 0.544488
0.554986 0.40499 0.555001
0.640497 0.415488 0.565499
0.725994 0.425986 0.575998
0.81149 0.436484 0.586496
0.162493 0.462501 0.537499
0.24799 0.472999 0.547997
0.333486 0.483497 0.558495
0.418997 0.493996 0.568994
0.504494 0.504494 0.579492
0.58999 0.514992 0.58999
0.675502 0.52549 0.600488
0.760998 0.535988 0.611002
0.846494 0.546487 0.6215
0.197498 0.572503 0.572488
0.282994 0.583001 0.583001
0.36849 0.5935 0.5935
0.453986 0.603998 0.603998
0.539498 0.614496 0.614496
0.624994 0.624994 0.624994
0.710491 0.635493 0.635493
0.796002 0.645991 0.645991
0.881498 0.656489 0.656489
0.232502 0.682506 0.607492
0.317983 0.693004 0.61799
0.403494 0.703502 0.628489
0.488991 0.714 0.638987
0.574487 0.724498 0.6495
0.659998 0.734997 0.659998
0.745495 0.745495 0.670497
0.830991 0.755993 0.680995
0.916503 0.766491 0.691493
0.267506 0.792493 0.642496
0.352987 0.802991 0.652995
0.438499 0.813504 0.663493
0.523995 0.824002 0.673991
0.609491 0.834501 0.684489
0.695003 0.844999 0.695003
0.780499 0.855497 0.705501
0.865995 0.865995 0.715999
0.951507 0.876493 0.726497
0.302495 0.902495 0.677501
0.387991 0.912993 0.687999
0.473487 0.923506 0.698497
0.558999 0.934005 0.708995
0.644495 0.944503 0.719493
0.729992 0.955001 0.729992
0.815503 0.965499 0.74049
0.900999 0.975998 0.750988
0.986496 0.986496 0.761501
0.0269932 0.0270085 0.476997
0.11249 0.0375067 0.487495
0.197986 0.0480049 0.497993
0.283497 0.0585031 0.508492
0.368994 0.0690013 0.519005
0.45449 0.0794995 0.529503
0.540002 0.0899977 0.540002
0.625498 0.100496 0.5505
0.710994 0.110994 0.560998
0.0619974 0.136995 0.512001
0.147494 0.147494 0.522499
0.23299 0.157992 0.532998
0.318486 0.16849 0.543496
0.403998 0.178988 0.553994
0.489494 0.189487 0.564492
0.57499 0.199985 0.57499
0.660502 0.210483 0.585489
0.745998 0.220981 0.596002
0.0970016 0.246998 0.54699
0.182483 0.257496 0.557488
0.267994 0.267994 0.568002
0.353491 0.278492 0.5785
0.438987 0.288991 0.588998
0.524498 0.299489 0.599496
0.609995 0.309987 0.609995
0.695491 0.320485 0.620493
0.781003 0.330983 0.630991
0.131991 0.357 0.581994
0.217487 0.367498 0.592493
0.302983 0.377997 0.602991
0.388495 0.388495 0.613489
0.473991 0.398993 0.624002
0.559487 0.409491 0.634501
0.644999 0.419989 0.644999
0.730495 0.430488 0.655497
0.815991 0.440986 0.665995
0.166995 0.467002 0.616999
0.252491 0.477501 0.627497
0.337987 0.487999 0.637995
0.423484 0.498497 0.648493
0.508995 0.508995 0.658991
0.594491 0.519493 0.66949
0.679988 0.529992 0.680003
0.765499 0.54049 0.690501
0.850996 0.550988 0.700999
0.201999 0.576989 0.652003
0.287495 0.587503 0.662501
0.372992 0.598001 0.672999
0.458488 0.608499 0.683497
0.543999 0.618997 0.693996
0.629496 0.629496 0.704494
0.714992 0.639994 0.714992
0.800504 0.650492 0.72549
0.886 0.66099 0.736004
0.237003 0.686992 0.686992
0.322484 0.69749 0.69749
0.407996 0.708003 0.708003
0.493492 0.718502 0.718502
0.578988 0.729 0.729
0.6645 0.739498 0.739498
0.749996 0.749996 0.749996
0.835492 0.760494 0.760494
0.921004 0.770993 0.770993
0.271992 0.796994 0.721996
0.357488 0.807492 0.732494
0.442985 0.818006 0.742992
0.528496 0.828504 0.753491
0.613993 0.839002 0.764004
0.699489 0.8495 0.774502
0.785 0.859998 0.785
0.870497 0.870497 0.795499
0.955993 0.880995 0.805997
0.306996 0.906996 0.757
0.392493 0.917494 0.767498
0.477989 0.927993 0.777996
0.5635 0.938506 0.788495
0.648997 0.949004 0.798993
0.734493 0.959503 0.809491
0.820005 0.970001 0.819989
0.905501 0.980499 0.830503
0.990997 0.990997 0.841001
0.0314946 0.0314946 0.556497
0.116991 0.0419928 0.566995
0.202487 0.0525063 0.577493
0.287999 0.0630045 0.588006
0.373495 0.0735027 0.598505
0.458991 0.0840009 0.609003
0.544503 0.0944991 0.619501
0.629999 0.104997 0.629999
0.715496 0.115496 0.640497
0.0664988 0.141497 0.591501
0.15198 0.151995 0.601999
0.237491 0.162493 0.612497
0.322988 0.172992 0.622995
0.408484 0.18349 0.633494
0.493996 0.193988 0.643992
0.579492 0.204486 0.65449
0.664988 0.214984 0.665003
0.7505 0.225483 0.675502
0.101503 0.251499 0.62649
0.186984 0.261997 0.637003
0.272496 0.272496 0.647501
0.357992 0.282994 0.658
0.443488 0.293492 0.668498
0.529 0.30399 0.678996
0.614496 0.314488 0.689494
0.699992 0.324987 0.699992
0.785504 0.335485 0.710491
0.136492 0.361486 0.661494
0.221988 0.372 0.671992
0.307485 0.382498 0.68249
0.392996 0.392996 0.693004
0.478492 0.403494 0.703502
0.563989 0.413993 0.714
0.6495 0.424491 0.724498
0.734997 0.434989 0.734997
0.820493 0.445487 0.745495
0.171496 0.471489 0.696498
0.256992 0.481987 0.706996
0.342489 0.4925 0.717494
0.427985 0.502998 0.727993
0.513497 0.513497 0.738491
0.598993 0.523995 0.749004
0.684489 0.534493 0.759503
0.770001 0.544991 0.770001
0.855497 0.555489 0.780499
0.2065 0.581491 0.731502
0.291997 0.591989 0.742
0.377493 0.602502 0.752499
0.462989 0.613001 0.762997
0.548501 0.623499 0.773495
0.633997 0.633997 0.783993
0.719493 0.644495 0.794491
0.80499 0.654994 0.805005
0.890501 0.665492 0.815503
0.241505 0.691493 0.766491
0.326986 0.701991 0.777005
0.412497 0.712505 0.787503
0.497993 0.723003 0.798001
0.58349 0.733501 0.808499
0.669001 0.743999 0.818998
0.754498 0.754498 0.829496
0.839994 0.764996 0.839994
0.925505 0.775494 0.850492
0.276493 0.801495 0.801495
0.36199 0.811994 0.811994
0.447486 0.822492 0.822492
0.532998 0.833005 0.833005
0.618494 0.843503 0.843503
0.70399 0.854002 0.854002
0.789502 0.8645 0.8645
0.874998 0.874998 0.874998
0.960494 0.885496 0.885496
0.311498 0.911498 0.8365
0.396994 0.921996 0.846998
0.48249 0.932494 0.857496
0.567987 0.943008 0.867994
0.653498 0.953506 0.878492
0.738994 0.964004 0.888991
0.824491 0.974502 0.899504
0.910002 0.985 0.910002
0.995499 0.995499 0.920501
0.035996 0.035996 0.635996
0.121492 0.0464942 0.646494
0.206989 0.0570077 0.657008
0.2925 0.0675059 0.667506
0.377997 0.0780041 0.678004
0.463493 0.0885023 0.688502
0.549004 0.0990005 0.699001
0.634501 0.109499 0.709499
0.719997 0.119997 0.719997
0.0710002 0.145983 0.671
0.156481 0.156497 0.681498
0.241993 0.166995 0.691997
0.327489 0.177493 0.702495
0.412985 0.187991 0.712993
0.498497 0.198489 0.723491
0.583993 0.208988 0.734005
0.66949 0.219486 0.744503
0.755001 0.229984 0.755001
0.106004 0.255985 0.706004
0.191485 0.266484 0.716503
0.276982 0.276997 0.727001
0.362493 0.287495 0.737499
0.44799 0.297993 0.747997
0.533486 0.308492 0.758495
0.618997 0.31899 0.768994
0.704494 0.329488 0.779492
0.78999 0.339986 0.790005
0.140993 0.365988 0.740993
0.22649 0.376486 0.751492
0.311986 0.386999 0.762005
0.397498 0.397498 0.772503
0.482994 0.407996 0.783001
0.56849 0.418494 0.7935
0.654002 0.428992 0.803998
0.739498 0.43949 0.814496
0.824994 0.449989 0.824994
0.175998 0.47599 0.775998
0.261494 0.486488 0.786496
0.34699 0.497002 0.796994
0.432486 0.5075 0.807492
0.517998 0.517998 0.818006
0.603494 0.528496 0.828504
0.688991 0.538994 0.839002
0.774502 0.549493 0.8495
0.859998 0.559991 0.859998
0.211002 0.585992 0.811002
0.296483 0.59649 0.8215
0.381994 0.606989 0.831998
0.467491 0.617502 0.842496
0.552987 0.628 0.852995
0.638498 0.638498 0.863493
0.723995 0.648997 0.874006
0.809491 0.659495 0.884504
0.895003 0.669993 0.895003
0.246006 0.695994 0.846006
0.331487 0.706493 0.856504
0.416999 0.716991 0.867002
0.502495 0.727504 0.877501
0.587991 0.738003 0.887999
0.673487 0.748501 0.898497
0.758999 0.758999 0.908995
0.844495 0.769497 0.919493
0.929992 0.779995 0.930007
0.280995 0.805997 0.880995
0.366491 0.816495 0.891493
0.451987 0.826993 0.902007
0.537499 0.837507 0.912505
0.622995 0.848005 0.923003
0.708492 0.858503 0.933501
0.794003 0.869001 0.943999
0.879499 0.879499 0.954498
0.964996 0.889998 0.964996
0.315999 0.915999 0.915999
0.401495 0.926497 0.926497
0.486992 0.936996 0.936996
0.572488 0.947494 0.947494
0.658 0.958007 0.958007
0.743496 0.968505 0.968505
0.828992 0.979004 0.979004
0.914504 0.989502 0.989502
1 1 1
