public/LUTS/Color Loss/Color Loss_01.cube
TITLE "Generated by Resolve"
LUT_3D_SIZE 33
0 0 0
0.0287633 0.000656138 0.000656138
0.0575418 0.00131228 0.00131228
0.0863355 0.00196841 0.00196841
0.115114 0.00262455 0.00262455
0.143893 0.00328069 0.00328069
0.172671 0.00393683 0.00393683
0.201465 0.00459297 0.00459297
0.230243 0.0052491 0.0052491
0.259022 0.00590524 0.00590524
0.2878 0.00656138 0.00656138
0.316579 0.00721752 0.00721752
0.345373 0.00787366 0.00787366
0.374151 0.00852979 0.00852979
0.40293 0.00918593 0.00918593
0.431708 0.00984207 0.00984207
0.460487 0.0104982 0.0104982
0.489281 0.0111543 0.0111543
0.518059 0.0118105 0.0118105
0.546838 0.0124666 0.0124666
0.575616 0.0131228 0.0131228
0.604395 0.0137789 0.0137789
0.633188 0.014435 0.014435
0.661967 0.0150912 0.0150912
0.690745 0.0157473 0.0157473
0.719524 0.0164034 0.0164034
0.748302 0.0170596 0.0170596
0.777096 0.0177157 0.0177157
0.805875 0.0183719 0.0183719
0.834653 0.019028 0.019028
0.863432 0.0196841 0.0196841
0.892226 0.0203403 0.0203403
0.921004 0.0209964 0.0209964
0.00218204 0.0303044 0.00218204
0.0309606 0.0309606 0.00283818
0.0597391 0.0316167 0.00349432
0.0885176 0.0322728 0.00415045
0.117296 0.032929 0.00480659
0.146075 0.0335851 0.00546273
0.174868 0.0342412 0.00611887
0.203647 0.0348974 0.00677501
0.232425 0.0355535 0.00743114
0.261204 0.0362097 0.00808728
0.289982 0.0368658 0.00874342
0.318776 0.0375219 0.00939956
0.347555 0.0381781 0.0100557
0.376333 0.0388342 0.0107118
0.405112 0.0394903 0.011368
0.43389 0.0401465 0.0120241
0.462684 0.0408026 0.0126802
0.491463 0.0414588 0.0133364
0.520241 0.0421149 0.0139925
0.54902 0.042771 0.0146487
0.577813 0.0434272 0.0153048
0.606592 0.0440833 0.0159609
0.63537 0.0447395 0.0166171
0.664149 0.0453956 0.0172732
0.692927 0.0460517 0.0179294
0.721721 0.0467079 0.0185855
0.7505 0.047364 0.0192416
0.779278 0.0480201 0.0198978
0.808057 0.0486763 0.0205539
0.836835 0.0493324 0.02121
0.865629 0.0499886 0.0218662
0.894408 0.0506447 0.0225223
0.923186 0.0513008 0.0231785
0.00437934 0.0606088 0.00437934
0.0331426 0.061265 0.00503548
0.0619211 0.0619211 0.00569162
0.0906996 0.0625772 0.00634775
0.119493 0.0632334 0.00700389
0.148272 0.0638895 0.00766003
0.17705 0.0645457 0.00831617
0.205829 0.0652018 0.0089723
0.234607 0.0658579 0.00962844
0.263401 0.0665141 0.0102846
0.29218 0.0671702 0.0109407
0.320958 0.0678264 0.0115969
0.349737 0.0684825 0.012253
0.378515 0.0691386 0.0129091
0.407309 0.0697948 0.0135653
0.436088 0.0704509 0.0142214
0.464866 0.071107 0.0148775
0.493645 0.0717632 0.0155337
0.522423 0.0724193 0.0161898
0.551217 0.0730755 0.016846
0.579995 0.0737316 0.0175021
0.608774 0.0743877 0.0181582
0.637552 0.0750439 0.0188144
0.666346 0.0757 0.0194705
0.695125 0.0763561 0.0201267
0.723903 0.0770123 0.0207828
0.752682 0.0776684 0.0214389
0.78146 0.0783246 0.0220951
0.810254 0.0789807 0.0227512
0.839033 0.0796368 0.0234073
0.867811 0.080293 0.0240635
0.89659 0.0809491 0.0247196
0.925368 0.0816052 0.0253758
0.00656138 0.0909285 0.00656138
0.0353246 0.0915847 0.00721752
0.0641184 0.0922408 0.00787366
0.0928969 0.0928969 0.00852979
0.121675 0.0935531 0.00918593
0.150454 0.0942092 0.00984207
0.179232 0.0948653 0.0104982
0.208026 0.0955215 0.0111543
0.236805 0.0961776 0.0118105
0.265583 0.0968338 0.0124666
0.294362 0.0974899 0.0131228
0.32314 0.098146 0.0137789
0.351934 0.0988022 0.014435
0.380713 0.0994583 0.0150912
0.409491 0.100114 0.0157473
0.43827 0.100771 0.0164034
0.467048 0.101427 0.0170596
0.495842 0.102083 0.0177157
0.52462 0.102739 0.0183719
0.553399 0.103395 0.019028
0.582177 0.104051 0.0196841
0.610956 0.104707 0.0203403
0.63975 0.105364 0.0209964
0.668528 0.10602 0.0216526
0.697307 0.106676 0.0223087
0.726085 0.107332 0.0229648
0.754879 0.107988 0.023621
0.783658 0.108644 0.0242771
0.812436 0.1093 0.0249332
0.841215 0.109957 0.0255894
0.869993 0.110613 0.0262455
0.898787 0.111269 0.0269017
0.927565 0.111925 0.0275578
0.00874342 0.121233 0.00874342
0.0375219 0.121889 0.00939956
0.0663005 0.122545 0.0100557
0.095079 0.123201 0.0107118
0.123857 0.123857 0.011368
0.152636 0.124514 0.0120241
0.18143 0.12517 0.0126802
0.210208 0.125826 0.0133364
0.238987 0.126482 0.0139925
0.267765 0.127138 0.0146487
0.296559 0.127794 0.0153048
0.325338 0.12845 0.0159609
0.354116 0.129107 0.0166171
0.382895 0.129763 0.0172732
0.411673 0.130419 0.0179294
0.440467 0.131075 0.0185855
0.469245 0.131731 0.0192416
0.498024 0.132387 0.0198978
0.526802 0.133043 0.0205539
0.555581 0.1337 0.02121
0.584375 0.134356 0.0218662
0.613153 0.135012 0.0225223
0.641932 0.135668 0.0231785
0.67071 0.136324 0.0238346
0.699489 0.13698 0.0244907
0.728283 0.137636 0.0251469
0.757061 0.138293 0.0258183
0.78584 0.138949 0.0264744
0.814618 0.139605 0.0271305
0.843397 0.140261 0.0277867
0.87219 0.140917 0.0284428
0.900969 0.141573 0.029099
0.929747 0.142229 0.0297551
0.0109407 0.151553 0.0109407
0.039704 0.152209 0.0115969
0.0684825 0.152865 0.012253
0.097261 0.153521 0.0129091
0.126055 0.154177 0.0135653
0.154833 0.154833 0.0142214
0.183612 0.155489 0.0148775
0.21239 0.156146 0.0155337
0.241169 0.156802 0.0161898
0.269963 0.157458 0.016846
0.298741 0.158114 0.0175021
0.32752 0.15877 0.0181582
0.356298 0.159426 0.0188144
0.385092 0.160082 0.0194705
0.41387 0.160739 0.0201267
0.442649 0.161395 0.0207828
0.471427 0.162051 0.0214389
0.500206 0.162707 0.0220951
0.529 0.163363 0.0227512
0.557778 0.164019 0.0234073
0.586557 0.164675 0.0240635
0.615335 0.165331 0.0247196
0.644114 0.165988 0.0253758
0.672908 0.166644 0.0260319
0.701686 0.1673 0.026688
0.730465 0.167956 0.0273442
0.759243 0.168612 0.0280003
0.788022 0.169268 0.0286564
0.816815 0.169924 0.0293126
0.845594 0.170581 0.0299687
0.874372 0.171237 0.0306249
0.903151 0.171893 0.031281
0.93193 0.172549 0.0319371
0.0131228 0.181857 0.0131228
0.041886 0.182513 0.0137789
0.0706798 0.183169 0.014435
0.0994583 0.183825 0.0150912
0.128237 0.184482 0.0157473
0.157015 0.185138 0.0164034
0.185794 0.185794 0.0170596
0.214588 0.18645 0.0177157
0.243366 0.187106 0.0183719
0.272145 0.187762 0.019028
0.300923 0.188418 0.0196841
0.329702 0.189075 0.0203403
0.358495 0.189731 0.0209964
0.387274 0.190387 0.0216526
0.416052 0.191043 0.0223087
0.444831 0.191699 0.0229648
0.47361 0.192355 0.023621
0.502403 0.193011 0.0242771
0.531182 0.193668 0.0249332
0.55996 0.194324 0.0255894
0.588739 0.19498 0.0262455
0.617533 0.195636 0.0269017
0.646311 0.196292 0.0275578
0.67509 0.196948 0.0282139
0.703868 0.197604 0.0288701
0.732647 0.19826 0.0295262
0.76144 0.198917 0.0301823
0.790219 0.199573 0.0308385
0.818998 0.200229 0.0314946
0.847776 0.200885 0.0321508
0.876554 0.201541 0.0328069
0.905348 0.202197 0.033463
0.934127 0.202853 0.0341192
0.0153048 0.212177 0.0153048
0.0440833 0.212833 0.0159609
0.0728618 0.213489 0.0166171
0.10164 0.214145 0.0172732
0.130419 0.214801 0.0179294
0.159213 0.215457 0.0185855
0.187991 0.216114 0.0192416
0.21677 0.21677 0.0198978
0.245548 0.217426 0.0205539
0.274327 0.218082 0.02121
0.30312 0.218738 0.0218662
0.331899 0.219394 0.0225223
0.360678 0.22005 0.0231785
0.389456 0.220706 0.0238346
0.418235 0.221363 0.0244907
0.447028 0.222019 0.0251621
0.475807 0.222675 0.0258183
0.504585 0.223331 0.0264744
0.533364 0.223987 0.0271305
0.562142 0.224643 0.0277867
0.590936 0.225299 0.0284428
0.619715 0.225956 0.029099
0.648493 0.226612 0.0297551
0.677272 0.227268 0.0304112
0.706065 0.227924 0.0310674
0.734844 0.22858 0.0317235
0.763622 0.229236 0.0323796
0.792401 0.229892 0.0330358
0.82118 0.230549 0.0336919
0.849973 0.231205 0.0343481
0.878752 0.231861 0.0350042
0.90753 0.232517 0.0356603
0.936309 0.233173 0.0363165
0.0175021 0.242496 0.0175021
0.0462654 0.243137 0.0181582
0.0750439 0.243793 0.0188144
0.103838 0.244465 0.0194705
0.132616 0.245106 0.0201267
0.161395 0.245777 0.0207828
0.190173 0.246433 0.0214389
0.218952 0.247074 0.0220951
0.247745 0.247745 0.0227512
0.276524 0.248402 0.0234073
0.305303 0.249058 0.0240635
0.334081 0.249714 0.0247196
0.36286 0.25037 0.0253758
0.391653 0.251026 0.0260319
0.420432 0.251682 0.026688
0.44921 0.252338 0.0273442
0.477989 0.252995 0.0280003
0.506767 0.253651 0.0286564
0.535561 0.254307 0.0293126
0.56434 0.254963 0.0299687
0.593118 0.255619 0.0306249
0.621897 0.256275 0.031281
0.650675 0.256931 0.0319371
0.679469 0.257588 0.0325933
0.708247 0.258244 0.0332494
0.737026 0.2589 0.0339055
0.765805 0.259556 0.0345617
0.794598 0.260212 0.0352178
0.823377 0.260868 0.035874
0.852155 0.261524 0.0365301
0.880934 0.262181 0.0371862
0.909712 0.262837 0.0378424
0.938506 0.263493 0.0384985
0.0196841 0.272801 0.0196841
0.0484474 0.273457 0.0203403
0.0772412 0.274113 0.0209964
0.10602 0.274769 0.0216526
0.134798 0.275425 0.0223087
0.163577 0.276081 0.0229648
0.192355 0.276738 0.023621
0.221149 0.277394 0.0242771
0.249928 0.27805 0.0249332
0.278706 0.278706 0.0255894
0.307485 0.279362 0.0262455
0.336278 0.280018 0.0269017
0.365057 0.280674 0.0275578
0.393835 0.281331 0.0282139
0.422614 0.281987 0.0288701
0.451392 0.282643 0.0295262
0.480186 0.283299 0.0301823
0.508965 0.283955 0.0308385
0.537743 0.284611 0.0314946
0.566522 0.285267 0.0321508
0.5953 0.285924 0.0328069
0.624094 0.28658 0.033463
0.652873 0.287236 0.0341192
0.681651 0.287892 0.0347753
0.71043 0.288548 0.0354314
0.739208 0.289204 0.0360876
0.768002 0.28986 0.0367437
0.79678 0.290517 0.0373999
0.825559 0.291173 0.038056
0.854337 0.291829 0.0387121
0.883116 0.292485 0.0393683
0.91191 0.293141 0.0400244
0.940688 0.293797 0.0406806
0.0218814 0.30312 0.0218662
0.0506447 0.303777 0.0225223
0.0794232 0.304433 0.0231785
0.108202 0.305089 0.0238346
0.13698 0.305745 0.0244907
0.165774 0.306401 0.0251621
0.194553 0.307057 0.0258183
0.223331 0.307713 0.0264744
0.25211 0.30837 0.0271305
0.280888 0.309026 0.0277867
0.309682 0.309682 0.0284428
0.33846 0.310338 0.029099
0.367239 0.310994 0.0297551
0.396017 0.31165 0.0304112
0.424811 0.312306 0.0310674
0.45359 0.312963 0.0317235
0.482368 0.313619 0.0323796
0.511147 0.314275 0.0330358
0.539925 0.314931 0.0336919
0.568719 0.315587 0.0343481
0.597498 0.316243 0.0350042
0.626276 0.316899 0.0356603
0.655055 0.317556 0.0363165
0.683833 0.318212 0.0369726
0.712627 0.318868 0.0376287
0.741405 0.319524 0.0382849
0.770184 0.32018 0.038941
0.798962 0.320836 0.0395972
0.827741 0.321492 0.0402533
0.856535 0.322148 0.0409094
0.885313 0.322805 0.0415656
0.914092 0.323461 0.0422217
0.94287 0.324117 0.0428779
0.0240635 0.333425 0.0240635
0.0528267 0.334081 0.0247196
0.0816052 0.334737 0.0253758
0.110399 0.335393 0.0260319
0.139178 0.336049 0.026688
0.167956 0.336706 0.0273442
0.196735 0.337362 0.0280003
0.225513 0.338018 0.0286564
0.254307 0.338674 0.0293126
0.283085 0.33933 0.0299687
0.311864 0.339986 0.0306249
0.340642 0.340642 0.031281
0.369421 0.341299 0.0319371
0.398215 0.341955 0.0325933
0.426993 0.342611 0.0332494
0.455772 0.343267 0.0339055
0.48455 0.343923 0.0345617
0.513344 0.344579 0.0352178
0.542123 0.345235 0.035874
0.570901 0.345892 0.0365301
0.59968 0.346548 0.0371862
0.628458 0.347204 0.0378424
0.657252 0.34786 0.0384985
0.68603 0.348516 0.0391546
0.714809 0.349172 0.0398108
0.743587 0.349828 0.0404669
0.772366 0.350484 0.0411231
0.80116 0.351141 0.0417792
0.829938 0.351797 0.0424353
0.858717 0.352453 0.0430915
0.887495 0.353109 0.0437476
0.916274 0.353765 0.0444038
0.945068 0.354421 0.0450599
0.0262455 0.363745 0.0262455
0.055024 0.364401 0.0269017
0.0838026 0.365057 0.0275578
0.112581 0.365713 0.0282139
0.14136 0.366369 0.0288701
0.170138 0.367025 0.0295262
0.198932 0.367681 0.0301823
0.22771 0.368338 0.0308385
0.256489 0.368994 0.0314946
0.285267 0.36965 0.0321508
0.314046 0.370306 0.0328069
0.34284 0.370962 0.033463
0.371618 0.371618 0.0341192
0.400397 0.372274 0.0347753
0.429175 0.37293 0.0354314
0.457954 0.373587 0.0360876
0.486748 0.374243 0.0367437
0.515526 0.374899 0.0373999
0.544305 0.375555 0.038056
0.573083 0.376211 0.0387121
0.601862 0.376867 0.0393683
0.630655 0.377523 0.0400244
0.659434 0.37818 0.0406806
0.688212 0.378836 0.0413367
0.716991 0.379492 0.0419928
0.745785 0.380148 0.042649
0.774563 0.380804 0.0433051
0.803342 0.38146 0.0439612
0.83212 0.382116 0.0446174
0.860899 0.382773 0.0452735
0.889693 0.383429 0.0459297
0.918471 0.384085 0.0465858
0.94725 0.384741 0.0472419
0.0284428 0.394049 0.0284428
0.0572061 0.394705 0.029099
0.0859846 0.395361 0.0297551
0.114763 0.396017 0.0304112
0.143557 0.396674 0.0310674
0.172335 0.39733 0.0317235
0.201114 0.397986 0.0323796
0.229892 0.398642 0.0330358
0.258671 0.399298 0.0336919
0.287465 0.399954 0.0343481
0.316243 0.40061 0.0350042
0.345022 0.401266 0.0356603
0.3738 0.401923 0.0363165
0.402579 0.402579 0.0369726
0.431373 0.403235 0.0376287
0.460151 0.403891 0.0382849
0.48893 0.404547 0.038941
0.517708 0.405203 0.0395972
0.546487 0.405859 0.0402533
0.57528 0.406516 0.0409094
0.604059 0.407172 0.0415656
0.632837 0.407828 0.0422217
0.661616 0.408484 0.0428779
0.690394 0.40914 0.043534
0.719188 0.409796 0.0441901
0.747967 0.410452 0.0448463
0.776745 0.411109 0.0455024
0.805524 0.411765 0.0461585
0.834318 0.412421 0.0468147
0.863096 0.413077 0.0474708
0.891875 0.413733 0.048127
0.920653 0.414389 0.0487831
0.949432 0.415045 0.0494392
0.0306249 0.424369 0.0306249
0.0593881 0.425025 0.031281
0.0881666 0.425681 0.0319371
0.11696 0.426337 0.0325933
0.145739 0.426993 0.0332494
0.174517 0.427649 0.0339055
0.203296 0.428305 0.0345617
0.23209 0.428962 0.0352178
0.260868 0.429618 0.035874
0.289647 0.430274 0.0365301
0.318425 0.43093 0.0371862
0.347204 0.431586 0.0378424
0.375998 0.432242 0.0384985
0.404776 0.432898 0.0391546
0.433555 0.433555 0.0398108
0.462333 0.434211 0.0404669
0.491112 0.434867 0.0411231
0.519905 0.435523 0.0417792
0.548684 0.436179 0.0424353
0.577462 0.436835 0.0430915
0.606241 0.437491 0.0437476
0.635019 0.438148 0.0444038
0.663813 0.438804 0.0450599
0.692592 0.43946 0.045716
0.72137 0.440116 0.0463722
0.750149 0.440772 0.0470283
0.778927 0.441428 0.0476844
0.807721 0.442084 0.0483406
0.8365 0.442741 0.0489967
0.865278 0.443397 0.0496529
0.894057 0.444053 0.050309
0.92285 0.444709 0.0509651
0.951629 0.445365 0.0516213
0.0328069 0.454673 0.0328069
0.0615854 0.455329 0.033463
0.0903639 0.455985 0.0341192
0.119142 0.456641 0.0347753
0.147921 0.457298 0.0354314
0.176699 0.457954 0.0360876
0.205493 0.45861 0.0367437
0.234272 0.459266 0.0373999
0.26305 0.459922 0.038056
0.291829 0.460578 0.0387121
0.320607 0.461234 0.0393683
0.349401 0.461891 0.0400244
0.37818 0.462547 0.0406806
0.406958 0.463203 0.0413367
0.435737 0.463859 0.0419928
0.46453 0.464515 0.042649
0.493309 0.465171 0.0433051
0.522087 0.465827 0.0439612
0.550866 0.466484 0.0446174
0.579644 0.46714 0.0452735
0.608438 0.467796 0.0459297
0.637217 0.468452 0.0465858
0.665995 0.469108 0.0472419
0.694774 0.469764 0.0478981
0.723552 0.47042 0.0485542
0.752346 0.471077 0.0492103
0.781125 0.471733 0.0498665
0.809903 0.472389 0.0505226
0.838682 0.473045 0.0511788
0.86746 0.473701 0.0518349
0.896254 0.474357 0.052491
0.925032 0.475013 0.0531472
0.953811 0.47567 0.0538033
0.0350042 0.484993 0.0350042
0.0637675 0.485649 0.0356603
0.092546 0.486305 0.0363165
0.121324 0.486961 0.0369726
0.150118 0.487617 0.0376287
0.178897 0.488273 0.0382849
0.207675 0.48893 0.038941
0.236454 0.489586 0.0395972
0.265232 0.490242 0.0402533
0.294026 0.490898 0.0409094
0.322805 0.491554 0.0415656
0.351583 0.49221 0.0422217
0.380362 0.492866 0.0428779
0.40914 0.493523 0.043534
0.437934 0.494179 0.0441901
0.466712 0.494835 0.0448463
0.495491 0.495491 0.0455024
0.524269 0.496147 0.0461585
0.553063 0.496803 0.0468147
0.581842 0.497459 0.0474708
0.61062 0.498116 0.048127
0.639399 0.498772 0.0487831
0.668177 0.499428 0.0494392
0.696971 0.500084 0.0500954
0.72575 0.50074 0.0507515
0.754528 0.501396 0.0514076
0.783307 0.502052 0.0520638
0.812085 0.502708 0.0527199
0.840879 0.503365 0.0533761
0.869657 0.504021 0.0540322
0.898436 0.504677 0.0546883
0.927214 0.505333 0.0553445
0.955993 0.505989 0.0560006
0.0371862 0.515312 0.0371862
0.0659495 0.515969 0.0378424
0.0947433 0.516625 0.0384985
0.123522 0.517281 0.0391546
0.1523 0.517937 0.0398108
0.181079 0.518593 0.0404669
0.209857 0.519249 0.0411231
0.238651 0.519905 0.0417792
0.26743 0.520562 0.0424353
0.296208 0.521218 0.0430915
0.324987 0.521874 0.0437476
0.353765 0.52253 0.0444038
0.382559 0.523186 0.0450599
0.411337 0.523842 0.045716
0.440116 0.524498 0.0463722
0.468894 0.525154 0.0470283
0.497673 0.525811 0.0476844
0.526467 0.526467 0.0483406
0.555245 0.527123 0.0489967
0.584024 0.527779 0.0496529
0.612802 0.528435 0.050309
0.641596 0.529091 0.0509651
0.670375 0.529747 0.0516213
0.699153 0.530404 0.0522774
0.727932 0.53106 0.0529335
0.75671 0.531716 0.0535897
0.785504 0.532372 0.0542458
0.814282 0.533028 0.054902
0.843061 0.533684 0.0555581
0.871839 0.53434 0.0562142
0.900618 0.534997 0.0568704
0.929412 0.535653 0.0575265
0.95819 0.536309 0.0581826
0.0393683 0.545617 0.0393683
0.0681468 0.546273 0.0400244
0.0969253 0.546929 0.0406806
0.125704 0.547585 0.0413367
0.154482 0.548241 0.0419928
0.183276 0.548898 0.042649
0.212055 0.549554 0.0433051
0.240833 0.55021 0.0439612
0.269612 0.550866 0.0446174
0.29839 0.551522 0.0452735
0.327184 0.552178 0.0459297
0.355962 0.552834 0.0465858
0.384741 0.553491 0.0472419
0.41352 0.554147 0.0478981
0.442298 0.554803 0.0485542
0.471092 0.555459 0.0492103
0.49987 0.556115 0.0498665
0.528649 0.556771 0.0505226
0.557427 0.557427 0.0511788
0.586206 0.558083 0.0518349
0.615 0.55874 0.052491
0.643778 0.559396 0.0531472
0.672557 0.560052 0.0538033
0.701335 0.560708 0.0544594
0.730114 0.561364 0.0551156
0.758907 0.56202 0.0557717
0.787686 0.562676 0.0564279
0.816464 0.563333 0.057084
0.845243 0.563989 0.0577554
0.874037 0.564645 0.0584115
0.902815 0.565301 0.0590677
0.931594 0.565957 0.0597238
0.960372 0.566613 0.0603799
0.0415656 0.575936 0.0415656
0.0703288 0.576593 0.0422217
0.0991073 0.577249 0.0428779
0.127886 0.577905 0.043534
0.15668 0.578561 0.0441901
0.185458 0.579217 0.0448463
0.214237 0.579873 0.0455024
0.243015 0.58053 0.0461585
0.271809 0.581186 0.0468147
0.300587 0.581842 0.0474708
0.329366 0.582498 0.048127
0.358144 0.583154 0.0487831
0.386923 0.58381 0.0494392
0.415717 0.584466 0.0500954
0.444495 0.585122 0.0507515
0.473274 0.585779 0.0514076
0.502052 0.586435 0.0520638
0.530831 0.587091 0.0527199
0.559625 0.587747 0.0533761
0.588403 0.588403 0.0540322
0.617182 0.589059 0.0546883
0.64596 0.589715 0.0553445
0.674739 0.590372 0.0560006
0.703532 0.591028 0.0566567
0.732311 0.591684 0.0573129
0.76109 0.59234 0.057969
0.789868 0.592996 0.0586252
0.818647 0.593652 0.0592813
0.84744 0.594308 0.0599374
0.876219 0.594965 0.0605936
0.904997 0.595621 0.0612497
0.933776 0.596277 0.0619059
0.96257 0.596933 0.062562
0.0437476 0.606241 0.0437476
0.0725109 0.606897 0.0444038
0.101305 0.607553 0.0450599
0.130083 0.608209 0.045716
0.158862 0.608865 0.0463722
0.18764 0.609522 0.0470283
0.216419 0.610178 0.0476844
0.245212 0.610834 0.0483406
0.273991 0.61149 0.0489967
0.30277 0.612146 0.0496529
0.331548 0.612802 0.050309
0.360342 0.613458 0.0509651
0.38912 0.614115 0.0516213
0.417899 0.614771 0.0522774
0.446677 0.615427 0.0529335
0.475456 0.616083 0.0535897
0.50425 0.616739 0.0542458
0.533028 0.617395 0.054902
0.561807 0.618051 0.0555581
0.590585 0.618708 0.0562142
0.619364 0.619364 0.0568704
0.648157 0.62002 0.0575265
0.676936 0.620676 0.0581826
0.705715 0.621332 0.0588388
0.734493 0.621988 0.0594949
0.763272 0.622644 0.0601511
0.792065 0.623301 0.0608072
0.820844 0.623957 0.0614633
0.849622 0.624613 0.0621195
0.878401 0.625269 0.0627756
0.907179 0.625925 0.0634318
0.935973 0.626581 0.0640879
0.964752 0.627237 0.064744
0.0459297 0.636561 0.0459297
0.0747082 0.637217 0.0465858
0.103487 0.637873 0.0472419
0.132265 0.638529 0.0478981
0.161044 0.639185 0.0485542
0.189837 0.639841 0.0492103
0.218616 0.640497 0.0498665
0.247395 0.641154 0.0505226
0.276173 0.64181 0.0511788
0.304952 0.642466 0.0518349
0.333745 0.643122 0.052491
0.362524 0.643778 0.0531472
0.391302 0.644434 0.0538033
0.420081 0.64509 0.0544594
0.448859 0.645747 0.0551156
0.477653 0.646403 0.0557717
0.506432 0.647059 0.0564279
0.53521 0.647715 0.057084
0.563989 0.648371 0.0577554
0.592782 0.649027 0.0584115
0.621561 0.649683 0.0590677
0.650339 0.650339 0.0597238
0.679118 0.650996 0.0603799
0.707897 0.651652 0.0610361
0.73669 0.652308 0.0616922
0.765469 0.652964 0.0623484
0.794247 0.65362 0.0630045
0.823026 0.654276 0.0636606
0.851804 0.654932 0.0643168
0.880598 0.655589 0.0649729
0.909377 0.656245 0.0656291
0.938155 0.656901 0.0662852
0.966934 0.657557 0.0669413
0.048127 0.666865 0.048127
0.0768902 0.667521 0.0487831
0.105669 0.668177 0.0494392
0.134463 0.668833 0.0500954
0.163241 0.66949 0.0507515
0.19202 0.670146 0.0514076
0.220798 0.670802 0.0520638
0.249577 0.671458 0.0527199
0.27837 0.672114 0.0533761
0.307149 0.67277 0.0540322
0.335927 0.673426 0.0546883
0.364706 0.674083 0.0553445
0.393484 0.674739 0.0560006
0.422278 0.675395 0.0566567
0.451057 0.676051 0.0573129
0.479835 0.676707 0.057969
0.508614 0.677363 0.0586252
0.537392 0.678019 0.0592813
0.566186 0.678676 0.0599374
0.594965 0.679332 0.0605936
0.623743 0.679988 0.0612497
0.652522 0.680644 0.0619059
0.681315 0.6813 0.062562
0.710094 0.681956 0.0632181
0.738872 0.682612 0.0638743
0.767651 0.683268 0.0645304
0.796429 0.683925 0.0651865
0.825223 0.684581 0.0658427
0.854002 0.685237 0.0664988
0.88278 0.685893 0.067155
0.911559 0.686549 0.0678111
0.940337 0.687205 0.0684672
0.969131 0.687861 0.0691234
0.050309 0.697185 0.050309
0.0790723 0.697841 0.0509651
0.107866 0.698497 0.0516213
0.136645 0.699153 0.0522774
0.165423 0.699809 0.0529335
0.194202 0.700465 0.0535897
0.222995 0.701122 0.0542458
0.251774 0.701778 0.054902
0.280552 0.702434 0.0555581
0.309331 0.70309 0.0562142
0.338109 0.703746 0.0568704
0.366903 0.704402 0.0575265
0.395682 0.705058 0.0581826
0.42446 0.705715 0.0588388
0.453239 0.706371 0.0594949
0.482017 0.707027 0.0601511
0.510811 0.707683 0.0608072
0.53959 0.708339 0.0614633
0.568368 0.708995 0.0621195
0.597147 0.709651 0.0627756
0.625925 0.710307 0.0634318
0.654719 0.710964 0.0640879
0.683497 0.71162 0.064744
0.712276 0.712276 0.0654002
0.741054 0.712932 0.0660563
0.769833 0.713588 0.0667124
0.798627 0.714244 0.0673686
0.827405 0.7149 0.0680247
0.856184 0.715557 0.0686809
0.884962 0.716213 0.069337
0.913756 0.716869 0.0699931
0.942535 0.717525 0.0706493
0.971313 0.718181 0.0713054
0.0525063 0.727504 0.052491
0.0812695 0.728145 0.0531472
0.110048 0.728801 0.0538033
0.138827 0.729458 0.0544594
0.167605 0.730114 0.0551156
0.196399 0.73077 0.0557717
0.225177 0.731426 0.0564279
0.253956 0.732082 0.057084
0.282734 0.732738 0.0577401
0.311528 0.733394 0.0584115
0.340307 0.734051 0.0590677
0.369085 0.734707 0.0597238
0.397864 0.735363 0.0603799
0.426642 0.736019 0.0610361
0.455436 0.736675 0.0616922
0.484215 0.737331 0.0623484
0.512993 0.737987 0.0630045
0.541772 0.738643 0.0636606
0.57055 0.7393 0.0643168
0.599344 0.739956 0.0649729
0.628122 0.740612 0.0656291
0.656901 0.741268 0.0662852
0.685679 0.741924 0.0669413
0.714458 0.74258 0.0675975
0.743252 0.743236 0.0682536
0.77203 0.743893 0.0689097
0.800809 0.744549 0.0695659
0.829587 0.745205 0.070222
0.858366 0.745861 0.0708782
0.88716 0.746517 0.0715343
0.915938 0.747173 0.0721904
0.944717 0.747829 0.0728466
0.973495 0.748486 0.0735027
0.0546883 0.757809 0.0546883
0.0834516 0.758465 0.0553445
0.11223 0.759121 0.0560006
0.141024 0.759777 0.0566567
0.169802 0.760433 0.0573129
0.198581 0.76109 0.057969
0.227359 0.761746 0.0586252
0.256138 0.762402 0.0592813
0.284932 0.763058 0.0599374
0.31371 0.763714 0.0605936
0.342489 0.76437 0.0612497
0.371267 0.765026 0.0619059
0.400061 0.765682 0.062562
0.42884 0.766339 0.0632181
0.457618 0.766995 0.0638743
0.486397 0.767651 0.0645304
0.515175 0.768307 0.0651865
0.543969 0.768963 0.0658427
0.572747 0.769619 0.0664988
0.601526 0.770275 0.067155
0.630304 0.770932 0.0678111
0.659083 0.771588 0.0684672
0.687877 0.772244 0.0691234
0.716655 0.7729 0.0697795
0.745434 0.773556 0.0704356
0.774212 0.774212 0.0710918
0.802991 0.774868 0.0717479
0.831785 0.775525 0.0724041
0.860563 0.776181 0.0730602
0.889342 0.776837 0.0737163
0.91812 0.777493 0.0743725
0.946899 0.778149 0.0750286
