public/LUTS/Color Loss/Color Loss_03.cube
TITLE "Generated by Resolve"
LUT_3D_SIZE 33
0 0 0
0.0238346 0.00196841 0.00196841
0.0476692 0.00393683 0.00393683
0.071519 0.00590524 0.00590524
0.0953689 0.00787366 0.00787366
0.119203 0.00984207 0.00984207
0.143053 0.0118105 0.0118105
0.166903 0.0137789 0.0137789
0.190738 0.0157473 0.0157473
0.214588 0.0177157 0.0177157
0.238422 0.0196841 0.0196841
0.262272 0.0216526 0.0216526
0.286122 0.023621 0.023621
0.309957 0.0255894 0.0255894
0.333806 0.0275578 0.0275578
0.357656 0.0295262 0.0295262
0.381491 0.0314946 0.0314946
0.405341 0.033463 0.033463
0.429175 0.0354314 0.0354314
0.453025 0.0373999 0.0373999
0.476875 0.0393683 0.0393683
0.50071 0.0413367 0.0413367
0.524559 0.0433051 0.0433051
0.548409 0.0452735 0.0452735
0.572244 0.0472419 0.0472419
0.596094 0.0492103 0.0492256
0.619928 0.0511788 0.051194
0.643778 0.0531472 0.0531624
0.667628 0.0551156 0.0551308
0.691463 0.057084 0.0570993
0.715312 0.0590524 0.0590677
0.739162 0.0610208 0.0610361
0.762997 0.0630045 0.0630045
0.00656138 0.0284276 0.00656138
0.030396 0.030396 0.00852979
0.0542306 0.0323644 0.0104982
0.0780804 0.0343328 0.0124666
0.10193 0.0363012 0.014435
0.125765 0.0382696 0.0164034
0.149615 0.040238 0.0183719
0.173449 0.0422065 0.0203403
0.197299 0.0441749 0.0223087
0.221149 0.0461433 0.0242771
0.244984 0.0481117 0.0262455
0.268833 0.0500801 0.0282139
0.292683 0.0520485 0.0301823
0.316518 0.0540169 0.0321508
0.340368 0.0559854 0.0341192
0.364202 0.0579538 0.0360876
0.388052 0.0599222 0.038056
0.411902 0.0618906 0.0400244
0.435737 0.063859 0.0419928
0.459586 0.0658274 0.0439612
0.483436 0.0677958 0.0459297
0.507271 0.0697642 0.0478981
0.531121 0.0717327 0.0498665
0.554955 0.0737011 0.0518349
0.578805 0.0756695 0.0538033
0.602655 0.0776379 0.0557717
0.62649 0.0796063 0.0577401
0.650339 0.0815747 0.0597086
0.674189 0.0835431 0.061677
0.698024 0.0855116 0.0636454
0.721874 0.08748 0.0656138
0.745708 0.0894484 0.0675975
0.769558 0.0914168 0.0695659
0.0131228 0.0568551 0.0131228
0.0369573 0.0588235 0.0150912
0.0607919 0.0607919 0.0170596
0.0846418 0.0627604 0.019028
0.108492 0.0647288 0.0209964
0.132326 0.0666972 0.0229648
0.156176 0.0686656 0.0249332
0.180026 0.0706493 0.0269017
0.203861 0.0726177 0.0288701
0.22771 0.0745861 0.0308385
0.251545 0.0765545 0.0328069
0.275395 0.0785229 0.0347753
0.299245 0.0804913 0.0367437
0.323079 0.0824598 0.0387121
0.346929 0.0844282 0.0406806
0.370779 0.0863966 0.042649
0.394614 0.088365 0.0446174
0.418463 0.0903334 0.0465858
0.442298 0.0923018 0.0485542
0.466148 0.0942702 0.0505226
0.489998 0.0962387 0.052491
0.513832 0.0982071 0.0544594
0.537682 0.100175 0.0564279
0.561532 0.102144 0.0583963
0.585367 0.104112 0.0603647
0.609216 0.106081 0.0623331
0.633051 0.108049 0.0643015
0.656901 0.110018 0.0662852
0.680751 0.111986 0.0682536
0.704585 0.113954 0.070222
0.728435 0.115923 0.0721904
0.752285 0.117891 0.0741588
0.77612 0.11986 0.0761273
0.0196841 0.0852979 0.0196841
0.0435187 0.0872663 0.0216526
0.0673686 0.0892348 0.023621
0.0912032 0.0912032 0.0255894
0.115053 0.0931716 0.0275578
0.138888 0.09514 0.0295262
0.162737 0.0971084 0.0314946
0.186587 0.0990768 0.033463
0.210422 0.101045 0.0354314
0.234272 0.103014 0.0373999
0.258122 0.104982 0.0393683
0.281956 0.10695 0.0413367
0.305806 0.108919 0.0433051
0.329641 0.110887 0.0452735
0.353491 0.112856 0.0472419
0.37734 0.114824 0.0492103
0.401175 0.116793 0.0511788
0.425025 0.118761 0.0531472
0.448875 0.120729 0.0551156
0.472709 0.122698 0.057084
0.496559 0.124666 0.0590524
0.520394 0.126635 0.0610208
0.544244 0.128603 0.0629892
0.568093 0.130571 0.0649577
0.591928 0.132555 0.0669413
0.615778 0.134524 0.0689097
0.639612 0.136492 0.0708782
0.663462 0.13846 0.0728466
0.687312 0.140429 0.074815
0.711147 0.142397 0.0767834
0.734997 0.144366 0.0787518
0.758846 0.146334 0.0807202
0.782681 0.148302 0.0826886
0.0262455 0.113741 0.0262455
0.0500801 0.115709 0.0282139
0.07393 0.117678 0.0301823
0.0977646 0.119646 0.0321508
0.121614 0.121614 0.0341192
0.145449 0.123583 0.0360876
0.169299 0.125551 0.038056
0.193149 0.12752 0.0400244
0.216983 0.129488 0.0419928
0.240833 0.131456 0.0439612
0.264683 0.133425 0.0459297
0.288518 0.135393 0.0478981
0.312367 0.137362 0.0498665
0.336202 0.13933 0.0518349
0.360052 0.141299 0.0538033
0.383902 0.143267 0.0557717
0.407736 0.145235 0.0577401
0.431586 0.147204 0.0597086
0.455436 0.149172 0.061677
0.479271 0.151141 0.0636454
0.50312 0.153109 0.0656138
0.526955 0.155077 0.0675975
0.550805 0.157046 0.0695659
0.574655 0.159014 0.0715343
0.598489 0.160983 0.0735027
0.622339 0.162951 0.0754711
0.646189 0.16492 0.0774395
0.670024 0.166888 0.079408
0.693874 0.168856 0.0813764
0.717708 0.170825 0.0833448
0.741558 0.172793 0.0853132
0.765408 0.174762 0.0872816
0.789242 0.17673 0.08925
0.0328069 0.142168 0.0328069
0.0566415 0.144137 0.0347753
0.0804913 0.146105 0.0367437
0.104326 0.148074 0.0387121
0.128176 0.150057 0.0406806
0.152026 0.152026 0.042649
0.17586 0.153994 0.0446174
0.19971 0.155962 0.0465858
0.223545 0.157931 0.0485542
0.247395 0.159899 0.0505226
0.271244 0.161868 0.052491
0.295079 0.163836 0.0544594
0.318929 0.165805 0.0564279
0.342779 0.167773 0.0583963
0.366613 0.169741 0.0603647
0.390463 0.17171 0.0623331
0.414298 0.173678 0.0643015
0.438148 0.175647 0.0662852
0.461997 0.177615 0.0682536
0.485832 0.179583 0.070222
0.509682 0.181552 0.0721904
0.533532 0.18352 0.0741588
0.557366 0.185489 0.0761273
0.581216 0.187457 0.0780957
0.605051 0.189425 0.0800641
0.628901 0.191394 0.0820325
0.65275 0.193362 0.0840009
0.676585 0.195331 0.0859693
0.700435 0.197299 0.0879377
0.724285 0.199268 0.0899062
0.748119 0.201236 0.0918746
0.771969 0.203204 0.093843
0.795804 0.205173 0.0958114
0.0393683 0.170611 0.0393683
0.0632029 0.17258 0.0413367
0.0870527 0.174548 0.0433051
0.110887 0.176516 0.0452735
0.134737 0.178485 0.0472419
0.158587 0.180453 0.0492103
0.182422 0.182422 0.0511788
0.206271 0.18439 0.0531472
0.230121 0.186358 0.0551156
0.253956 0.188327 0.057084
0.277806 0.190295 0.0590524
0.30164 0.192264 0.0610208
0.32549 0.194232 0.0629892
0.34934 0.196201 0.0649577
0.373175 0.198169 0.0669413
0.397024 0.200137 0.0689097
0.420859 0.202106 0.0708782
0.444709 0.204074 0.0728466
0.468559 0.206043 0.074815
0.492393 0.208011 0.0767834
0.516243 0.209979 0.0787518
0.540093 0.211948 0.0807202
0.563928 0.213931 0.0826886
0.587777 0.2159 0.0846571
0.611612 0.217868 0.0866255
0.635462 0.219837 0.0885939
0.659312 0.221805 0.0905623
0.683146 0.223774 0.0925307
0.706996 0.225742 0.0944991
0.730846 0.22771 0.0964675
0.754681 0.229679 0.098436
0.778531 0.231647 0.100404
0.802365 0.233616 0.102373
0.0459297 0.199054 0.0459297
0.0697642 0.201022 0.0478981
0.0936141 0.202991 0.0498665
0.117449 0.204959 0.0518349
0.141299 0.206928 0.0538033
0.165148 0.208896 0.0557717
0.188983 0.210864 0.0577401
0.212833 0.212833 0.0597086
0.236683 0.214801 0.061677
0.260517 0.21677 0.0636454
0.284367 0.218738 0.0656138
0.308202 0.220706 0.0675975
0.332052 0.222675 0.0695659
0.355901 0.224643 0.0715343
0.379736 0.226612 0.0735027
0.403586 0.22858 0.0754711
0.427436 0.230549 0.0774395
0.45127 0.232517 0.079408
0.47512 0.234485 0.0813764
0.498955 0.236454 0.0833448
0.522805 0.238422 0.0853132
0.546654 0.240391 0.0872816
0.570489 0.242359 0.08925
0.594339 0.244327 0.0912184
0.618189 0.246296 0.0931868
0.642023 0.248264 0.0951553
0.665873 0.250233 0.0971237
0.689708 0.252201 0.0990921
0.713558 0.25417 0.101061
0.737408 0.256138 0.103029
0.761242 0.258106 0.104997
0.785092 0.260075 0.106966
0.808942 0.262043 0.108934
0.052491 0.227497 0.052491
0.0763256 0.22945 0.0544594
0.100175 0.231434 0.0564279
0.124025 0.233402 0.0583963
0.14786 0.23537 0.0603647
0.17171 0.237339 0.0623331
0.195544 0.239307 0.0643015
0.219394 0.241276 0.0662699
0.243244 0.243244 0.0682536
0.267079 0.245212 0.070222
0.290929 0.247181 0.0721904
0.314778 0.249149 0.0741588
0.338613 0.251118 0.0761273
0.362463 0.253086 0.0780957
0.386297 0.255055 0.0800641
0.410147 0.257023 0.0820325
0.433997 0.258991 0.0840009
0.457832 0.26096 0.0859693
0.481682 0.262928 0.0879377
0.505531 0.264897 0.0899062
0.529366 0.266865 0.0918746
0.553216 0.268833 0.093843
0.57705 0.270802 0.0958114
0.6009 0.27277 0.0977798
0.62475 0.274739 0.0997482
0.648585 0.276707 0.101717
0.672435 0.278676 0.103685
0.696284 0.280644 0.105653
0.720119 0.282612 0.107622
0.743969 0.284581 0.10959
0.767803 0.286549 0.111559
0.791653 0.288518 0.113527
0.815503 0.290486 0.115496
0.0590677 0.255924 0.0590524
0.082887 0.257893 0.0610208
0.106737 0.259861 0.0629892
0.130587 0.26183 0.0649577
0.154421 0.263798 0.0669413
0.178271 0.265766 0.0689097
0.202106 0.267735 0.0708782
0.225956 0.269703 0.0728466
0.249805 0.271672 0.074815
0.27364 0.27364 0.0767834
0.29749 0.275608 0.0787518
0.32134 0.277577 0.0807202
0.345174 0.279545 0.0826886
0.369024 0.281514 0.0846571
0.392859 0.283482 0.0866255
0.416709 0.285451 0.0885939
0.440558 0.287419 0.0905623
0.464393 0.289387 0.0925307
0.488243 0.291356 0.0944991
0.512093 0.293324 0.0964675
0.535927 0.295308 0.098436
0.559777 0.297276 0.100404
0.583612 0.299245 0.102373
0.607462 0.301213 0.104341
0.631312 0.303181 0.10631
0.655146 0.30515 0.108278
0.678996 0.307118 0.110246
0.702846 0.309087 0.112215
0.72668 0.311055 0.114183
0.75053 0.313024 0.116152
0.774365 0.314992 0.11812
0.798215 0.31696 0.120089
0.822065 0.318929 0.122057
0.0656291 0.284367 0.0656291
0.0894484 0.286336 0.0675975
0.113298 0.288304 0.0695659
0.137148 0.290272 0.0715343
0.160983 0.292241 0.0735027
0.184833 0.294209 0.0754711
0.208682 0.296178 0.0774395
0.232517 0.298146 0.079408
0.256367 0.300114 0.0813764
0.280201 0.302083 0.0833448
0.304051 0.304051 0.0853132
0.327901 0.30602 0.0872816
0.351736 0.307988 0.08925
0.375586 0.309957 0.0912184
0.399435 0.311925 0.0931868
0.42327 0.313893 0.0951553
0.44712 0.315862 0.0971237
0.470954 0.31783 0.0990921
0.494804 0.319799 0.101061
0.518654 0.321767 0.103029
0.542489 0.323735 0.104997
0.566339 0.325704 0.106966
0.590188 0.327672 0.108934
0.614023 0.329641 0.110903
0.637873 0.331609 0.112871
0.661707 0.333577 0.114839
0.685557 0.335546 0.116808
0.709407 0.337514 0.118776
0.733242 0.339483 0.120745
0.757092 0.341451 0.122713
0.780941 0.34342 0.124681
0.804776 0.345388 0.12665
0.828626 0.347356 0.128618
0.0721904 0.31281 0.0721904
0.096025 0.314778 0.0741588
0.11986 0.316747 0.0761273
0.143709 0.318715 0.0780957
0.167544 0.320684 0.0800641
0.191394 0.322652 0.0820325
0.215244 0.32462 0.0840009
0.239078 0.326589 0.0859693
0.262928 0.328557 0.0879377
0.286778 0.330526 0.0899062
0.310613 0.332494 0.0918746
0.334462 0.334462 0.093843
0.358297 0.336431 0.0958114
0.382147 0.338399 0.0977798
0.405997 0.340368 0.0997482
0.429831 0.342336 0.101717
0.453681 0.344305 0.103685
0.477531 0.346273 0.105653
0.501366 0.348241 0.107622
0.525216 0.35021 0.10959
0.54905 0.352178 0.111559
0.5729 0.354147 0.113527
0.59675 0.356115 0.115496
0.620584 0.358083 0.117464
0.644434 0.360052 0.119432
0.668284 0.36202 0.121401
0.692119 0.363989 0.123369
0.715969 0.365957 0.125338
0.739803 0.367926 0.127306
0.763653 0.369894 0.129274
0.787503 0.371862 0.131243
0.811337 0.373831 0.133211
0.835187 0.375799 0.13518
0.0787518 0.341238 0.0787518
0.102586 0.343206 0.0807202
0.126421 0.345174 0.0826886
0.150271 0.347143 0.0846571
0.174105 0.349111 0.0866255
0.197955 0.35108 0.0885939
0.221805 0.353048 0.0905623
0.24564 0.355016 0.0925307
0.26949 0.356985 0.0944991
0.293339 0.358953 0.0964675
0.317174 0.360922 0.098436
0.341024 0.36289 0.100404
0.364858 0.364858 0.102373
0.388708 0.366827 0.104341
0.412558 0.368795 0.10631
0.436393 0.370764 0.108278
0.460243 0.372732 0.110246
0.484092 0.374716 0.112215
0.507927 0.376684 0.114183
0.531777 0.378653 0.116152
0.555611 0.380621 0.11812
0.579461 0.382589 0.120089
0.603311 0.384558 0.122057
0.627146 0.386526 0.124025
0.650996 0.388495 0.125994
0.674846 0.390463 0.127962
0.69868 0.392432 0.129931
0.72253 0.3944 0.131899
0.746365 0.396368 0.133867
0.770214 0.398337 0.135836
0.794064 0.400305 0.137804
0.817899 0.402274 0.139773
0.841749 0.404242 0.141741
0.0853132 0.36968 0.0853132
0.109148 0.371649 0.0872816
0.132982 0.373617 0.08925
0.156832 0.375586 0.0912184
0.180682 0.377554 0.0931868
0.204517 0.379522 0.0951553
0.228367 0.381491 0.0971237
0.252201 0.383459 0.0990921
0.276051 0.385428 0.101061
0.299901 0.387396 0.103029
0.323735 0.389364 0.104997
0.347585 0.391333 0.106966
0.371435 0.393301 0.108934
0.39527 0.39527 0.110903
0.41912 0.397238 0.112871
0.442954 0.399207 0.114839
0.466804 0.401175 0.116808
0.490654 0.403143 0.118776
0.514488 0.405112 0.120745
0.538338 0.40708 0.122713
0.562188 0.409049 0.124681
0.586023 0.411017 0.12665
0.609873 0.412985 0.128618
0.633707 0.414954 0.130587
0.657557 0.416922 0.132555
0.681407 0.418891 0.134524
0.705242 0.420859 0.136492
0.729091 0.422827 0.13846
0.752941 0.424796 0.140429
0.776776 0.426764 0.142397
0.800626 0.428733 0.144366
0.82446 0.430701 0.146334
0.84831 0.43267 0.148302
0.0918746 0.398123 0.0918746
0.115709 0.400092 0.093843
0.139544 0.40206 0.0958114
0.163394 0.404028 0.0977798
0.187243 0.405997 0.0997482
0.211078 0.407965 0.101717
0.234928 0.409934 0.103685
0.258778 0.411902 0.105653
0.282612 0.41387 0.107622
0.306462 0.415839 0.10959
0.330297 0.417807 0.111559
0.354147 0.419776 0.113527
0.377997 0.421744 0.115496
0.401831 0.423713 0.117464
0.425681 0.425681 0.119432
0.449531 0.427649 0.121401
0.473365 0.429618 0.123369
0.497215 0.431586 0.125338
0.52105 0.433555 0.127306
0.5449 0.435523 0.129274
0.56875 0.437491 0.131243
0.592584 0.43946 0.133211
0.616434 0.441428 0.13518
0.640284 0.443397 0.137148
0.664118 0.445365 0.139116
0.687968 0.447333 0.141085
0.711803 0.449302 0.143053
0.735653 0.45127 0.145022
0.759503 0.453239 0.14699
0.783337 0.455207 0.148959
0.807187 0.457176 0.150927
0.831022 0.459144 0.152911
0.854871 0.461112 0.154879
0.098436 0.426551 0.098436
0.122271 0.428519 0.100404
0.146105 0.430488 0.102373
0.169955 0.432456 0.104341
0.193805 0.434424 0.10631
0.217639 0.436393 0.108278
0.241489 0.438361 0.110246
0.265339 0.44033 0.112215
0.289174 0.442298 0.114183
0.313024 0.444266 0.116152
0.336858 0.446235 0.11812
0.360708 0.448203 0.120089
0.384558 0.450172 0.122057
0.408392 0.45214 0.124025
0.432242 0.454109 0.125994
0.456092 0.456092 0.127962
0.479927 0.458061 0.129931
0.503777 0.460029 0.131899
0.527611 0.461997 0.133867
0.551461 0.463966 0.135836
0.575311 0.465934 0.137804
0.599145 0.467903 0.139773
0.622995 0.469871 0.141741
0.646845 0.471839 0.143709
0.67068 0.473808 0.145678
0.69453 0.475776 0.147646
0.718364 0.477745 0.149615
0.742214 0.479713 0.151598
0.766064 0.481682 0.153567
0.789899 0.48365 0.155535
0.813748 0.485618 0.157504
0.837598 0.487587 0.159472
0.861433 0.489555 0.16144
0.104997 0.454994 0.104997
0.128832 0.456962 0.106966
0.152682 0.45893 0.108934
0.176516 0.460899 0.110903
0.200366 0.462867 0.112871
0.224201 0.464836 0.114839
0.248051 0.466804 0.116808
0.271901 0.468772 0.118776
0.295735 0.470741 0.120745
0.319585 0.472709 0.122713
0.343435 0.474678 0.124681
0.367269 0.476646 0.12665
0.391119 0.478614 0.128618
0.414954 0.480583 0.130587
0.438804 0.482551 0.132555
0.462654 0.48452 0.134524
0.486488 0.486488 0.136492
0.510338 0.488457 0.13846
0.534188 0.490425 0.140429
0.558022 0.492393 0.142397
0.581872 0.494362 0.144366
0.605707 0.49633 0.146334
0.629557 0.498299 0.148302
0.653407 0.500267 0.150271
0.677241 0.502235 0.152255
0.701091 0.504204 0.154223
0.724941 0.506172 0.156191
0.748775 0.508141 0.15816
0.772625 0.510109 0.160128
0.79646 0.512078 0.162097
0.82031 0.514046 0.164065
0.84416 0.516014 0.166033
0.867994 0.517983 0.168002
0.111559 0.483436 0.111559
0.135393 0.485405 0.113527
0.159243 0.487373 0.115496
0.183078 0.489342 0.117464
0.206928 0.49131 0.119432
0.230777 0.493278 0.121401
0.254612 0.495247 0.123369
0.278462 0.497215 0.125338
0.302296 0.499184 0.127306
0.326146 0.501152 0.129274
0.349996 0.50312 0.131243
0.373831 0.505089 0.133211
0.397681 0.507057 0.13518
0.42153 0.509026 0.137148
0.445365 0.510994 0.139116
0.469215 0.512963 0.141085
0.49305 0.514931 0.143053
0.516899 0.516899 0.145022
0.540749 0.518868 0.14699
0.564584 0.520836 0.148959
0.588434 0.522805 0.150927
0.612268 0.524773 0.152911
0.636118 0.526741 0.154879
0.659968 0.52871 0.156847
0.683803 0.530678 0.158816
0.707652 0.532647 0.160784
0.731502 0.534615 0.162753
0.755337 0.536583 0.164721
0.779187 0.538552 0.16669
0.803021 0.54052 0.168658
0.826871 0.542489 0.170626
0.850721 0.544457 0.172595
0.874556 0.546426 0.174563
0.11812 0.511864 0.11812
0.141955 0.513832 0.120089
0.165805 0.515801 0.122057
0.189639 0.517769 0.124025
0.213489 0.519738 0.125994
0.237339 0.521706 0.127962
0.261173 0.523674 0.129931
0.285023 0.525643 0.131899
0.308858 0.527611 0.133867
0.332708 0.52958 0.135836
0.356558 0.531548 0.137804
0.380392 0.533516 0.139773
0.404242 0.535485 0.141741
0.428092 0.537469 0.143709
0.451926 0.539437 0.145678
0.475776 0.541405 0.147646
0.499611 0.543374 0.149615
0.523461 0.545342 0.151598
0.547311 0.547311 0.153567
0.571145 0.549279 0.155535
0.594995 0.551247 0.157504
0.618845 0.553216 0.159472
0.64268 0.555184 0.16144
0.666529 0.557153 0.163409
0.690364 0.559121 0.165377
0.714214 0.56109 0.167346
0.738064 0.563058 0.169314
0.761898 0.565026 0.171283
0.785748 0.566995 0.173251
0.809598 0.568963 0.175219
0.833432 0.570932 0.177188
0.857282 0.5729 0.179156
0.881117 0.574868 0.181125
0.124681 0.540307 0.124681
0.148516 0.542275 0.12665
0.172366 0.544244 0.128618
0.196201 0.546212 0.130587
0.22005 0.54818 0.132555
0.2439 0.550149 0.134524
0.267735 0.552117 0.136492
0.291585 0.554086 0.13846
0.315435 0.556054 0.140429
0.339269 0.558022 0.142397
0.363119 0.559991 0.144366
0.386954 0.561959 0.146334
0.410803 0.563928 0.148302
0.434653 0.565896 0.150271
0.458488 0.567864 0.152255
0.482338 0.569833 0.154223
0.506188 0.571801 0.156191
0.530022 0.57377 0.15816
0.553872 0.575738 0.160128
0.577707 0.577707 0.162097
0.601556 0.579675 0.164065
0.625406 0.581643 0.166033
0.649241 0.583612 0.168002
0.673091 0.58558 0.16997
0.696941 0.587549 0.171939
0.720775 0.589517 0.173907
0.744625 0.591485 0.175875
0.76846 0.593454 0.177844
0.792309 0.595422 0.179812
0.816159 0.597391 0.181781
0.839994 0.599374 0.183749
0.863844 0.601343 0.185718
0.887694 0.603311 0.187686
0.131243 0.56875 0.131243
0.155077 0.570718 0.133211
0.178927 0.572686 0.13518
0.202762 0.574655 0.137148
0.226612 0.576623 0.139116
0.250462 0.578592 0.141085
0.274296 0.58056 0.143053
0.298146 0.582528 0.145022
0.321996 0.584497 0.14699
0.34583 0.586465 0.148959
0.36968 0.588434 0.150927
0.393515 0.590402 0.152911
0.417365 0.592371 0.154879
0.441215 0.594339 0.156847
0.465049 0.596307 0.158816
0.488899 0.598276 0.160784
0.512749 0.600244 0.162753
0.536583 0.602213 0.164721
0.560433 0.604181 0.16669
0.584268 0.606149 0.168658
0.608118 0.608118 0.170626
0.631968 0.610086 0.172595
0.655802 0.612055 0.174563
0.679652 0.614023 0.176532
0.703502 0.615991 0.1785
0.727337 0.61796 0.180468
0.751186 0.619928 0.182437
0.775021 0.621897 0.184405
0.798871 0.623865 0.186374
0.822721 0.625834 0.188342
0.846555 0.627802 0.190311
0.870405 0.62977 0.192279
0.894255 0.631739 0.194247
0.137804 0.597177 0.137804
0.161639 0.599145 0.139773
0.185489 0.601114 0.141741
0.209339 0.603082 0.143709
0.233173 0.605051 0.145678
0.257023 0.607019 0.147646
0.280858 0.608988 0.149615
0.304707 0.610956 0.151598
0.328557 0.612924 0.153567
0.352392 0.614893 0.155535
0.376242 0.616876 0.157504
0.400092 0.618845 0.159472
0.423926 0.620813 0.16144
0.447776 0.622782 0.163409
0.471611 0.62475 0.165377
0.49546 0.626719 0.167346
0.51931 0.628687 0.169314
0.543145 0.630655 0.171283
0.566995 0.632624 0.173251
0.590845 0.634592 0.175219
0.614679 0.636561 0.177188
0.638529 0.638529 0.179156
0.662364 0.640497 0.181125
0.686213 0.642466 0.183093
0.710063 0.644434 0.185061
0.733898 0.646403 0.18703
0.757748 0.648371 0.188998
0.781598 0.650339 0.190967
0.805432 0.652308 0.192935
0.829282 0.654276 0.194903
0.853117 0.656245 0.196872
0.876967 0.658213 0.19884
0.900816 0.660182 0.200809
0.144381 0.62562 0.144366
0.1682 0.627588 0.146334
0.19205 0.629557 0.148302
0.2159 0.631525 0.150271
0.239734 0.633494 0.152255
0.263584 0.635462 0.154223
0.287434 0.63743 0.156191
0.311269 0.639399 0.15816
0.335119 0.641367 0.160128
0.358953 0.643336 0.162097
0.382803 0.645304 0.164065
0.406653 0.647272 0.166033
0.430488 0.649241 0.168002
0.454337 0.651209 0.16997
0.478187 0.653178 0.171939
0.502022 0.655146 0.173907
0.525872 0.657115 0.175875
0.549706 0.659083 0.177844
0.573556 0.661051 0.179812
0.597406 0.66302 0.181781
0.621241 0.664988 0.183749
0.64509 0.666957 0.185718
0.66894 0.668925 0.187686
0.692775 0.670893 0.189654
0.716625 0.672862 0.191623
0.740459 0.67483 0.193591
0.764309 0.676799 0.19556
0.788159 0.678767 0.197528
0.811994 0.680751 0.199496
0.835843 0.682719 0.201465
0.859693 0.684688 0.203433
0.883528 0.686656 0.205402
0.907378 0.688624 0.20737
0.150942 0.654063 0.150942
0.174762 0.656031 0.152911
0.198611 0.658 0.154879
0.222461 0.659968 0.156847
0.246296 0.661936 0.158816
0.270146 0.663905 0.160784
0.293996 0.665873 0.162753
0.31783 0.667842 0.164721
0.34168 0.66981 0.16669
0.365515 0.671778 0.168658
0.389364 0.673747 0.170626
0.413214 0.675715 0.172595
0.437049 0.677684 0.174563
0.460899 0.679652 0.176532
0.484749 0.68162 0.1785
0.508583 0.683589 0.180468
0.532433 0.685557 0.182437
0.556268 0.687526 0.184405
0.580118 0.689494 0.186374
0.603967 0.691463 0.188342
0.627802 0.693431 0.190311
0.651652 0.695399 0.192279
0.675502 0.697368 0.194247
0.699336 0.699336 0.196216
0.723186 0.701305 0.198184
0.747021 0.703273 0.200153
0.770871 0.705242 0.202121
0.79472 0.70721 0.204089
0.818555 0.709178 0.206058
0.842405 0.711147 0.208026
0.866255 0.713115 0.209995
0.890089 0.715084 0.211963
0.913939 0.717052 0.213931
0.157504 0.68249 0.157504
0.181338 0.684459 0.159472
0.205173 0.686427 0.16144
0.229023 0.688396 0.163409
0.252857 0.690364 0.165377
0.276707 0.692332 0.167346
0.300557 0.694301 0.169314
0.324392 0.696269 0.171283
0.348241 0.698253 0.173251
0.372091 0.700221 0.175219
0.395926 0.70219 0.177188
0.419776 0.704158 0.179156
0.44361 0.706127 0.181125
0.46746 0.708095 0.183093
0.49131 0.710063 0.185061
0.515145 0.712032 0.18703
0.538994 0.714 0.188998
0.562844 0.715969 0.190967
0.586679 0.717937 0.192935
0.610529 0.719905 0.194903
0.634363 0.721874 0.196872
0.658213 0.723842 0.19884
0.682063 0.725811 0.200809
0.705898 0.727779 0.202777
0.729747 0.729747 0.204746
0.753597 0.731716 0.206714
0.777432 0.733684 0.208682
0.801282 0.735653 0.210651
0.825116 0.737621 0.212619
0.848966 0.73959 0.214588
0.872816 0.741558 0.216556
0.896651 0.743526 0.218524
0.920501 0.745495 0.220493
0.164065 0.710933 0.164065
0.1879 0.712902 0.166033
0.211734 0.71487 0.168002
0.235584 0.716838 0.16997
0.259434 0.718807 0.171939
0.283268 0.720775 0.173907
0.307118 0.722744 0.175875
0.330953 0.724712 0.177844
0.354803 0.72668 0.179812
0.378653 0.728649 0.181781
0.402487 0.730617 0.183749
0.426337 0.732586 0.185718
0.450187 0.734554 0.187686
0.474022 0.736522 0.189654
0.497871 0.738491 0.191623
0.521706 0.740459 0.193591
0.545556 0.742428 0.19556
0.569406 0.744396 0.197528
0.59324 0.746365 0.199496
0.61709 0.748333 0.201465
0.64094 0.750301 0.203433
0.664775 0.75227 0.205402
0.688624 0.754238 0.20737
0.712459 0.756207 0.209339
0.736309 0.758175 0.211307
0.760159 0.760143 0.213275
0.783993 0.762127 0.215244
0.807843 0.764096 0.217212
0.831693 0.766064 0.219181
0.855528 0.768032 0.221149
0.879377 0.770001 0.223117
0.903212 0.771969 0.225086
0.927062 0.773938 0.227054
0.170626 0.739376 0.170626
0.194461 0.741344 0.172595
0.218296 0.743313 0.174563
0.242145 0.745281 0.176532
0.265995 0.74725 0.1785
0.28983 0.749218 0.180468
0.31368 0.751186 0.182437
0.337514 0.753155 0.184405
0.361364 0.755123 0.186374
0.385214 0.757092 0.188342
0.409049 0.75906 0.190311
0.432898 0.761028 0.192279
0.456748 0.762997 0.194247
0.480583 0.764965 0.196216
0.504433 0.766934 0.198184
0.528267 0.768902 0.200153
0.552117 0.770871 0.202121
0.575967 0.772839 0.204089
0.599802 0.774807 0.206058
0.623652 0.776776 0.208026
0.647501 0.778744 0.209995
