public/LUTS/Color Loss/Color Loss_05.cube
TITLE "Generated by Resolve"
LUT_3D_SIZE 5
0 0 0
0.151247 0.0262455 0.0262455
0.302495 0.052491 0.0525063
0.453742 0.0787518 0.0787518
0.605005 0.104997 0.104997
0.0874952 0.212497 0.0874952
0.238743 0.238743 0.113741
0.38999 0.264988 0.140002
0.541238 0.291234 0.166247
0.6925 0.317494 0.192493
0.17499 0.424994 0.17499
0.326238 0.45124 0.201251
0.477485 0.477485 0.227497
0.628748 0.503746 0.253742
0.779995 0.529992 0.280003
0.262501 0.637491 0.262501
0.413748 0.663752 0.288746
0.564996 0.689998 0.314992
0.716243 0.716243 0.341253
0.867506 0.742489 0.367498
0.349996 0.850004 0.349996
0.501244 0.876249 0.376242
0.652491 0.902495 0.402502
0.803754 0.928756 0.428748
0.955001 0.955001 0.454994
0.0112459 0.0112459 0.136248
0.162493 0.0374914 0.162493
0.313741 0.0637522 0.188739
0.465003 0.0899977 0.215
0.616251 0.116243 0.241245
0.0987411 0.223743 0.223743
0.249989 0.249989 0.249989
0.401236 0.276234 0.276234
0.552499 0.302495 0.302495
0.703746 0.32874 0.32874
0.186252 0.43624 0.311238
0.337484 0.462486 0.337484
0.488746 0.488746 0.363745
0.639994 0.514992 0.38999
0.791241 0.541238 0.416236
0.273747 0.648753 0.398749
0.424994 0.674998 0.424994
0.576242 0.701244 0.45124
0.727489 0.727489 0.477485
0.878752 0.75375 0.503746
0.361242 0.86125 0.486244
0.512489 0.887495 0.512489
0.663752 0.913756 0.538735
0.815 0.940002 0.564996
0.966247 0.966247 0.591241
0.0225071 0.0225071 0.272496
0.173739 0.0487526 0.298741
0.325002 0.0749981 0.325002
0.476249 0.101244 0.351247
0.627497 0.127504 0.377493
0.110002 0.234989 0.359991
0.261234 0.261234 0.386236
0.412497 0.287495 0.412497
0.563745 0.313741 0.438743
0.714992 0.339986 0.464988
0.197498 0.447501 0.447486
0.348745 0.473747 0.473747
0.499992 0.499992 0.499992
0.65124 0.526238 0.526238
0.802502 0.552499 0.552499
0.284993 0.659998 0.534997
0.43624 0.686244 0.561242
0.587488 0.712489 0.587488
0.73875 0.73875 0.613748
0.889998 0.764996 0.639994
0.372503 0.872496 0.622492
0.523735 0.898756 0.648737
0.674998 0.925002 0.674998
0.826246 0.951247 0.701244
0.977493 0.977493 0.727489
0.033753 0.033753 0.408743
0.185 0.0599985 0.435004
0.336248 0.086244 0.46125
0.487495 0.112505 0.487495
0.638743 0.13875 0.513756
0.121248 0.246235 0.496239
0.272496 0.272496 0.522499
0.423743 0.298741 0.548745
0.57499 0.324987 0.57499
0.726253 0.351232 0.601251
0.208743 0.458747 0.583749
0.359991 0.484993 0.609995
0.511238 0.511238 0.63624
0.662501 0.537499 0.662501
0.813748 0.563745 0.688746
0.296254 0.671244 0.671244
0.447486 0.69749 0.69749
0.598749 0.723751 0.723751
0.749996 0.749996 0.749996
0.901244 0.776242 0.776242
0.383749 0.883757 0.758755
0.534997 0.910002 0.785
0.686244 0.936248 0.811246
0.837491 0.962493 0.837491
0.988754 0.988754 0.863752
0.0449989 0.0449989 0.545007
0.196246 0.0712444 0.571252
0.347494 0.0975052 0.597498
0.498741 0.123751 0.623758
0.650004 0.149996 0.650004
0.132494 0.257496 0.632502
0.283742 0.283742 0.658747
0.434989 0.309987 0.684993
0.586236 0.336248 0.711254
0.737499 0.362493 0.737499
0.220005 0.469993 0.719997
0.371237 0.496239 0.746242
0.522499 0.522499 0.772503
0.673747 0.548745 0.798749
0.824994 0.57499 0.824994
0.3075 0.682506 0.807492
0.458747 0.708751 0.833753
0.609995 0.734997 0.859998
0.761242 0.761242 0.886244
0.912505 0.787503 0.912505
0.394995 0.895003 0.895003
0.546242 0.921248 0.921248
0.69749 0.947494 0.947494
0.848753 0.973754 0.973754
1 1 1
