public/LUTS/Color Loss/Color Loss_07.cube
TITLE "Generated by Resolve"
LUT_3D_SIZE 33
0 0 0
0.013962 0.00459297 0.00459297
0.027924 0.00918593 0.00918593
0.0419013 0.0137789 0.0137789
0.0558633 0.0183719 0.0183719
0.0698405 0.0229648 0.0229648
0.0838026 0.0275578 0.0275578
0.0977798 0.0321508 0.0321508
0.111742 0.0367437 0.0367437
0.125719 0.0413367 0.0413367
0.139681 0.0459297 0.0459297
0.153658 0.0505226 0.0505226
0.16762 0.0551156 0.0551308
0.181582 0.0597238 0.0597238
0.19556 0.0643168 0.0643168
0.209522 0.0689097 0.0689097
0.223499 0.0735027 0.0735027
0.237461 0.0780957 0.0780957
0.251438 0.0826886 0.0826886
0.2654 0.0872816 0.0872816
0.279377 0.0918746 0.0918746
0.293339 0.0964675 0.0964675
0.307317 0.101061 0.101061
0.321279 0.105653 0.105653
0.335256 0.110246 0.110246
0.349218 0.114839 0.114839
0.36318 0.119432 0.119432
0.377157 0.124025 0.124025
0.391119 0.128618 0.128618
0.405097 0.133211 0.133211
0.419059 0.137804 0.137819
0.433036 0.142412 0.142412
0.446998 0.147005 0.147005
0.0153048 0.0246738 0.0153048
0.0292668 0.0292668 0.0198978
0.0432288 0.0338598 0.0244907
0.0572061 0.0384527 0.0290837
0.0711681 0.0430457 0.0336767
0.0851453 0.0476387 0.0382696
0.0991073 0.0522316 0.0428626
0.113085 0.0568246 0.0474556
0.127047 0.0614176 0.0520485
0.141024 0.0660105 0.0566415
0.154986 0.0706188 0.0612345
0.168963 0.0752117 0.0658274
0.182925 0.0798047 0.0704356
0.196902 0.0843977 0.0750286
0.210864 0.0889906 0.0796216
0.224826 0.0935836 0.0842145
0.238804 0.0981765 0.0888075
0.252766 0.10277 0.0934005
0.266743 0.107362 0.0979934
0.280705 0.111955 0.102586
0.294682 0.116548 0.107179
0.308644 0.121141 0.111772
0.322621 0.125734 0.116365
0.336583 0.130327 0.120958
0.350561 0.13492 0.125551
0.364523 0.139513 0.130144
0.378485 0.144106 0.134737
0.392462 0.148699 0.13933
0.406424 0.153292 0.143923
0.420401 0.1579 0.148516
0.434363 0.162493 0.153124
0.448341 0.167086 0.157717
0.462303 0.171679 0.16231
0.0306249 0.0493629 0.0306249
0.0445869 0.0539559 0.0352026
0.0585489 0.0585489 0.0398108
0.0725109 0.0631418 0.0444038
0.0864881 0.0677348 0.0489967
0.10045 0.0723278 0.0535897
0.114427 0.0769207 0.0581826
0.128389 0.0815137 0.0627756
0.142367 0.0861067 0.0673686
0.156329 0.0906996 0.0719615
0.170306 0.0952926 0.0765545
0.184268 0.0998856 0.0811475
0.198245 0.104494 0.0857404
0.212207 0.109087 0.0903334
0.226169 0.11368 0.0949264
0.240146 0.118273 0.0995193
0.254108 0.122866 0.104112
0.268086 0.127459 0.108705
0.282048 0.132052 0.113298
0.296025 0.136645 0.117891
0.309987 0.141238 0.122499
0.323964 0.14583 0.127092
0.337926 0.150423 0.131685
0.351904 0.155016 0.136278
0.365866 0.159609 0.140871
0.379843 0.164202 0.145464
0.393805 0.168795 0.150057
0.407767 0.173388 0.15465
0.421744 0.177981 0.159243
0.435706 0.182574 0.163836
0.449683 0.187182 0.168429
0.463645 0.191775 0.173022
0.477623 0.196368 0.177615
0.0459297 0.074052 0.0459297
0.0598917 0.078645 0.0505226
0.0738689 0.083238 0.0551156
0.0878309 0.0878309 0.0597086
0.101793 0.0924239 0.0643015
0.11577 0.0970169 0.0688945
0.129732 0.10161 0.0734875
0.143709 0.106203 0.0780804
0.157671 0.110796 0.0826734
0.171649 0.115389 0.0872663
0.185611 0.119982 0.0918593
0.199588 0.124575 0.0964675
0.21355 0.129168 0.101061
0.227527 0.133776 0.105653
0.241489 0.138369 0.110246
0.255451 0.142962 0.114839
0.269429 0.147555 0.119432
0.283391 0.152148 0.124025
0.297368 0.156741 0.128618
0.31133 0.161334 0.133211
0.325307 0.165927 0.137804
0.339269 0.17052 0.142397
0.353246 0.175113 0.14699
0.367208 0.179706 0.151583
0.381186 0.184298 0.156176
0.395148 0.188891 0.160769
0.40911 0.193484 0.165362
0.423087 0.198077 0.169955
0.437049 0.20267 0.174548
0.451026 0.207263 0.179156
0.464988 0.211856 0.183749
0.478965 0.216449 0.188342
0.492927 0.221057 0.192935
0.0612497 0.0987411 0.0612497
0.0752117 0.103334 0.0658274
0.0891737 0.107927 0.0704356
0.103151 0.11252 0.0750286
0.117113 0.117113 0.0796216
0.131075 0.121706 0.0842145
0.145052 0.126299 0.0888075
0.159014 0.130892 0.0934005
0.172992 0.135485 0.0979934
0.186954 0.140078 0.102586
0.200931 0.144671 0.107179
0.214893 0.149264 0.111772
0.22887 0.153857 0.116365
0.242832 0.15845 0.120958
0.256809 0.163043 0.125551
0.270771 0.167651 0.130144
0.284733 0.172244 0.134737
0.298711 0.176837 0.13933
0.312673 0.18143 0.143923
0.32665 0.186023 0.148516
0.340612 0.190616 0.153124
0.354589 0.195209 0.157717
0.368551 0.199802 0.16231
0.382528 0.204395 0.166903
0.39649 0.208988 0.171496
0.410468 0.213581 0.176089
0.42443 0.218173 0.180682
0.438392 0.222766 0.185275
0.452369 0.227359 0.189868
0.466331 0.231952 0.194461
0.480308 0.236545 0.199054
0.49427 0.241138 0.203647
0.508247 0.245731 0.20824
0.0765545 0.12343 0.0765545
0.0905165 0.128023 0.0811475
0.104494 0.132616 0.0857404
0.118456 0.137209 0.0903334
0.132418 0.141802 0.0949264
0.146395 0.146395 0.0995193
0.160357 0.150988 0.104112
0.174334 0.155581 0.108705
0.188296 0.160174 0.113298
0.202274 0.164767 0.117891
0.216236 0.16936 0.122499
0.230213 0.173953 0.127092
0.244175 0.178546 0.131685
0.258152 0.183139 0.136278
0.272114 0.187732 0.140871
0.286091 0.192325 0.145464
0.300053 0.196933 0.150057
0.314015 0.201526 0.15465
0.327993 0.206119 0.159243
0.341955 0.210712 0.163836
0.355932 0.215305 0.168429
0.369894 0.219898 0.173022
0.383871 0.224491 0.177615
0.397833 0.229084 0.182208
0.41181 0.233677 0.186801
0.425772 0.23827 0.191394
0.43975 0.242863 0.195987
0.453712 0.247456 0.20058
0.467674 0.252049 0.205188
0.481651 0.256641 0.209781
0.495613 0.261234 0.214374
0.50959 0.265827 0.218967
0.523552 0.27042 0.22356
0.0918746 0.148119 0.0918746
0.105837 0.152712 0.0964675
0.119799 0.157305 0.101061
0.133776 0.161898 0.105653
0.147738 0.166491 0.110246
0.1617 0.171084 0.114839
0.175677 0.175677 0.119432
0.189639 0.18027 0.124025
0.203616 0.184863 0.128618
0.217578 0.189456 0.133211
0.231556 0.194049 0.137804
0.245518 0.198642 0.142397
0.259495 0.203235 0.14699
0.273457 0.207828 0.151583
0.287434 0.212421 0.156176
0.301396 0.217014 0.160769
0.315358 0.221607 0.165362
0.329335 0.2262 0.169955
0.343297 0.230808 0.174548
0.357275 0.235401 0.179156
0.371237 0.239994 0.183749
0.385214 0.244587 0.188342
0.399176 0.24918 0.192935
0.413153 0.253773 0.197528
0.427115 0.258366 0.202121
0.441093 0.262959 0.206714
0.455055 0.267552 0.211307
0.469017 0.272145 0.2159
0.482994 0.276738 0.220493
0.496956 0.281331 0.225086
0.510933 0.285924 0.229679
0.524895 0.290517 0.234272
0.538872 0.295109 0.238865
0.107179 0.172808 0.107179
0.121141 0.177401 0.111772
0.135119 0.181994 0.116365
0.149081 0.186587 0.120958
0.163058 0.19118 0.125551
0.17702 0.195773 0.130144
0.190982 0.200366 0.134737
0.204959 0.204959 0.13933
0.218921 0.209552 0.143923
0.232898 0.214145 0.148516
0.24686 0.218738 0.153124
0.260838 0.223331 0.157717
0.2748 0.227924 0.16231
0.288777 0.232517 0.166903
0.302739 0.23711 0.171496
0.316716 0.241703 0.176089
0.330678 0.246296 0.180682
0.34464 0.250889 0.185275
0.358618 0.255482 0.189868
0.37258 0.26009 0.194461
0.386557 0.264683 0.199054
0.400519 0.269276 0.203647
0.414496 0.273869 0.20824
0.428458 0.278462 0.212833
0.442435 0.283055 0.217426
0.456397 0.287648 0.222019
0.470375 0.292241 0.226612
0.484337 0.296834 0.231205
0.498299 0.301427 0.235813
0.512276 0.30602 0.240406
0.526238 0.310613 0.244999
0.540215 0.315206 0.249592
0.554177 0.319799 0.254185
0.122499 0.197498 0.122499
0.136461 0.202075 0.127092
0.150423 0.206683 0.131685
0.164401 0.211276 0.136278
0.178363 0.215869 0.140871
0.19234 0.220462 0.145464
0.206302 0.225055 0.150057
0.220264 0.229648 0.15465
0.234241 0.234241 0.159243
0.248203 0.238834 0.163836
0.262181 0.243427 0.168429
0.276143 0.24802 0.173022
0.29012 0.252613 0.177615
0.304082 0.257206 0.182208
0.318059 0.261799 0.186801
0.332021 0.266392 0.191394
0.345998 0.270985 0.195987
0.35996 0.275578 0.20058
0.373922 0.280171 0.205188
0.3879 0.284764 0.209781
0.401862 0.289357 0.214374
0.415839 0.293965 0.218967
0.429801 0.298558 0.22356
0.443778 0.303151 0.228153
0.45774 0.307744 0.232746
0.471717 0.312337 0.237339
0.485679 0.31693 0.241932
0.499657 0.321523 0.246525
0.513619 0.326116 0.251118
0.527581 0.330709 0.255711
0.541558 0.335302 0.260304
0.55552 0.339895 0.264897
0.569497 0.344488 0.26949
0.137804 0.222171 0.137804
0.151766 0.226764 0.142397
0.165743 0.231357 0.14699
0.179706 0.235966 0.151583
0.193683 0.240558 0.156176
0.207645 0.245151 0.160769
0.221607 0.249744 0.165362
0.235584 0.254337 0.169955
0.249546 0.25893 0.174548
0.263523 0.263523 0.179156
0.277485 0.268116 0.183749
0.291463 0.272709 0.188342
0.305425 0.277302 0.192935
0.319402 0.281895 0.197528
0.333364 0.286488 0.202121
0.347341 0.291081 0.206714
0.361303 0.295674 0.211307
0.375265 0.300267 0.2159
0.389242 0.30486 0.220493
0.403204 0.309453 0.225086
0.417182 0.314046 0.229679
0.431144 0.318639 0.234272
0.445121 0.323247 0.238865
0.459083 0.32784 0.243458
0.47306 0.332433 0.248051
0.487022 0.337026 0.252644
0.500999 0.341619 0.257237
0.514961 0.346212 0.261845
0.528939 0.350805 0.266438
0.542901 0.355398 0.271031
0.556863 0.359991 0.275624
0.57084 0.364584 0.280217
0.584802 0.369177 0.28481
0.153124 0.24686 0.153124
0.167086 0.251453 0.157717
0.181048 0.256046 0.16231
0.195026 0.260639 0.166903
0.208988 0.265232 0.171496
0.222965 0.269841 0.176089
0.236927 0.274434 0.180682
0.250889 0.279026 0.185275
0.264866 0.283619 0.189868
0.278828 0.288212 0.194461
0.292805 0.292805 0.199054
0.306767 0.297398 0.203647
0.320745 0.301991 0.20824
0.334707 0.306584 0.212833
0.348684 0.311177 0.217426
0.362646 0.31577 0.222019
0.376623 0.320363 0.226612
0.390585 0.324956 0.231205
0.404547 0.329549 0.235813
0.418524 0.334142 0.240406
0.432486 0.338735 0.244999
0.446464 0.343328 0.249592
0.460426 0.347921 0.254185
0.474403 0.352514 0.258778
0.488365 0.357122 0.263371
0.502342 0.361715 0.267964
0.516304 0.366308 0.272557
0.530282 0.370901 0.27715
0.544244 0.375494 0.281743
0.558206 0.380087 0.286336
0.572183 0.38468 0.290929
0.586145 0.389273 0.295521
0.600122 0.393866 0.300114
0.168429 0.27155 0.168429
0.182391 0.276143 0.173022
0.196368 0.280735 0.177615
0.21033 0.285328 0.182208
0.224308 0.289921 0.186801
0.23827 0.294514 0.191394
0.252247 0.299123 0.195987
0.266209 0.303716 0.20058
0.280171 0.308309 0.205188
0.294148 0.312901 0.209781
0.30811 0.317494 0.214374
0.322087 0.322087 0.218967
0.336049 0.32668 0.22356
0.350027 0.331273 0.228153
0.363989 0.335866 0.232746
0.377966 0.340459 0.237339
0.391928 0.345052 0.241932
0.405905 0.349645 0.246525
0.419867 0.354238 0.251118
0.433829 0.358831 0.255711
0.447807 0.363424 0.260304
0.461769 0.368017 0.264897
0.475746 0.37261 0.26949
0.489708 0.377203 0.274083
0.503685 0.381796 0.278676
0.517647 0.386404 0.283268
0.531624 0.390997 0.287877
0.545586 0.39559 0.29247
0.559564 0.400183 0.297063
0.573526 0.404776 0.301656
0.587488 0.409369 0.306249
0.601465 0.413962 0.310842
0.615427 0.418555 0.315435
0.183749 0.296239 0.183749
0.197711 0.300832 0.188342
0.211673 0.305425 0.192935
0.22565 0.310018 0.197528
0.239612 0.314611 0.202121
0.25359 0.319203 0.206714
0.267552 0.323796 0.211307
0.281514 0.328389 0.2159
0.295491 0.332998 0.220493
0.309453 0.337591 0.225086
0.32343 0.342184 0.229679
0.337392 0.346777 0.234272
0.35137 0.35137 0.238865
0.365332 0.355962 0.243458
0.379309 0.360555 0.248051
0.393271 0.365148 0.252644
0.407248 0.369741 0.257237
0.42121 0.374334 0.261845
0.435187 0.378927 0.266438
0.449149 0.38352 0.271031
0.463111 0.388113 0.275624
0.477089 0.392706 0.280217
0.491051 0.397299 0.28481
0.505028 0.401892 0.289403
0.51899 0.406485 0.293996
0.532967 0.411078 0.298589
0.546929 0.415671 0.303181
0.560906 0.420279 0.307774
0.574868 0.424872 0.312367
0.588846 0.429465 0.31696
0.602808 0.434058 0.321553
0.61677 0.438651 0.326146
0.630747 0.443244 0.330739
0.199054 0.320928 0.199054
0.213016 0.325521 0.203647
0.226993 0.330114 0.20824
0.240955 0.334707 0.212833
0.254932 0.3393 0.217426
0.268894 0.343893 0.222019
0.282872 0.348486 0.226612
0.296834 0.353079 0.231205
0.310796 0.357671 0.235813
0.324773 0.36228 0.240406
0.338735 0.366873 0.244999
0.352712 0.371466 0.249592
0.366674 0.376059 0.254185
0.380652 0.380652 0.258778
0.394614 0.385245 0.263371
0.408591 0.389838 0.267964
0.422553 0.39443 0.272557
0.43653 0.399023 0.27715
0.450492 0.403616 0.281743
0.464454 0.408209 0.286336
0.478431 0.412802 0.290929
0.492393 0.417395 0.295521
0.506371 0.421988 0.300114
0.520333 0.426581 0.304707
0.53431 0.431174 0.3093
0.548272 0.435767 0.313893
0.562249 0.44036 0.318502
0.576211 0.444953 0.323095
0.590188 0.449561 0.327688
0.60415 0.454154 0.33228
0.618128 0.458747 0.336873
0.63209 0.46334 0.341466
0.646052 0.467933 0.346059
0.214374 0.345617 0.214374
0.228336 0.35021 0.218967
0.242298 0.354803 0.22356
0.256275 0.359396 0.228153
0.270237 0.363989 0.232746
0.284215 0.368582 0.237339
0.298177 0.373175 0.241932
0.312154 0.377768 0.246525
0.326116 0.382361 0.251118
0.340078 0.386954 0.255711
0.354055 0.391546 0.260304
0.368017 0.396155 0.264897
0.381994 0.400748 0.26949
0.395956 0.405341 0.274083
0.409934 0.409934 0.278676
0.423896 0.414527 0.283268
0.437873 0.41912 0.287877
0.451835 0.423713 0.29247
0.465812 0.428305 0.297063
0.479774 0.432898 0.301656
0.493736 0.437491 0.306249
0.507713 0.442084 0.310842
0.521675 0.446677 0.315435
0.535653 0.45127 0.320027
0.549615 0.455863 0.32462
0.563592 0.460456 0.329213
0.577554 0.465049 0.333806
0.591531 0.469642 0.338399
0.605493 0.474235 0.342992
0.619471 0.478828 0.347585
0.633433 0.483436 0.352178
0.647395 0.488029 0.356771
0.661372 0.492622 0.361364
0.229679 0.370306 0.229679
0.243641 0.374899 0.234272
0.257618 0.379492 0.238865
0.27158 0.384085 0.243458
0.285557 0.388678 0.248051
0.299519 0.393271 0.252644
0.313497 0.397864 0.257237
0.327459 0.402457 0.261845
0.341436 0.40705 0.266438
0.355398 0.411643 0.271031
0.36936 0.416236 0.275624
0.383337 0.420829 0.280217
0.397299 0.425437 0.28481
0.411276 0.43003 0.289403
0.425238 0.434623 0.293996
0.439216 0.439216 0.298589
0.453178 0.443809 0.303181
0.467155 0.448402 0.307774
0.481117 0.452995 0.312367
0.495094 0.457588 0.31696
0.509056 0.462181 0.321553
0.523018 0.466773 0.326146
0.536995 0.471366 0.330739
0.550958 0.475959 0.335332
0.564935 0.480552 0.339925
0.578897 0.485145 0.344533
0.592874 0.489738 0.349126
0.606836 0.494331 0.353719
0.620813 0.498924 0.358312
0.634775 0.503517 0.362905
0.648753 0.50811 0.367498
0.662715 0.512718 0.372091
0.676677 0.517311 0.376684
0.244999 0.394995 0.244999
0.258961 0.399588 0.249592
0.272923 0.404181 0.254185
0.2869 0.408774 0.258778
0.300862 0.413367 0.263371
0.314839 0.41796 0.267964
0.328801 0.422553 0.272557
0.342779 0.427146 0.27715
0.356741 0.431739 0.281743
0.370703 0.436332 0.286336
0.38468 0.440925 0.290929
0.398642 0.445518 0.295521
0.412619 0.450111 0.300114
0.426581 0.454704 0.304707
0.440558 0.459312 0.3093
0.45452 0.463905 0.313893
0.468498 0.468498 0.318502
0.48246 0.473091 0.323095
0.496437 0.477684 0.327688
0.510399 0.482277 0.33228
0.524376 0.48687 0.336873
0.538338 0.491463 0.341466
0.5523 0.496056 0.346059
0.566278 0.500648 0.350652
0.58024 0.505241 0.355245
0.594217 0.509834 0.359838
0.608179 0.514427 0.364431
0.622156 0.51902 0.369024
0.636118 0.523613 0.373617
0.650095 0.528206 0.37821
0.664057 0.532799 0.382803
0.678035 0.537392 0.387396
0.691997 0.541985 0.391989
0.260304 0.419684 0.260304
0.274266 0.424277 0.264897
0.288243 0.42887 0.26949
0.302205 0.433463 0.274083
0.316182 0.438056 0.278676
0.330144 0.442649 0.283268
0.344121 0.447242 0.287877
0.358083 0.451835 0.29247
0.372061 0.456428 0.297063
0.386023 0.461021 0.301656
0.399985 0.465614 0.306249
0.413962 0.470207 0.310842
0.427924 0.4748 0.315435
0.441901 0.479393 0.320027
0.455863 0.483986 0.32462
0.469841 0.488594 0.329213
0.483803 0.493187 0.333806
0.49778 0.49778 0.338399
0.511742 0.502373 0.342992
0.525719 0.506966 0.347585
0.539681 0.511559 0.352178
0.553643 0.516152 0.356771
0.56762 0.520745 0.361364
0.581582 0.525338 0.365957
0.59556 0.529931 0.370565
0.609522 0.534524 0.375158
0.623499 0.539117 0.379751
0.637461 0.543709 0.384344
0.651438 0.548302 0.388937
0.6654 0.552895 0.39353
0.679377 0.557488 0.398123
0.693339 0.562081 0.402716
0.707301 0.566674 0.407309
0.275624 0.444373 0.275624
0.289586 0.448966 0.280217
0.303548 0.453559 0.28481
0.317525 0.458152 0.289403
0.331487 0.462745 0.293996
0.345464 0.467338 0.298589
0.359426 0.471931 0.303181
0.373404 0.476524 0.307774
0.387366 0.481117 0.312367
0.401343 0.48571 0.31696
0.415305 0.490303 0.321553
0.429267 0.494896 0.326146
0.443244 0.499489 0.330739
0.457206 0.504082 0.335332
0.471183 0.508675 0.339925
0.485145 0.513268 0.344533
0.499123 0.517861 0.349126
0.513085 0.522469 0.353719
0.527062 0.527062 0.358312
0.541024 0.531655 0.362905
0.555001 0.536248 0.367498
0.568963 0.540841 0.372091
0.582925 0.545434 0.376684
0.596902 0.550027 0.381277
0.610864 0.55462 0.38587
0.624842 0.559213 0.390463
0.638804 0.563806 0.395056
0.652781 0.568399 0.399649
0.666743 0.572992 0.404242
0.68072 0.577585 0.408835
0.694682 0.582177 0.413428
0.708659 0.58677 0.418021
0.722622 0.591363 0.422614
0.290929 0.469062 0.290929
0.304891 0.473655 0.295521
0.318868 0.478248 0.300114
0.33283 0.482841 0.304707
0.346807 0.487434 0.3093
0.360769 0.492027 0.313893
0.374746 0.49662 0.318502
0.388708 0.501213 0.323095
0.402686 0.505806 0.327688
0.416648 0.510399 0.33228
0.430625 0.514992 0.336873
0.444587 0.519585 0.341466
0.458549 0.524178 0.346059
0.472526 0.528771 0.350652
0.486488 0.533364 0.355245
0.500465 0.537957 0.359838
0.514427 0.54255 0.364431
0.528405 0.547143 0.369024
0.542367 0.551751 0.373617
0.556344 0.556344 0.37821
0.570306 0.560937 0.382803
0.584283 0.56553 0.387396
0.598245 0.570123 0.391989
0.612207 0.574716 0.396597
0.626184 0.579309 0.40119
0.640146 0.583902 0.405783
0.654124 0.588495 0.410376
0.668086 0.593088 0.414969
0.682063 0.597681 0.419562
0.696025 0.602274 0.424155
0.710002 0.606867 0.428748
0.723964 0.61146 0.433341
0.737942 0.616053 0.437934
0.306249 0.493751 0.306249
0.320211 0.498344 0.310842
0.334173 0.502937 0.315435
0.34815 0.50753 0.320027
0.362112 0.512123 0.32462
0.376089 0.516716 0.329213
0.390051 0.521309 0.333806
0.404028 0.525902 0.338399
0.41799 0.530495 0.342992
0.431968 0.535088 0.347585
0.44593 0.539681 0.352178
0.459892 0.544274 0.356771
0.473869 0.548867 0.361364
0.487831 0.55346 0.365957
0.501808 0.558053 0.370565
0.51577 0.562646 0.375158
0.529747 0.567239 0.379751
0.543709 0.571832 0.384344
0.557687 0.576425 0.388937
0.571649 0.581018 0.39353
0.585626 0.585626 0.398123
0.599588 0.590219 0.402716
0.61355 0.594812 0.407309
0.627527 0.599405 0.411902
0.641489 0.603998 0.416495
0.655467 0.608591 0.421088
0.669429 0.613184 0.425681
0.683406 0.617777 0.430274
0.697368 0.62237 0.434867
0.711345 0.626963 0.43946
0.725307 0.631556 0.444053
0.739284 0.636149 0.448646
0.753246 0.640742 0.453254
0.321553 0.518441 0.321553
0.335515 0.523018 0.326146
0.349493 0.527611 0.330739
0.363455 0.532219 0.335332
0.377432 0.536812 0.339925
0.391394 0.541405 0.344533
0.405371 0.545998 0.349126
0.419333 0.550591 0.353719
0.43331 0.555184 0.358312
0.447272 0.559777 0.362905
0.46125 0.56437 0.367498
0.475212 0.568963 0.372091
0.489174 0.573556 0.376684
0.503151 0.578149 0.381277
0.517113 0.582742 0.38587
0.53109 0.587335 0.390463
0.545052 0.591928 0.395056
0.55903 0.596521 0.399649
0.572992 0.601114 0.404242
0.586969 0.605707 0.408835
0.600931 0.6103 0.413428
0.614908 0.614908 0.418021
0.62887 0.619501 0.422614
0.642832 0.624094 0.427222
0.656809 0.628687 0.431815
0.670771 0.63328 0.436408
0.684749 0.637873 0.441001
0.698711 0.642466 0.445594
0.712688 0.647059 0.450187
0.72665 0.651652 0.45478
0.740627 0.656245 0.459373
0.754589 0.660838 0.463966
0.768566 0.665431 0.468559
0.336873 0.543114 0.336873
0.350835 0.547707 0.341466
0.364797 0.5523 0.346059
0.378775 0.556893 0.350652
0.392737 0.561502 0.355245
0.406714 0.566094 0.359838
0.420676 0.570687 0.364431
0.434653 0.57528 0.369024
0.448615 0.579873 0.373617
0.462593 0.584466 0.37821
0.476555 0.589059 0.382803
0.490532 0.593652 0.387396
0.504494 0.598245 0.391989
0.518456 0.602838 0.396582
0.532433 0.607431 0.40119
0.546395 0.612024 0.405783
0.560372 0.616617 0.410376
0.574334 0.62121 0.414969
0.588312 0.625803 0.419562
0.602274 0.630396 0.424155
0.616251 0.634989 0.428748
0.630213 0.639582 0.433341
0.64419 0.644175 0.437934
0.658152 0.648783 0.442527
0.672114 0.653376 0.44712
0.686091 0.657969 0.451713
0.700053 0.662562 0.456306
0.714031 0.667155 0.460899
0.727993 0.671748 0.465492
0.74197 0.676341 0.470085
0.755932 0.680934 0.474678
0.769909 0.685527 0.479271
0.783871 0.69012 0.483879
0.352178 0.567803 0.352178
0.36614 0.572396 0.356771
0.380118 0.576989 0.361364
0.39408 0.581582 0.365957
0.408057 0.586175 0.370565
0.422019 0.590768 0.375158
0.435996 0.595376 0.379751
0.449958 0.59997 0.384344
0.463935 0.604562 0.388937
0.477897 0.609155 0.39353
0.491875 0.613748 0.398123
0.505837 0.618341 0.402716
0.519799 0.622934 0.407309
0.533776 0.627527 0.411902
0.547738 0.63212 0.416495
0.561715 0.636713 0.421088
0.575677 0.641306 0.425681
0.589654 0.645899 0.430274
0.603616 0.650492 0.434867
0.617594 0.655085 0.43946
0.631556 0.659678 0.444053
0.645533 0.664271 0.448646
0.659495 0.668864 0.453254
0.673472 0.673457 0.457847
0.687434 0.678065 0.46244
0.701396 0.682658 0.467033
0.715373 0.687251 0.471626
0.729335 0.691844 0.476219
0.743313 0.696437 0.480812
0.757275 0.70103 0.485405
0.771252 0.705623 0.489998
0.785214 0.710216 0.494591
0.799191 0.714809 0.499184
0.367498 0.592493 0.367498
0.38146 0.597086 0.372091
0.395422 0.601678 0.376684
0.4094 0.606271 0.381277
0.423362 0.610864 0.38587
0.437339 0.615457 0.390463
0.451301 0.62005 0.395056
0.465278 0.624659 0.399649
0.47924 0.629252 0.404242
0.493217 0.633844 0.408835
0.507179 0.638437 0.413428
0.521157 0.64303 0.418021
0.535119 0.647623 0.422614
0.549081 0.652216 0.427222
0.563058 0.656809 0.431815
0.57702 0.661402 0.436408
0.590997 0.665995 0.441001
0.604959 0.670588 0.445594
0.618936 0.675181 0.450187
0.632898 0.679774 0.45478
0.646876 0.684367 0.459373
0.660838 0.68896 0.463966
0.674815 0.693553 0.468559
0.688777 0.698146 0.473152
0.702739 0.702739 0.477745
0.716716 0.707332 0.482338
0.730678 0.71194 0.486931
0.744656 0.716533 0.491524
0.758618 0.721126 0.496117
0.772595 0.725719 0.50071
0.786557 0.730312 0.505302
0.800534 0.734905 0.509911
0.814496 0.739498 0.514504
0.382818 0.617182 0.382803
0.39678 0.621775 0.387396
0.410742 0.626368 0.391989
0.424704 0.630961 0.396582
0.438682 0.635554 0.40119
0.452644 0.640146 0.405783
0.466621 0.644739 0.410376
0.480583 0.649332 0.414969
0.49456 0.653925 0.419562
0.508522 0.658534 0.424155
0.522499 0.663127 0.428748
0.536461 0.66772 0.433341
0.550439 0.672312 0.437934
0.564401 0.676905 0.442527
0.578363 0.681498 0.44712
0.59234 0.686091 0.451713
0.606302 0.690684 0.456306
0.620279 0.695277 0.460899
0.634241 0.69987 0.465492
0.648219 0.704463 0.470085
0.662181 0.709056 0.474678
0.676158 0.713649 0.479271
0.69012 0.718242 0.483879
0.704097 0.722835 0.488472
0.718059 0.727428 0.493065
0.732021 0.732021 0.497658
0.745998 0.736614 0.502251
0.75996 0.741222 0.506844
0.773938 0.745815 0.511437
0.7879 0.750408 0.51603
0.801877 0.755001 0.520623
0.815839 0.759594 0.525216
0.829816 0.764187 0.529809
0.398123 0.641871 0.398123
0.412085 0.646464 0.402716
0.426047 0.651057 0.407309
0.440024 0.65565 0.411902
0.453986 0.660243 0.416495
0.467964 0.664836 0.421088
0.481926 0.669429 0.425681
0.495903 0.674022 0.430274
0.509865 0.678614 0.434867
0.523842 0.683207 0.43946
0.537804 0.687816 0.444053
0.551781 0.692409 0.448646
0.565744 0.697002 0.453254
0.579721 0.701595 0.457847
0.593683 0.706188 0.46244
0.607645 0.710781 0.467033
0.621622 0.715373 0.471626
0.635584 0.719966 0.476219
0.649561 0.724559 0.480812
0.663523 0.729152 0.485405
0.677501 0.733745 0.489998
0.691463 0.738338 0.494591
0.70544 0.742931 0.499184
0.719402 0.747524 0.503777
0.733379 0.752117 0.50837
0.747341 0.75671 0.512963
0.761303 0.761303 0.517555
0.77528 0.765896 0.522148
0.789242 0.770489 0.526741
0.80322 0.775097 0.531334
0.817182 0.77969 0.535943
0.831159 0.784283 0.540536
0.845121 0.788876 0.545129
