public/LUTS/Color Loss/Color Loss_06.cube
TITLE "Generated by Resolve"
LUT_3D_SIZE 9
0 0 0
0.0657359 0.0157473 0.0157473
0.131487 0.0314946 0.0314946
0.197238 0.0472419 0.0472419
0.262989 0.0630045 0.0630045
0.32874 0.0787518 0.0787518
0.394491 0.0944991 0.0944991
0.460243 0.110246 0.110246
0.525994 0.125994 0.125994
0.052491 0.102495 0.052491
0.118242 0.118242 0.0682383
0.183993 0.133989 0.0839857
0.249744 0.149737 0.0997482
0.315496 0.165484 0.115496
0.381247 0.181231 0.131243
0.446998 0.196994 0.14699
0.512749 0.212741 0.162737
0.5785 0.228489 0.1785
0.104997 0.20499 0.104997
0.170733 0.220737 0.120745
0.236484 0.236484 0.136492
0.302235 0.252232 0.152239
0.367987 0.267994 0.167987
0.433738 0.283742 0.183749
0.499489 0.299489 0.199496
0.56524 0.315236 0.215244
0.630991 0.330983 0.230991
0.157504 0.3075 0.157488
0.223239 0.323247 0.173251
0.288991 0.338994 0.188998
0.354742 0.354742 0.204746
0.420493 0.370489 0.220493
0.486244 0.386236 0.23624
0.551995 0.401984 0.251987
0.617746 0.417746 0.26775
0.683497 0.433494 0.283497
0.209995 0.409995 0.209995
0.275746 0.425742 0.225742
0.341497 0.441489 0.241489
0.407248 0.457237 0.257252
0.472999 0.472999 0.272999
0.53875 0.488746 0.288746
0.604501 0.504494 0.304494
0.670253 0.520241 0.320241
0.736004 0.535988 0.336004
0.262501 0.512489 0.262501
0.328237 0.528237 0.278248
0.393988 0.543999 0.293996
0.459739 0.559747 0.309743
0.52549 0.575494 0.32549
0.591241 0.591241 0.341253
0.656992 0.606989 0.357
0.722744 0.622751 0.372747
0.788495 0.638498 0.388495
0.314992 0.615 0.314992
0.380743 0.630747 0.330739
0.446494 0.646494 0.346502
0.512245 0.662242 0.362249
0.577996 0.677989 0.377997
0.643748 0.693751 0.393744
0.709499 0.709499 0.409491
0.77525 0.725246 0.425254
0.841001 0.740993 0.441001
0.367498 0.717494 0.367498
0.433249 0.733242 0.383246
0.499001 0.749004 0.398993
0.564752 0.764752 0.41474
0.630503 0.780499 0.430503
0.696239 0.796246 0.44625
0.76199 0.811994 0.461997
0.827741 0.827741 0.477745
0.893492 0.843503 0.493492
0.420005 0.820005 0.420005
0.48574 0.835752 0.435752
0.551492 0.851499 0.451499
0.617243 0.867247 0.467247
0.682994 0.882994 0.482994
0.748745 0.898741 0.498741
0.814496 0.914504 0.514504
0.880247 0.930251 0.530251
0.945998 0.945998 0.545998
0.00674449 0.00674449 0.0567483
0.0724956 0.0224918 0.0724956
0.138247 0.0382544 0.0882429
0.203998 0.0540017 0.10399
0.269749 0.069749 0.119738
0.3355 0.0854963 0.1355
0.401251 0.101244 0.151247
0.467002 0.116991 0.166995
0.532753 0.132753 0.182742
0.0592508 0.109239 0.109239
0.124987 0.124987 0.124987
0.190738 0.140734 0.140734
0.256489 0.156481 0.156481
0.32224 0.172244 0.172244
0.387991 0.187991 0.187991
0.453742 0.203738 0.203738
0.519493 0.219486 0.219486
0.585245 0.235233 0.235233
0.111742 0.211734 0.161746
0.177493 0.227481 0.177493
0.243244 0.243244 0.19324
0.308995 0.258991 0.208988
0.374746 0.274739 0.224735
0.440497 0.290486 0.240482
0.506249 0.306233 0.256245
0.572 0.321996 0.271992
0.637751 0.337743 0.287739
0.164248 0.314244 0.214237
0.229984 0.329992 0.229984
0.295735 0.345739 0.245731
0.361486 0.361486 0.261494
0.427237 0.377234 0.277241
0.492988 0.392996 0.292988
0.55874 0.408743 0.308736
0.624491 0.424491 0.324483
0.690242 0.440238 0.340246
0.216739 0.416739 0.266743
0.28249 0.432486 0.28249
0.348241 0.448249 0.298238
0.413993 0.463996 0.313985
0.479744 0.479744 0.329732
0.545495 0.495491 0.345495
0.611246 0.511238 0.361242
0.676997 0.526986 0.376989
0.742748 0.542748 0.392737
0.269245 0.519249 0.319234
0.334997 0.534997 0.334997
0.400748 0.550744 0.350744
0.466499 0.566491 0.366491
0.53225 0.582238 0.382239
0.598001 0.597986 0.397986
0.663752 0.613748 0.413733
0.729503 0.629496 0.429496
0.795254 0.645243 0.445243
0.321752 0.621744 0.37174
0.387488 0.637491 0.387488
0.453239 0.653239 0.403235
0.51899 0.669001 0.418997
0.584741 0.684749 0.434745
0.650492 0.700496 0.450492
0.716243 0.716243 0.466239
0.781994 0.731991 0.481987
0.847745 0.747738 0.497734
0.374243 0.724254 0.424247
0.439994 0.740001 0.439994
0.505745 0.755749 0.455741
0.571496 0.771496 0.471489
0.637247 0.787243 0.487236
0.702998 0.802991 0.502998
0.76875 0.818753 0.518746
0.834501 0.834501 0.534493
0.900252 0.850248 0.55024
0.426749 0.826749 0.476738
0.492485 0.842496 0.492485
0.558236 0.858244 0.508247
0.623987 0.873991 0.523995
0.689738 0.889754 0.539742
0.755489 0.905501 0.555489
0.821241 0.921248 0.571237
0.886992 0.936996 0.586999
0.952743 0.952743 0.602747
0.0135042 0.0135042 0.113497
0.0792401 0.0292515 0.129244
0.144991 0.0449989 0.144991
0.210742 0.0607462 0.160739
0.276493 0.0764935 0.176501
0.342245 0.0922408 0.192248
0.407996 0.108003 0.207996
0.473747 0.123751 0.223743
0.539498 0.139498 0.23949
0.0659953 0.115984 0.165988
0.131731 0.131731 0.181735
0.197482 0.147494 0.197482
0.263233 0.163241 0.213245
0.328984 0.178988 0.228992
0.394736 0.194736 0.244739
0.460487 0.210483 0.260487
0.526238 0.22623 0.276234
0.591989 0.241993 0.291997
0.118502 0.218494 0.218494
0.184237 0.234241 0.234241
0.249989 0.249989 0.249989
0.31574 0.265736 0.265736
0.381491 0.281483 0.281483
0.447242 0.297246 0.297246
0.512993 0.312993 0.312993
0.578744 0.32874 0.32874
0.644495 0.344488 0.344488
0.170993 0.320989 0.270985
0.236744 0.336736 0.286732
0.302495 0.352483 0.302495
0.368246 0.368246 0.318242
0.433997 0.383993 0.333989
0.499748 0.399741 0.349737
0.565499 0.415488 0.365484
0.631251 0.431235 0.381247
0.697002 0.446998 0.396994
0.223499 0.423499 0.323491
0.289235 0.439246 0.339239
0.354986 0.454994 0.354986
0.420737 0.470741 0.370733
0.486488 0.486488 0.386496
0.552239 0.502235 0.402243
0.61799 0.517998 0.41799
0.683742 0.533745 0.433738
0.749493 0.549493 0.449485
0.27599 0.525994 0.375998
0.341741 0.541741 0.391745
0.407492 0.557488 0.407492
0.473243 0.573251 0.423239
0.538994 0.588998 0.438987
0.604746 0.604746 0.454734
0.670497 0.620493 0.470497
0.736248 0.63624 0.486244
0.801999 0.651987 0.501991
0.328496 0.628504 0.428489
0.394247 0.644251 0.444236
0.459998 0.659998 0.459998
0.52575 0.675746 0.475746
0.591501 0.691493 0.491493
0.657252 0.70724 0.50724
0.723003 0.722988 0.522988
0.788754 0.73875 0.538735
0.854505 0.754498 0.554498
0.381003 0.730999 0.480995
0.446738 0.746746 0.496742
0.512489 0.762493 0.512489
0.578241 0.778241 0.528237
0.643992 0.794003 0.543999
0.709743 0.80975 0.559747
0.775494 0.825498 0.575494
0.841245 0.841245 0.591241
0.906996 0.856992 0.606989
0.433494 0.833494 0.533501
0.499245 0.849241 0.549249
0.564996 0.865003 0.564996
0.630747 0.880751 0.580743
0.696498 0.896498 0.59649
0.762249 0.912245 0.612238
0.828 0.927993 0.628
0.893751 0.943755 0.643748
0.959503 0.959503 0.659495
0.0202487 0.0202487 0.170245
0.0859998 0.035996 0.185992
0.151751 0.0517433 0.20174
0.217502 0.0674907 0.217502
0.283238 0.0832532 0.233249
0.348989 0.0990005 0.248997
0.41474 0.114748 0.264744
0.480491 0.130495 0.280491
0.546242 0.146242 0.296239
0.0727398 0.122744 0.222736
0.138491 0.138491 0.238483
0.204242 0.154238 0.254246
0.269993 0.169986 0.269993
0.335744 0.185733 0.28574
0.401495 0.20148 0.301488
0.467247 0.217243 0.317235
0.532998 0.23299 0.332982
0.598749 0.248737 0.348745
0.125246 0.225238 0.275242
0.190982 0.240986 0.29099
0.256733 0.256733 0.306737
0.322484 0.272496 0.322484
0.388235 0.288243 0.338247
0.453986 0.30399 0.353994
0.519738 0.319738 0.369741
0.585489 0.335485 0.385489
0.65124 0.351232 0.401236
0.177752 0.327749 0.327749
0.243488 0.343496 0.343496
0.309239 0.359243 0.359243
0.37499 0.37499 0.37499
0.440742 0.390738 0.390738
0.506493 0.406485 0.406485
0.572244 0.422248 0.422248
0.637995 0.437995 0.437995
0.703746 0.453742 0.453742
0.230243 0.430243 0.38024
0.295995 0.445991 0.395987
0.361746 0.461738 0.411734
0.427497 0.477485 0.427497
0.493248 0.493248 0.443244
0.558999 0.508995 0.458991
0.62475 0.524742 0.474739
0.690501 0.54049 0.490486
0.756252 0.556237 0.506249
0.28275 0.532738 0.432746
0.348486 0.548501 0.448493
0.414237 0.564248 0.46424
0.479988 0.579995 0.479988
0.545739 0.595743 0.495735
0.61149 0.61149 0.511498
0.677241 0.627237 0.527245
0.742992 0.643 0.542992
0.808743 0.658747 0.55874
0.335241 0.635248 0.485237
0.400992 0.650996 0.500999
0.466743 0.666743 0.516747
0.532494 0.68249 0.532494
0.598245 0.698253 0.548241
0.663996 0.714 0.563989
0.729747 0.729747 0.579736
0.795499 0.745495 0.595499
0.86125 0.761242 0.611246
0.387747 0.737743 0.537743
0.453498 0.753491 0.553491
0.519249 0.769253 0.569238
0.585 0.785 0.585
0.650752 0.800748 0.600748
0.716503 0.816495 0.616495
0.782254 0.832242 0.632242
0.848005 0.84799 0.64799
0.913756 0.863752 0.663737
0.440253 0.840253 0.590249
0.505989 0.856001 0.605997
0.57174 0.871748 0.621744
0.637491 0.887495 0.637491
0.703243 0.903243 0.653239
0.768994 0.919005 0.669001
0.834745 0.934752 0.684749
0.900496 0.9505 0.700496
0.966247 0.966247 0.716243
0.0269932 0.0269932 0.226993
0.0927443 0.0427558 0.242741
0.158495 0.0585031 0.258503
0.224247 0.0742504 0.27425
0.289998 0.0899977 0.289998
0.355749 0.105745 0.305745
0.4215 0.121492 0.321492
0.487251 0.137255 0.33724
0.553002 0.153002 0.353002
0.0794995 0.129488 0.279484
0.145235 0.145235 0.295247
0.210986 0.160983 0.310994
0.276738 0.17673 0.326741
0.342489 0.192493 0.342489
0.40824 0.20824 0.358236
0.473991 0.223987 0.373983
0.539742 0.239734 0.389746
0.605493 0.255482 0.405493
0.131991 0.231998 0.331991
0.197742 0.247745 0.347738
0.263493 0.263493 0.363485
0.329244 0.27924 0.379248
0.394995 0.294987 0.394995
0.460746 0.310735 0.410742
0.526497 0.326482 0.42649
0.592248 0.342245 0.442237
0.658 0.357992 0.457984
0.184497 0.334493 0.384497
0.250233 0.35024 0.400244
0.315984 0.365988 0.415991
0.381735 0.381735 0.431739
0.447486 0.397498 0.447486
0.513237 0.413245 0.463249
0.578988 0.428992 0.478996
0.644739 0.444739 0.494743
0.710491 0.460487 0.510491
0.237003 0.436988 0.436988
0.302739 0.452735 0.452735
0.36849 0.468498 0.468498
0.434241 0.484245 0.484245
0.499992 0.499992 0.499992
0.565744 0.51574 0.51574
0.631495 0.531487 0.531487
0.697246 0.54725 0.54725
0.762997 0.562997 0.562997
0.289494 0.539498 0.489494
0.355245 0.555245 0.505241
0.420996 0.570993 0.520989
0.486748 0.58674 0.536736
0.552499 0.602487 0.552499
0.61825 0.61825 0.568246
0.684001 0.633997 0.583993
0.749752 0.649744 0.599741
0.815503 0.665492 0.615488
0.342 0.641993 0.542
0.407736 0.65774 0.557748
0.473487 0.673503 0.573495
0.539239 0.68925 0.589242
0.60499 0.704997 0.60499
0.670741 0.720745 0.620737
0.736492 0.736492 0.6365
0.802243 0.752239 0.652247
0.867994 0.768002 0.667994
0.394491 0.744503 0.594491
0.460243 0.76025 0.610239
0.525994 0.775998 0.626001
0.591745 0.791745 0.641749
0.657496 0.807492 0.657496
0.723247 0.823255 0.673243
0.788998 0.839002 0.688991
0.854749 0.854749 0.704738
0.920501 0.870497 0.7205
0.446998 0.846998 0.646998
0.512749 0.862745 0.662745
0.5785 0.878492 0.678492
0.644251 0.894255 0.69424
0.710002 0.910002 0.710002
0.775753 0.92575 0.72575
0.841505 0.941497 0.741497
0.907256 0.957244 0.757244
0.973007 0.972992 0.772992
0.033753 0.033753 0.283742
0.0994888 0.0495003 0.299504
0.16524 0.0652476 0.315251
0.230991 0.0809949 0.330999
0.296742 0.0967422 0.346746
0.362493 0.112505 0.362493
0.428244 0.128252 0.378241
0.493996 0.143999 0.394003
0.559747 0.159747 0.409751
0.086244 0.136233 0.336248
0.15198 0.151995 0.351995
0.217731 0.167742 0.367742
0.283482 0.18349 0.38349
0.349233 0.199237 0.399237
0.414984 0.214984 0.414984
0.480735 0.230732 0.430747
0.546487 0.246494 0.446494
0.612238 0.262242 0.462242
0.13875 0.238743 0.388739
0.204486 0.25449 0.404486
0.270237 0.270237 0.420249
0.335988 0.285985 0.435996
0.40174 0.301747 0.451743
0.467491 0.317494 0.467491
0.533242 0.333242 0.483238
0.598993 0.348989 0.498985
0.664744 0.364736 0.514748
0.191241 0.341238 0.441245
0.256992 0.356985 0.456992
0.322744 0.372747 0.47274
0.388495 0.388495 0.488487
0.454246 0.404242 0.50425
0.519997 0.419989 0.519997
0.585748 0.435737 0.535744
0.651499 0.451484 0.551492
0.71725 0.467247 0.567239
0.243748 0.443748 0.493751
0.309483 0.459495 0.509499
0.375235 0.475242 0.525246
0.440986 0.49099 0.540993
0.506737 0.506737 0.556741
0.572488 0.522499 0.572488
0.638239 0.538247 0.588251
0.70399 0.553994 0.603998
0.769741 0.569741 0.619745
0.296254 0.546242 0.546242
0.36199 0.56199 0.56199
0.427741 0.577737 0.577737
0.493492 0.5935 0.5935
0.559243 0.609247 0.609247
0.624994 0.624994 0.624994
0.690745 0.640742 0.640742
0.756497 0.656489 0.656489
0.822248 0.672251 0.672251
0.348745 0.648753 0.598749
0.414496 0.6645 0.614496
0.480247 0.680247 0.630243
0.545998 0.695994 0.645991
0.611749 0.711742 0.661738
0.677501 0.727489 0.677501
0.743252 0.743252 0.693248
0.809003 0.758999 0.708995
0.874754 0.774746 0.724743
0.401251 0.751247 0.65124
0.466987 0.766995 0.667002
0.532738 0.782742 0.68275
0.598489 0.798505 0.698497
0.66424 0.814252 0.714244
0.729992 0.829999 0.729992
0.795743 0.845747 0.745739
0.861494 0.861494 0.761501
0.927245 0.877241 0.777249
0.453742 0.853758 0.703746
0.519493 0.869505 0.719493
0.585245 0.885252 0.735241
0.650996 0.900999 0.751003
0.716747 0.916747 0.766751
0.782498 0.932494 0.782498
0.848249 0.948241 0.798245
0.914 0.964004 0.813993
0.979751 0.979751 0.82974
0.0404974 0.0404974 0.340505
0.106249 0.0562448 0.356252
0.172 0.0719921 0.372
0.237751 0.0877546 0.387747
0.303502 0.103502 0.403494
0.369253 0.119249 0.419242
0.435004 0.134997 0.435004
0.500755 0.150744 0.450752
0.566506 0.166506 0.466499
0.0929885 0.142992 0.392996
0.15874 0.15874 0.408743
0.224491 0.174487 0.424491
0.290242 0.190234 0.440238
0.355993 0.205982 0.455985
0.421744 0.221744 0.471748
0.487495 0.237491 0.487495
0.553246 0.253239 0.503243
0.618997 0.268986 0.51899
0.145495 0.245487 0.445487
0.211231 0.261234 0.46125
0.276982 0.276997 0.476997
0.342733 0.292744 0.492744
0.408484 0.308492 0.508492
0.474235 0.324239 0.524239
0.539986 0.339986 0.539986
0.605737 0.355734 0.555749
0.671489 0.371496 0.571496
0.198001 0.347997 0.497993
0.263737 0.363745 0.513741
0.329488 0.379492 0.529488
0.395239 0.395239 0.545251
0.46099 0.410986 0.560998
0.526741 0.426734 0.576745
0.592493 0.442496 0.592493
0.658244 0.458244 0.60824
0.723995 0.473991 0.623987
0.250492 0.450492 0.5505
0.316243 0.466239 0.566247
0.381994 0.481987 0.581994
0.447745 0.497749 0.597742
0.513497 0.513497 0.613489
0.579248 0.529244 0.629252
0.644999 0.544991 0.644999
0.71075 0.560739 0.660746
0.776501 0.576486 0.676493
0.302998 0.553002 0.602991
0.368734 0.56875 0.618738
0.434485 0.584497 0.634501
0.500237 0.600244 0.650248
0.565988 0.615991 0.665995
0.631739 0.631739 0.681743
0.69749 0.647501 0.69749
0.763241 0.663249 0.713252
0.828992 0.678996 0.729
0.355505 0.655497 0.655497
0.421241 0.671244 0.671244
0.486992 0.686992 0.686992
0.552743 0.702739 0.702739
0.618494 0.718502 0.718502
0.684245 0.734249 0.734249
0.749996 0.749996 0.749996
0.815747 0.765743 0.765743
0.881498 0.781491 0.781491
0.407996 0.758007 0.708003
0.473747 0.773754 0.723751
0.539498 0.789502 0.739498
0.605249 0.805249 0.755245
0.671 0.820996 0.770993
0.736751 0.836744 0.78674
0.802502 0.852491 0.802502
0.868254 0.868254 0.81825
0.934005 0.884001 0.833997
0.460502 0.860502 0.760494
0.526238 0.876249 0.776242
0.591989 0.891997 0.792004
0.65774 0.907744 0.807752
0.723491 0.923506 0.823499
0.789242 0.939254 0.839246
0.854994 0.955001 0.854994
0.920745 0.970748 0.870741
0.986496 0.986496 0.886503
0.0472572 0.0472572 0.397253
0.112993 0.0630045 0.413001
0.178744 0.0787518 0.428748
0.244495 0.0944991 0.444495
0.310246 0.110246 0.460243
0.375998 0.125994 0.476005
0.441749 0.141756 0.491753
0.5075 0.157504 0.5075
0.573251 0.173251 0.523247
0.0997482 0.149737 0.449744
0.165484 0.165484 0.465492
0.231235 0.181231 0.481239
0.296986 0.196994 0.496986
0.362737 0.212741 0.512749
0.428489 0.228489 0.528496
0.49424 0.244236 0.544244
0.559991 0.259983 0.559991
0.625742 0.275746 0.575738
0.152239 0.252247 0.502251
0.21799 0.267994 0.517998
0.283742 0.283742 0.533745
0.349493 0.299489 0.549493
0.415244 0.315236 0.56524
0.480995 0.330983 0.580987
0.546746 0.346746 0.59675
0.612497 0.362493 0.612497
0.678248 0.378241 0.628244
0.204746 0.354742 0.554742
0.270481 0.370489 0.570489
0.336233 0.386236 0.586252
0.401984 0.401999 0.601999
0.467735 0.417746 0.617746
0.533486 0.433494 0.633494
0.599237 0.449241 0.649241
0.664988 0.464988 0.664988
0.730739 0.480735 0.680751
0.257252 0.457252 0.607248
0.322988 0.472999 0.622995
0.388739 0.488746 0.638743
0.45449 0.504494 0.65449
0.520241 0.520241 0.670253
0.585992 0.535988 0.686
0.651743 0.551736 0.701747
0.717494 0.567498 0.717494
0.783246 0.583246 0.733242
0.309743 0.559747 0.659754
0.375494 0.575494 0.675502
0.441245 0.591241 0.691249
0.506996 0.606989 0.706996
0.572747 0.622751 0.722744
0.638498 0.638498 0.738491
0.70425 0.654246 0.754253
0.770001 0.669993 0.770001
0.835752 0.68574 0.785748
0.362249 0.662242 0.712245
0.427985 0.677989 0.727993
0.493736 0.693751 0.74374
0.559487 0.709499 0.759503
0.625238 0.725246 0.77525
0.69099 0.740993 0.790997
0.756741 0.756741 0.806745
0.822492 0.772503 0.822492
0.888243 0.788251 0.838254
0.414755 0.764752 0.764752
0.480491 0.780499 0.780499
0.546242 0.796246 0.796246
0.611994 0.811994 0.811994
0.677745 0.827741 0.827741
0.743496 0.843503 0.843503
0.809247 0.859251 0.859251
0.874998 0.874998 0.874998
0.940749 0.890745 0.890745
0.467247 0.867247 0.817243
0.532998 0.882994 0.83299
0.598749 0.898756 0.848753
0.6645 0.914504 0.8645
0.730251 0.930251 0.880247
0.796002 0.945998 0.895994
0.861753 0.961746 0.911742
0.927504 0.977493 0.927504
0.993255 0.993255 0.943252
0.0540017 0.0540017 0.454002
0.119738 0.069749 0.469749
0.185489 0.0854963 0.485496
0.25124 0.101244 0.501244
0.316991 0.117006 0.517006
0.382742 0.132753 0.532753
0.448493 0.148501 0.548501
0.514244 0.164248 0.564248
0.579995 0.179995 0.579995
0.106493 0.156497 0.506493
0.172244 0.172244 0.52224
0.237995 0.187991 0.537987
0.303746 0.203738 0.55375
0.369497 0.219486 0.569497
0.435248 0.235233 0.585245
0.500999 0.250996 0.600992
0.566751 0.266743 0.616739
0.632502 0.28249 0.632502
0.158999 0.258991 0.558999
0.224735 0.274739 0.574746
0.290486 0.290486 0.590494
0.356237 0.306233 0.606241
0.421988 0.321996 0.621988
0.487739 0.337743 0.637751
0.553491 0.353491 0.653498
0.619242 0.369238 0.669245
0.684993 0.384985 0.684993
0.21149 0.361486 0.61149
0.277241 0.377249 0.627253
0.342992 0.392996 0.643
0.408743 0.408743 0.658747
0.474495 0.424491 0.674495
0.540246 0.440238 0.690242
0.605997 0.455985 0.705989
0.671748 0.471748 0.721752
0.737499 0.487495 0.737499
0.263996 0.463996 0.663996
0.329732 0.479744 0.679744
0.395483 0.495491 0.695491
0.461234 0.511238 0.711254
0.526986 0.527001 0.727001
0.592737 0.542748 0.742748
0.658488 0.558495 0.758495
0.724239 0.574243 0.774243
0.78999 0.58999 0.78999
0.316503 0.566491 0.716503
0.382239 0.582238 0.73225
0.44799 0.598001 0.747997
0.513741 0.613748 0.763745
0.579492 0.629496 0.779492
0.645243 0.645243 0.795254
0.710994 0.66099 0.811002
0.776745 0.676738 0.826749
0.842496 0.6925 0.842496
0.368994 0.669001 0.768994
0.434745 0.684749 0.784741
0.500496 0.700496 0.800504
0.566247 0.716243 0.816251
0.631998 0.731991 0.831998
0.697749 0.747753 0.847745
0.7635 0.7635 0.863493
0.829252 0.779248 0.879255
0.895003 0.794995 0.895003
0.4215 0.771496 0.8215
0.487236 0.787243 0.837247
0.552987 0.802991 0.852995
0.618738 0.818753 0.868742
0.684489 0.834501 0.884504
0.75024 0.850248 0.900252
0.815991 0.865995 0.915999
0.881743 0.881743 0.931746
0.947494 0.897505 0.947494
0.474006 0.874006 0.874006
0.539742 0.889754 0.889754
0.605493 0.905501 0.905501
0.671244 0.921248 0.921248
0.736996 0.936996 0.936996
0.802747 0.952743 0.952743
0.868498 0.968505 0.968505
0.934249 0.984253 0.984253
1 1 1
