public/LUTS/Color Loss/Color Loss_01.cube
TITLE "Generated by Resolve"
LUT_3D_SIZE 9
0 0 0
0.115114 0.00262455 0.00262455
0.230243 0.0052491 0.0052491
0.345373 0.00787366 0.00787366
0.460487 0.0104982 0.0104982
0.575616 0.0131228 0.0131228
0.690745 0.0157473 0.0157473
0.805875 0.0183719 0.0183719
0.921004 0.0209964 0.0209964
0.00874342 0.121233 0.00874342
0.123857 0.123857 0.011368
0.238987 0.126482 0.0139925
0.354116 0.129107 0.0166171
0.469245 0.131731 0.0192416
0.584375 0.134356 0.0218662
0.699489 0.13698 0.0244907
0.814618 0.139605 0.0271305
0.929747 0.142229 0.0297551
0.0175021 0.242496 0.0175021
0.132616 0.245106 0.0201267
0.247745 0.247745 0.0227512
0.36286 0.25037 0.0253758
0.477989 0.252995 0.0280003
0.593118 0.255619 0.0306249
0.708247 0.258244 0.0332494
0.823377 0.260868 0.035874
0.938506 0.263493 0.0384985
0.0262455 0.363745 0.0262455
0.14136 0.366369 0.0288701
0.256489 0.368994 0.0314946
0.371618 0.371618 0.0341192
0.486748 0.374243 0.0367437
0.601862 0.376867 0.0393683
0.716991 0.379492 0.0419928
0.83212 0.382116 0.0446174
0.94725 0.384741 0.0472419
0.0350042 0.484993 0.0350042
0.150118 0.487617 0.0376287
0.265232 0.490242 0.0402533
0.380362 0.492866 0.0428779
0.495491 0.495491 0.0455024
0.61062 0.498116 0.048127
0.72575 0.50074 0.0507515
0.840879 0.503365 0.0533761
0.955993 0.505989 0.0560006
0.0437476 0.606241 0.0437476
0.158862 0.608865 0.0463722
0.273991 0.61149 0.0489967
0.38912 0.614115 0.0516213
0.50425 0.616739 0.0542458
0.619364 0.619364 0.0568704
0.734493 0.621988 0.0594949
0.849622 0.624613 0.0621195
0.964752 0.627237 0.064744
0.0525063 0.727504 0.052491
0.167605 0.730114 0.0551156
0.282734 0.732738 0.0577401
0.397864 0.735363 0.0603799
0.512993 0.737987 0.0630045
0.628122 0.740612 0.0656291
0.743252 0.743236 0.0682536
0.858366 0.745861 0.0708782
0.973495 0.748486 0.0735027
0.0612497 0.848753 0.0612497
0.176364 0.851377 0.0638743
0.291493 0.854002 0.0664988
0.406622 0.856626 0.0691234
0.521737 0.859251 0.0717479
0.636866 0.861875 0.0743725
0.751995 0.8645 0.076997
0.867124 0.867124 0.0796216
0.982254 0.869749 0.0822461
0.0699931 0.970001 0.0699931
0.185107 0.972625 0.0726177
0.300237 0.97525 0.0752422
0.415366 0.977874 0.0778668
0.530495 0.980499 0.0804913
0.645624 0.983124 0.0831159
0.760754 0.985748 0.0857404
0.875868 0.988373 0.088365
0.990997 0.990997 0.0910048
0.00112917 0.00112917 0.113619
0.116243 0.00375372 0.116243
0.231357 0.00637827 0.118868
0.346487 0.00900282 0.121492
0.461616 0.0116274 0.124117
0.576745 0.0142519 0.126741
0.691875 0.0168765 0.129366
0.807004 0.019501 0.131991
0.922118 0.0221256 0.134615
0.00987259 0.122362 0.122362
0.124987 0.124987 0.124987
0.240116 0.127611 0.127611
0.355245 0.130236 0.130236
0.470359 0.13286 0.13286
0.585489 0.135485 0.135485
0.700618 0.138109 0.138109
0.815747 0.140734 0.140734
0.930877 0.143359 0.143359
0.0186313 0.24361 0.131106
0.13373 0.246235 0.13373
0.248859 0.248859 0.136355
0.363989 0.251484 0.138979
0.479118 0.254108 0.141619
0.594247 0.256733 0.144244
0.709377 0.259358 0.146868
0.824491 0.261982 0.149493
0.93962 0.264607 0.152117
0.0273747 0.364874 0.139864
0.142489 0.367483 0.142489
0.257618 0.370108 0.145113
0.372747 0.372732 0.147738
0.487861 0.375357 0.150362
0.602991 0.377981 0.152987
0.71812 0.380606 0.155612
0.833249 0.38323 0.158236
0.948379 0.385855 0.160861
0.0361181 0.486122 0.148608
0.151232 0.488746 0.151232
0.266361 0.491371 0.153857
0.381491 0.493996 0.156481
0.49662 0.49662 0.159106
0.611749 0.499245 0.16173
0.726864 0.501869 0.164355
0.841993 0.504494 0.166979
0.957122 0.507118 0.169604
0.0448768 0.60737 0.157366
0.159991 0.609995 0.159991
0.27512 0.612619 0.162615
0.390234 0.615244 0.16524
0.505364 0.617868 0.167865
0.620493 0.620493 0.170489
0.735622 0.623117 0.173114
0.850752 0.625742 0.175738
0.965881 0.628367 0.178363
0.0536202 0.728618 0.16611
0.168734 0.731243 0.168734
0.283864 0.733867 0.171359
0.398993 0.736492 0.173983
0.514122 0.739116 0.176608
0.629252 0.741741 0.179232
0.744366 0.744366 0.181857
0.859495 0.74699 0.184482
0.974624 0.749615 0.187106
0.0623789 0.849867 0.174868
0.177493 0.852491 0.177493
0.292607 0.855116 0.180117
0.407736 0.85774 0.182742
0.522866 0.860365 0.185367
0.637995 0.862989 0.187991
0.753124 0.865614 0.190616
0.868254 0.868238 0.19324
0.983368 0.870863 0.195865
0.0711223 0.97113 0.183612
0.186236 0.973754 0.186236
0.301366 0.976379 0.188861
0.416495 0.979004 0.191485
0.531624 0.981628 0.19411
0.646738 0.984253 0.196735
0.761868 0.986877 0.199359
0.876997 0.989502 0.201984
0.992126 0.992126 0.204608
0.00224308 0.00225834 0.227237
0.117357 0.00486763 0.229862
0.232486 0.00749218 0.232486
0.347616 0.0101167 0.235111
0.462745 0.0127413 0.237736
0.577874 0.0153658 0.24036
0.693004 0.0179904 0.242985
0.808118 0.0206149 0.245609
0.923247 0.0232395 0.248234
0.0110018 0.123491 0.235996
0.126116 0.126116 0.238621
0.241245 0.12874 0.241245
0.356359 0.131365 0.24387
0.471489 0.133989 0.246494
0.586618 0.136614 0.249119
0.701747 0.139239 0.251743
0.816876 0.141863 0.254368
0.932006 0.144488 0.256992
0.0197452 0.244739 0.244739
0.134859 0.247364 0.247364
0.249989 0.249989 0.249989
0.365118 0.252613 0.252613
0.480247 0.255238 0.255238
0.595361 0.257862 0.257862
0.710491 0.260487 0.260487
0.82562 0.263111 0.263111
0.940749 0.265736 0.265736
0.0285039 0.365988 0.253483
0.143618 0.368612 0.256107
0.258732 0.371237 0.258732
0.373861 0.373861 0.261357
0.488991 0.376486 0.263981
0.60412 0.37911 0.266621
0.719249 0.381735 0.269245
0.834379 0.38436 0.27187
0.949493 0.386984 0.274495
0.0372473 0.487251 0.262242
0.152361 0.48986 0.264866
0.267491 0.492485 0.267491
0.38262 0.495109 0.270115
0.497749 0.497734 0.27274
0.612863 0.500359 0.275364
0.727993 0.502983 0.277989
0.843122 0.505623 0.280613
0.958251 0.508232 0.283238
0.0460059 0.608499 0.270985
0.161105 0.611124 0.27361
0.276234 0.613748 0.276234
0.391363 0.616373 0.278859
0.506493 0.618997 0.281483
0.621622 0.621622 0.284108
0.736751 0.624247 0.286732
0.851865 0.626871 0.289357
0.966995 0.629496 0.291981
0.0547494 0.729747 0.279744
0.169863 0.732372 0.282368
0.284993 0.734997 0.284993
0.400122 0.737621 0.287617
0.515236 0.740246 0.290242
0.630365 0.74287 0.292866
0.745495 0.745495 0.295491
0.860624 0.748119 0.298116
0.975753 0.750744 0.30074
0.0634928 0.850996 0.288487
0.178607 0.85362 0.291112
0.293736 0.856245 0.293736
0.408865 0.858869 0.296361
0.523995 0.861494 0.298985
0.639124 0.864118 0.30161
0.754253 0.866743 0.304234
0.869368 0.869368 0.306859
0.984497 0.871992 0.309483
0.0722515 0.972244 0.297246
0.187366 0.974868 0.29987
0.302495 0.977493 0.302495
0.417609 0.980117 0.305119
0.532738 0.982742 0.307744
0.647868 0.985367 0.310369
0.762997 0.987991 0.312993
0.878126 0.990616 0.315618
0.993255 0.99324 0.318242
0.00337224 0.00337224 0.340871
0.118486 0.0059968 0.343496
0.233616 0.00862135 0.34612
0.348745 0.0112459 0.348745
0.463874 0.0138705 0.35137
0.578988 0.016495 0.353994
0.694118 0.0191196 0.356619
0.809247 0.0217441 0.359243
0.924376 0.0243687 0.361868
0.0121309 0.12462 0.349615
0.12723 0.127245 0.352239
0.242359 0.12987 0.354864
0.357488 0.132494 0.357488
0.472618 0.135119 0.360113
0.587747 0.137743 0.362737
0.702876 0.140368 0.365362
0.81799 0.142992 0.367987
0.93312 0.145617 0.370611
0.0208743 0.245869 0.358373
0.135988 0.248493 0.360998
0.251118 0.251118 0.363622
0.366247 0.253742 0.366247
0.481361 0.256367 0.368872
0.59649 0.258991 0.371496
0.71162 0.261616 0.374121
0.826749 0.26424 0.376745
0.941878 0.266865 0.37937
0.0296178 0.367117 0.367117
0.144732 0.369741 0.369741
0.259861 0.372366 0.372366
0.37499 0.37499 0.37499
0.49012 0.377615 0.377615
0.605249 0.38024 0.38024
0.720378 0.382864 0.382864
0.835492 0.385489 0.385489
0.950622 0.388113 0.388113
0.0383764 0.488365 0.37586
0.15349 0.49099 0.378485
0.26862 0.493614 0.381109
0.383734 0.496239 0.383734
0.498863 0.498863 0.386358
0.613993 0.501488 0.388983
0.729122 0.504112 0.391623
0.844251 0.506737 0.394247
0.959381 0.509361 0.396872
0.0471199 0.609628 0.384619
0.162234 0.612238 0.387243
0.277363 0.614862 0.389868
0.392493 0.617487 0.392493
0.507622 0.620111 0.395117
0.622751 0.622736 0.397742
0.737865 0.62536 0.400366
0.852995 0.627985 0.402991
0.968124 0.63061 0.405615
0.0558785 0.730877 0.393362
0.170993 0.733501 0.395987
0.286107 0.736126 0.398611
0.401236 0.73875 0.401236
0.516365 0.741375 0.403861
0.631495 0.743999 0.406485
0.746624 0.746624 0.40911
0.861753 0.749249 0.411734
0.976867 0.751873 0.414359
0.064622 0.852125 0.402121
0.179736 0.854749 0.404746
0.294865 0.857374 0.40737
0.409995 0.859998 0.409995
0.525124 0.862623 0.412619
0.640238 0.865248 0.415244
0.755367 0.867872 0.417868
0.870497 0.870497 0.420493
0.985626 0.873121 0.423117
0.0733806 0.973373 0.410864
0.188495 0.975998 0.413489
0.303609 0.978622 0.416114
0.418738 0.981247 0.418738
0.533867 0.983871 0.421363
0.648997 0.986496 0.423987
0.764126 0.98912 0.426612
0.879255 0.991745 0.429236
0.994369 0.994369 0.431861
0.00450141 0.00450141 0.45449
0.119615 0.00712596 0.457115
0.234745 0.00975052 0.459739
0.349859 0.0123751 0.462364
0.464988 0.0149996 0.464988
0.580118 0.0176242 0.467613
0.695247 0.0202487 0.470237
0.810376 0.0228733 0.472862
0.925505 0.0254978 0.475486
0.0132448 0.125734 0.463249
0.128359 0.128359 0.465873
0.243488 0.130983 0.468498
0.358618 0.133608 0.471122
0.473747 0.136233 0.473747
0.588876 0.138857 0.476371
0.70399 0.141482 0.478996
0.81912 0.144106 0.481621
0.934249 0.146731 0.484245
0.0220035 0.246998 0.471992
0.137118 0.249622 0.474617
0.252232 0.252247 0.477241
0.367361 0.254871 0.479866
0.48249 0.257496 0.48249
0.59762 0.260121 0.485115
0.712749 0.262745 0.487739
0.827878 0.26537 0.490364
0.942992 0.267994 0.492988
0.0307469 0.368246 0.480735
0.145861 0.370871 0.48336
0.26099 0.373495 0.486
0.37612 0.37612 0.488624
0.491249 0.378744 0.491249
0.606363 0.381369 0.493874
0.721492 0.383993 0.496498
0.836622 0.386618 0.499123
0.951751 0.389242 0.501747
0.0395056 0.489494 0.489494
0.15462 0.492119 0.492119
0.269734 0.494743 0.494743
0.384863 0.497368 0.497368
0.499992 0.499992 0.499992
0.615122 0.502617 0.502617
0.730251 0.505241 0.505241
0.845365 0.507866 0.507866
0.960494 0.510491 0.510491
0.048249 0.610742 0.498238
0.163363 0.613367 0.500862
0.278492 0.615991 0.503487
0.393622 0.618616 0.506111
0.508736 0.621241 0.508736
0.623865 0.623865 0.51136
0.738994 0.62649 0.513985
0.854124 0.629114 0.516625
0.969253 0.631739 0.519249
0.0569924 0.732006 0.506996
0.172107 0.734615 0.509621
0.287236 0.73724 0.512245
0.402365 0.739864 0.51487
0.517494 0.742489 0.517494
0.632624 0.745113 0.520119
0.747753 0.747738 0.522744
0.862867 0.750362 0.525368
0.977996 0.752987 0.527993
0.0657511 0.853254 0.51574
0.180865 0.855879 0.518364
0.295995 0.858503 0.520989
0.411109 0.861128 0.523613
0.526238 0.863752 0.526238
0.641367 0.866377 0.528862
0.756497 0.869001 0.531487
0.871626 0.871626 0.534112
0.986755 0.87425 0.536736
0.0744945 0.974502 0.524498
0.189609 0.977127 0.527123
0.304738 0.979751 0.529747
0.419867 0.982376 0.532372
0.534997 0.985 0.534997
0.650126 0.987625 0.537621
0.76524 0.99025 0.540246
0.880369 0.992874 0.54287
0.995499 0.995499 0.545495
0.00563058 0.00563058 0.568124
0.120745 0.00825513 0.570748
0.235859 0.0108797 0.573373
0.350988 0.0135042 0.575998
0.466117 0.0161288 0.578622
0.581247 0.0187533 0.581247
0.696376 0.0213779 0.583871
0.811505 0.0240024 0.586496
0.926619 0.026627 0.58912
0.014374 0.126864 0.576867
0.129488 0.129488 0.579492
0.244617 0.132113 0.582116
0.359747 0.134737 0.584741
0.474861 0.137362 0.587366
0.58999 0.139986 0.58999
0.705119 0.142611 0.592615
0.820249 0.145235 0.595239
0.935378 0.14786 0.597864
0.0231174 0.248112 0.585626
0.138231 0.250736 0.588251
0.253361 0.253361 0.590875
0.36849 0.255985 0.5935
0.483619 0.25861 0.596124
0.598749 0.261234 0.598749
0.713878 0.263859 0.601373
0.828992 0.266484 0.603998
0.944121 0.269108 0.606622
0.0318761 0.369375 0.594369
0.14699 0.372 0.596994
0.262119 0.374624 0.599619
0.377234 0.377249 0.602243
0.492363 0.379873 0.604868
0.607492 0.382498 0.607492
0.722622 0.385122 0.610117
0.837751 0.387747 0.612741
0.95288 0.390372 0.615366
0.0406195 0.490623 0.603113
0.155734 0.493248 0.605737
0.270863 0.495872 0.608362
0.385992 0.498497 0.611002
0.501122 0.501122 0.613626
0.616251 0.503746 0.616251
0.731365 0.506371 0.618875
0.846494 0.508995 0.6215
0.961624 0.51162 0.624125
0.0493782 0.611872 0.611872
0.164492 0.614496 0.614496
0.279622 0.617121 0.617121
0.394736 0.619745 0.619745
0.509865 0.62237 0.62237
0.624994 0.624994 0.624994
0.740124 0.627619 0.627619
0.855253 0.630243 0.630243
0.970367 0.632868 0.632868
0.0581216 0.73312 0.620615
0.173236 0.735744 0.62324
0.288365 0.738369 0.625864
0.403494 0.740993 0.628489
0.518624 0.743618 0.631113
0.633738 0.746242 0.633738
0.748867 0.748867 0.636362
0.863996 0.751492 0.638987
0.979126 0.754116 0.641627
0.0668803 0.854383 0.629374
0.181994 0.856992 0.631998
0.297108 0.859617 0.634623
0.412238 0.862242 0.637247
0.527367 0.864866 0.639872
0.642496 0.867491 0.642496
0.757626 0.870115 0.645121
0.872755 0.87274 0.647745
0.987869 0.875364 0.65037
0.0756237 0.975631 0.638117
0.190738 0.978256 0.640742
0.305867 0.98088 0.643366
0.420996 0.983505 0.645991
0.53611 0.98613 0.648615
0.65124 0.988754 0.65124
0.766369 0.991379 0.653864
0.881498 0.994003 0.656489
0.996628 0.996628 0.659113
0.00674449 0.00675975 0.681743
0.121859 0.00936904 0.684367
0.236988 0.0119936 0.686992
0.352117 0.0146334 0.689616
0.467247 0.017258 0.692241
0.582376 0.0198825 0.694881
0.69749 0.0225071 0.697505
0.812619 0.0251316 0.70013
0.927749 0.0277562 0.702754
0.0155032 0.127993 0.690501
0.130617 0.130617 0.693126
0.245731 0.133242 0.69575
0.360861 0.135866 0.698375
0.47599 0.138491 0.700999
0.591119 0.141115 0.703624
0.706249 0.14374 0.706249
0.821378 0.146365 0.708873
0.936492 0.148989 0.711498
0.0242466 0.249241 0.699245
0.139361 0.251865 0.701869
0.25449 0.25449 0.704494
0.369619 0.257115 0.707118
0.484749 0.259739 0.709743
0.599863 0.262364 0.712367
0.714992 0.264988 0.714992
0.830121 0.267613 0.717617
0.945251 0.270237 0.720241
0.0330053 0.370489 0.708003
0.148119 0.373114 0.710628
0.263233 0.375738 0.713252
0.378363 0.378363 0.715877
0.493492 0.380987 0.718502
0.608621 0.383612 0.721126
0.723751 0.386236 0.723751
0.83888 0.388861 0.726375
0.953994 0.391485 0.729
0.0417487 0.491753 0.716747
0.156863 0.494377 0.719371
0.271992 0.497002 0.721996
0.387121 0.499626 0.72462
0.502235 0.502251 0.727245
0.617365 0.504875 0.72987
0.732494 0.5075 0.732494
0.847623 0.510124 0.735119
0.962753 0.512749 0.737743
0.0504921 0.613001 0.72549
0.165606 0.615625 0.728115
0.280735 0.61825 0.730739
0.395865 0.620874 0.733364
0.510994 0.623499 0.736004
0.626123 0.626123 0.738628
0.741253 0.628748 0.741253
0.856367 0.631373 0.743877
0.971496 0.633997 0.746502
0.0592508 0.734249 0.734249
0.174365 0.736873 0.736873
0.289494 0.739498 0.739498
0.404623 0.742123 0.742123
0.519738 0.744747 0.744747
0.634867 0.747372 0.747372
0.749996 0.749996 0.749996
0.865125 0.752621 0.752621
0.980255 0.755245 0.755245
0.0679942 0.855497 0.742992
0.183108 0.858122 0.745617
0.298238 0.860746 0.748241
0.413367 0.863371 0.750866
0.528496 0.865995 0.753491
0.643626 0.86862 0.756115
0.75874 0.871244 0.75874
0.873869 0.873869 0.761364
0.988998 0.876493 0.763989
0.0767529 0.976761 0.751751
0.191867 0.97937 0.754376
0.306996 0.981994 0.757
0.42211 0.984619 0.759625
0.53724 0.987243 0.762249
0.652369 0.989868 0.764874
0.767498 0.992493 0.767498
0.882628 0.995117 0.770123
0.997757 0.997742 0.772747
0.00787366 0.00787366 0.795377
0.122988 0.0104982 0.798001
0.238117 0.0131228 0.800626
0.353246 0.0157473 0.80325
0.46836 0.0183719 0.805875
0.58349 0.0209964 0.808499
0.698619 0.023621 0.811124
0.813748 0.0262455 0.813748
0.928878 0.0288701 0.816373
0.0166171 0.129122 0.80412
0.131731 0.131746 0.806745
0.24686 0.134371 0.809369
0.36199 0.136995 0.811994
0.477119 0.13962 0.814618
0.592248 0.142245 0.817243
0.707378 0.144869 0.819867
0.822492 0.147494 0.822492
0.937621 0.150118 0.825116
0.0253758 0.25037 0.812879
0.14049 0.252995 0.815503
0.255619 0.255619 0.818128
0.370733 0.258244 0.820752
0.485863 0.260868 0.823377
0.600992 0.263493 0.826001
0.716121 0.266117 0.828626
0.83125 0.268742 0.83125
0.94638 0.271366 0.833875
0.0341192 0.371618 0.821622
0.149233 0.374243 0.824247
0.264363 0.376867 0.826871
0.379492 0.379492 0.829496
0.494621 0.382116 0.83212
0.609751 0.384741 0.834745
0.724865 0.387366 0.837369
0.839994 0.38999 0.839994
0.955123 0.392615 0.842618
0.0428779 0.492866 0.830381
0.157992 0.495491 0.833005
0.273121 0.498116 0.83563
0.388235 0.50074 0.838254
0.503365 0.503365 0.840879
0.618494 0.505989 0.843503
0.733623 0.508614 0.846128
0.848753 0.511238 0.848753
0.963882 0.513863 0.851377
0.0516213 0.61413 0.839124
0.166735 0.616754 0.841749
0.281865 0.619379 0.844373
0.396994 0.622003 0.846998
0.512123 0.624628 0.849622
0.627237 0.627253 0.852247
0.742367 0.629877 0.854871
0.857496 0.632502 0.857496
0.972625 0.635126 0.860121
0.0603799 0.735378 0.847868
0.175494 0.738003 0.850492
0.290608 0.740627 0.853117
0.405737 0.743252 0.855741
0.520867 0.745876 0.858366
0.635996 0.748501 0.861006
0.751125 0.751125 0.86363
0.866255 0.75375 0.866255
0.981369 0.756374 0.868879
0.0691234 0.856626 0.856626
0.184237 0.859251 0.859251
0.299367 0.861875 0.861875
0.414496 0.8645 0.8645
0.529625 0.867124 0.867124
0.644739 0.869749 0.869749
0.759869 0.872374 0.872374
0.874998 0.874998 0.874998
0.990127 0.877623 0.877623
0.0778821 0.977874 0.86537
0.192981 0.980499 0.867994
0.30811 0.983124 0.870619
0.423239 0.985748 0.873243
0.538369 0.988373 0.875868
0.653498 0.990997 0.878492
0.768627 0.993622 0.881117
0.883741 0.996246 0.883741
0.998871 0.998871 0.886366
0.00900282 0.00900282 0.908995
0.124117 0.0116274 0.91162
0.239246 0.0142519 0.91426
0.35436 0.0168765 0.916884
0.46949 0.019501 0.919509
0.584619 0.0221256 0.922133
0.699748 0.0247501 0.924758
0.814878 0.0273747 0.927382
0.930007 0.0299992 0.930007
0.0177462 0.130236 0.917754
0.13286 0.13286 0.920378
0.24799 0.135485 0.923003
0.363119 0.138109 0.925628
0.478248 0.140734 0.928252
0.593362 0.143359 0.930877
0.708492 0.145983 0.933501
0.823621 0.148608 0.936126
0.93875 0.151232 0.93875
0.0265049 0.251499 0.926497
0.141619 0.254124 0.929122
0.256733 0.256748 0.931746
0.371862 0.259373 0.934371
0.486992 0.261997 0.936996
0.602121 0.264622 0.93962
0.71725 0.267247 0.942245
0.83238 0.269871 0.944869
0.947494 0.272496 0.947494
0.0352483 0.372747 0.935256
0.150362 0.375372 0.937881
0.265492 0.377997 0.940505
0.380621 0.380621 0.94313
0.495735 0.383246 0.945754
0.610864 0.38587 0.948379
0.725994 0.388495 0.951003
0.841123 0.391119 0.953628
0.956252 0.393744 0.956252
0.044007 0.493996 0.943999
0.159106 0.49662 0.946624
0.274235 0.499245 0.949248
0.389364 0.501869 0.951873
0.504494 0.504494 0.954498
0.619623 0.507118 0.957122
0.734752 0.509743 0.959747
0.849867 0.512367 0.962371
0.964996 0.514992 0.964996
0.0527504 0.615244 0.952758
0.167865 0.617868 0.955383
0.282994 0.620493 0.958007
0.398123 0.623117 0.960632
0.513237 0.625742 0.963256
0.628367 0.628367 0.965881
0.743496 0.630991 0.968505
0.858625 0.633616 0.97113
0.973754 0.63624 0.973754
0.0614939 0.736507 0.961501
0.176608 0.739132 0.964126
0.291737 0.741756 0.966751
0.406867 0.744366 0.969375
0.521996 0.747005 0.972
0.637125 0.74963 0.974624
0.752239 0.752255 0.977249
0.867369 0.754879 0.979873
0.982498 0.757504 0.982498
0.0702525 0.857755 0.970245
0.185367 0.86038 0.972869
0.300496 0.863005 0.975494
0.41561 0.865629 0.978119
0.530739 0.868254 0.980743
0.645869 0.870878 0.983368
0.760998 0.873503 0.986007
0.876127 0.876127 0.988632
0.991257 0.878752 0.991257
0.078996 0.979004 0.979004
0.19411 0.981628 0.981628
0.309239 0.984253 0.984253
0.424369 0.986877 0.986877
0.539498 0.989502 0.989502
0.654627 0.992126 0.992126
0.769741 0.994751 0.994751
0.884871 0.997375 0.997375
1 1 1
