public/LUTS/Color Loss/Color Loss_05.cube
TITLE "Generated by Resolve"
LUT_3D_SIZE 9
0 0 0
0.0756237 0.0131228 0.0131228
0.151247 0.0262455 0.0262455
0.226871 0.0393683 0.0393683
0.302495 0.052491 0.0525063
0.378119 0.0656291 0.0656291
0.453742 0.0787518 0.0787518
0.529381 0.0918746 0.0918746
0.605005 0.104997 0.104997
0.0437476 0.106233 0.0437476
0.119356 0.119356 0.0568704
0.194995 0.132494 0.0699931
0.270619 0.145617 0.0831159
0.346242 0.15874 0.0962387
0.421866 0.171862 0.109377
0.49749 0.184985 0.122499
0.573114 0.198108 0.135622
0.648753 0.211231 0.148745
0.0874952 0.212497 0.0874952
0.163119 0.22562 0.100618
0.238743 0.238743 0.113741
0.314366 0.251865 0.126864
0.38999 0.264988 0.140002
0.465614 0.278111 0.153124
0.541238 0.291234 0.166247
0.616876 0.304356 0.17937
0.6925 0.317494 0.192493
0.131243 0.318746 0.131243
0.206867 0.331868 0.144366
0.28249 0.344991 0.157488
0.358114 0.358114 0.170626
0.433738 0.371237 0.183749
0.509361 0.38436 0.196872
0.585 0.397498 0.209995
0.660624 0.41062 0.223117
0.736248 0.423743 0.23624
0.17499 0.424994 0.17499
0.250614 0.438117 0.188113
0.326238 0.45124 0.201251
0.401862 0.464363 0.214374
0.477485 0.477485 0.227497
0.553124 0.490623 0.24062
0.628748 0.503746 0.253742
0.704372 0.516869 0.266865
0.779995 0.529992 0.280003
0.218753 0.531243 0.218753
0.294362 0.544366 0.231876
0.369985 0.557488 0.244999
0.445624 0.570611 0.258122
0.521248 0.583749 0.271244
0.596872 0.596872 0.284367
0.672496 0.609995 0.29749
0.748119 0.623117 0.310628
0.823743 0.63624 0.323751
0.262501 0.637491 0.262501
0.338109 0.650614 0.275624
0.413748 0.663752 0.288746
0.489372 0.676875 0.301869
0.564996 0.689998 0.314992
0.64062 0.70312 0.328115
0.716243 0.716243 0.341253
0.791867 0.729366 0.354376
0.867506 0.742489 0.367498
0.306249 0.743755 0.306249
0.381872 0.756878 0.319371
0.457496 0.770001 0.332494
0.53312 0.783123 0.345617
0.608743 0.796246 0.358755
0.684367 0.809369 0.371878
0.759991 0.822492 0.385
0.83563 0.835615 0.398123
0.911254 0.848753 0.411246
0.349996 0.850004 0.349996
0.42562 0.863127 0.363119
0.501244 0.876249 0.376242
0.576867 0.889372 0.38938
0.652491 0.902495 0.402502
0.728115 0.915618 0.415625
0.803754 0.928756 0.428748
0.879377 0.941878 0.441871
0.955001 0.955001 0.454994
0.00563058 0.00563058 0.0681163
0.081239 0.0187533 0.081239
0.156863 0.0318761 0.0943618
0.232486 0.0449989 0.107485
0.308125 0.0581216 0.120623
0.383749 0.0712444 0.133745
0.459373 0.0843671 0.146868
0.534997 0.0975052 0.159991
0.61062 0.110628 0.173114
0.0493629 0.111864 0.111864
0.124987 0.124987 0.124987
0.20061 0.138109 0.138109
0.276234 0.151232 0.151232
0.351858 0.164355 0.164355
0.427497 0.177493 0.177493
0.50312 0.190616 0.190616
0.578744 0.203738 0.203738
0.654368 0.216861 0.216861
0.0931258 0.218112 0.155612
0.168734 0.231235 0.168734
0.244358 0.244358 0.181857
0.319997 0.257481 0.194995
0.395621 0.270619 0.208118
0.471244 0.283742 0.221241
0.546868 0.296864 0.234363
0.622492 0.309987 0.247486
0.698116 0.32311 0.260609
0.136873 0.324361 0.199359
0.212482 0.337484 0.212482
0.288121 0.350622 0.22562
0.363745 0.363745 0.238743
0.439368 0.376867 0.251865
0.514992 0.38999 0.264988
0.590616 0.403113 0.278111
0.666239 0.416236 0.291234
0.741878 0.429358 0.304356
0.180621 0.430625 0.243122
0.256245 0.443748 0.256245
0.331868 0.45687 0.269368
0.407492 0.469993 0.28249
0.483116 0.483116 0.295613
0.55874 0.496239 0.308736
0.634363 0.509361 0.321859
0.710002 0.522484 0.334997
0.785626 0.535622 0.348119
0.224369 0.536873 0.28687
0.299992 0.549996 0.299992
0.375616 0.563119 0.313115
0.45124 0.576242 0.326238
0.526864 0.589364 0.339361
0.602487 0.602487 0.352483
0.678126 0.615625 0.365621
0.75375 0.628748 0.378744
0.829374 0.641871 0.391867
0.268116 0.643122 0.330617
0.34374 0.656245 0.34374
0.419364 0.669367 0.356863
0.494987 0.68249 0.369985
0.570611 0.695613 0.383108
0.64625 0.708751 0.396246
0.721874 0.721874 0.409369
0.797498 0.734997 0.422492
0.873121 0.748119 0.435615
0.311879 0.749371 0.374365
0.387488 0.762493 0.387488
0.463111 0.775616 0.40061
0.53875 0.788739 0.413733
0.614374 0.801877 0.426871
0.689998 0.815 0.439994
0.765621 0.828122 0.453117
0.841245 0.841245 0.466239
0.916869 0.854368 0.479362
0.355627 0.855619 0.418112
0.431235 0.868742 0.431235
0.506874 0.88188 0.444358
0.582498 0.895003 0.457496
0.658122 0.908125 0.470619
0.733745 0.921248 0.483742
0.809369 0.934371 0.496864
0.884993 0.947494 0.509987
0.960632 0.960616 0.52311
0.0112459 0.0112459 0.136248
0.0868696 0.0243687 0.149371
0.162493 0.0374914 0.162493
0.238117 0.0506294 0.175616
0.313741 0.0637522 0.188739
0.389364 0.0768749 0.201862
0.465003 0.0899977 0.215
0.540627 0.10312 0.228122
0.616251 0.116243 0.241245
0.0549935 0.117494 0.179995
0.130617 0.130617 0.193118
0.206241 0.14374 0.206241
0.281865 0.156863 0.219364
0.357488 0.169986 0.232486
0.433112 0.183108 0.245609
0.508736 0.196231 0.258732
0.584375 0.209369 0.27187
0.659998 0.222492 0.284993
0.0987411 0.223743 0.223743
0.174365 0.236866 0.236866
0.249989 0.249989 0.249989
0.325612 0.263111 0.263111
0.401236 0.276234 0.276234
0.47686 0.289357 0.289357
0.552499 0.302495 0.302495
0.628122 0.315618 0.315618
0.703746 0.32874 0.32874
0.142489 0.329992 0.267491
0.218112 0.343114 0.280613
0.293736 0.356237 0.293736
0.36936 0.36936 0.306859
0.444999 0.382483 0.319997
0.520623 0.395621 0.33312
0.596246 0.408743 0.346242
0.67187 0.421866 0.359365
0.747494 0.434989 0.372488
0.186252 0.43624 0.311238
0.26186 0.449363 0.324361
0.337484 0.462486 0.337484
0.413123 0.475624 0.350622
0.488746 0.488746 0.363745
0.56437 0.501869 0.376867
0.639994 0.514992 0.38999
0.715618 0.528115 0.403113
0.791241 0.541238 0.416236
0.229999 0.542489 0.354986
0.305608 0.555611 0.368109
0.381247 0.56875 0.381247
0.45687 0.581872 0.394369
0.532494 0.594995 0.407492
0.608118 0.608118 0.420615
0.683742 0.621241 0.433738
0.759365 0.634363 0.44686
0.835004 0.647486 0.459998
0.273747 0.648753 0.398749
0.349371 0.661875 0.411872
0.424994 0.674998 0.424994
0.500618 0.688121 0.438117
0.576242 0.701244 0.45124
0.651865 0.714366 0.464363
0.727489 0.727489 0.477485
0.803128 0.740627 0.490623
0.878752 0.75375 0.503746
0.317494 0.755001 0.442496
0.393118 0.768124 0.455619
0.468742 0.781247 0.468742
0.544366 0.794369 0.481865
0.619989 0.807492 0.494987
0.695613 0.820615 0.50811
0.771252 0.833753 0.521248
0.846876 0.846876 0.534371
0.922499 0.859998 0.547494
0.361242 0.86125 0.486244
0.436866 0.874372 0.499367
0.512489 0.887495 0.512489
0.588113 0.900618 0.525612
0.663752 0.913756 0.538735
0.739376 0.926879 0.551873
0.815 0.940002 0.564996
0.890623 0.953124 0.578119
0.966247 0.966247 0.591241
0.0168765 0.0168765 0.204364
0.0924849 0.0299992 0.217487
0.168124 0.043122 0.230625
0.243748 0.0562448 0.243748
0.319371 0.0693675 0.25687
0.394995 0.0825055 0.269993
0.470619 0.0956283 0.283116
0.546242 0.108751 0.296239
0.621881 0.121874 0.309377
0.0606241 0.12311 0.248112
0.136233 0.136233 0.261234
0.211856 0.149355 0.274357
0.287495 0.162493 0.287495
0.363119 0.175616 0.300618
0.438743 0.188739 0.313741
0.514366 0.201862 0.326863
0.58999 0.214984 0.339986
0.665614 0.228107 0.353109
0.104372 0.229358 0.291859
0.17998 0.242496 0.304982
0.255619 0.255619 0.31812
0.331243 0.268742 0.331243
0.406867 0.281865 0.344366
0.48249 0.294987 0.357488
0.558114 0.30811 0.370611
0.633738 0.321233 0.383734
0.709377 0.334371 0.396872
0.148119 0.335622 0.335622
0.223743 0.348745 0.348745
0.299367 0.361868 0.361868
0.37499 0.37499 0.37499
0.450614 0.388113 0.388113
0.526238 0.401236 0.401236
0.601862 0.414359 0.414359
0.677501 0.427497 0.427497
0.753124 0.44062 0.44062
0.191867 0.441871 0.37937
0.267491 0.454994 0.392493
0.343114 0.468116 0.405615
0.418738 0.481239 0.418738
0.494362 0.494362 0.431861
0.570001 0.507485 0.444999
0.645624 0.520623 0.458122
0.721248 0.533745 0.471244
0.796872 0.546868 0.484367
0.23563 0.548119 0.423117
0.311238 0.561242 0.43624
0.386862 0.574365 0.449363
0.462486 0.587488 0.462486
0.538125 0.600626 0.475624
0.613748 0.613748 0.488746
0.689372 0.626871 0.501869
0.764996 0.639994 0.514992
0.84062 0.653117 0.528115
0.279377 0.654368 0.466865
0.354986 0.667491 0.479988
0.43061 0.680613 0.493111
0.506249 0.693751 0.506249
0.581872 0.706874 0.519371
0.657496 0.719997 0.532494
0.73312 0.73312 0.545617
0.808743 0.746242 0.55874
0.884367 0.759365 0.571862
0.323125 0.760616 0.510613
0.398733 0.773754 0.523735
0.474372 0.786877 0.536873
0.549996 0.8 0.549996
0.62562 0.813123 0.563119
0.701244 0.826246 0.576242
0.776867 0.839368 0.589364
0.852491 0.852491 0.602487
0.92813 0.865629 0.615625
0.366873 0.86688 0.554376
0.442496 0.880003 0.567498
0.51812 0.893126 0.580621
0.593744 0.906249 0.593744
0.669367 0.919371 0.606867
0.744991 0.932494 0.619989
0.820615 0.945617 0.633112
0.896254 0.958755 0.64625
0.971878 0.971878 0.659373
0.0225071 0.0225071 0.272496
0.0981155 0.0356298 0.285618
0.173739 0.0487526 0.298741
0.249363 0.0618753 0.311864
0.325002 0.0749981 0.325002
0.400626 0.0881208 0.338125
0.476249 0.101244 0.351247
0.551873 0.114366 0.36437
0.627497 0.127504 0.377493
0.0662394 0.12874 0.316243
0.141863 0.141863 0.329366
0.217487 0.154986 0.342489
0.293111 0.168109 0.355612
0.368734 0.181231 0.368734
0.444373 0.194369 0.381872
0.519997 0.207492 0.394995
0.595621 0.220615 0.408118
0.671244 0.233738 0.421241
0.110002 0.234989 0.359991
0.185611 0.248112 0.373114
0.261234 0.261234 0.386236
0.336858 0.274357 0.399359
0.412497 0.287495 0.412497
0.488121 0.300618 0.42562
0.563745 0.313741 0.438743
0.639368 0.326863 0.451865
0.714992 0.339986 0.464988
0.15375 0.341238 0.403738
0.229358 0.35436 0.416861
0.304982 0.367498 0.429984
0.380621 0.380621 0.443122
0.456245 0.393744 0.456245
0.531868 0.406867 0.469368
0.607492 0.419989 0.48249
0.683116 0.433112 0.495613
0.75874 0.446235 0.508736
0.197498 0.447501 0.447486
0.273121 0.460624 0.460624
0.348745 0.473747 0.473747
0.424369 0.48687 0.48687
0.499992 0.499992 0.499992
0.575616 0.513115 0.513115
0.65124 0.526238 0.526238
0.726864 0.539361 0.539361
0.802502 0.552499 0.552499
0.241245 0.55375 0.491249
0.316869 0.566873 0.504372
0.392493 0.579995 0.517494
0.468116 0.593118 0.530617
0.54374 0.606241 0.54374
0.619364 0.619364 0.556863
0.695003 0.632486 0.570001
0.770626 0.645624 0.583124
0.84625 0.658747 0.596246
0.284993 0.659998 0.534997
0.360616 0.673121 0.548119
0.43624 0.686244 0.561242
0.511864 0.699367 0.574365
0.587488 0.712489 0.587488
0.663127 0.725628 0.600626
0.73875 0.73875 0.613748
0.814374 0.751873 0.626871
0.889998 0.764996 0.639994
0.328756 0.766247 0.578744
0.404364 0.77937 0.591867
0.479988 0.792493 0.60499
0.555611 0.805615 0.618112
0.631251 0.818753 0.631251
0.706874 0.831876 0.644373
0.782498 0.844999 0.657496
0.858122 0.858122 0.670619
0.933745 0.871244 0.683742
0.372503 0.872496 0.622492
0.448112 0.885618 0.635615
0.523735 0.898756 0.648737
0.599374 0.911879 0.661875
0.674998 0.925002 0.674998
0.750622 0.938125 0.688121
0.826246 0.951247 0.701244
0.901869 0.96437 0.714366
0.977493 0.977493 0.727489
0.0281224 0.0281224 0.340627
0.103746 0.0412451 0.35375
0.17937 0.0543679 0.366873
0.254994 0.0675059 0.379995
0.330617 0.0806287 0.393118
0.406241 0.0937514 0.406241
0.48188 0.106874 0.419379
0.557504 0.119997 0.432502
0.633127 0.13312 0.445624
0.07187 0.134371 0.384375
0.147494 0.147494 0.397498
0.223117 0.160616 0.41062
0.298741 0.173739 0.423743
0.374365 0.186862 0.436866
0.449989 0.199985 0.449989
0.525612 0.213107 0.463111
0.601251 0.22623 0.476249
0.676875 0.239368 0.489372
0.115618 0.24062 0.428122
0.191241 0.253742 0.441245
0.266865 0.266865 0.454368
0.342489 0.279988 0.467491
0.418112 0.293111 0.480613
0.493736 0.306233 0.493736
0.569375 0.319371 0.506874
0.644999 0.332494 0.519997
0.720623 0.345617 0.53312
0.159365 0.346868 0.47187
0.234989 0.359991 0.484993
0.310613 0.373114 0.498116
0.386236 0.386236 0.511238
0.46186 0.399359 0.524361
0.537499 0.412497 0.537499
0.613123 0.42562 0.550622
0.688746 0.438743 0.563745
0.76437 0.451865 0.576867
0.203128 0.453117 0.515618
0.278737 0.466239 0.52874
0.35436 0.479362 0.541863
0.429984 0.4925 0.554986
0.505623 0.505623 0.568124
0.581247 0.518746 0.581247
0.65687 0.531868 0.594369
0.732494 0.544991 0.607492
0.808118 0.558114 0.620615
0.246876 0.559365 0.559365
0.322484 0.572488 0.572488
0.398123 0.585626 0.585626
0.473747 0.598749 0.598749
0.549371 0.611872 0.611872
0.624994 0.624994 0.624994
0.700618 0.638117 0.638117
0.776242 0.65124 0.65124
0.851865 0.664363 0.664363
0.290623 0.665629 0.603128
0.366247 0.678752 0.616251
0.441871 0.691875 0.629374
0.517494 0.704997 0.642496
0.593118 0.71812 0.655619
0.668742 0.731243 0.668742
0.744366 0.744366 0.681865
0.820005 0.757488 0.695003
0.895628 0.770626 0.708125
0.334371 0.771878 0.646876
0.409995 0.785 0.659998
0.485618 0.798123 0.673121
0.561242 0.811246 0.686244
0.636866 0.824369 0.699367
0.712489 0.837491 0.712489
0.788128 0.850629 0.725628
0.863752 0.863752 0.73875
0.939376 0.876875 0.751873
0.378119 0.878126 0.690623
0.453742 0.891249 0.703746
0.529366 0.904372 0.716869
0.60499 0.917494 0.729992
0.680613 0.930617 0.743114
0.756252 0.943755 0.756252
0.831876 0.956878 0.769375
0.9075 0.970001 0.782498
0.983124 0.983124 0.795621
0.033753 0.033753 0.408743
0.109361 0.0468757 0.421866
0.185 0.0599985 0.435004
0.260624 0.0731212 0.448127
0.336248 0.086244 0.46125
0.411872 0.0993668 0.474372
0.487495 0.112505 0.487495
0.563119 0.125628 0.500618
0.638743 0.13875 0.513756
0.0775006 0.139986 0.452491
0.153109 0.153109 0.465614
0.228733 0.166232 0.478737
0.304372 0.17937 0.491875
0.379995 0.192493 0.504997
0.455619 0.205615 0.51812
0.531243 0.218738 0.531243
0.606867 0.231861 0.544366
0.68249 0.244984 0.557488
0.121248 0.246235 0.496239
0.196857 0.259358 0.509361
0.272496 0.272496 0.522499
0.348119 0.285618 0.535622
0.423743 0.298741 0.548745
0.499367 0.311864 0.561868
0.57499 0.324987 0.57499
0.650614 0.338109 0.588113
0.726253 0.351232 0.601251
0.164996 0.352499 0.540002
0.24062 0.365621 0.553124
0.316243 0.378744 0.566247
0.391867 0.391867 0.57937
0.467491 0.40499 0.592493
0.543114 0.418112 0.605615
0.618738 0.431235 0.618738
0.694377 0.444373 0.631876
0.770001 0.457496 0.644999
0.208743 0.458747 0.583749
0.284367 0.47187 0.596872
0.359991 0.484993 0.609995
0.435615 0.498116 0.623117
0.511238 0.511238 0.63624
0.586862 0.524361 0.649363
0.662501 0.537499 0.662501
0.738125 0.550622 0.675624
0.813748 0.563745 0.688746
0.252491 0.564996 0.627497
0.328115 0.578119 0.64062
0.403738 0.591241 0.653742
0.479362 0.604364 0.666865
0.554986 0.617502 0.680003
0.630625 0.630625 0.693126
0.706249 0.643748 0.706249
0.781872 0.65687 0.719371
0.857496 0.669993 0.732494
0.296254 0.671244 0.671244
0.371862 0.684367 0.684367
0.447486 0.69749 0.69749
0.523125 0.710628 0.710628
0.598749 0.723751 0.723751
0.674372 0.736873 0.736873
0.749996 0.749996 0.749996
0.82562 0.763119 0.763119
0.901244 0.776242 0.776242
0.340002 0.777493 0.714992
0.41561 0.790616 0.728115
0.491249 0.803754 0.741253
0.566873 0.816876 0.754376
0.642496 0.829999 0.767498
0.71812 0.843122 0.780621
0.793744 0.856245 0.793744
0.869368 0.869368 0.806867
0.945006 0.88249 0.820005
0.383749 0.883757 0.758755
0.459373 0.89688 0.771878
0.534997 0.910002 0.785
0.61062 0.923125 0.798123
0.686244 0.936248 0.811246
0.761868 0.949371 0.824369
0.837491 0.962493 0.837491
0.91313 0.975631 0.850629
0.988754 0.988754 0.863752
0.0393683 0.0393835 0.476875
0.114992 0.0525063 0.489998
0.190616 0.0656291 0.50312
0.266239 0.0787518 0.516243
0.341863 0.0918746 0.529381
0.417502 0.104997 0.542504
0.493126 0.11812 0.555627
0.56875 0.131243 0.56875
0.644373 0.144381 0.581872
0.0831159 0.145617 0.520623
0.15874 0.15874 0.533745
0.234363 0.171862 0.546868
0.309987 0.184985 0.559991
0.385611 0.198108 0.573114
0.461234 0.211246 0.586252
0.536873 0.224369 0.599374
0.612497 0.237491 0.612497
0.688121 0.250614 0.62562
0.126864 0.251865 0.56437
0.202487 0.264988 0.577493
0.278111 0.278111 0.590616
0.353735 0.291234 0.603738
0.429374 0.304372 0.616876
0.504997 0.317494 0.629999
0.580621 0.330617 0.643122
0.656245 0.34374 0.656245
0.731868 0.356863 0.669367
0.170626 0.358114 0.608118
0.246235 0.371237 0.621241
0.321859 0.38436 0.634363
0.397498 0.397498 0.647501
0.473121 0.41062 0.660624
0.548745 0.423743 0.673747
0.624369 0.436866 0.68687
0.699992 0.449989 0.699992
0.775616 0.463111 0.713115
0.214374 0.464378 0.651865
0.289982 0.477501 0.664988
0.365621 0.490623 0.678126
0.441245 0.503746 0.691249
0.516869 0.516869 0.704372
0.592493 0.529992 0.717494
0.668116 0.543114 0.730617
0.74374 0.556237 0.74374
0.819379 0.569375 0.756878
0.258122 0.570626 0.695628
0.333745 0.583749 0.708751
0.409369 0.596872 0.721874
0.484993 0.609995 0.734997
0.560616 0.623117 0.748119
0.63624 0.63624 0.761242
0.711864 0.649363 0.774365
0.787503 0.662501 0.787503
0.863127 0.675624 0.800626
0.301869 0.676875 0.739376
0.377493 0.689998 0.752499
0.453117 0.70312 0.765621
0.52874 0.716243 0.778744
0.604364 0.729366 0.791867
0.679988 0.742504 0.80499
0.755627 0.755627 0.818128
0.83125 0.76875 0.83125
0.906874 0.781872 0.844373
0.345617 0.783123 0.783123
0.421241 0.796246 0.796246
0.496864 0.809369 0.809369
0.572488 0.822492 0.822492
0.648127 0.83563 0.83563
0.723751 0.848753 0.848753
0.799374 0.861875 0.861875
0.874998 0.874998 0.874998
0.950622 0.888121 0.888121
0.38938 0.889372 0.826871
0.464988 0.902495 0.839994
0.540612 0.915618 0.853117
0.616251 0.928756 0.866255
0.691875 0.941878 0.879377
0.767498 0.955001 0.8925
0.843122 0.968124 0.905623
0.918746 0.981247 0.918746
0.994369 0.994369 0.931868
0.0449989 0.0449989 0.545007
0.120623 0.0581216 0.558129
0.196246 0.0712444 0.571252
0.27187 0.0843824 0.584375
0.347494 0.0975052 0.597498
0.423117 0.110628 0.61062
0.498741 0.123751 0.623758
0.57438 0.136873 0.636881
0.650004 0.149996 0.650004
0.0887465 0.151247 0.588754
0.164355 0.16437 0.601877
0.239994 0.177493 0.615
0.315618 0.190616 0.628122
0.391241 0.203738 0.641245
0.466865 0.216861 0.654368
0.542489 0.229984 0.667491
0.618112 0.243107 0.680629
0.693751 0.256245 0.693751
0.132494 0.257496 0.632502
0.208118 0.270619 0.645624
0.283742 0.283742 0.658747
0.359365 0.296864 0.67187
0.434989 0.309987 0.684993
0.510613 0.32311 0.698116
0.586236 0.336248 0.711254
0.661875 0.349371 0.724376
0.737499 0.362493 0.737499
0.176242 0.363745 0.676249
0.251865 0.376867 0.689372
0.327489 0.38999 0.702495
0.403113 0.403113 0.715618
0.478737 0.416236 0.72874
0.554376 0.429374 0.741878
0.629999 0.442496 0.755001
0.705623 0.455619 0.768124
0.781247 0.468742 0.781247
0.220005 0.469993 0.719997
0.295613 0.483116 0.73312
0.371237 0.496239 0.746242
0.44686 0.509361 0.759365
0.522499 0.522499 0.772503
0.598123 0.535622 0.785626
0.673747 0.548745 0.798749
0.749371 0.561868 0.811872
0.824994 0.57499 0.824994
0.263752 0.576242 0.763745
0.339361 0.589364 0.776867
0.414984 0.602502 0.78999
0.490623 0.615625 0.803128
0.566247 0.628748 0.816251
0.641871 0.641871 0.829374
0.717494 0.654994 0.842496
0.793118 0.668116 0.855619
0.868742 0.681239 0.868742
0.3075 0.682506 0.807492
0.383108 0.695628 0.82063
0.458747 0.708751 0.833753
0.534371 0.721874 0.846876
0.609995 0.734997 0.859998
0.685618 0.748119 0.873121
0.761242 0.761242 0.886244
0.836866 0.774365 0.899367
0.912505 0.787503 0.912505
0.351247 0.788754 0.851255
0.426871 0.801877 0.864378
0.502495 0.815 0.877501
0.578119 0.828122 0.890623
0.653742 0.841245 0.903746
0.729366 0.854368 0.916869
0.80499 0.867506 0.929992
0.880629 0.880629 0.94313
0.956252 0.893751 0.956252
0.394995 0.895003 0.895003
0.470619 0.908125 0.908125
0.546242 0.921248 0.921248
0.621866 0.934371 0.934371
0.69749 0.947494 0.947494
0.773129 0.960632 0.960632
0.848753 0.973754 0.973754
0.924376 0.986877 0.986877
1 1 1
