public/LUTS/Color Loss/Color Loss_08.cube
TITLE "Generated by Resolve"
LUT_3D_SIZE 33
0 0 0
0.01149 0.0052491 0.0052491
0.0229953 0.0104982 0.0104982
0.0345006 0.0157473 0.0157473
0.0459907 0.0209964 0.0209964
0.057496 0.0262455 0.0262455
0.0690013 0.0314946 0.0314946
0.0804913 0.0367437 0.0367437
0.0919966 0.0419928 0.0419928
0.103502 0.0472419 0.0472419
0.114992 0.052491 0.052491
0.126497 0.0577554 0.0577554
0.138003 0.0630045 0.0630045
0.149493 0.0682536 0.0682536
0.160998 0.0735027 0.0735027
0.172503 0.0787518 0.0787518
0.183993 0.0840009 0.0840009
0.195499 0.08925 0.08925
0.207004 0.0944991 0.0944991
0.218494 0.0997482 0.0997482
0.229999 0.104997 0.104997
0.241505 0.110246 0.110246
0.252995 0.115496 0.115496
0.2645 0.120745 0.120745
0.276005 0.125994 0.125994
0.287495 0.131243 0.131243
0.299001 0.136492 0.136492
0.310506 0.141756 0.141756
0.321996 0.147005 0.147005
0.333501 0.152255 0.152255
0.345006 0.157504 0.157504
0.356497 0.162753 0.162753
0.368002 0.168002 0.168002
0.0174868 0.023743 0.0174868
0.0289921 0.0289921 0.0227359
0.0404822 0.0342412 0.027985
0.0519875 0.0394903 0.0332341
0.0634928 0.0447395 0.0384833
0.0749828 0.0499886 0.0437324
0.0864881 0.0552377 0.0489967
0.0979934 0.0604868 0.0542458
0.109483 0.0657359 0.0594949
0.120989 0.070985 0.064744
0.132494 0.0762341 0.0699931
0.143984 0.0814832 0.0752422
0.155489 0.0867323 0.0804913
0.166995 0.0919814 0.0857404
0.178485 0.0972305 0.0909895
0.18999 0.10248 0.0962387
0.201495 0.107744 0.101488
0.212985 0.112993 0.106737
0.224491 0.118242 0.111986
0.235996 0.123491 0.117235
0.247486 0.12874 0.122484
0.258991 0.133989 0.127733
0.270497 0.139239 0.132998
0.281987 0.144488 0.138247
0.293492 0.149737 0.143496
0.304997 0.154986 0.148745
0.316487 0.160235 0.153994
0.327993 0.165484 0.159243
0.339498 0.170733 0.164492
0.350988 0.175982 0.169741
0.362493 0.181231 0.17499
0.373999 0.186481 0.18024
0.385489 0.191745 0.185489
0.0349889 0.0474861 0.0349889
0.046479 0.0527352 0.040238
0.0579843 0.0579843 0.0454871
0.0694896 0.0632334 0.0507362
0.0809796 0.0684825 0.0559854
0.0924849 0.0737316 0.0612345
0.10399 0.0789807 0.0664836
0.11548 0.0842298 0.0717327
0.126986 0.0894942 0.076997
0.138491 0.0947433 0.0822461
0.149981 0.0999924 0.0874952
0.161486 0.105241 0.0927443
0.172992 0.110491 0.0979934
0.184482 0.11574 0.103243
0.195987 0.120989 0.108492
0.207492 0.126238 0.113741
0.218982 0.131487 0.11899
0.230488 0.136736 0.124239
0.241993 0.141985 0.129488
0.253483 0.147234 0.134737
0.264988 0.152483 0.139986
0.276493 0.157733 0.145235
0.287984 0.162982 0.150484
0.299489 0.168231 0.155734
0.310994 0.173495 0.160998
0.322484 0.178744 0.166247
0.333989 0.183993 0.171496
0.345495 0.189242 0.176745
0.356985 0.194491 0.181994
0.36849 0.199741 0.187243
0.379995 0.20499 0.192493
0.391485 0.210239 0.197742
0.402991 0.215488 0.202991
0.052491 0.0712444 0.052491
0.0639811 0.0764935 0.0577401
0.0754864 0.0817426 0.0629892
0.0869917 0.0869917 0.0682383
0.0984817 0.0922408 0.0734875
0.109987 0.0974899 0.0787366
0.121492 0.102739 0.0839857
0.132982 0.107988 0.0892348
0.144488 0.113237 0.0944839
0.155993 0.118486 0.099733
0.167483 0.123735 0.104997
0.178988 0.128985 0.110246
0.190494 0.134234 0.115496
0.201984 0.139483 0.120745
0.213489 0.144732 0.125994
0.224994 0.149981 0.131243
0.236484 0.155245 0.136492
0.24799 0.160494 0.141741
0.259495 0.165743 0.14699
0.270985 0.170993 0.152239
0.28249 0.176242 0.157488
0.293996 0.181491 0.162737
0.305486 0.18674 0.167987
0.316991 0.191989 0.173236
0.328496 0.197238 0.178485
0.339986 0.202487 0.183749
0.351492 0.207736 0.188998
0.362997 0.212985 0.194247
0.374487 0.218235 0.199496
0.385992 0.223484 0.204746
0.397498 0.228733 0.209995
0.408988 0.233982 0.215244
0.420493 0.239246 0.220493
0.0699931 0.0949874 0.0699931
0.0814832 0.100237 0.0752422
0.0929885 0.105486 0.0804913
0.104494 0.110735 0.0857404
0.115984 0.115984 0.0909895
0.127489 0.121233 0.0962387
0.138994 0.126482 0.101488
0.150484 0.131731 0.106737
0.16199 0.13698 0.111986
0.173495 0.142245 0.117235
0.184985 0.147494 0.122484
0.19649 0.152743 0.127733
0.207996 0.157992 0.132998
0.219486 0.163241 0.138247
0.230991 0.16849 0.143496
0.242496 0.173739 0.148745
0.253986 0.178988 0.153994
0.265492 0.184237 0.159243
0.276997 0.189487 0.164492
0.288487 0.194736 0.169741
0.299992 0.199985 0.17499
0.311498 0.205234 0.18024
0.322988 0.210483 0.185489
0.334493 0.215732 0.190738
0.345998 0.220981 0.195987
0.357488 0.226246 0.201236
0.368994 0.231495 0.206485
0.380499 0.236744 0.211749
0.391989 0.241993 0.216999
0.403494 0.247242 0.222248
0.415 0.252491 0.227497
0.42649 0.25774 0.232746
0.437995 0.262989 0.237995
0.0874952 0.118746 0.0874952
0.0989853 0.123995 0.0927443
0.110491 0.129244 0.0979934
0.121981 0.134493 0.103243
0.133486 0.139742 0.108492
0.144991 0.144991 0.113741
0.156481 0.15024 0.11899
0.167987 0.155489 0.124239
0.179492 0.160739 0.129488
0.190982 0.165988 0.134737
0.202487 0.171237 0.139986
0.213993 0.176486 0.145235
0.225483 0.181735 0.150484
0.236988 0.186984 0.155734
0.248493 0.192233 0.160998
0.259983 0.197482 0.166247
0.271489 0.202731 0.171496
0.282994 0.207996 0.176745
0.294484 0.213245 0.181994
0.305989 0.218494 0.187243
0.317494 0.223743 0.192493
0.328984 0.228992 0.197742
0.34049 0.234241 0.202991
0.351995 0.23949 0.20824
0.363485 0.244739 0.213489
0.37499 0.249989 0.218738
0.386496 0.255238 0.223987
0.397986 0.260487 0.229236
0.409491 0.265736 0.234485
0.420996 0.270985 0.23975
0.432486 0.276234 0.244999
0.443992 0.281483 0.250248
0.455497 0.286732 0.255497
0.104997 0.142489 0.104997
0.116487 0.147738 0.110246
0.127993 0.152987 0.115496
0.139483 0.158236 0.120745
0.150988 0.163485 0.125994
0.162493 0.168734 0.131243
0.173983 0.173983 0.136492
0.185489 0.179232 0.141741
0.196994 0.184482 0.14699
0.208484 0.189746 0.152239
0.219989 0.194995 0.157488
0.231495 0.200244 0.162737
0.242985 0.205493 0.167987
0.25449 0.210742 0.173236
0.265995 0.215991 0.178485
0.277485 0.221241 0.183749
0.288991 0.22649 0.188998
0.300496 0.231739 0.194247
0.311986 0.236988 0.199496
0.323491 0.242237 0.204746
0.334997 0.247486 0.209995
0.346487 0.252735 0.215244
0.357992 0.257984 0.220493
0.369497 0.263233 0.225742
0.380987 0.268482 0.230991
0.392493 0.273747 0.23624
0.403998 0.278996 0.241489
0.415488 0.284245 0.246738
0.426993 0.289494 0.251987
0.438499 0.294743 0.257237
0.449989 0.299992 0.262486
0.461494 0.305241 0.26775
0.472999 0.310491 0.272999
0.122499 0.166247 0.122499
0.133989 0.171481 0.127733
0.145495 0.176745 0.132998
0.156985 0.181994 0.138247
0.16849 0.187243 0.143496
0.179995 0.192493 0.148745
0.191485 0.197742 0.153994
0.202991 0.202991 0.159243
0.214496 0.20824 0.164492
0.225986 0.213489 0.169741
0.237491 0.218738 0.17499
0.248997 0.223987 0.18024
0.260487 0.229236 0.185489
0.271992 0.234485 0.190738
0.283497 0.239734 0.195987
0.294987 0.244984 0.201236
0.306493 0.250233 0.206485
0.317998 0.255482 0.211749
0.329488 0.260746 0.216999
0.340993 0.265995 0.222248
0.352499 0.271244 0.227497
0.363989 0.276493 0.232746
0.375494 0.281743 0.237995
0.386999 0.286992 0.243244
0.398489 0.292241 0.248493
0.409995 0.29749 0.253742
0.421485 0.302739 0.258991
0.43299 0.307988 0.26424
0.444495 0.313237 0.26949
0.455985 0.318486 0.274739
0.467491 0.323735 0.279988
0.478996 0.328984 0.285237
0.490486 0.334234 0.290486
0.139986 0.18999 0.139986
0.151492 0.195239 0.145235
0.162982 0.200488 0.150484
0.174487 0.205737 0.155734
0.185992 0.210986 0.160998
0.197482 0.216236 0.166247
0.208988 0.221485 0.171496
0.220493 0.226734 0.176745
0.231983 0.231983 0.181994
0.243488 0.237232 0.187243
0.254994 0.242496 0.192493
0.266484 0.247745 0.197742
0.277989 0.252995 0.202991
0.289494 0.258244 0.20824
0.300984 0.263493 0.213489
0.31249 0.268742 0.218738
0.323995 0.273991 0.223987
0.335485 0.27924 0.229236
0.34699 0.284489 0.234485
0.358495 0.289738 0.23975
0.369985 0.294987 0.244999
0.381491 0.300237 0.250248
0.392996 0.305486 0.255497
0.404486 0.310735 0.260746
0.415991 0.315984 0.265995
0.427497 0.321233 0.271244
0.438987 0.326497 0.276493
0.450492 0.331746 0.281743
0.461997 0.336996 0.286992
0.473487 0.342245 0.292241
0.484993 0.347494 0.29749
0.496498 0.352743 0.302739
0.507988 0.357992 0.307988
0.157488 0.213748 0.157488
0.168994 0.218982 0.162737
0.180484 0.224247 0.167987
0.191989 0.229496 0.173236
0.203494 0.234745 0.178485
0.214984 0.239994 0.183749
0.22649 0.245243 0.188998
0.237995 0.250492 0.194247
0.249485 0.255741 0.199496
0.26099 0.26099 0.204746
0.272496 0.266239 0.209995
0.283986 0.271489 0.215244
0.295491 0.276738 0.220493
0.306996 0.281987 0.225742
0.318486 0.287236 0.230991
0.329992 0.292485 0.23624
0.341497 0.297734 0.241489
0.352987 0.302983 0.246738
0.364492 0.308248 0.251987
0.375998 0.313497 0.257237
0.387488 0.318746 0.262486
0.398993 0.323995 0.26775
0.410498 0.329244 0.272999
0.421988 0.334493 0.278248
0.433494 0.339742 0.283497
0.444999 0.344991 0.288746
0.456489 0.35024 0.293996
0.467994 0.355489 0.299245
0.4795 0.360739 0.304494
0.49099 0.365988 0.309743
0.502495 0.371237 0.314992
0.514 0.376486 0.320241
0.52549 0.381735 0.32549
0.17499 0.237491 0.17499
0.186496 0.242741 0.18024
0.197986 0.24799 0.185489
0.209491 0.253239 0.190738
0.220996 0.258488 0.195987
0.232486 0.263737 0.201236
0.243992 0.268986 0.206485
0.255497 0.274235 0.211749
0.266987 0.279484 0.216999
0.278492 0.284733 0.222248
0.289998 0.289982 0.227497
0.301488 0.295247 0.232746
0.312993 0.300496 0.237995
0.324498 0.305745 0.243244
0.335988 0.310994 0.248493
0.347494 0.316243 0.253742
0.358984 0.321492 0.258991
0.370489 0.326741 0.26424
0.381994 0.331991 0.26949
0.393484 0.33724 0.274739
0.40499 0.342489 0.279988
0.416495 0.347738 0.285237
0.427985 0.352987 0.290486
0.43949 0.358236 0.29575
0.450996 0.363485 0.300999
0.462486 0.368734 0.306249
0.473991 0.373983 0.311498
0.485496 0.379248 0.316747
0.496986 0.384497 0.321996
0.508492 0.389746 0.327245
0.519997 0.394995 0.332494
0.531487 0.400244 0.337743
0.542992 0.405493 0.342992
0.192493 0.26125 0.192493
0.203983 0.266484 0.197742
0.215488 0.271733 0.202991
0.226993 0.276997 0.20824
0.238483 0.282246 0.213489
0.249989 0.287495 0.218738
0.261494 0.292744 0.223987
0.272984 0.297993 0.229236
0.284489 0.303243 0.234485
0.295995 0.308492 0.23975
0.307485 0.313741 0.244999
0.31899 0.31899 0.250248
0.330495 0.324239 0.255497
0.341985 0.329488 0.260746
0.353491 0.334737 0.265995
0.364996 0.339986 0.271244
0.376486 0.345235 0.276493
0.387991 0.350484 0.281743
0.399496 0.355734 0.286992
0.410986 0.360998 0.292241
0.422492 0.366247 0.29749
0.433997 0.371496 0.302739
0.445487 0.376745 0.307988
0.456992 0.381994 0.313237
0.468498 0.387243 0.318486
0.479988 0.392493 0.323751
0.491493 0.397742 0.329
0.502998 0.402991 0.334249
0.514488 0.40824 0.339498
0.525994 0.413489 0.344747
0.537499 0.418738 0.349996
0.548989 0.423987 0.355245
0.560494 0.429236 0.360494
0.209995 0.284993 0.209995
0.221485 0.290242 0.215244
0.23299 0.295491 0.220493
0.244495 0.30074 0.225742
0.255985 0.305989 0.230991
0.267491 0.311238 0.23624
0.278996 0.316487 0.241489
0.290486 0.321736 0.246738
0.301991 0.326986 0.251987
0.313497 0.332235 0.257237
0.324987 0.337484 0.262486
0.336492 0.342748 0.26775
0.347997 0.347997 0.272999
0.359487 0.353246 0.278248
0.370993 0.358495 0.283497
0.382498 0.363745 0.288746
0.393988 0.368994 0.293996
0.405493 0.374243 0.299245
0.416999 0.379492 0.304494
0.428489 0.384741 0.309743
0.439994 0.38999 0.314992
0.451499 0.395239 0.320241
0.462989 0.400488 0.32549
0.474495 0.405737 0.330739
0.486 0.410986 0.335988
0.49749 0.416236 0.341238
0.508995 0.421485 0.346487
0.5205 0.426749 0.351751
0.531991 0.431998 0.357
0.543496 0.437247 0.362249
0.555001 0.442496 0.367498
0.566491 0.447745 0.372747
0.577996 0.452995 0.377997
0.227497 0.308736 0.227497
0.238987 0.313985 0.232746
0.250492 0.319234 0.237995
0.261997 0.324498 0.243244
0.273487 0.329747 0.248493
0.284993 0.334997 0.253742
0.296483 0.340246 0.258991
0.307988 0.345495 0.26424
0.319493 0.350744 0.26949
0.330983 0.355993 0.274739
0.342489 0.361242 0.279988
0.353994 0.366491 0.285237
0.365484 0.37174 0.290486
0.376989 0.376989 0.29575
0.388495 0.382239 0.300999
0.399985 0.387488 0.306249
0.41149 0.392737 0.311498
0.422995 0.397986 0.316747
0.434485 0.403235 0.321996
0.445991 0.408484 0.327245
0.457496 0.413748 0.332494
0.468986 0.418997 0.337743
0.480491 0.424247 0.342992
0.491997 0.429496 0.348241
0.503487 0.434745 0.353491
0.514992 0.439994 0.35874
0.526497 0.445243 0.363989
0.537987 0.450492 0.369238
0.549493 0.455741 0.374487
0.560998 0.46099 0.379751
0.572488 0.466239 0.385
0.583993 0.471489 0.390249
0.595499 0.476738 0.395499
0.244999 0.332494 0.244999
0.256489 0.337743 0.250248
0.267994 0.342992 0.255497
0.279484 0.348241 0.260746
0.29099 0.353491 0.265995
0.302495 0.35874 0.271244
0.313985 0.363989 0.276493
0.32549 0.369238 0.281743
0.336996 0.374487 0.286992
0.348486 0.379736 0.292241
0.359991 0.384985 0.29749
0.371496 0.390234 0.302739
0.382986 0.395499 0.307988
0.394491 0.400748 0.313237
0.405997 0.405997 0.318486
0.417487 0.411246 0.323751
0.428992 0.416495 0.329
0.440497 0.421744 0.334249
0.451987 0.426993 0.339498
0.463493 0.432242 0.344747
0.474998 0.437491 0.349996
0.486488 0.442741 0.355245
0.497993 0.44799 0.360494
0.509499 0.453239 0.365743
0.520989 0.458488 0.370993
0.532494 0.463737 0.376242
0.543999 0.468986 0.381491
0.555489 0.474235 0.38674
0.566995 0.4795 0.391989
0.5785 0.484749 0.397238
0.58999 0.489998 0.402487
0.601495 0.495247 0.407752
0.613001 0.500496 0.413001
0.262501 0.356237 0.262501
0.273991 0.361486 0.26775
0.285496 0.366735 0.272999
0.296986 0.371984 0.278248
0.308492 0.377249 0.283497
0.319997 0.382498 0.288746
0.331487 0.387747 0.293996
0.342992 0.392996 0.299245
0.354498 0.398245 0.304494
0.365988 0.403494 0.309743
0.377493 0.408743 0.314992
0.388998 0.413993 0.320241
0.400488 0.419242 0.32549
0.411994 0.424491 0.330739
0.423499 0.42974 0.335988
0.434989 0.434989 0.341238
0.446494 0.440238 0.346487
0.458 0.445487 0.351751
0.46949 0.450736 0.357
0.480995 0.455985 0.362249
0.4925 0.46125 0.367498
0.50399 0.466499 0.372747
0.515496 0.471748 0.377997
0.527001 0.476997 0.383246
0.538491 0.482246 0.388495
0.549996 0.487495 0.393744
0.561502 0.492744 0.398993
0.572992 0.497993 0.404242
0.584497 0.503243 0.409491
0.596002 0.508492 0.41474
0.607492 0.513741 0.419989
0.618997 0.51899 0.425238
0.630503 0.524239 0.430488
0.280003 0.379995 0.280003
0.291493 0.385245 0.285237
0.302983 0.390494 0.290486
0.314488 0.395743 0.29575
0.325994 0.400992 0.300999
0.337484 0.406241 0.306249
0.348989 0.41149 0.311498
0.360494 0.416739 0.316747
0.371984 0.421988 0.321996
0.38349 0.427237 0.327245
0.394995 0.432486 0.332494
0.406485 0.437736 0.337743
0.41799 0.443 0.342992
0.429496 0.448249 0.348241
0.440986 0.453498 0.353491
0.452491 0.458747 0.35874
0.463996 0.463996 0.363989
0.475486 0.469245 0.369238
0.486992 0.474495 0.374487
0.498497 0.479744 0.379751
0.509987 0.484993 0.385
0.521492 0.490242 0.390249
0.532998 0.495491 0.395499
0.544488 0.50074 0.400748
0.555993 0.505989 0.405997
0.567498 0.511238 0.411246
0.578988 0.516487 0.416495
0.590494 0.521737 0.421744
0.601999 0.527001 0.426993
0.613489 0.53225 0.432242
0.624994 0.537499 0.437491
0.6365 0.542748 0.442741
0.64799 0.547997 0.44799
0.29749 0.403738 0.29749
0.308995 0.408988 0.302739
0.320485 0.414237 0.307988
0.331991 0.419486 0.313237
0.343496 0.424735 0.318486
0.354986 0.429999 0.323751
0.366491 0.435248 0.329
0.377997 0.440497 0.334249
0.389487 0.445747 0.339498
0.400992 0.450996 0.344747
0.412497 0.456245 0.349996
0.423987 0.461494 0.355245
0.435492 0.466743 0.360494
0.446998 0.471992 0.365743
0.458488 0.477241 0.370993
0.469993 0.48249 0.376242
0.481498 0.487739 0.381491
0.492988 0.492988 0.38674
0.504494 0.498238 0.391989
0.515999 0.503487 0.397238
0.527489 0.508736 0.402487
0.538994 0.514 0.407752
0.5505 0.519249 0.413001
0.56199 0.524498 0.41825
0.573495 0.529747 0.423499
0.585 0.534997 0.428748
0.59649 0.540246 0.433997
0.607996 0.545495 0.439246
0.619501 0.550744 0.444495
0.630991 0.555993 0.449744
0.642496 0.561242 0.454994
0.654002 0.566491 0.460243
0.665492 0.57174 0.465492
0.314992 0.427497 0.314992
0.326497 0.432746 0.320241
0.337987 0.437995 0.32549
0.349493 0.443244 0.330739
0.360998 0.448493 0.335988
0.372488 0.453742 0.341238
0.383993 0.458991 0.346487
0.395499 0.46424 0.351751
0.406989 0.46949 0.357
0.418494 0.474739 0.362249
0.429999 0.479988 0.367498
0.441489 0.485237 0.372747
0.452995 0.490486 0.377997
0.4645 0.49575 0.383246
0.47599 0.500999 0.388495
0.487495 0.506249 0.393744
0.499001 0.511498 0.398993
0.510491 0.516747 0.404242
0.521996 0.521996 0.409491
0.533501 0.527245 0.41474
0.544991 0.532494 0.419989
0.556497 0.537743 0.425238
0.568002 0.542992 0.430488
0.579492 0.548241 0.435752
0.590997 0.553491 0.441001
0.602502 0.55874 0.44625
0.613993 0.563989 0.451499
0.625498 0.569238 0.456748
0.637003 0.574487 0.461997
0.648493 0.579751 0.467247
0.659998 0.585 0.472496
0.671489 0.590249 0.477745
0.682994 0.595499 0.482994
0.332494 0.45124 0.332494
0.343984 0.456489 0.337743
0.355489 0.461738 0.342992
0.366995 0.466987 0.348241
0.378485 0.472236 0.353491
0.38999 0.477501 0.35874
0.401495 0.48275 0.363989
0.412985 0.487999 0.369238
0.424491 0.493248 0.374487
0.435996 0.498497 0.379751
0.447486 0.503746 0.385
0.458991 0.508995 0.390249
0.470497 0.514244 0.395499
0.481987 0.519493 0.400748
0.493492 0.524742 0.405997
0.504997 0.529992 0.411246
0.516487 0.535241 0.416495
0.527993 0.54049 0.421744
0.539498 0.545739 0.426993
0.550988 0.550988 0.432242
0.562493 0.556237 0.437491
0.573999 0.561502 0.442741
0.585489 0.566751 0.44799
0.596994 0.572 0.453239
0.608499 0.577249 0.458503
0.619989 0.582498 0.463752
0.631495 0.587747 0.469001
0.643 0.592996 0.47425
0.65449 0.598245 0.4795
0.665995 0.603494 0.484749
0.677501 0.608743 0.489998
0.688991 0.613993 0.495247
0.700496 0.619242 0.500496
0.349996 0.474998 0.349996
0.361486 0.480247 0.355245
0.372992 0.485496 0.360494
0.384497 0.490745 0.365743
0.395987 0.495995 0.370993
0.407492 0.501244 0.376242
0.418997 0.506493 0.381491
0.430488 0.511742 0.38674
0.441993 0.516991 0.391989
0.453498 0.52224 0.397238
0.464988 0.527489 0.402487
0.476493 0.532738 0.407752
0.487999 0.537987 0.413001
0.499489 0.543236 0.41825
0.510994 0.548501 0.423499
0.522499 0.55375 0.428748
0.533989 0.558999 0.433997
0.545495 0.564248 0.439246
0.557 0.569497 0.444495
0.56849 0.574746 0.449744
0.579995 0.579995 0.454994
0.591501 0.585245 0.460243
0.602991 0.590494 0.465492
0.614496 0.595743 0.470741
0.626001 0.600992 0.47599
0.637491 0.606241 0.481239
0.648997 0.61149 0.486503
0.660502 0.616739 0.491753
0.671992 0.621988 0.497002
0.683497 0.627237 0.502251
0.695003 0.632502 0.5075
0.706493 0.637751 0.512749
0.717998 0.643 0.517998
0.367498 0.498741 0.367498
0.378988 0.50399 0.372747
0.390494 0.509239 0.377997
0.401999 0.514488 0.383246
0.413489 0.519738 0.388495
0.424994 0.524987 0.393744
0.4365 0.530251 0.398993
0.44799 0.5355 0.404242
0.459495 0.540749 0.409491
0.471 0.545998 0.41474
0.48249 0.551247 0.419989
0.493996 0.556497 0.425238
0.505501 0.561746 0.430488
0.516991 0.566995 0.435752
0.528496 0.572244 0.441001
0.540002 0.577493 0.44625
0.551492 0.582742 0.451499
0.562997 0.587991 0.456748
0.574502 0.59324 0.461997
0.585992 0.598489 0.467247
0.597498 0.603738 0.472496
0.609003 0.608988 0.477745
0.620493 0.614252 0.482994
0.631998 0.619501 0.488243
0.643488 0.62475 0.493492
0.654994 0.629999 0.498741
0.666499 0.635248 0.50399
0.677989 0.640497 0.509239
0.689494 0.645747 0.514504
0.700999 0.650996 0.519753
0.712489 0.656245 0.525002
0.723995 0.661494 0.530251
0.7355 0.666743 0.5355
0.385 0.522499 0.385
0.39649 0.527749 0.390249
0.407996 0.532998 0.395499
0.419486 0.538247 0.400748
0.430991 0.543496 0.405997
0.442496 0.548745 0.411246
0.453986 0.553994 0.416495
0.465492 0.559243 0.421744
0.476997 0.564492 0.426993
0.488487 0.569741 0.432242
0.499992 0.57499 0.437491
0.511498 0.58024 0.442741
0.522988 0.585489 0.44799
0.534493 0.590738 0.453239
0.545998 0.596002 0.458503
0.557488 0.601251 0.463752
0.568994 0.6065 0.469001
0.580499 0.611749 0.47425
0.591989 0.616999 0.4795
0.603494 0.622248 0.484749
0.615 0.627497 0.489998
0.62649 0.632746 0.495247
0.637995 0.637995 0.500496
0.6495 0.643244 0.505745
0.66099 0.648493 0.510994
0.672496 0.653742 0.516243
0.684001 0.658991 0.521492
0.695491 0.66424 0.526741
0.706996 0.66949 0.531991
0.718502 0.674739 0.53724
0.729992 0.680003 0.542504
0.741497 0.685252 0.547753
0.753002 0.690501 0.553002
0.402502 0.546242 0.402502
0.413993 0.551492 0.407752
0.425498 0.556741 0.413001
0.436988 0.56199 0.41825
0.448493 0.567239 0.423499
0.459998 0.572488 0.428748
0.471489 0.577737 0.433997
0.482994 0.583001 0.439246
0.494499 0.588251 0.444495
0.505989 0.5935 0.449744
0.517494 0.598749 0.454994
0.529 0.603998 0.460243
0.54049 0.609247 0.465492
0.551995 0.614496 0.470741
0.5635 0.619745 0.47599
0.57499 0.624994 0.481239
0.586496 0.630243 0.486503
0.598001 0.635493 0.491753
0.609491 0.640742 0.497002
0.620996 0.645991 0.502251
0.632502 0.65124 0.5075
0.643992 0.656489 0.512749
0.655497 0.661738 0.517998
0.667002 0.667002 0.523247
0.678492 0.672251 0.528496
0.689998 0.677501 0.533745
0.701503 0.68275 0.538994
0.712993 0.687999 0.544244
0.724498 0.693248 0.549493
0.736004 0.698497 0.554742
0.747494 0.703746 0.559991
0.758999 0.708995 0.56524
0.770504 0.714244 0.570504
0.420005 0.570001 0.420005
0.431495 0.57525 0.425238
0.443 0.580499 0.430488
0.45449 0.585748 0.435752
0.465995 0.590997 0.441001
0.477501 0.596246 0.44625
0.488991 0.601495 0.451499
0.500496 0.606744 0.456748
0.512001 0.611994 0.461997
0.523491 0.617243 0.467247
0.534997 0.622492 0.472496
0.546502 0.627741 0.477745
0.557992 0.63299 0.482994
0.569497 0.638239 0.488243
0.580987 0.643488 0.493492
0.592493 0.648753 0.498741
0.603998 0.654002 0.50399
0.615488 0.659251 0.509239
0.626993 0.6645 0.514504
0.638498 0.669749 0.519753
0.649989 0.674998 0.525002
0.661494 0.680247 0.530251
0.672999 0.685496 0.5355
0.684489 0.690745 0.540749
0.695994 0.695994 0.545998
0.7075 0.701244 0.551247
0.71899 0.706493 0.556497
0.730495 0.711742 0.561746
0.742 0.716991 0.566995
0.753491 0.72224 0.572244
0.764996 0.727489 0.577493
0.776501 0.732754 0.582742
0.787991 0.738003 0.587991
0.437491 0.593744 0.437491
0.448997 0.598993 0.442741
0.460487 0.604242 0.44799
0.471992 0.609491 0.453239
0.483497 0.61474 0.458503
0.494987 0.619989 0.463752
0.506493 0.625238 0.469001
0.517998 0.630503 0.47425
0.529488 0.635752 0.4795
0.540993 0.641001 0.484749
0.552499 0.64625 0.489998
0.563989 0.651499 0.495247
0.575494 0.656748 0.500496
0.586999 0.661997 0.505745
0.598489 0.667247 0.510994
0.609995 0.672496 0.516243
0.6215 0.677745 0.521492
0.63299 0.682994 0.526741
0.644495 0.688243 0.531991
0.656001 0.693492 0.53724
0.667491 0.698741 0.542504
0.678996 0.70399 0.547753
0.690501 0.709239 0.553002
0.701991 0.714504 0.558251
0.713497 0.719753 0.5635
0.725002 0.725002 0.56875
0.736492 0.730251 0.573999
0.747997 0.7355 0.579248
0.759503 0.740749 0.584497
0.770993 0.745998 0.589746
0.782498 0.751247 0.594995
0.794003 0.756497 0.600244
0.805493 0.761746 0.605493
0.454994 0.617502 0.454994
0.466499 0.622751 0.460243
0.477989 0.628 0.465492
0.489494 0.633249 0.470741
0.500999 0.638498 0.47599
0.512489 0.643748 0.481239
0.523995 0.648997 0.486503
0.5355 0.654246 0.491753
0.54699 0.659495 0.497002
0.558495 0.664744 0.502251
0.570001 0.669993 0.5075
0.581491 0.675242 0.512749
0.592996 0.680491 0.517998
0.604501 0.68574 0.523247
0.615991 0.69099 0.528496
0.627497 0.696239 0.533745
0.639002 0.701503 0.538994
0.650492 0.706752 0.544244
0.661997 0.712001 0.549493
0.673503 0.71725 0.554742
0.684993 0.722499 0.559991
0.696498 0.727749 0.56524
0.708003 0.732998 0.570504
0.719493 0.738247 0.575753
0.730999 0.743496 0.581003
0.742504 0.748745 0.586252
0.753994 0.753994 0.591501
0.765499 0.759243 0.59675
0.777005 0.764492 0.601999
0.788495 0.769741 0.607248
0.8 0.77499 0.612497
0.811505 0.78024 0.617746
0.822995 0.785504 0.622995
0.472496 0.641245 0.472496
0.484001 0.646494 0.477745
0.495491 0.651743 0.482994
0.506996 0.656992 0.488243
0.518486 0.662242 0.493492
