public/LUTS/Color Loss/Color Loss_03.cube
TITLE "Generated by Resolve"
LUT_3D_SIZE 5
0 0 0
0.190738 0.0157473 0.0157473
0.381491 0.0314946 0.0314946
0.572244 0.0472419 0.0472419
0.762997 0.0630045 0.0630045
0.052491 0.227497 0.052491
0.243244 0.243244 0.0682536
0.433997 0.258991 0.0840009
0.62475 0.274739 0.0997482
0.815503 0.290486 0.115496
0.104997 0.454994 0.104997
0.295735 0.470741 0.120745
0.486488 0.486488 0.136492
0.677241 0.502235 0.152255
0.867994 0.517983 0.168002
0.157504 0.68249 0.157504
0.348241 0.698253 0.173251
0.538994 0.714 0.188998
0.729747 0.729747 0.204746
0.920501 0.745495 0.220493
0.209995 0.910002 0.209995
0.400748 0.92575 0.225742
0.591501 0.941497 0.241505
0.782254 0.957244 0.257252
0.973007 0.972992 0.272999
0.00674449 0.00674449 0.181735
0.197498 0.0224918 0.197498
0.388251 0.0382544 0.213245
0.579004 0.0540017 0.228992
0.769757 0.069749 0.244739
0.0592508 0.234241 0.234241
0.249989 0.249989 0.249989
0.440742 0.265736 0.265736
0.631495 0.281483 0.281483
0.822248 0.29723 0.297246
0.111742 0.461738 0.286732
0.302495 0.477485 0.302495
0.493248 0.493248 0.318242
0.684001 0.508995 0.333989
0.874754 0.524742 0.349737
0.164248 0.68925 0.339239
0.354986 0.704997 0.354986
0.545739 0.720745 0.370733
0.736492 0.736492 0.386496
0.927245 0.752239 0.402243
0.216754 0.916747 0.391745
0.407492 0.932494 0.407492
0.598245 0.948241 0.423239
0.788998 0.964004 0.438987
0.979751 0.979751 0.454734
0.0135042 0.0135042 0.3635
0.204242 0.0292515 0.379248
0.394995 0.0449989 0.394995
0.585748 0.0607462 0.410742
0.776501 0.0764935 0.42649
0.0659953 0.240986 0.415991
0.256733 0.256733 0.431739
0.447486 0.272496 0.447486
0.638239 0.288243 0.463249
0.828992 0.30399 0.478996
0.118502 0.468498 0.468498
0.309239 0.484245 0.484245
0.499992 0.499992 0.499992
0.690745 0.51574 0.51574
0.881498 0.531487 0.531487
0.170993 0.695994 0.520989
0.361746 0.711742 0.536736
0.552499 0.727489 0.552499
0.743252 0.743252 0.568246
0.934005 0.758999 0.583993
0.223499 0.923506 0.573495
0.414237 0.939254 0.589242
0.60499 0.955001 0.60499
0.795743 0.970748 0.620737
0.986496 0.986496 0.6365
0.0202487 0.0202487 0.545251
0.210986 0.035996 0.560998
0.40174 0.0517433 0.576745
0.592493 0.0675059 0.592493
0.783246 0.0832532 0.608255
0.072755 0.247745 0.597742
0.263493 0.263493 0.613489
0.454246 0.27924 0.629252
0.644999 0.294987 0.644999
0.835752 0.310735 0.660746
0.125246 0.475242 0.650248
0.315984 0.49099 0.665995
0.506737 0.506737 0.681743
0.69749 0.522499 0.69749
0.888243 0.538247 0.713252
0.177752 0.702754 0.702754
0.36849 0.718502 0.718502
0.559243 0.734249 0.734249
0.749996 0.749996 0.749996
0.940749 0.765743 0.765743
0.230243 0.930251 0.755245
0.420996 0.945998 0.770993
0.611749 0.961746 0.78674
0.802502 0.977493 0.802502
0.993255 0.993255 0.81825
0.0269932 0.0270085 0.727001
0.217746 0.0427558 0.742748
0.408499 0.0585031 0.758495
0.599252 0.0742504 0.774258
0.790005 0.0899977 0.790005
0.0794995 0.25449 0.779492
0.270237 0.270237 0.795254
0.46099 0.285985 0.811002
0.651743 0.301747 0.826749
0.842496 0.317494 0.842496
0.132006 0.482002 0.831998
0.322744 0.497749 0.847745
0.513497 0.513497 0.863493
0.70425 0.529244 0.879255
0.895003 0.544991 0.895003
0.184497 0.709499 0.884504
0.375235 0.725246 0.900252
0.565988 0.740993 0.915999
0.756741 0.756741 0.931746
0.947494 0.772503 0.947494
0.237003 0.936996 0.936996
0.427741 0.952758 0.952743
0.618494 0.968505 0.968505
0.809247 0.984253 0.984253
1 1 1
