public/LUTS/Color Loss/Color Loss_01.cube
TITLE "Generated by Resolve"
LUT_3D_SIZE 5
0 0 0
0.230243 0.0052491 0.0052491
0.460487 0.0104982 0.0104982
0.690745 0.0157473 0.0157473
0.921004 0.0209964 0.0209964
0.0175021 0.242496 0.0175021
0.247745 0.247745 0.0227512
0.477989 0.252995 0.0280003
0.708247 0.258244 0.0332494
0.938506 0.263493 0.0384985
0.0350042 0.484993 0.0350042
0.265232 0.490242 0.0402533
0.495491 0.495491 0.0455024
0.72575 0.50074 0.0507515
0.955993 0.505989 0.0560006
0.0525063 0.727504 0.052491
0.282734 0.732738 0.0577401
0.512993 0.737987 0.0630045
0.743252 0.743236 0.0682536
0.973495 0.748486 0.0735027
0.0699931 0.970001 0.0699931
0.300237 0.97525 0.0752422
0.530495 0.980499 0.0804913
0.760754 0.985748 0.0857404
0.990997 0.990997 0.0910048
0.00224308 0.00225834 0.227237
0.232486 0.00749218 0.232486
0.462745 0.0127413 0.237736
0.693004 0.0179904 0.242985
0.923247 0.0232395 0.248234
0.0197452 0.244739 0.244739
0.249989 0.249989 0.249989
0.480247 0.255238 0.255238
0.710491 0.260487 0.260487
0.940749 0.265736 0.265736
0.0372473 0.487251 0.262242
0.267491 0.492485 0.267491
0.497749 0.497734 0.27274
0.727993 0.502983 0.277989
0.958251 0.508232 0.283238
0.0547494 0.729747 0.279744
0.284993 0.734997 0.284993
0.515236 0.740246 0.290242
0.745495 0.745495 0.295491
0.975753 0.750744 0.30074
0.0722515 0.972244 0.297246
0.302495 0.977493 0.302495
0.532738 0.982742 0.307744
0.762997 0.987991 0.312993
0.993255 0.99324 0.318242
0.00450141 0.00450141 0.45449
0.234745 0.00975052 0.459739
0.464988 0.0149996 0.464988
0.695247 0.0202487 0.470237
0.925505 0.0254978 0.475486
0.0220035 0.246998 0.471992
0.252232 0.252247 0.477241
0.48249 0.257496 0.48249
0.712749 0.262745 0.487739
0.942992 0.267994 0.492988
0.0395056 0.489494 0.489494
0.269734 0.494743 0.494743
0.499992 0.499992 0.499992
0.730251 0.505241 0.505241
0.960494 0.510491 0.510491
0.0569924 0.732006 0.506996
0.287236 0.73724 0.512245
0.517494 0.742489 0.517494
0.747753 0.747738 0.522744
0.977996 0.752987 0.527993
0.0744945 0.974502 0.524498
0.304738 0.979751 0.529747
0.534997 0.985 0.534997
0.76524 0.99025 0.540246
0.995499 0.995499 0.545495
0.00674449 0.00675975 0.681743
0.236988 0.0119936 0.686992
0.467247 0.017258 0.692241
0.69749 0.0225071 0.697505
0.927749 0.0277562 0.702754
0.0242466 0.249241 0.699245
0.25449 0.25449 0.704494
0.484749 0.259739 0.709743
0.714992 0.264988 0.714992
0.945251 0.270237 0.720241
0.0417487 0.491753 0.716747
0.271992 0.497002 0.721996
0.502235 0.502251 0.727245
0.732494 0.5075 0.732494
0.962753 0.512749 0.737743
0.0592508 0.734249 0.734249
0.289494 0.739498 0.739498
0.519738 0.744747 0.744747
0.749996 0.749996 0.749996
0.980255 0.755245 0.755245
0.0767529 0.976761 0.751751
0.306996 0.981994 0.757
0.53724 0.987243 0.762249
0.767498 0.992493 0.767498
0.997757 0.997742 0.772747
0.00900282 0.00900282 0.908995
0.239246 0.0142519 0.91426
0.46949 0.019501 0.919509
0.699748 0.0247501 0.924758
0.930007 0.0299992 0.930007
0.0265049 0.251499 0.926497
0.256733 0.256748 0.931746
0.486992 0.261997 0.936996
0.71725 0.267247 0.942245
0.947494 0.272496 0.947494
0.044007 0.493996 0.943999
0.274235 0.499245 0.949248
0.504494 0.504494 0.954498
0.734752 0.509743 0.959747
0.964996 0.514992 0.964996
0.0614939 0.736507 0.961501
0.291737 0.741756 0.966751
0.521996 0.747005 0.972
0.752239 0.752255 0.977249
0.982498 0.757504 0.982498
0.078996 0.979004 0.979004
0.309239 0.984253 0.984253
0.539498 0.989502 0.989502
0.769741 0.994751 0.994751
1 1 1
