public/LUTS/Color Loss/Color Loss_07.cube
TITLE "Generated by Resolve"
LUT_3D_SIZE 9
0 0 0
0.0558633 0.0183719 0.0183719
0.111742 0.0367437 0.0367437
0.16762 0.0551156 0.0551308
0.223499 0.0735027 0.0735027
0.279377 0.0918746 0.0918746
0.335256 0.110246 0.110246
0.391119 0.128618 0.128618
0.446998 0.147005 0.147005
0.0612497 0.0987411 0.0612497
0.117113 0.117113 0.0796216
0.172992 0.135485 0.0979934
0.22887 0.153857 0.116365
0.284733 0.172244 0.134737
0.340612 0.190616 0.153124
0.39649 0.208988 0.171496
0.452369 0.227359 0.189868
0.508247 0.245731 0.20824
0.122499 0.197498 0.122499
0.178363 0.215869 0.140871
0.234241 0.234241 0.159243
0.29012 0.252613 0.177615
0.345998 0.270985 0.195987
0.401862 0.289357 0.214374
0.45774 0.307744 0.232746
0.513619 0.326116 0.251118
0.569497 0.344488 0.26949
0.183749 0.296239 0.183749
0.239612 0.314611 0.202121
0.295491 0.332998 0.220493
0.35137 0.35137 0.238865
0.407248 0.369741 0.257237
0.463111 0.388113 0.275624
0.51899 0.406485 0.293996
0.574868 0.424872 0.312367
0.630747 0.443244 0.330739
0.244999 0.394995 0.244999
0.300862 0.413367 0.263371
0.356741 0.431739 0.281743
0.412619 0.450111 0.300114
0.468498 0.468498 0.318502
0.524376 0.48687 0.336873
0.58024 0.505241 0.355245
0.636118 0.523613 0.373617
0.691997 0.541985 0.391989
0.306249 0.493751 0.306249
0.362112 0.512123 0.32462
0.41799 0.530495 0.342992
0.473869 0.548867 0.361364
0.529747 0.567239 0.379751
0.585626 0.585626 0.398123
0.641489 0.603998 0.416495
0.697368 0.62237 0.434867
0.753246 0.640742 0.453254
0.367498 0.592493 0.367498
0.423362 0.610864 0.38587
0.47924 0.629252 0.404242
0.535119 0.647623 0.422614
0.590997 0.665995 0.441001
0.646876 0.684367 0.459373
0.702739 0.702739 0.477745
0.758618 0.721126 0.496117
0.814496 0.739498 0.514504
0.428748 0.691249 0.428748
0.484611 0.709621 0.44712
0.54049 0.727993 0.465492
0.596368 0.746365 0.483879
0.652247 0.764752 0.502251
0.708125 0.783123 0.520623
0.764004 0.801495 0.538994
0.819867 0.819867 0.557366
0.875746 0.838254 0.575753
0.489998 0.790005 0.489998
0.545876 0.808377 0.50837
0.60174 0.826749 0.526741
0.657618 0.845121 0.545129
0.713497 0.863493 0.5635
0.769375 0.88188 0.581872
0.825254 0.900252 0.600244
0.881117 0.918624 0.618631
0.936996 0.936996 0.637003
0.00787366 0.00787366 0.0453651
0.0637369 0.0262455 0.0637369
0.119615 0.0446174 0.0821241
0.175494 0.0630045 0.100496
0.231373 0.0813764 0.118868
0.287251 0.0997482 0.13724
0.34313 0.11812 0.155627
0.398993 0.136492 0.173999
0.454871 0.154879 0.19237
0.0691234 0.106615 0.106615
0.124987 0.124987 0.124987
0.180865 0.143359 0.143359
0.236744 0.16173 0.16173
0.292607 0.180117 0.180117
0.348486 0.198489 0.198489
0.404364 0.216861 0.216861
0.460243 0.235233 0.235233
0.516121 0.253605 0.25362
0.130373 0.205371 0.167865
0.186236 0.223743 0.186236
0.242115 0.242115 0.204608
0.297993 0.260487 0.222995
0.353872 0.278859 0.241367
0.409735 0.297246 0.259739
0.465614 0.315618 0.278111
0.521492 0.333989 0.296483
0.577371 0.352361 0.31487
0.191623 0.304112 0.229114
0.247486 0.322484 0.247486
0.303365 0.340871 0.265858
0.359243 0.359243 0.284245
0.415122 0.377615 0.302617
0.470985 0.395987 0.320989
0.526864 0.414359 0.339361
0.582742 0.432746 0.357733
0.638621 0.451118 0.37612
0.252872 0.402869 0.290364
0.308736 0.421241 0.308736
0.364614 0.439612 0.327108
0.420493 0.457984 0.345495
0.476371 0.476371 0.363867
0.53225 0.494743 0.382239
0.588113 0.513115 0.40061
0.643992 0.531487 0.418997
0.69987 0.549874 0.437369
0.314122 0.501625 0.351614
0.369985 0.519997 0.369985
0.425864 0.538369 0.388373
0.481743 0.556741 0.406744
0.537621 0.575113 0.425116
0.5935 0.5935 0.443488
0.649363 0.611872 0.46186
0.705242 0.630243 0.480247
0.76112 0.648615 0.498619
0.375372 0.600366 0.412863
0.431235 0.618738 0.431235
0.487114 0.637125 0.449622
0.542992 0.655497 0.467994
0.598871 0.673869 0.486366
0.654749 0.692241 0.504738
0.710628 0.710613 0.52311
0.766491 0.729 0.541497
0.82237 0.747372 0.559869
0.436622 0.699123 0.474113
0.492485 0.717494 0.492485
0.548363 0.735866 0.510872
0.604242 0.754253 0.529244
0.660121 0.772625 0.547616
0.715999 0.790997 0.565988
0.771878 0.809369 0.584375
0.827741 0.827741 0.602747
0.883619 0.846128 0.621118
0.497871 0.797879 0.535363
0.55375 0.816251 0.55375
0.609613 0.834623 0.572122
0.665492 0.852995 0.590494
0.72137 0.871366 0.608865
0.777249 0.889754 0.627237
0.833127 0.908125 0.645624
0.889006 0.926497 0.663996
0.944869 0.944869 0.682368
0.0157473 0.0157473 0.0907454
0.0716259 0.0341192 0.109117
0.127489 0.052491 0.127489
0.183368 0.0708782 0.145876
0.239246 0.08925 0.164248
0.295125 0.107622 0.18262
0.351003 0.125994 0.200992
0.406867 0.144366 0.219364
0.462745 0.162753 0.237751
0.076997 0.114488 0.151995
0.13286 0.13286 0.170367
0.188739 0.151232 0.188739
0.244617 0.169619 0.207111
0.300496 0.187991 0.225483
0.356359 0.206363 0.24387
0.412238 0.224735 0.262242
0.468116 0.243107 0.280613
0.523995 0.261494 0.298985
0.138247 0.213245 0.213245
0.19411 0.231617 0.231617
0.249989 0.249989 0.249989
0.305867 0.26836 0.26836
0.361746 0.286732 0.286732
0.417609 0.305119 0.305119
0.473487 0.323491 0.323491
0.529366 0.341863 0.341863
0.585245 0.360235 0.360235
0.199496 0.311986 0.274495
0.25536 0.330358 0.292866
0.311238 0.348745 0.311238
0.367117 0.367117 0.32961
0.422995 0.385489 0.347997
0.478874 0.403861 0.366369
0.534737 0.422248 0.384741
0.590616 0.44062 0.403113
0.646494 0.458991 0.421485
0.260746 0.410742 0.335744
0.316609 0.429114 0.354116
0.372488 0.447486 0.372488
0.428367 0.465873 0.39086
0.484245 0.484245 0.409247
0.540124 0.502617 0.427619
0.595987 0.520989 0.445991
0.651865 0.539361 0.464363
0.707744 0.557748 0.482734
0.321996 0.509499 0.396994
0.377859 0.527871 0.415366
0.433738 0.546242 0.433738
0.489616 0.564614 0.45211
0.545495 0.582986 0.470497
0.601373 0.601373 0.488869
0.657252 0.619745 0.50724
0.713115 0.638117 0.525612
0.768994 0.656489 0.543999
0.383246 0.60824 0.458244
0.439109 0.626627 0.476616
0.494987 0.644999 0.494987
0.550866 0.663371 0.513375
0.606744 0.681743 0.531746
0.662623 0.700114 0.550118
0.718502 0.718502 0.56849
0.774365 0.736873 0.586862
0.830243 0.755245 0.605249
0.444495 0.706996 0.519493
0.500374 0.725368 0.537865
0.556237 0.74374 0.556237
0.612116 0.762127 0.574624
0.667994 0.780499 0.592996
0.723873 0.798871 0.611368
0.779751 0.817243 0.62974
0.83563 0.835615 0.648112
0.891493 0.854002 0.666499
0.505745 0.805753 0.580743
0.561624 0.824125 0.599115
0.617487 0.842496 0.617487
0.673365 0.860868 0.635874
0.729244 0.879255 0.654246
0.785122 0.897627 0.672618
0.841001 0.915999 0.69099
0.89688 0.934371 0.709377
0.952743 0.952743 0.727749
0.023621 0.023621 0.136126
0.0794995 0.0419928 0.154498
0.135363 0.0603799 0.172869
0.191241 0.0787518 0.191241
0.24712 0.0971237 0.209613
0.302998 0.115496 0.228
0.358877 0.133867 0.246372
0.414755 0.152255 0.264744
0.470619 0.170626 0.283116
0.0848707 0.122362 0.19736
0.140734 0.140734 0.215732
0.196612 0.159106 0.234119
0.252491 0.177493 0.252491
0.30837 0.195865 0.270863
0.364233 0.214237 0.289235
0.420111 0.232609 0.307622
0.47599 0.25098 0.325994
0.531868 0.269368 0.344366
0.14612 0.221118 0.25861
0.201984 0.23949 0.276982
0.257862 0.257862 0.295369
0.313741 0.276234 0.313741
0.369619 0.294621 0.332113
0.425498 0.312993 0.350484
0.481361 0.331365 0.368872
0.53724 0.349737 0.387243
0.593118 0.368109 0.405615
0.20737 0.319875 0.31986
0.263233 0.338247 0.338247
0.319112 0.356619 0.356619
0.37499 0.37499 0.37499
0.430869 0.393362 0.393362
0.486748 0.411734 0.411734
0.542611 0.430121 0.430121
0.598489 0.448493 0.448493
0.654368 0.466865 0.466865
0.26862 0.418616 0.381125
0.324483 0.436988 0.399496
0.380362 0.45536 0.417868
0.43624 0.473747 0.43624
0.492119 0.492119 0.454612
0.547997 0.510491 0.472999
0.603876 0.528862 0.491371
0.659739 0.54725 0.509743
0.715618 0.565621 0.528115
0.32987 0.517372 0.442374
0.385748 0.535744 0.460746
0.441611 0.554116 0.479118
0.49749 0.572488 0.49749
0.553368 0.590875 0.515862
0.609247 0.609247 0.534249
0.665125 0.627619 0.552621
0.720989 0.645991 0.570993
0.776867 0.664363 0.589364
0.391119 0.616129 0.503624
0.446998 0.634501 0.521996
0.502861 0.652873 0.540368
0.55874 0.671244 0.55874
0.614618 0.689616 0.577111
0.670497 0.707988 0.595499
0.726375 0.726375 0.61387
0.782254 0.744747 0.632242
0.838117 0.763119 0.650614
0.452369 0.71487 0.564874
0.508247 0.733242 0.583246
0.564126 0.751629 0.601617
0.619989 0.770001 0.619989
0.675868 0.788373 0.638376
0.731746 0.806745 0.656748
0.787625 0.825116 0.67512
0.843503 0.843503 0.693492
0.899367 0.861875 0.711864
0.513619 0.813626 0.626123
0.569497 0.831998 0.644495
0.625376 0.85037 0.662867
0.681239 0.868742 0.681239
0.737118 0.887129 0.699626
0.792996 0.905501 0.717998
0.848875 0.923873 0.73637
0.904753 0.942245 0.754742
0.960632 0.960616 0.773114
0.0314946 0.0314946 0.181491
0.0873732 0.0498665 0.199878
0.143252 0.0682536 0.21825
0.199115 0.0866255 0.236622
0.254994 0.104997 0.254994
0.310872 0.123369 0.273365
0.366751 0.141741 0.291752
0.422629 0.160128 0.310124
0.478492 0.1785 0.328496
0.0927443 0.130236 0.242741
0.148608 0.148608 0.261112
0.204486 0.166995 0.279484
0.260365 0.185367 0.297871
0.316243 0.203738 0.316243
0.372122 0.22211 0.334615
0.427985 0.240482 0.352987
0.483864 0.258869 0.371359
0.539742 0.277241 0.389746
0.153994 0.228992 0.30399
0.209857 0.247364 0.322362
0.265736 0.265736 0.340734
0.321614 0.284108 0.359121
0.377493 0.302495 0.377493
0.433371 0.320867 0.395865
0.489235 0.339239 0.414237
0.545113 0.35761 0.432624
0.600992 0.375982 0.450996
0.215244 0.327749 0.36524
0.271107 0.34612 0.383612
0.326986 0.364492 0.401984
0.382864 0.382864 0.420371
0.438743 0.401236 0.438743
0.494621 0.419623 0.457115
0.5505 0.437995 0.475486
0.606363 0.456367 0.493874
0.662242 0.474739 0.512245
0.276493 0.42649 0.42649
0.332372 0.444862 0.444862
0.388235 0.463249 0.463249
0.444114 0.481621 0.481621
0.499992 0.499992 0.499992
0.555871 0.518364 0.518364
0.611749 0.536736 0.536736
0.667613 0.555123 0.555123
0.723491 0.573495 0.573495
0.337743 0.525246 0.487739
0.393622 0.543618 0.506111
0.449485 0.56199 0.524498
0.505364 0.580362 0.54287
0.561242 0.598749 0.561242
0.617121 0.617121 0.579614
0.672999 0.635493 0.598001
0.728878 0.653864 0.616373
0.784741 0.672251 0.634745
0.398993 0.624002 0.548989
0.454871 0.642374 0.567361
0.51075 0.660746 0.585748
0.566613 0.679118 0.60412
0.622492 0.69749 0.622492
0.67837 0.715877 0.640864
0.734249 0.734249 0.659251
0.790127 0.752621 0.677623
0.845991 0.770993 0.695994
0.460243 0.722744 0.610239
0.516121 0.741115 0.628626
0.572 0.759503 0.646998
0.627863 0.777874 0.66537
0.683742 0.796246 0.683742
0.73962 0.814618 0.702113
0.795499 0.83299 0.7205
0.851377 0.851377 0.738872
0.907256 0.869749 0.757244
0.521492 0.8215 0.671504
0.577371 0.839872 0.689876
0.633249 0.858244 0.708247
0.689113 0.876631 0.726619
0.744991 0.895003 0.744991
0.80087 0.913375 0.763378
0.856748 0.931746 0.78175
0.912627 0.950118 0.800122
0.968505 0.968505 0.818494
0.0393683 0.0393683 0.226871
0.0952468 0.0577554 0.245243
0.151125 0.0761273 0.263615
0.206989 0.0944991 0.282002
0.262867 0.112871 0.300374
0.318746 0.131243 0.318746
0.374624 0.14963 0.337118
0.430503 0.168002 0.355505
0.486381 0.186374 0.373877
0.100618 0.138109 0.288121
0.156481 0.156481 0.306493
0.21236 0.174868 0.324865
0.268238 0.19324 0.343236
0.324117 0.211612 0.361608
0.379995 0.229984 0.379995
0.435874 0.248356 0.398367
0.491737 0.266743 0.416739
0.547616 0.285115 0.435111
0.161868 0.236866 0.349371
0.217731 0.255238 0.367742
0.27361 0.27361 0.386114
0.329488 0.291997 0.404486
0.385367 0.310369 0.422873
0.441245 0.32874 0.441245
0.497124 0.347112 0.459617
0.552987 0.365484 0.477989
0.608865 0.383871 0.496361
0.223117 0.335622 0.41062
0.278996 0.353994 0.428992
0.334859 0.372366 0.447364
0.390738 0.390738 0.465736
0.446616 0.40911 0.484123
0.502495 0.427497 0.502495
0.558373 0.445869 0.520867
0.614237 0.46424 0.539239
0.670115 0.482612 0.557626
0.284367 0.434363 0.47187
0.340246 0.452735 0.490242
0.396109 0.471122 0.508614
0.451987 0.489494 0.526986
0.507866 0.507866 0.545373
0.563745 0.526238 0.563745
0.619623 0.544625 0.582116
0.675502 0.562997 0.600488
0.731365 0.581369 0.618875
0.345617 0.53312 0.53312
0.401495 0.551492 0.551492
0.457374 0.569863 0.569863
0.513237 0.588251 0.588251
0.569116 0.606622 0.606622
0.624994 0.624994 0.624994
0.680873 0.643366 0.643366
0.736751 0.661738 0.661738
0.792615 0.680125 0.680125
0.406867 0.631876 0.594369
0.462745 0.650248 0.612741
0.518624 0.66862 0.631113
0.574487 0.686992 0.6495
0.630365 0.705364 0.667872
0.686244 0.723751 0.686244
0.742123 0.742123 0.704616
0.798001 0.760494 0.723003
0.85388 0.778866 0.741375
0.468116 0.730617 0.655619
0.523995 0.749004 0.673991
0.579873 0.767376 0.692363
0.635752 0.785748 0.71075
0.691615 0.80412 0.729122
0.747494 0.822492 0.747494
0.803372 0.840879 0.765866
0.859251 0.859251 0.784253
0.915129 0.877623 0.802625
0.529381 0.829374 0.716869
0.585245 0.847745 0.735241
0.641123 0.866117 0.753628
0.697002 0.884504 0.772
0.752865 0.902876 0.790372
0.808743 0.921248 0.808743
0.864622 0.93962 0.827115
0.920501 0.957992 0.845502
0.976379 0.976379 0.863874
0.0472572 0.0472572 0.272251
0.10312 0.0656291 0.290623
0.158999 0.0840009 0.308995
0.214878 0.102373 0.327367
0.270741 0.120745 0.345754
0.326619 0.139116 0.364126
0.382498 0.157504 0.382498
0.438376 0.175875 0.40087
0.494255 0.194247 0.419242
0.108492 0.145983 0.333486
0.164355 0.16437 0.351873
0.220233 0.182742 0.370245
0.276112 0.201114 0.388617
0.331991 0.219486 0.406989
0.387869 0.237858 0.425361
0.443748 0.256245 0.443748
0.499611 0.274617 0.462119
0.555489 0.292988 0.480491
0.169741 0.244739 0.394751
0.22562 0.263111 0.413123
0.281483 0.281483 0.431495
0.337362 0.29987 0.449866
0.39324 0.318242 0.468238
0.449119 0.336614 0.48661
0.504997 0.354986 0.504997
0.560876 0.373358 0.523369
0.616739 0.391745 0.541741
0.230991 0.343496 0.456001
0.28687 0.361868 0.474372
0.342733 0.38024 0.492744
0.398611 0.398611 0.511116
0.45449 0.416999 0.529488
0.510369 0.43537 0.547875
0.566247 0.453742 0.566247
0.622126 0.472114 0.584619
0.677989 0.490486 0.602991
0.292241 0.442252 0.51725
0.348119 0.460624 0.535622
0.403998 0.478996 0.553994
0.459861 0.497368 0.572366
0.51574 0.51574 0.590738
0.571618 0.534112 0.609125
0.627497 0.552499 0.627497
0.683375 0.570871 0.645869
0.739239 0.589242 0.66424
0.353491 0.540993 0.5785
0.409369 0.559365 0.596872
0.465248 0.577737 0.615244
0.521111 0.596124 0.633616
0.576989 0.614496 0.651987
0.632868 0.632868 0.670375
0.688746 0.65124 0.688746
0.744625 0.669627 0.707118
0.800504 0.687999 0.72549
0.414755 0.63975 0.63975
0.470619 0.658122 0.658122
0.526497 0.676493 0.676493
0.582376 0.694865 0.694865
0.638239 0.713252 0.713252
0.694118 0.731624 0.731624
0.749996 0.749996 0.749996
0.805875 0.768368 0.768368
0.861753 0.78674 0.78674
0.476005 0.738506 0.700999
0.531868 0.756878 0.719371
0.587747 0.77525 0.737743
0.643626 0.793622 0.756115
0.699489 0.811994 0.774502
0.755367 0.830365 0.792874
0.811246 0.848753 0.811246
0.867124 0.867124 0.829618
0.923003 0.885496 0.848005
0.537255 0.837247 0.762249
0.593118 0.855619 0.780621
0.648997 0.874006 0.798993
0.704875 0.892378 0.817365
0.760754 0.91075 0.835752
0.816617 0.929122 0.854124
0.872496 0.947494 0.872496
0.928374 0.965881 0.890867
0.984253 0.984253 0.909255
0.0551308 0.0551308 0.317632
0.110994 0.0735027 0.336004
0.166873 0.0918746 0.354376
0.222751 0.110246 0.372747
0.278614 0.128618 0.391119
0.334493 0.147005 0.409506
0.390372 0.165377 0.427878
0.44625 0.183749 0.44625
0.502129 0.202121 0.464622
0.116365 0.153872 0.378866
0.172244 0.172244 0.397238
0.228107 0.190616 0.41561
0.283986 0.208988 0.433997
0.339864 0.227359 0.452369
0.395743 0.245731 0.470741
0.451621 0.264118 0.489113
0.5075 0.28249 0.5075
0.563363 0.300862 0.525872
0.177615 0.252613 0.440116
0.233494 0.270985 0.458488
0.289357 0.289372 0.476875
0.345235 0.307744 0.495247
0.401114 0.326116 0.513619
0.456992 0.344488 0.531991
0.512871 0.36286 0.550362
0.56875 0.381247 0.56875
0.624613 0.399619 0.587121
0.238865 0.35137 0.501366
0.294743 0.369741 0.519738
0.350622 0.388113 0.538125
0.406485 0.406485 0.556497
0.462364 0.424872 0.574868
0.518242 0.443244 0.59324
0.574121 0.461616 0.611612
0.629999 0.479988 0.629999
0.685878 0.49836 0.648371
0.300114 0.450126 0.562615
0.355993 0.468498 0.580987
0.411872 0.48687 0.599374
0.467735 0.505241 0.617746
0.523613 0.523613 0.636118
0.579492 0.542 0.65449
0.63537 0.560372 0.672877
0.691249 0.578744 0.691249
0.747127 0.597116 0.709621
0.361379 0.548867 0.623865
0.417243 0.567239 0.642252
0.473121 0.585626 0.660624
0.529 0.603998 0.678996
0.584863 0.62237 0.697368
0.640742 0.640742 0.71574
0.69662 0.659113 0.734127
0.752499 0.677501 0.752499
0.808377 0.695872 0.770871
0.422629 0.647623 0.68513
0.478492 0.665995 0.703502
0.534371 0.684367 0.721874
0.590249 0.702739 0.740246
0.646113 0.721126 0.758618
0.701991 0.739498 0.776989
0.75787 0.75787 0.795377
0.813748 0.776242 0.813748
0.869627 0.794629 0.83212
0.483879 0.74638 0.74638
0.539742 0.764752 0.764752
0.595621 0.783123 0.783123
0.651499 0.801495 0.801495
0.707378 0.819867 0.819867
0.763241 0.838254 0.838254
0.81912 0.856626 0.856626
0.874998 0.874998 0.874998
0.930877 0.89337 0.89337
0.545129 0.845121 0.80763
0.600992 0.863493 0.826001
0.65687 0.88188 0.844373
0.712749 0.900252 0.862745
0.768627 0.918624 0.881117
0.824491 0.936996 0.899504
0.880369 0.955367 0.917876
0.936248 0.973754 0.936248
0.992126 0.992126 0.95462
0.0630045 0.0630045 0.362997
0.118868 0.0813764 0.381369
0.174746 0.0997482 0.399756
0.230625 0.11812 0.418128
0.286503 0.136492 0.4365
0.342367 0.154879 0.454871
0.398245 0.173251 0.473243
0.454124 0.191623 0.49163
0.510002 0.209995 0.510002
0.124239 0.161746 0.424247
0.180117 0.180117 0.442618
0.235981 0.198489 0.46099
0.291859 0.216861 0.479362
0.347738 0.235233 0.497749
0.403616 0.25362 0.516121
0.459495 0.271992 0.534493
0.515373 0.290364 0.552865
0.571237 0.308736 0.571237
0.185489 0.260487 0.485496
0.241367 0.278859 0.503868
0.297246 0.297246 0.52224
0.353109 0.315618 0.540612
0.408988 0.333989 0.558999
0.464866 0.352361 0.577371
0.520745 0.370733 0.595743
0.576623 0.38912 0.614115
0.632502 0.407492 0.632502
0.246738 0.359243 0.546746
0.302617 0.377615 0.565118
0.358495 0.395987 0.58349
0.414359 0.414374 0.601877
0.470237 0.432746 0.620249
0.526116 0.451118 0.638621
0.581994 0.46949 0.656992
0.637873 0.487861 0.675364
0.693751 0.506249 0.693751
0.308003 0.458 0.607996
0.363867 0.476371 0.626368
0.419745 0.494743 0.644739
0.475624 0.513115 0.663127
0.531487 0.531487 0.681498
0.587366 0.549874 0.69987
0.643244 0.568246 0.718242
0.699123 0.586618 0.736614
0.755001 0.60499 0.755001
0.369253 0.556741 0.669245
0.425116 0.575113 0.687617
0.480995 0.5935 0.705989
0.536873 0.611872 0.724376
0.592737 0.630243 0.742748
0.648615 0.648615 0.76112
0.704494 0.667002 0.779492
0.760372 0.685374 0.797879
0.816251 0.703746 0.816251
0.430503 0.655497 0.730495
0.486366 0.673869 0.748867
0.542245 0.692241 0.767254
0.598123 0.710628 0.785626
0.654002 0.729 0.803998
0.709865 0.747372 0.82237
0.765743 0.765743 0.840742
0.821622 0.784115 0.859129
0.877501 0.802502 0.877501
0.491753 0.754253 0.791745
0.547616 0.772625 0.810117
0.603494 0.790997 0.828504
0.659373 0.809369 0.846876
0.715251 0.827741 0.865248
0.771115 0.846128 0.883619
0.826993 0.8645 0.901991
0.882872 0.882872 0.920378
0.93875 0.901244 0.93875
0.553002 0.852995 0.852995
0.608865 0.871382 0.871366
0.664744 0.889754 0.889754
0.720623 0.908125 0.908125
0.776501 0.926497 0.926497
0.83238 0.944869 0.944869
0.888243 0.963256 0.963256
0.944121 0.981628 0.981628
1 1 1
