public/LUTS/Color Loss/Color Loss_02.cube
TITLE "Generated by Resolve"
LUT_3D_SIZE 33
0 0 0
0.0263066 0.00131228 0.00131228
0.0526131 0.00262455 0.00262455
0.0789197 0.00393683 0.00393683
0.105241 0.0052491 0.0052491
0.131548 0.00656138 0.00656138
0.15787 0.00787366 0.00787366
0.184176 0.00918593 0.00918593
0.210483 0.0104982 0.0104982
0.236805 0.0118105 0.0118105
0.263111 0.0131228 0.0131228
0.289433 0.014435 0.014435
0.31574 0.0157473 0.0157473
0.342061 0.0170596 0.0170596
0.368368 0.0183719 0.0183719
0.394675 0.0196841 0.0196841
0.420996 0.0209964 0.0209964
0.447303 0.0223087 0.0223087
0.473625 0.023621 0.023621
0.499931 0.0249332 0.0249332
0.526238 0.0262455 0.0262455
0.55256 0.0275578 0.0275578
0.578866 0.0288701 0.0288701
0.605188 0.0301823 0.0301823
0.631495 0.0314946 0.0314946
0.657816 0.0328069 0.0328069
0.684123 0.0341192 0.0341192
0.71043 0.0354314 0.0354314
0.736751 0.0367437 0.0367437
0.763058 0.038056 0.038056
0.78938 0.0393683 0.0393683
0.815686 0.0406806 0.0406806
0.841993 0.0419928 0.0419928
0.00437934 0.0293584 0.00437934
0.0306706 0.0306706 0.00569162
0.0569924 0.0319829 0.00700389
0.083299 0.0332952 0.00831617
0.109606 0.0346075 0.00962844
0.135927 0.0359197 0.0109407
0.162234 0.037232 0.012253
0.188556 0.0385443 0.0135653
0.214862 0.0398566 0.0148775
0.241169 0.0411688 0.0161898
0.267491 0.0424811 0.0175021
0.293797 0.0437934 0.0188144
0.320119 0.0451057 0.0201267
0.346426 0.0464179 0.0214389
0.372747 0.0477302 0.0227512
0.399054 0.0490425 0.0240635
0.425361 0.0503548 0.0253758
0.451682 0.051667 0.026688
0.477989 0.0529793 0.0280003
0.504311 0.0542916 0.0293126
0.530617 0.0556039 0.0306249
0.556924 0.0569162 0.0319371
0.583246 0.0582284 0.0332494
0.609552 0.0595407 0.0345617
0.635874 0.060853 0.035874
0.662181 0.0621653 0.0371862
0.688502 0.0634775 0.0384985
0.714809 0.0647898 0.0398108
0.741115 0.0661021 0.0411231
0.767437 0.0674144 0.0424353
0.793744 0.0687266 0.0437476
0.820066 0.0700389 0.0450599
0.846372 0.0713512 0.0463722
0.00874342 0.058732 0.00874342
0.03505 0.0600443 0.0100557
0.0613565 0.0613565 0.011368
0.0876783 0.0626688 0.0126802
0.113985 0.0639811 0.0139925
0.140307 0.0652934 0.0153048
0.166613 0.0666056 0.0166171
0.19292 0.0679179 0.0179294
0.219242 0.0692302 0.0192416
0.245548 0.0705425 0.0205539
0.27187 0.0718547 0.0218662
0.298177 0.073167 0.0231785
0.324483 0.0744793 0.0244907
0.350805 0.0757916 0.025803
0.377111 0.0771038 0.0271153
0.403433 0.0784161 0.0284276
0.42974 0.0797284 0.0297398
0.456062 0.0810407 0.0310674
0.482368 0.0823529 0.0323796
0.508675 0.0836652 0.0336919
0.534997 0.0849775 0.0350042
0.561303 0.0862898 0.0363165
0.587625 0.087602 0.0376287
0.613931 0.0889143 0.038941
0.640238 0.0902266 0.0402533
0.66656 0.0915389 0.0415656
0.692866 0.0928511 0.0428779
0.719188 0.0941787 0.0441901
0.745495 0.095491 0.0455024
0.771817 0.0968032 0.0468147
0.798123 0.0981155 0.048127
0.82443 0.0994278 0.0494392
0.850752 0.10074 0.0507515
0.0131228 0.0881056 0.0131228
0.0394293 0.0894179 0.014435
0.0657359 0.0907301 0.0157473
0.0920424 0.0920424 0.0170596
0.118364 0.0933547 0.0183719
0.144671 0.094667 0.0196841
0.170993 0.0959793 0.0209964
0.197299 0.0972915 0.0223087
0.223621 0.0986038 0.023621
0.249928 0.0999161 0.0249332
0.276234 0.101228 0.0262455
0.302556 0.102541 0.0275578
0.328862 0.103853 0.0288701
0.355184 0.105165 0.0301823
0.381491 0.106493 0.0314946
0.407797 0.107805 0.0328069
0.434119 0.109117 0.0341192
0.460426 0.11043 0.0354314
0.486748 0.111742 0.0367437
0.513054 0.113054 0.038056
0.539376 0.114366 0.0393683
0.565682 0.115679 0.0406806
0.591989 0.116991 0.0419928
0.618311 0.118303 0.0433051
0.644617 0.119615 0.0446174
0.670939 0.120928 0.0459297
0.697246 0.12224 0.0472419
0.723552 0.123552 0.0485542
0.749874 0.124865 0.0498665
0.776181 0.126177 0.0511788
0.802502 0.127489 0.052491
0.828809 0.128801 0.0538033
0.855116 0.130114 0.0551156
0.0175021 0.117494 0.0175021
0.0437934 0.118807 0.0188144
0.0701152 0.120119 0.0201267
0.0964218 0.121431 0.0214389
0.122744 0.122744 0.0227512
0.14905 0.124056 0.0240635
0.175357 0.125368 0.0253758
0.201678 0.12668 0.026688
0.227985 0.127993 0.0280003
0.254307 0.129305 0.0293126
0.280613 0.130617 0.0306249
0.30692 0.13193 0.0319371
0.333242 0.133242 0.0332494
0.359548 0.134554 0.0345617
0.38587 0.135866 0.035874
0.412177 0.137179 0.0371862
0.438499 0.138491 0.0384985
0.464805 0.139803 0.0398108
0.491112 0.141115 0.0411231
0.517433 0.142428 0.0424353
0.54374 0.14374 0.0437476
0.570062 0.145052 0.0450599
0.596368 0.146365 0.0463722
0.622675 0.147677 0.0476844
0.648997 0.148989 0.0489967
0.675303 0.150301 0.050309
0.701625 0.151614 0.0516213
0.727932 0.152926 0.0529335
0.754253 0.154238 0.0542458
0.78056 0.15555 0.0555581
0.806867 0.156863 0.0568704
0.833188 0.158175 0.0581826
0.859495 0.159487 0.0594949
0.0218662 0.146868 0.0218662
0.0481727 0.14818 0.0231785
0.0744793 0.149493 0.0244907
0.100801 0.150805 0.025803
0.127108 0.152117 0.0271153
0.153429 0.153429 0.0284276
0.179736 0.154742 0.0297398
0.206058 0.156054 0.0310674
0.232364 0.157366 0.0323796
0.258671 0.158679 0.0336919
0.284993 0.159991 0.0350042
0.311299 0.161303 0.0363165
0.337621 0.162615 0.0376287
0.363928 0.163928 0.038941
0.390234 0.16524 0.0402533
0.416556 0.166552 0.0415656
0.442863 0.167865 0.0428779
0.469184 0.169177 0.0441901
0.495491 0.170489 0.0455024
0.521813 0.171801 0.0468147
0.548119 0.173114 0.048127
0.574426 0.174426 0.0494392
0.600748 0.175738 0.0507515
0.627054 0.17705 0.0520638
0.653376 0.178363 0.0533761
0.679683 0.179675 0.0546883
0.705989 0.180987 0.0560006
0.732311 0.1823 0.0573129
0.758618 0.183612 0.0586252
0.784939 0.184924 0.0599374
0.811246 0.186236 0.0612497
0.837568 0.187549 0.062562
0.863874 0.188861 0.0638743
0.0262455 0.176242 0.0262455
0.0525521 0.177554 0.0275578
0.0788586 0.178866 0.0288701
0.10518 0.180179 0.0301823
0.131487 0.181491 0.0314946
0.157794 0.182803 0.0328069
0.184115 0.184115 0.0341192
0.210422 0.185428 0.0354314
0.236744 0.18674 0.0367437
0.26305 0.188052 0.038056
0.289357 0.189364 0.0393683
0.315679 0.190677 0.0406806
0.341985 0.191989 0.0419928
0.368307 0.193301 0.0433051
0.394614 0.194614 0.0446174
0.420935 0.195926 0.0459297
0.447242 0.197238 0.0472419
0.473548 0.19855 0.0485542
0.49987 0.199863 0.0498665
0.526177 0.201175 0.0511788
0.552499 0.202487 0.052491
0.578805 0.2038 0.0538033
0.605112 0.205112 0.0551156
0.631434 0.206424 0.0564279
0.65774 0.207736 0.0577401
0.684062 0.209049 0.0590524
0.710369 0.210361 0.0603799
0.73669 0.211673 0.0616922
0.762997 0.212985 0.0630045
0.789303 0.214298 0.0643168
0.815625 0.21561 0.0656291
0.841932 0.216922 0.0669413
0.868254 0.218235 0.0682536
0.0306249 0.205615 0.0306249
0.0569162 0.206928 0.0319371
0.083238 0.20824 0.0332494
0.109545 0.209552 0.0345617
0.135866 0.210864 0.035874
0.162173 0.212177 0.0371862
0.188495 0.213489 0.0384985
0.214801 0.214801 0.0398108
0.241108 0.216114 0.0411231
0.26743 0.217426 0.0424353
0.293736 0.218738 0.0437476
0.320058 0.22005 0.0450599
0.346365 0.221363 0.0463722
0.372671 0.222675 0.0476844
0.398993 0.223987 0.0489967
0.425299 0.225299 0.050309
0.451621 0.226612 0.0516213
0.477928 0.227924 0.0529335
0.50425 0.229236 0.0542458
0.530556 0.230549 0.0555581
0.556863 0.231861 0.0568704
0.583185 0.233173 0.0581826
0.609491 0.234485 0.0594949
0.635813 0.235798 0.0608072
0.66212 0.23711 0.0621195
0.688426 0.238422 0.0634318
0.714748 0.239734 0.064744
0.741054 0.241047 0.0660563
0.767376 0.242359 0.0673686
0.793683 0.243671 0.0686809
0.820005 0.244984 0.0699931
0.846311 0.246296 0.0713054
0.872618 0.247608 0.0726177
0.0350042 0.234989 0.0350042
0.0612955 0.236301 0.0363165
0.0876173 0.237613 0.0376287
0.113924 0.238926 0.038941
0.14023 0.240238 0.0402533
0.166552 0.24155 0.0415656
0.192859 0.242863 0.0428779
0.219181 0.244175 0.0441901
0.245487 0.245487 0.0455024
0.271809 0.246799 0.0468147
0.298116 0.248112 0.048127
0.324422 0.249424 0.0494392
0.350744 0.250736 0.0507515
0.37705 0.252049 0.0520638
0.403372 0.253361 0.0533761
0.429679 0.254673 0.0546883
0.455985 0.255985 0.0560006
0.482307 0.257298 0.0573129
0.508614 0.25861 0.0586252
0.534936 0.259922 0.0599374
0.561242 0.261234 0.0612497
0.587564 0.262547 0.062562
0.61387 0.263859 0.0638743
0.640177 0.265171 0.0651865
0.666499 0.266484 0.0664988
0.692805 0.267796 0.0678111
0.719127 0.269108 0.0691234
0.745434 0.27042 0.0704356
0.77174 0.271733 0.0717479
0.798062 0.273045 0.0730602
0.824369 0.274357 0.0743725
0.85069 0.275669 0.0756847
0.876997 0.276982 0.076997
0.0393683 0.264363 0.0393683
0.0656748 0.265675 0.0406806
0.0919814 0.266987 0.0419928
0.118303 0.268299 0.0433051
0.14461 0.269612 0.0446174
0.170932 0.270924 0.0459297
0.197238 0.272236 0.0472419
0.223545 0.273548 0.0485542
0.249866 0.274861 0.0498665
0.276173 0.276173 0.0511788
0.302495 0.277485 0.052491
0.328801 0.278798 0.0538033
0.355108 0.28011 0.0551156
0.38143 0.281422 0.0564279
0.407736 0.282734 0.0577401
0.434058 0.284047 0.0590524
0.460365 0.285359 0.0603799
0.486686 0.286671 0.0616922
0.512993 0.287984 0.0630045
0.5393 0.289296 0.0643168
0.565621 0.290608 0.0656291
0.591928 0.29192 0.0669413
0.61825 0.293233 0.0682536
0.644556 0.294545 0.0695659
0.670863 0.295857 0.0708782
0.697185 0.297169 0.0721904
0.723491 0.298482 0.0735027
0.749813 0.299794 0.074815
0.77612 0.301106 0.0761273
0.802441 0.302419 0.0774395
0.828748 0.303731 0.0787518
0.855055 0.305043 0.0800641
0.881376 0.306355 0.0813764
0.0437476 0.293736 0.0437476
0.0700542 0.295048 0.0450599
0.0963607 0.296361 0.0463722
0.122667 0.297673 0.0476844
0.148989 0.298985 0.0489967
0.175296 0.300298 0.050309
0.201617 0.30161 0.0516213
0.227924 0.302922 0.0529335
0.254246 0.304234 0.0542458
0.280552 0.305547 0.0555581
0.306859 0.306859 0.0568704
0.333181 0.308171 0.0581826
0.359487 0.309483 0.0594949
0.385809 0.310796 0.0608072
0.412116 0.312108 0.0621195
0.438422 0.31342 0.0634318
0.464744 0.314733 0.064744
0.491051 0.316045 0.0660563
0.517372 0.317357 0.0673686
0.543679 0.318669 0.0686809
0.570001 0.319982 0.0699931
0.596307 0.321294 0.0713054
0.622614 0.322606 0.0726177
0.648936 0.323919 0.07393
0.675242 0.325231 0.0752422
0.701564 0.326543 0.0765545
0.727871 0.327855 0.0778668
0.754177 0.329168 0.0791791
0.780499 0.33048 0.0804913
0.806806 0.331792 0.0818036
0.833127 0.333104 0.0831159
0.859434 0.334432 0.0844282
0.885756 0.335744 0.0857404
0.048127 0.32311 0.048127
0.0744182 0.324422 0.0494392
0.10074 0.325734 0.0507515
0.127047 0.327047 0.0520638
0.153368 0.328359 0.0533761
0.179675 0.329671 0.0546883
0.205982 0.330983 0.0560006
0.232303 0.332296 0.0573129
0.25861 0.333608 0.0586252
0.284932 0.33492 0.0599374
0.311238 0.336233 0.0612497
0.33756 0.337545 0.062562
0.363867 0.338857 0.0638743
0.390173 0.340169 0.0651865
0.416495 0.341482 0.0664988
0.442802 0.342794 0.0678111
0.469123 0.344106 0.0691234
0.49543 0.345434 0.0704356
0.521737 0.346746 0.0717479
0.548058 0.348058 0.0730602
0.574365 0.349371 0.0743725
0.600687 0.350683 0.0756847
0.626993 0.351995 0.076997
0.653315 0.353307 0.0783093
0.679622 0.35462 0.0796216
0.705928 0.355932 0.0809339
0.73225 0.357244 0.0822461
0.758556 0.358557 0.0835584
0.784878 0.359869 0.0848707
0.811185 0.361181 0.086183
0.837491 0.362493 0.0874952
0.863813 0.363806 0.0888075
0.89012 0.365118 0.0901198
0.0525063 0.352499 0.052491
0.0787976 0.353796 0.0538033
0.105104 0.355108 0.0551156
0.131426 0.35642 0.0564279
0.157733 0.357748 0.0577401
0.184054 0.35906 0.0590524
0.210361 0.360372 0.0603647
0.236683 0.361685 0.0616922
0.262989 0.362997 0.0630045
0.289296 0.364309 0.0643168
0.315618 0.365621 0.0656291
0.341924 0.366934 0.0669413
0.368246 0.368246 0.0682536
0.394553 0.369558 0.0695659
0.420859 0.370871 0.0708782
0.447181 0.372183 0.0721904
0.473487 0.373495 0.0735027
0.499809 0.374807 0.074815
0.526116 0.37612 0.0761273
0.552438 0.377432 0.0774395
0.578744 0.378744 0.0787518
0.605051 0.380056 0.0800641
0.631373 0.381369 0.0813764
0.657679 0.382681 0.0826886
0.684001 0.383993 0.0840009
0.710307 0.385306 0.0853132
0.736614 0.386618 0.0866255
0.762936 0.38793 0.0879377
0.789242 0.389242 0.08925
0.815564 0.390555 0.0905623
0.841871 0.391867 0.0918746
0.868193 0.393179 0.0931868
0.894499 0.394491 0.0944991
0.0568704 0.381872 0.0568704
0.0831769 0.383185 0.0581826
0.109483 0.384497 0.0594949
0.135805 0.385809 0.0608072
0.162112 0.387121 0.0621195
0.188418 0.388434 0.0634318
0.21474 0.389746 0.064744
0.241047 0.391058 0.0660563
0.267369 0.39237 0.0673686
0.293675 0.393683 0.0686809
0.319997 0.394995 0.0699931
0.346303 0.396307 0.0713054
0.37261 0.39762 0.0726177
0.398932 0.398932 0.07393
0.425238 0.400244 0.0752422
0.45156 0.401556 0.0765545
0.477867 0.402869 0.0778668
0.504173 0.404181 0.0791791
0.530495 0.405493 0.0804913
0.556802 0.406806 0.0818036
0.583124 0.408118 0.0831159
0.60943 0.40943 0.0844282
0.635752 0.410742 0.0857404
0.662058 0.412055 0.0870527
0.688365 0.413367 0.088365
0.714687 0.414679 0.0896773
0.740993 0.415991 0.0910048
0.767315 0.417304 0.0923171
0.793622 0.418616 0.0936294
0.819928 0.419928 0.0949416
0.84625 0.421241 0.0962539
0.872557 0.422553 0.0975662
0.898878 0.423865 0.0988785
0.0612497 0.411246 0.0612497
0.0875563 0.412558 0.062562
0.113863 0.41387 0.0638743
0.140169 0.415183 0.0651865
0.166491 0.416495 0.0664988
0.192798 0.417807 0.0678111
0.21912 0.41912 0.0691234
0.245426 0.420432 0.0704356
0.271733 0.421744 0.0717479
0.298054 0.423056 0.0730602
0.324361 0.424369 0.0743725
0.350683 0.425681 0.0756847
0.376989 0.426993 0.076997
0.403311 0.428305 0.0783093
0.429618 0.429618 0.0796216
0.455924 0.43093 0.0809339
0.482246 0.432242 0.0822461
0.508553 0.433555 0.0835584
0.534874 0.434867 0.0848707
0.561181 0.436179 0.086183
0.587488 0.437491 0.0874952
0.613809 0.438804 0.0888075
0.640116 0.440116 0.0901198
0.666438 0.441428 0.0914321
0.692744 0.442741 0.0927443
0.719051 0.444053 0.0940566
0.745373 0.445365 0.0953689
0.771679 0.446677 0.0966812
0.798001 0.44799 0.0979934
0.824308 0.449302 0.0993057
0.850629 0.450614 0.100618
0.876936 0.451926 0.10193
0.903243 0.453239 0.103243
0.0656291 0.44062 0.0656291
0.0919203 0.441932 0.0669413
0.118242 0.443244 0.0682536
0.144549 0.444556 0.0695659
0.170855 0.445869 0.0708782
0.197177 0.447181 0.0721904
0.223484 0.448493 0.0735027
0.249805 0.449805 0.074815
0.276112 0.451118 0.0761273
0.302434 0.45243 0.0774395
0.32874 0.453742 0.0787518
0.355047 0.455055 0.0800641
0.381369 0.456367 0.0813764
0.407675 0.457679 0.0826886
0.433997 0.458991 0.0840009
0.460304 0.460304 0.0853132
0.48661 0.461616 0.0866255
0.512932 0.462928 0.0879377
0.539239 0.46424 0.08925
0.56556 0.465553 0.0905623
0.591867 0.466865 0.0918746
0.618189 0.468177 0.0931868
0.644495 0.46949 0.0944991
0.670802 0.470802 0.0958114
0.697124 0.472114 0.0971237
0.72343 0.473426 0.098436
0.749752 0.474739 0.0997482
0.776059 0.476051 0.101061
0.802365 0.477363 0.102373
0.828687 0.478676 0.103685
0.854994 0.479988 0.104997
0.881315 0.4813 0.10631
0.907622 0.482612 0.107622
0.0699931 0.469993 0.0699931
0.0962997 0.471305 0.0713054
0.122606 0.472618 0.0726177
0.148928 0.47393 0.07393
0.175235 0.475242 0.0752422
0.201556 0.476555 0.0765545
0.227863 0.477867 0.0778668
0.25417 0.479179 0.0791791
0.280491 0.480491 0.0804913
0.306798 0.481804 0.0818036
0.33312 0.483116 0.0831159
0.359426 0.484428 0.0844282
0.385748 0.48574 0.0857404
0.412055 0.487053 0.0870527
0.438361 0.488365 0.088365
0.464683 0.489677 0.0896773
0.49099 0.49099 0.0910048
0.517311 0.492302 0.0923171
0.543618 0.493614 0.0936294
0.569924 0.494926 0.0949416
0.596246 0.496239 0.0962539
0.622553 0.497551 0.0975662
0.648875 0.498863 0.0988785
0.675181 0.500175 0.100191
0.701503 0.501488 0.101503
0.72781 0.5028 0.102815
0.754116 0.504112 0.104128
0.780438 0.505425 0.10544
0.806745 0.506737 0.106752
0.833066 0.508049 0.108064
0.859373 0.509361 0.109377
0.885679 0.510674 0.110689
0.912001 0.511986 0.112001
0.0743725 0.499367 0.0743725
0.100679 0.500679 0.0756847
0.126986 0.501991 0.076997
0.153307 0.503304 0.0783093
0.179614 0.504616 0.0796216
0.205921 0.505928 0.0809339
0.232242 0.50724 0.0822461
0.258549 0.508553 0.0835584
0.284871 0.509865 0.0848707
0.311177 0.511177 0.086183
0.337484 0.512489 0.0874952
0.363806 0.513802 0.0888075
0.390112 0.515114 0.0901198
0.416434 0.516426 0.0914321
0.442741 0.517739 0.0927443
0.469062 0.519051 0.0940566
0.495369 0.520363 0.0953689
0.521675 0.521675 0.0966812
0.547997 0.522988 0.0979934
0.574304 0.5243 0.0993057
0.600626 0.525612 0.100618
0.626932 0.526925 0.10193
0.653239 0.528237 0.103243
0.679561 0.529549 0.104555
0.705867 0.530861 0.105867
0.732189 0.532174 0.107179
0.758495 0.533486 0.108492
0.784802 0.534798 0.109804
0.811124 0.53611 0.111116
0.83743 0.537423 0.112428
0.863752 0.538735 0.113741
0.890059 0.540047 0.115053
0.916381 0.54136 0.116365
0.0787518 0.52874 0.0787518
0.105043 0.530053 0.0800641
0.131365 0.531365 0.0813764
0.157671 0.532677 0.0826886
0.183993 0.533989 0.0840009
0.2103 0.535302 0.0853132
0.236606 0.536614 0.0866255
0.262928 0.537926 0.0879377
0.289235 0.539239 0.08925
0.315557 0.540551 0.0905623
0.341863 0.541863 0.0918746
0.368185 0.543175 0.0931868
0.394491 0.544488 0.0944991
0.420798 0.5458 0.0958114
0.44712 0.547112 0.0971237
0.473426 0.548424 0.098436
0.499748 0.549737 0.0997482
0.526055 0.551049 0.101061
0.552361 0.552361 0.102373
0.578683 0.553674 0.103685
0.60499 0.554986 0.104997
0.631312 0.556298 0.10631
0.657618 0.55761 0.107622
0.68394 0.558923 0.108934
0.710246 0.560235 0.110246
0.736553 0.561547 0.111559
0.762875 0.56286 0.112871
0.789181 0.564172 0.114183
0.815503 0.565484 0.115496
0.84181 0.566796 0.116808
0.868116 0.568109 0.11812
0.894438 0.569421 0.119432
0.920745 0.570733 0.120745
0.0831311 0.558114 0.0831159
0.109422 0.559426 0.0844282
0.135744 0.560739 0.0857404
0.162051 0.562051 0.0870527
0.188357 0.563363 0.088365
0.214679 0.564675 0.0896773
0.240986 0.565988 0.0910048
0.267308 0.5673 0.0923171
0.293614 0.568612 0.0936294
0.319921 0.569924 0.0949416
0.346242 0.571237 0.0962539
0.372549 0.572549 0.0975662
0.398871 0.573861 0.0988785
0.425177 0.575174 0.100191
0.451499 0.576486 0.101503
0.477806 0.577798 0.102815
0.504112 0.57911 0.104128
0.530434 0.580423 0.10544
0.556741 0.581735 0.106752
0.583062 0.583047 0.108064
0.609369 0.58436 0.109377
0.635676 0.585687 0.110689
0.661997 0.586999 0.112001
0.688304 0.588312 0.113313
0.714626 0.589624 0.114626
0.740932 0.590936 0.115938
0.767254 0.592248 0.11725
0.793561 0.593561 0.118563
0.819867 0.594873 0.119875
0.846189 0.596185 0.121187
0.872496 0.597498 0.122499
0.898817 0.59881 0.123812
0.925124 0.600122 0.125124
0.0874952 0.587488 0.0874952
0.113802 0.5888 0.0888075
0.140108 0.590112 0.0901198
0.16643 0.591424 0.0914321
0.192737 0.592737 0.0927443
0.219043 0.594049 0.0940566
0.245365 0.595361 0.0953689
0.271672 0.596689 0.0966812
0.297993 0.598001 0.0979934
0.3243 0.599313 0.0993057
0.350622 0.600626 0.100618
0.376928 0.601938 0.10193
0.403235 0.60325 0.103243
0.429557 0.604562 0.104555
0.455863 0.605875 0.105867
0.482185 0.607187 0.107179
0.508492 0.608499 0.108492
0.534798 0.609812 0.109804
0.56112 0.611124 0.111116
0.587427 0.612436 0.112428
0.613748 0.613748 0.113741
0.640055 0.615061 0.115053
0.666377 0.616373 0.116365
0.692683 0.617685 0.117678
0.71899 0.618997 0.11899
0.745312 0.62031 0.120317
0.771618 0.621622 0.12163
0.79794 0.622934 0.122942
0.824247 0.624247 0.124254
0.850553 0.625559 0.125566
0.876875 0.626871 0.126879
0.903181 0.628183 0.128191
0.929503 0.629496 0.129503
0.0918746 0.616876 0.0918746
0.118181 0.618189 0.0931868
0.144488 0.619501 0.0944991
0.170794 0.620813 0.0958114
0.197116 0.622126 0.0971237
0.223423 0.623438 0.098436
0.249744 0.62475 0.0997482
0.276051 0.626062 0.101061
0.302358 0.627375 0.102373
0.328679 0.628687 0.103685
0.354986 0.629999 0.104997
0.381308 0.631312 0.10631
0.407614 0.632624 0.107622
0.433936 0.633936 0.108934
0.460243 0.635248 0.110246
0.486549 0.636561 0.111559
0.512871 0.637873 0.112871
0.539178 0.639185 0.114183
0.565499 0.640497 0.115496
0.591806 0.64181 0.116808
0.618112 0.643122 0.11812
0.644434 0.644434 0.119432
0.670741 0.645747 0.120745
0.697063 0.647059 0.122057
0.723369 0.648371 0.123369
0.749691 0.649683 0.124681
0.775998 0.650996 0.125994
0.802304 0.652308 0.127306
0.828626 0.65362 0.128618
0.854932 0.654932 0.129931
0.881254 0.656245 0.131243
0.907561 0.657557 0.132555
0.933867 0.658869 0.133867
0.0962539 0.64625 0.0962539
0.122545 0.647562 0.0975662
0.148867 0.648875 0.0988785
0.175174 0.650187 0.100191
0.201495 0.651499 0.101503
0.227802 0.652811 0.102815
0.254108 0.654124 0.104128
0.28043 0.655436 0.10544
0.306737 0.656748 0.106752
0.333059 0.658061 0.108064
0.359365 0.659373 0.109377
0.385672 0.660685 0.110689
0.411994 0.661997 0.112001
0.4383 0.66331 0.113313
0.464622 0.664622 0.114626
0.490929 0.665934 0.115938
0.51725 0.667247 0.11725
0.543557 0.668559 0.118563
0.569863 0.669871 0.119875
0.596185 0.671183 0.121187
0.622492 0.672496 0.122499
0.648814 0.673808 0.123812
0.67512 0.67512 0.125124
0.701427 0.676432 0.126436
0.727749 0.677745 0.127749
0.754055 0.679057 0.129061
0.780377 0.680369 0.130373
0.806683 0.681682 0.131685
0.833005 0.682994 0.132998
0.859312 0.684306 0.13431
0.885618 0.685618 0.135622
0.91194 0.686931 0.136934
0.938247 0.688243 0.138247
0.100618 0.675624 0.100618
0.126925 0.676936 0.10193
0.153231 0.678248 0.103243
0.179553 0.679561 0.104555
0.205859 0.680873 0.105867
0.232181 0.682185 0.107179
0.258488 0.683497 0.108492
0.284794 0.68481 0.109804
0.311116 0.686122 0.111116
0.337423 0.687434 0.112428
0.363745 0.688746 0.113741
0.390051 0.690059 0.115053
0.416373 0.691371 0.116365
0.442679 0.692683 0.117678
0.468986 0.693996 0.11899
0.495308 0.695308 0.120317
0.521614 0.69662 0.12163
0.547936 0.697932 0.122942
0.574243 0.699245 0.124254
0.600549 0.700557 0.125566
0.626871 0.701869 0.126879
0.653178 0.703182 0.128191
0.6795 0.704494 0.129503
0.705806 0.705806 0.130816
0.732128 0.707118 0.132128
0.758434 0.708431 0.13344
0.784741 0.709743 0.134752
0.811063 0.711055 0.136065
0.837369 0.712367 0.137377
0.863691 0.71368 0.138689
0.889998 0.714992 0.140002
0.916304 0.716304 0.141314
0.942626 0.717617 0.142626
0.104997 0.704997 0.104997
0.131304 0.70631 0.10631
0.15761 0.707622 0.107622
0.183932 0.708934 0.108934
0.210239 0.710246 0.110246
0.236545 0.711559 0.111559
0.262867 0.712871 0.112871
0.289174 0.714183 0.114183
0.315496 0.715496 0.115496
0.341802 0.716808 0.116808
0.368109 0.71812 0.11812
0.39443 0.719432 0.119432
0.420737 0.720745 0.120745
0.447059 0.722057 0.122057
0.473365 0.723369 0.123369
0.499687 0.724681 0.124681
0.525994 0.725994 0.125994
0.5523 0.727306 0.127306
0.578622 0.728618 0.128618
0.604929 0.729931 0.129931
0.631251 0.731243 0.131243
0.657557 0.732555 0.132555
0.683864 0.733867 0.133867
0.710185 0.73518 0.13518
0.736492 0.736492 0.136492
0.762814 0.737804 0.137804
0.78912 0.739116 0.139116
0.815442 0.740429 0.140429
0.841749 0.741741 0.141741
0.868055 0.743053 0.143053
0.894377 0.744366 0.144366
0.920684 0.745678 0.145678
0.947005 0.74699 0.14699
0.109377 0.734371 0.109377
0.135668 0.735683 0.110689
0.16199 0.736996 0.112001
0.188296 0.738308 0.113313
0.214618 0.73962 0.114626
0.240925 0.740932 0.115938
0.267247 0.742245 0.11725
0.293553 0.743557 0.118563
0.31986 0.744869 0.119875
0.346181 0.746181 0.121187
0.372488 0.747494 0.122499
0.39881 0.748806 0.123812
0.425116 0.750118 0.125124
0.451423 0.751431 0.126436
0.477745 0.752743 0.127749
0.504051 0.754055 0.129061
0.530373 0.755367 0.130373
0.55668 0.75668 0.131685
0.583001 0.757992 0.132998
0.609308 0.759304 0.13431
0.635615 0.760616 0.135622
0.661936 0.761929 0.136934
0.688243 0.763241 0.138247
0.714565 0.764553 0.139559
0.740871 0.765866 0.140871
0.767178 0.767178 0.142184
0.7935 0.76849 0.143496
0.819806 0.769802 0.144808
0.846128 0.771115 0.14612
0.872435 0.772427 0.147433
0.898741 0.773739 0.148745
0.925063 0.775051 0.150057
0.95137 0.776364 0.151369
0.113756 0.763745 0.113741
0.140047 0.765057 0.115053
0.166369 0.766369 0.116365
0.192676 0.767681 0.117678
0.218982 0.768994 0.119005
0.245304 0.770306 0.120317
0.271611 0.771618 0.12163
0.297932 0.772931 0.122942
0.324239 0.774243 0.124254
0.350545 0.775555 0.125566
0.376867 0.776867 0.126879
