public/LUTS/Color Loss/Color Loss_05.cube
TITLE "Generated by Resolve"
LUT_3D_SIZE 33
0 0 0
0.0188907 0.00328069 0.00328069
0.0377966 0.00656138 0.00656138
0.0567178 0.00984207 0.00984207
0.0756237 0.0131228 0.0131228
0.0945296 0.0164034 0.0164034
0.113436 0.0196841 0.0196841
0.132342 0.0229648 0.0229648
0.151247 0.0262455 0.0262455
0.170153 0.0295262 0.0295262
0.189059 0.0328069 0.0328069
0.207965 0.0360876 0.0360876
0.226871 0.0393683 0.0393683
0.245777 0.042649 0.042649
0.264683 0.0459297 0.0459297
0.283589 0.0492103 0.0492103
0.302495 0.052491 0.0525063
0.321401 0.055787 0.055787
0.340307 0.0590677 0.0590677
0.359213 0.0623484 0.0623484
0.378119 0.0656291 0.0656291
0.397024 0.0689097 0.0689097
0.41593 0.0721904 0.0721904
0.434836 0.0754711 0.0754711
0.453742 0.0787518 0.0787518
0.472648 0.0820325 0.0820325
0.491554 0.0853132 0.0853132
0.51046 0.0885939 0.0885939
0.529381 0.0918746 0.0918746
0.548287 0.0951553 0.0951553
0.567193 0.098436 0.098436
0.586099 0.101717 0.101717
0.605005 0.104997 0.104997
0.0109255 0.0265507 0.0109255
0.0298314 0.0298314 0.0142061
0.0487373 0.0331121 0.0174868
0.0676432 0.0363928 0.0207675
0.0865492 0.0396735 0.0240482
0.105455 0.0429541 0.0273442
0.124361 0.0462348 0.0306249
0.143267 0.0495155 0.0339055
0.162173 0.0527962 0.0371862
0.181079 0.0560769 0.0404669
0.199985 0.0593576 0.0437476
0.218891 0.0626383 0.0470283
0.237797 0.065919 0.050309
0.256703 0.0691997 0.0535897
0.275608 0.0724804 0.0568704
0.294514 0.075761 0.0601511
0.31342 0.0790417 0.0634318
0.332341 0.0823224 0.0667124
0.351247 0.0856031 0.0699931
0.370153 0.0888991 0.0732738
0.389059 0.0921798 0.0765545
0.407965 0.0954604 0.0798352
0.426871 0.0987411 0.0831159
0.445777 0.102022 0.0863966
0.464683 0.105303 0.0896773
0.483589 0.108583 0.092958
0.502495 0.111864 0.0962387
0.521401 0.115145 0.0995193
0.540307 0.118425 0.1028
0.559213 0.121706 0.106081
0.578119 0.124987 0.109377
0.597025 0.128267 0.112657
0.61593 0.131548 0.115938
0.0218662 0.0531167 0.0218662
0.0407721 0.0563973 0.0251469
0.059678 0.059678 0.0284276
0.078584 0.0629587 0.0317082
0.0974899 0.0662394 0.0349889
0.116396 0.0695201 0.0382696
0.135302 0.0728008 0.0415503
0.154208 0.0760815 0.044831
0.173114 0.0793622 0.0481117
0.19202 0.0826429 0.0513924
0.210925 0.0859236 0.0546883
0.229831 0.0892042 0.057969
0.248737 0.0924849 0.0612497
0.267643 0.0957656 0.0645304
0.286549 0.0990463 0.0678111
0.305455 0.102327 0.0710918
0.324361 0.105608 0.0743725
0.343267 0.108888 0.0776532
0.362173 0.112169 0.0809339
0.381079 0.11545 0.0842145
0.399985 0.11873 0.0874952
0.418891 0.122011 0.0907759
0.437812 0.125292 0.0940566
0.456718 0.128573 0.0973373
0.475624 0.131868 0.100618
0.49453 0.135149 0.103899
0.513436 0.13843 0.107179
0.532341 0.141711 0.11046
0.551247 0.144991 0.113741
0.570153 0.148272 0.117021
0.589059 0.151553 0.120302
0.607965 0.154833 0.123583
0.626871 0.158114 0.126864
0.0328069 0.0796826 0.0328069
0.0516976 0.082948 0.0360876
0.0706188 0.086244 0.0393683
0.0895247 0.0895247 0.042649
0.108431 0.0928054 0.0459297
0.127337 0.0960861 0.0492103
0.146242 0.0993668 0.052491
0.165148 0.102647 0.0557717
0.184054 0.105928 0.0590524
0.20296 0.109209 0.0623331
0.221866 0.11249 0.0656138
0.240772 0.11577 0.0688945
0.259678 0.119051 0.0721752
0.278584 0.122332 0.0754559
0.29749 0.125612 0.0787366
0.316396 0.128893 0.0820325
0.335302 0.132174 0.0853132
0.354208 0.135454 0.0885939
0.373114 0.138735 0.0918746
0.39202 0.142016 0.0951553
0.410925 0.145296 0.098436
0.429831 0.148577 0.101717
0.448737 0.151858 0.104997
0.467643 0.155138 0.108278
0.486549 0.158419 0.111559
0.505455 0.1617 0.114839
0.524361 0.164981 0.11812
0.543282 0.168261 0.121401
0.562188 0.171542 0.124681
0.581094 0.174823 0.127962
0.6 0.178119 0.131243
0.618906 0.181399 0.134524
0.637812 0.18468 0.137804
0.0437476 0.106233 0.0437476
0.0626383 0.109514 0.0470283
0.0815442 0.112795 0.050309
0.10045 0.116075 0.0535897
0.119356 0.119356 0.0568704
0.138262 0.122637 0.0601511
0.157168 0.125917 0.0634318
0.176089 0.129198 0.0667124
0.194995 0.132494 0.0699931
0.213901 0.135775 0.0732738
0.232807 0.139055 0.0765545
0.251713 0.142336 0.0798352
0.270619 0.145617 0.0831159
0.289525 0.148898 0.0863966
0.308431 0.152178 0.0896773
0.327337 0.155459 0.092958
0.346242 0.15874 0.0962387
0.365148 0.16202 0.0995193
0.384054 0.165301 0.1028
0.40296 0.168582 0.106081
0.421866 0.171862 0.109377
0.440772 0.175143 0.112657
0.459678 0.178424 0.115938
0.478584 0.181704 0.119219
0.49749 0.184985 0.122499
0.516396 0.188266 0.12578
0.535302 0.191546 0.129061
0.554208 0.194827 0.132342
0.573114 0.198108 0.135622
0.59202 0.201389 0.138903
0.610925 0.204669 0.142184
0.629831 0.20795 0.145464
0.648753 0.211231 0.148745
0.0546883 0.132799 0.0546883
0.073579 0.13608 0.057969
0.0924849 0.139361 0.0612497
0.111391 0.142641 0.0645304
0.130297 0.145922 0.0678111
0.149203 0.149203 0.0710918
0.168109 0.152483 0.0743725
0.187015 0.155764 0.0776532
0.205921 0.159045 0.0809339
0.224826 0.162325 0.0842145
0.243732 0.165606 0.0874952
0.262638 0.168887 0.0907759
0.281559 0.172168 0.0940566
0.300465 0.175463 0.0973373
0.319371 0.178744 0.100618
0.338277 0.182025 0.103899
0.357183 0.185306 0.107179
0.376089 0.188586 0.11046
0.394995 0.191867 0.113741
0.413901 0.195148 0.117021
0.432807 0.198428 0.120302
0.451713 0.201709 0.123583
0.470619 0.20499 0.126864
0.489525 0.20827 0.130144
0.508431 0.211551 0.133425
0.527337 0.214832 0.136721
0.546242 0.218112 0.140002
0.565148 0.221393 0.143282
0.584054 0.224674 0.146563
0.60296 0.227955 0.149844
0.621866 0.231235 0.153124
0.640772 0.234516 0.156405
0.659678 0.237797 0.159686
0.0656138 0.159365 0.0656138
0.0845197 0.162646 0.0688945
0.103426 0.165927 0.0721752
0.122332 0.169207 0.0754559
0.141238 0.172488 0.0787366
0.160143 0.175769 0.0820325
0.179049 0.179049 0.0853132
0.197955 0.18233 0.0885939
0.216861 0.185611 0.0918746
0.235767 0.188891 0.0951553
0.254673 0.192172 0.098436
0.273579 0.195453 0.101717
0.292485 0.198734 0.104997
0.311391 0.202014 0.108278
0.330297 0.205295 0.111559
0.349203 0.208576 0.114839
0.368109 0.211856 0.11812
0.38703 0.215137 0.121401
0.405936 0.218418 0.124681
0.424842 0.221714 0.127962
0.443748 0.224994 0.131243
0.462654 0.228275 0.134524
0.481559 0.231556 0.137804
0.500465 0.234836 0.141085
0.519371 0.238117 0.144366
0.538277 0.241398 0.147646
0.557183 0.244678 0.150927
0.576089 0.247959 0.154208
0.594995 0.25124 0.157488
0.613901 0.25452 0.160769
0.632807 0.257801 0.164065
0.651713 0.261082 0.167346
0.670619 0.264363 0.170626
0.0765545 0.185931 0.0765545
0.0954604 0.189212 0.0798352
0.114366 0.192493 0.0831159
0.133272 0.195773 0.0863966
0.152178 0.199054 0.0896773
0.171084 0.202335 0.092958
0.18999 0.205615 0.0962387
0.208896 0.208896 0.0995193
0.227802 0.212177 0.1028
0.246708 0.215457 0.106081
0.265614 0.218738 0.109377
0.28452 0.222019 0.112657
0.303426 0.225299 0.115938
0.322332 0.22858 0.119219
0.341238 0.231861 0.122499
0.360143 0.235142 0.12578
0.379049 0.238422 0.129061
0.397955 0.241703 0.132342
0.416861 0.244984 0.135622
0.435767 0.248264 0.138903
0.454673 0.251545 0.142184
0.473579 0.254826 0.145464
0.4925 0.258106 0.148745
0.511406 0.261387 0.152026
0.530312 0.264683 0.155306
0.549218 0.267964 0.158587
0.568124 0.271244 0.161868
0.58703 0.274525 0.165148
0.605936 0.277806 0.168429
0.624842 0.281086 0.17171
0.643748 0.284367 0.17499
0.662654 0.287648 0.178271
0.681559 0.290929 0.181552
0.0874952 0.212497 0.0874952
0.106386 0.215763 0.0907759
0.125307 0.219059 0.0940566
0.144213 0.222339 0.0973373
0.163119 0.22562 0.100618
0.182025 0.228901 0.103899
0.200931 0.232181 0.107179
0.219837 0.235462 0.11046
0.238743 0.238743 0.113741
0.257649 0.242023 0.117021
0.276555 0.245304 0.120302
0.29546 0.248585 0.123583
0.314366 0.251865 0.126864
0.333272 0.255146 0.130144
0.352178 0.258427 0.133425
0.371084 0.261707 0.136721
0.38999 0.264988 0.140002
0.408896 0.268269 0.143282
0.427802 0.27155 0.146563
0.446708 0.27483 0.149844
0.465614 0.278111 0.153124
0.48452 0.281392 0.156405
0.503426 0.284672 0.159686
0.522332 0.287953 0.162966
0.541238 0.291234 0.166247
0.560143 0.294514 0.169528
0.579049 0.297795 0.172808
0.597971 0.301076 0.176089
0.616876 0.304356 0.17937
0.635782 0.307637 0.18265
0.654688 0.310933 0.185931
0.673594 0.314214 0.189212
0.6925 0.317494 0.192493
0.098436 0.239048 0.098436
0.117327 0.242329 0.101717
0.136233 0.245609 0.104997
0.155138 0.24889 0.108278
0.174044 0.252171 0.111559
0.19295 0.255451 0.114839
0.211856 0.258732 0.11812
0.230777 0.262028 0.121401
0.249683 0.265309 0.124681
0.268589 0.268589 0.127962
0.287495 0.27187 0.131243
0.306401 0.275151 0.134524
0.325307 0.278431 0.137804
0.344213 0.281712 0.141085
0.363119 0.284993 0.144366
0.382025 0.288273 0.147646
0.400931 0.291554 0.150927
0.419837 0.294835 0.154208
0.438743 0.298116 0.157488
0.457649 0.301396 0.160769
0.476555 0.304677 0.164065
0.49546 0.307958 0.167346
0.514366 0.311238 0.170626
0.533272 0.314519 0.173907
0.552178 0.3178 0.177188
0.571084 0.32108 0.180468
0.58999 0.324361 0.183749
0.608896 0.327642 0.18703
0.627802 0.330922 0.190311
0.646708 0.334203 0.193591
0.665614 0.337484 0.196872
0.68452 0.340764 0.200153
0.703441 0.344045 0.203433
0.109377 0.265614 0.109377
0.128267 0.268894 0.112657
0.147173 0.272175 0.115938
0.166079 0.275456 0.119219
0.184985 0.278737 0.122499
0.203891 0.282017 0.12578
0.222797 0.285298 0.129061
0.241703 0.288579 0.132342
0.260609 0.291859 0.135622
0.279515 0.29514 0.138903
0.298421 0.298421 0.142184
0.317327 0.301701 0.145464
0.336248 0.304982 0.148745
0.355154 0.308278 0.152026
0.37406 0.311559 0.155306
0.392966 0.314839 0.158587
0.411872 0.31812 0.161868
0.430777 0.321401 0.165148
0.449683 0.324681 0.168429
0.468589 0.327962 0.17171
0.487495 0.331243 0.17499
0.506401 0.334524 0.178271
0.525307 0.337804 0.181552
0.544213 0.341085 0.184833
0.563119 0.344366 0.188113
0.582025 0.347646 0.191409
0.600931 0.350927 0.19469
0.619837 0.354208 0.197971
0.638743 0.357488 0.201251
0.657649 0.360769 0.204532
0.676555 0.36405 0.207813
0.69546 0.36733 0.211093
0.714366 0.370611 0.214374
0.120302 0.29218 0.120302
0.139208 0.29546 0.123583
0.158114 0.298741 0.126864
0.17702 0.302022 0.130144
0.195926 0.305303 0.133425
0.214832 0.308583 0.136721
0.233738 0.311864 0.140002
0.252644 0.315145 0.143282
0.27155 0.318425 0.146563
0.290455 0.321706 0.149844
0.309361 0.324987 0.153124
0.328267 0.328267 0.156405
0.347173 0.331548 0.159686
0.366079 0.334829 0.162966
0.384985 0.338109 0.166247
0.403891 0.34139 0.169528
0.422797 0.344671 0.172808
0.441718 0.347951 0.176089
0.460624 0.351232 0.17937
0.47953 0.354528 0.18265
0.498436 0.357809 0.185931
0.517342 0.361089 0.189212
0.536248 0.36437 0.192493
0.555154 0.367651 0.195773
0.57406 0.370932 0.199054
0.592966 0.374212 0.202335
0.611872 0.377493 0.205615
0.630777 0.380774 0.208896
0.649683 0.384054 0.212177
0.668589 0.387335 0.215457
0.687495 0.390616 0.218738
0.706401 0.393896 0.222034
0.725307 0.397177 0.225315
0.131243 0.318746 0.131243
0.150149 0.322026 0.134524
0.169055 0.325307 0.137804
0.187961 0.328588 0.141085
0.206867 0.331868 0.144366
0.225772 0.335149 0.147646
0.244678 0.33843 0.150927
0.263584 0.341711 0.154208
0.28249 0.344991 0.157488
0.301396 0.348272 0.160769
0.320302 0.351553 0.164065
0.339208 0.354833 0.167346
0.358114 0.358114 0.170626
0.37702 0.361395 0.173907
0.395926 0.364675 0.177188
0.414832 0.367956 0.180468
0.433738 0.371237 0.183749
0.452644 0.374517 0.18703
0.47155 0.377798 0.190311
0.490455 0.381079 0.193591
0.509361 0.38436 0.196872
0.528267 0.38764 0.200153
0.547189 0.390921 0.203433
0.566094 0.394202 0.206714
0.585 0.397498 0.209995
0.603906 0.400778 0.213275
0.622812 0.404059 0.216556
0.641718 0.40734 0.219837
0.660624 0.41062 0.223117
0.67953 0.413901 0.226398
0.698436 0.417182 0.229679
0.717342 0.420462 0.232959
0.736248 0.423743 0.23624
0.142184 0.345312 0.142184
0.161074 0.348577 0.145464
0.179995 0.351873 0.148745
0.198901 0.355154 0.152026
0.217807 0.358434 0.155306
0.236713 0.361715 0.158587
0.255619 0.364996 0.161868
0.274525 0.368277 0.165148
0.293431 0.371557 0.168429
0.312337 0.374838 0.17171
0.331243 0.378119 0.17499
0.350149 0.381399 0.178271
0.369055 0.38468 0.181552
0.387961 0.387961 0.184833
0.406867 0.391241 0.188113
0.425772 0.394522 0.191409
0.444678 0.397803 0.19469
0.463584 0.401083 0.197971
0.48249 0.404364 0.201251
0.501396 0.407645 0.204532
0.520302 0.410925 0.207813
0.539208 0.414206 0.211093
0.558114 0.417487 0.214374
0.57702 0.420768 0.217655
0.595926 0.424048 0.220935
0.614832 0.427329 0.224216
0.633738 0.43061 0.227497
0.652659 0.43389 0.230777
0.671565 0.437171 0.234058
0.690471 0.440452 0.237339
0.709377 0.443748 0.24062
0.728283 0.447028 0.2439
0.747189 0.450309 0.247181
0.153124 0.371862 0.153124
0.172015 0.375143 0.156405
0.190921 0.378424 0.159686
0.209827 0.381704 0.162966
0.228733 0.384985 0.166247
0.247639 0.388266 0.169528
0.266545 0.391546 0.172808
0.285466 0.394842 0.176089
0.304372 0.398123 0.17937
0.323278 0.401404 0.18265
0.342184 0.404685 0.185931
0.361089 0.407965 0.189212
0.379995 0.411246 0.192493
0.398901 0.414527 0.195773
0.417807 0.417807 0.199054
0.436713 0.421088 0.202335
0.455619 0.424369 0.205615
0.474525 0.427649 0.208896
0.493431 0.43093 0.212177
0.512337 0.434211 0.215457
0.531243 0.437491 0.218738
0.550149 0.440772 0.222034
0.569055 0.444053 0.225315
0.587961 0.447333 0.228595
0.606867 0.450614 0.231876
0.625772 0.453895 0.235157
0.644678 0.457176 0.238437
0.663584 0.460456 0.241718
0.68249 0.463737 0.244999
0.701396 0.467018 0.24828
0.720302 0.470298 0.25156
0.739208 0.473579 0.254841
0.758129 0.47686 0.258122
0.164065 0.398428 0.164065
0.182956 0.401709 0.167346
0.201862 0.40499 0.170626
0.220768 0.40827 0.173907
0.239673 0.411551 0.177188
0.258579 0.414832 0.180468
0.277485 0.418112 0.183749
0.296391 0.421393 0.18703
0.315297 0.424674 0.190311
0.334203 0.427955 0.193591
0.353109 0.431235 0.196872
0.372015 0.434516 0.200153
0.390936 0.437797 0.203433
0.409842 0.441093 0.206714
0.428748 0.444373 0.209995
0.447654 0.447654 0.213275
0.46656 0.450935 0.216556
0.485466 0.454215 0.219837
0.504372 0.457496 0.223117
0.523278 0.460777 0.226398
0.542184 0.464057 0.229679
0.56109 0.467338 0.232959
0.579995 0.470619 0.23624
0.598901 0.473899 0.239521
0.617807 0.47718 0.242802
0.636713 0.480461 0.246082
0.655619 0.483742 0.249378
0.674525 0.487022 0.252659
0.693431 0.490303 0.25594
0.712337 0.493584 0.25922
0.731243 0.496864 0.262501
0.750149 0.500145 0.265782
0.769055 0.503426 0.269062
0.17499 0.424994 0.17499
0.193896 0.428275 0.178271
0.212802 0.431556 0.181552
0.231708 0.434836 0.184833
0.250614 0.438117 0.188113
0.26952 0.441398 0.191409
0.288426 0.444678 0.19469
0.307332 0.447959 0.197971
0.326238 0.45124 0.201251
0.345144 0.45452 0.204532
0.36405 0.457801 0.207813
0.382956 0.461082 0.211093
0.401862 0.464363 0.214374
0.420768 0.467643 0.217655
0.439673 0.470924 0.220935
0.458579 0.474205 0.224216
0.477485 0.477485 0.227497
0.496406 0.480766 0.230777
0.515312 0.484047 0.234058
0.534218 0.487343 0.237339
0.553124 0.490623 0.24062
0.57203 0.493904 0.2439
0.590936 0.497185 0.247181
0.609842 0.500465 0.250462
0.628748 0.503746 0.253742
0.647654 0.507027 0.257023
0.66656 0.510307 0.260304
0.685466 0.513588 0.263584
0.704372 0.516869 0.266865
0.723278 0.52015 0.270146
0.742184 0.52343 0.273426
0.76109 0.526711 0.276722
0.779995 0.529992 0.280003
0.185931 0.45156 0.185931
0.204837 0.454841 0.189212
0.223743 0.458122 0.192493
0.242649 0.461402 0.195773
0.261555 0.464683 0.199054
0.280461 0.467964 0.202335
0.299367 0.471244 0.205615
0.318273 0.474525 0.208896
0.337179 0.477806 0.212177
0.356085 0.481086 0.215457
0.37499 0.484367 0.218738
0.393896 0.487648 0.222034
0.412802 0.490929 0.225315
0.431708 0.494209 0.228595
0.450614 0.49749 0.231876
0.46952 0.500771 0.235157
0.488426 0.504051 0.238437
0.507332 0.507332 0.241718
0.526238 0.510613 0.244999
0.545144 0.513893 0.24828
0.56405 0.517174 0.25156
0.582956 0.520455 0.254841
0.601877 0.523735 0.258122
0.620783 0.527016 0.261402
0.639689 0.530312 0.264683
0.658595 0.533593 0.267964
0.677501 0.536873 0.271244
0.696406 0.540154 0.274525
0.715312 0.543435 0.277806
0.734218 0.546715 0.281086
0.753124 0.549996 0.284367
0.77203 0.553277 0.287648
0.790936 0.556558 0.290929
0.196872 0.478126 0.196872
0.215763 0.481392 0.200153
0.234684 0.484688 0.203433
0.25359 0.487968 0.206714
0.272496 0.491249 0.209995
0.291402 0.49453 0.213275
0.310307 0.49781 0.216556
0.329213 0.501091 0.219837
0.348119 0.504372 0.223117
0.367025 0.507652 0.226398
0.385931 0.510933 0.229679
0.404837 0.514214 0.232959
0.423743 0.517494 0.23624
0.442649 0.520775 0.239521
0.461555 0.524056 0.242802
0.480461 0.527337 0.246082
0.499367 0.530617 0.249378
0.518273 0.533898 0.252659
0.537179 0.537179 0.25594
0.556085 0.540459 0.25922
0.57499 0.54374 0.262501
0.593896 0.547021 0.265782
0.612802 0.550301 0.269062
0.631708 0.553582 0.272343
0.650614 0.556863 0.275624
0.66952 0.560143 0.278904
0.688426 0.563424 0.282185
0.707347 0.566705 0.285466
0.726253 0.569986 0.288746
0.745159 0.573266 0.292027
0.764065 0.576562 0.295308
0.782971 0.579843 0.298589
0.801877 0.583124 0.301869
0.207813 0.504677 0.207813
0.226703 0.507958 0.211093
0.245609 0.511238 0.214374
0.264515 0.514519 0.217655
0.283421 0.5178 0.220935
0.302327 0.52108 0.224216
0.321233 0.524361 0.227497
0.340154 0.527657 0.230777
0.35906 0.530938 0.234058
0.377966 0.534218 0.237339
0.396872 0.537499 0.24062
0.415778 0.54078 0.2439
0.434684 0.54406 0.247181
0.45359 0.547341 0.250462
0.472496 0.550622 0.253742
0.491402 0.553903 0.257023
0.510307 0.557183 0.260304
0.529213 0.560464 0.263584
0.548119 0.563745 0.266865
0.567025 0.567025 0.270146
0.585931 0.570306 0.273426
0.604837 0.573587 0.276722
0.623743 0.576867 0.280003
0.642649 0.580148 0.283284
0.661555 0.583429 0.286564
0.680461 0.586709 0.289845
0.699367 0.58999 0.293126
0.718273 0.593271 0.296407
0.737179 0.596551 0.299687
0.756085 0.599832 0.302968
0.77499 0.603113 0.306249
0.793896 0.606394 0.309529
0.812818 0.609674 0.31281
0.218753 0.531243 0.218753
0.237644 0.534524 0.222034
0.25655 0.537804 0.225315
0.275456 0.541085 0.228595
0.294362 0.544366 0.231876
0.313268 0.547646 0.235157
0.332174 0.550927 0.238437
0.35108 0.554208 0.241718
0.369985 0.557488 0.244999
0.388891 0.560769 0.24828
0.407797 0.56405 0.25156
0.426703 0.56733 0.254841
0.445624 0.570611 0.258122
0.46453 0.573907 0.261402
0.483436 0.577188 0.264683
0.502342 0.580468 0.267964
0.521248 0.583749 0.271244
0.540154 0.58703 0.274525
0.55906 0.590311 0.277806
0.577966 0.593591 0.281086
0.596872 0.596872 0.284367
0.615778 0.600153 0.287648
0.634684 0.603433 0.290929
0.65359 0.606714 0.294209
0.672496 0.609995 0.29749
0.691402 0.613275 0.300771
0.710307 0.616556 0.304067
0.729213 0.619837 0.307347
0.748119 0.623117 0.310628
0.767025 0.626398 0.313909
0.785931 0.629679 0.317189
0.804837 0.632959 0.32047
0.823743 0.63624 0.323751
0.229679 0.557809 0.229679
0.248585 0.56109 0.232959
0.267491 0.56437 0.23624
0.286397 0.567651 0.239521
0.305303 0.570932 0.242802
0.324208 0.574212 0.246082
0.343114 0.577493 0.249378
0.36202 0.580774 0.252659
0.380926 0.584054 0.25594
0.399832 0.587335 0.25922
0.418738 0.590616 0.262501
0.437644 0.593896 0.265782
0.45655 0.597177 0.269062
0.475456 0.600458 0.272343
0.494362 0.603738 0.275624
0.513268 0.607019 0.278904
0.532174 0.6103 0.282185
0.551095 0.613581 0.285466
0.570001 0.616876 0.288746
0.588907 0.620157 0.292027
0.607813 0.623438 0.295308
0.626719 0.626719 0.298589
0.645624 0.629999 0.301869
0.66453 0.63328 0.30515
0.683436 0.636561 0.308431
0.702342 0.639841 0.311711
0.721248 0.643122 0.314992
0.740154 0.646403 0.318273
0.75906 0.649683 0.321553
0.777966 0.652964 0.324834
0.796872 0.656245 0.328115
0.815778 0.659525 0.331411
0.834684 0.662806 0.334691
0.24062 0.584375 0.24062
0.259525 0.587655 0.2439
0.278431 0.590936 0.247181
0.297337 0.594217 0.250462
0.316243 0.597498 0.253742
0.335149 0.600778 0.257023
0.354055 0.604059 0.260304
0.372961 0.60734 0.263584
0.391867 0.61062 0.266865
0.410773 0.613901 0.270146
0.429679 0.617182 0.273426
0.448585 0.620462 0.276722
0.467491 0.623743 0.280003
0.486397 0.627024 0.283284
0.505302 0.630304 0.286564
0.524208 0.633585 0.289845
0.543114 0.636866 0.293126
0.56202 0.640146 0.296407
0.580926 0.643427 0.299687
0.599832 0.646708 0.302968
0.618738 0.649989 0.306249
0.637644 0.653269 0.309529
0.656565 0.65655 0.31281
0.675471 0.659831 0.316091
0.694377 0.663127 0.319371
0.713283 0.666407 0.322652
0.732189 0.669688 0.325933
0.751095 0.672969 0.329213
0.770001 0.676249 0.332494
0.788907 0.67953 0.335775
0.807813 0.682811 0.339055
0.826719 0.686091 0.342336
0.845624 0.689372 0.345617
0.25156 0.610941 0.25156
0.270451 0.614221 0.254841
0.289372 0.617502 0.258122
0.308278 0.620783 0.261402
0.327184 0.624063 0.264683
0.34609 0.627344 0.267964
0.364996 0.630625 0.271244
0.383902 0.633906 0.274525
0.402808 0.637186 0.277806
0.421714 0.640467 0.281086
0.44062 0.643748 0.284367
0.459525 0.647028 0.287648
0.478431 0.650309 0.290929
0.497337 0.65359 0.294209
0.516243 0.65687 0.29749
0.535149 0.660151 0.300771
0.554055 0.663432 0.304067
0.572961 0.666712 0.307347
0.591867 0.669993 0.310628
0.610773 0.673274 0.313909
0.629679 0.676555 0.317189
0.648585 0.679835 0.32047
0.667491 0.683116 0.323751
0.686397 0.686397 0.327031
0.705303 0.689677 0.330312
0.724208 0.692958 0.333593
0.743114 0.696239 0.336873
0.762036 0.699519 0.340154
0.780941 0.7028 0.343435
0.799847 0.706081 0.346716
0.818753 0.709377 0.349996
0.837659 0.712657 0.353277
0.856565 0.715938 0.356558
0.262501 0.637491 0.262501
0.281392 0.640772 0.265782
0.300298 0.644053 0.269062
0.319203 0.647334 0.272343
0.338109 0.650614 0.275624
0.357015 0.653895 0.278904
0.375921 0.657176 0.282185
0.394842 0.660471 0.285466
0.413748 0.663752 0.288746
0.432654 0.667033 0.292027
0.45156 0.670314 0.295308
0.470466 0.673594 0.298589
0.489372 0.676875 0.301869
0.508278 0.680156 0.30515
0.527184 0.683436 0.308431
0.54609 0.686717 0.311711
0.564996 0.689998 0.314992
0.583902 0.693278 0.318273
0.602808 0.696559 0.321553
0.621714 0.69984 0.324834
0.64062 0.70312 0.328115
0.659525 0.706401 0.331411
0.678431 0.709682 0.334691
0.697337 0.712963 0.337972
0.716243 0.716243 0.341253
0.735149 0.719524 0.344533
0.754055 0.722805 0.347814
0.772961 0.726085 0.351095
0.791867 0.729366 0.354376
0.810773 0.732647 0.357656
0.829679 0.735927 0.360937
0.848585 0.739208 0.364218
0.867506 0.742489 0.367498
0.273442 0.664057 0.273442
0.292332 0.667338 0.276722
0.311238 0.670619 0.280003
0.330144 0.673899 0.283284
0.34905 0.67718 0.286564
0.367956 0.680461 0.289845
0.386862 0.683742 0.293126
0.405768 0.687022 0.296407
0.424674 0.690303 0.299687
0.44358 0.693584 0.302968
0.462486 0.696864 0.306249
0.481392 0.700145 0.309529
0.500313 0.703426 0.31281
0.519219 0.706722 0.316091
0.538125 0.710002 0.319371
0.557031 0.713283 0.322652
0.575936 0.716564 0.325933
0.594842 0.719844 0.329213
0.613748 0.723125 0.332494
0.632654 0.726406 0.335775
0.65156 0.729686 0.339055
0.670466 0.732967 0.342336
0.689372 0.736248 0.345617
0.708278 0.739528 0.348898
0.727184 0.742809 0.352178
0.74609 0.74609 0.355459
0.764996 0.749371 0.358755
0.783902 0.752651 0.362036
0.802808 0.755932 0.365316
0.821714 0.759213 0.368597
0.84062 0.762493 0.371878
0.859525 0.765774 0.375158
0.878431 0.769055 0.378439
0.284367 0.690623 0.284367
0.303273 0.693904 0.287648
0.322179 0.697185 0.290929
0.341085 0.700465 0.294209
0.359991 0.703746 0.29749
0.378897 0.707027 0.300771
0.397803 0.710307 0.304067
0.416709 0.713588 0.307347
0.435615 0.716869 0.310628
0.45452 0.72015 0.313909
0.473426 0.72343 0.317189
0.492332 0.726711 0.32047
0.511238 0.729992 0.323751
0.530144 0.733272 0.327031
0.54905 0.736553 0.330312
0.567956 0.739834 0.333593
0.586862 0.743114 0.336873
0.605783 0.746395 0.340154
0.624689 0.749691 0.343435
0.643595 0.752972 0.346716
0.662501 0.756252 0.349996
0.681407 0.759533 0.353277
0.700313 0.762814 0.356558
0.719219 0.766094 0.359838
0.738125 0.769375 0.363119
0.757031 0.772656 0.3664
0.775937 0.775937 0.36968
0.794842 0.779217 0.372961
0.813748 0.782498 0.376242
0.832654 0.785779 0.379522
