public/LUTS/Color Loss/Color Loss_02.cube
TITLE "Generated by Resolve"
LUT_3D_SIZE 5
0 0 0
0.210483 0.0104982 0.0104982
0.420996 0.0209964 0.0209964
0.631495 0.0314946 0.0314946
0.841993 0.0419928 0.0419928
0.0350042 0.234989 0.0350042
0.245487 0.245487 0.0455024
0.455985 0.255985 0.0560006
0.666499 0.266484 0.0664988
0.876997 0.276982 0.076997
0.0699931 0.469993 0.0699931
0.280491 0.480491 0.0804913
0.49099 0.49099 0.0910048
0.701503 0.501488 0.101503
0.912001 0.511986 0.112001
0.104997 0.704997 0.104997
0.315496 0.715496 0.115496
0.525994 0.725994 0.125994
0.736492 0.736492 0.136492
0.947005 0.74699 0.14699
0.140002 0.940002 0.140002
0.350484 0.9505 0.1505
0.560998 0.960998 0.160998
0.771496 0.971496 0.171496
0.981994 0.981994 0.181994
0.00450141 0.00450141 0.204486
0.214984 0.0149996 0.214984
0.425498 0.0254978 0.225498
0.635996 0.035996 0.235996
0.846494 0.0464942 0.246494
0.0395056 0.23949 0.23949
0.249989 0.249989 0.249989
0.460487 0.260487 0.260487
0.671 0.270985 0.270985
0.881498 0.281483 0.281483
0.0744945 0.474495 0.274495
0.284993 0.484993 0.284993
0.495491 0.495491 0.295491
0.705989 0.505989 0.305989
0.916503 0.516487 0.316487
0.109499 0.709499 0.309483
0.319997 0.719997 0.319982
0.530495 0.730495 0.330495
0.740993 0.740993 0.340993
0.951507 0.751492 0.351492
0.144503 0.944503 0.344488
0.354986 0.955001 0.354986
0.565499 0.965499 0.365484
0.775998 0.975998 0.375982
0.986496 0.986496 0.386496
0.00900282 0.00900282 0.408988
0.219486 0.019501 0.419501
0.429999 0.0299992 0.429999
0.640497 0.0404974 0.440497
0.850996 0.0509957 0.450996
0.0439918 0.243992 0.443992
0.25449 0.25449 0.45449
0.464988 0.264988 0.464988
0.675502 0.275486 0.475486
0.886 0.285985 0.486
0.078996 0.478996 0.478996
0.289494 0.489494 0.489494
0.499992 0.499992 0.499992
0.710491 0.510491 0.510491
0.921004 0.520989 0.520989
0.114 0.714 0.514
0.324483 0.724498 0.524498
0.534997 0.734997 0.534997
0.745495 0.745495 0.545495
0.955993 0.755993 0.555993
0.149004 0.949004 0.548989
0.359487 0.959503 0.559487
0.570001 0.970001 0.569986
0.780499 0.980499 0.580499
0.990997 0.990997 0.590997
0.0135042 0.0135042 0.613504
0.223987 0.0240024 0.624002
0.434501 0.0345006 0.634501
0.644999 0.0449989 0.644999
0.855497 0.0554971 0.655497
0.0484932 0.248493 0.648493
0.258991 0.258991 0.658991
0.46949 0.26949 0.66949
0.679988 0.279988 0.680003
0.890501 0.290486 0.690501
0.0834974 0.483497 0.683497
0.293996 0.493996 0.693996
0.504494 0.504494 0.704494
0.714992 0.514992 0.714992
0.925505 0.52549 0.72549
0.118502 0.718502 0.718502
0.328984 0.729 0.729
0.539498 0.739498 0.739498
0.749996 0.749996 0.749996
0.960494 0.760494 0.760494
0.153506 0.953506 0.753491
0.363989 0.964004 0.763989
0.574487 0.974502 0.774502
0.785 0.985 0.785
0.995499 0.995499 0.795499
0.0180056 0.0180056 0.818006
0.228489 0.0285039 0.828504
0.438987 0.0390021 0.839002
0.6495 0.0495003 0.8495
0.859998 0.0599985 0.859998
0.0529946 0.252995 0.852995
0.263493 0.263493 0.863493
0.473991 0.273991 0.874006
0.684489 0.284489 0.884504
0.895003 0.294987 0.895003
0.0879988 0.487999 0.887999
0.298482 0.498497 0.898497
0.508995 0.508995 0.908995
0.719493 0.519493 0.919493
0.929992 0.529992 0.930007
0.123003 0.723003 0.923003
0.333486 0.733501 0.933501
0.543999 0.743999 0.943999
0.754498 0.754498 0.954498
0.964996 0.764996 0.964996
0.158007 0.958007 0.958007
0.36849 0.968505 0.968505
0.578988 0.979004 0.979004
0.789502 0.989502 0.989502
1 1 1
