public/LUTS/Color Loss/Color Loss_08.cube
TITLE "Generated by Resolve"
LUT_3D_SIZE 5
0 0 0
0.0919966 0.0419928 0.0419928
0.183993 0.0840009 0.0840009
0.276005 0.125994 0.125994
0.368002 0.168002 0.168002
0.139986 0.18999 0.139986
0.231983 0.231983 0.181994
0.323995 0.273991 0.223987
0.415991 0.315984 0.265995
0.507988 0.357992 0.307988
0.280003 0.379995 0.280003
0.371984 0.421988 0.321996
0.463996 0.463996 0.363989
0.555993 0.505989 0.405997
0.64799 0.547997 0.44799
0.420005 0.570001 0.420005
0.512001 0.611994 0.461997
0.603998 0.654002 0.50399
0.695994 0.695994 0.545998
0.787991 0.738003 0.587991
0.560006 0.760006 0.560006
0.652003 0.801999 0.601999
0.743999 0.843992 0.643992
0.835996 0.886 0.686
0.927993 0.927993 0.727993
0.0180056 0.0180056 0.0679942
0.110002 0.0599985 0.110002
0.201999 0.101991 0.151995
0.293996 0.143999 0.194003
0.385992 0.185992 0.235996
0.157992 0.207996 0.207996
0.249989 0.249989 0.249989
0.341985 0.291997 0.291997
0.433997 0.333989 0.333989
0.525994 0.375982 0.375998
0.297993 0.398001 0.347997
0.38999 0.439994 0.38999
0.481987 0.481987 0.431998
0.573999 0.523995 0.473991
0.665995 0.565988 0.515999
0.437995 0.587991 0.487999
0.529992 0.629999 0.529992
0.621988 0.671992 0.572
0.714 0.714 0.613993
0.805997 0.755993 0.656001
0.577996 0.777996 0.628
0.669993 0.820005 0.669993
0.76199 0.861997 0.712001
0.854002 0.904005 0.753994
0.945998 0.945998 0.796002
0.035996 0.035996 0.136004
0.127993 0.0780041 0.177996
0.219989 0.119997 0.219989
0.312001 0.162005 0.261997
0.403998 0.203998 0.304006
0.175998 0.225986 0.27599
0.267994 0.267994 0.317983
0.359991 0.309987 0.359991
0.451987 0.351995 0.401984
0.543999 0.393988 0.443992
0.315999 0.415991 0.415991
0.407996 0.458 0.457984
0.499992 0.499992 0.499992
0.591989 0.541985 0.542
0.684001 0.583993 0.583993
0.456001 0.605997 0.555993
0.547997 0.64799 0.598001
0.639994 0.689998 0.639994
0.731991 0.731991 0.682002
0.824002 0.773999 0.723995
0.596002 0.796002 0.695994
0.687999 0.837995 0.738003
0.779995 0.880003 0.779995
0.871992 0.921996 0.822003
0.964004 0.964004 0.863996
0.0540017 0.0540017 0.203998
0.145998 0.0959945 0.245991
0.237995 0.138003 0.287999
0.329992 0.179995 0.329992
0.422004 0.222004 0.372
0.193988 0.243992 0.343999
0.285985 0.285985 0.385992
0.377997 0.327993 0.427985
0.469993 0.369985 0.469993
0.56199 0.411994 0.511986
0.333989 0.433997 0.484001
0.425986 0.47599 0.525994
0.517998 0.517998 0.567987
0.609995 0.559991 0.609995
0.701991 0.601999 0.651987
0.473991 0.624002 0.624002
0.565988 0.665995 0.665995
0.658 0.707988 0.707988
0.749996 0.749996 0.749996
0.841993 0.791989 0.792004
0.613993 0.814008 0.764004
0.705989 0.856001 0.805997
0.798001 0.897993 0.848005
0.889998 0.940002 0.889998
0.981994 0.981994 0.932006
0.0720073 0.0720073 0.272007
0.163989 0.114 0.314
0.256001 0.155993 0.355993
0.347997 0.198001 0.398001
0.439994 0.239994 0.439994
0.211994 0.261997 0.411994
0.30399 0.30399 0.453986
0.395987 0.345983 0.495995
0.487999 0.387991 0.537987
0.579995 0.429984 0.579995
0.351995 0.451987 0.551995
0.443992 0.493996 0.593988
0.535988 0.535988 0.635996
0.628 0.577996 0.677989
0.719997 0.619989 0.719997
0.491997 0.641993 0.691997
0.583993 0.684001 0.733989
0.67599 0.725994 0.775998
0.768002 0.768002 0.81799
0.859998 0.809995 0.859998
0.631998 0.831998 0.831998
0.723995 0.874006 0.873991
0.815991 0.915999 0.915999
0.908003 0.957992 0.957992
1 1 1
